; file trimmed by trimify2x.pl
; Created by Sandify
; 
;   https://jeffeb3.github.io/sandify/
; 
;   Sandify Version: 0.1.3
; 
;   Machine Type: Rectangular
;     MinX: 5 MaxX: 710 MinY: 5 MaxY: 1600
;   Content Type: Shapes
;     Starting Size: 772
;     Offset: X: 211 Y: 108
;     Selected Shape: Circle
;       Circle Lobes: 1.05
;     Number of Loops: 234
;     Spin: true
;       Spin Value: 4
;       Spin Switchbacks: 4
;     Grow: true
;       Grow Value: -3
;     Track: true
;       Track Count: 2
;       Track Size: 48.8
;       Track Grow: false
;   Path Reversed: false
; 
; filename: '110219_1.gcode'

; BEGIN PRE
G28 Y
G28 X
G01 F30000; END PRE
G01 X710.000 Y910.500
G01 X710.000 Y1600.000
G01 X375.376 Y1600.000
G01 X367.949 Y1597.535
G01 X331.837 Y1583.565
G01 X296.294 Y1567.808
G01 X261.403 Y1550.303
G01 X227.247 Y1531.091
G01 X193.910 Y1510.220
G01 X161.472 Y1487.742
G01 X130.013 Y1463.712
G01 X99.610 Y1438.189
G01 X70.341 Y1411.239
G01 X42.280 Y1382.930
G01 X15.497 Y1353.335
G01 X5.000 Y1340.620
G01 X5.000 Y336.266
G01 X29.150 Y315.938
G01 X56.276 Y295.830
G01 X84.592 Y277.434
G01 X114.026 Y260.795
G01 X144.500 Y245.953
G01 X175.937 Y232.941
G01 X208.259 Y221.790
G01 X241.384 Y212.523
G01 X275.232 Y205.161
G01 X309.721 Y199.717
G01 X344.767 Y196.202
G01 X380.288 Y194.621
G01 X416.200 Y194.975
G01 X452.418 Y197.258
G01 X488.858 Y201.463
G01 X525.436 Y207.577
G01 X562.067 Y215.583
G01 X598.666 Y225.460
G01 X635.149 Y237.181
G01 X671.432 Y250.718
G01 X707.431 Y266.036
G01 X710.000 Y267.267
G01 X710.000 Y1600.000
G01 X381.191 Y1600.000
G01 X354.830 Y1590.690
G01 X320.197 Y1576.510
G01 X286.148 Y1560.593
G01 X252.765 Y1542.976
G01 X220.128 Y1523.702
G01 X188.317 Y1502.818
G01 X157.408 Y1480.373
G01 X127.480 Y1456.423
G01 X98.606 Y1431.028
G01 X70.859 Y1404.252
G01 X44.312 Y1376.162
G01 X19.031 Y1346.832
G01 X5.000 Y1328.965
G01 X5.000 Y375.327
G01 X27.509 Y354.272
G01 X52.770 Y333.387
G01 X79.203 Y314.140
G01 X106.737 Y296.577
G01 X135.301 Y280.742
G01 X164.821 Y266.671
G01 X195.224 Y254.397
G01 X226.433 Y243.949
G01 X258.371 Y235.348
G01 X290.962 Y228.614
G01 X324.126 Y223.761
G01 X357.785 Y220.797
G01 X391.859 Y219.727
G01 X426.268 Y220.552
G01 X460.933 Y223.268
G01 X495.773 Y227.866
G01 X530.707 Y234.335
G01 X565.656 Y242.657
G01 X600.538 Y252.811
G01 X635.273 Y264.774
G01 X669.782 Y278.516
G01 X703.983 Y294.004
G01 X710.000 Y297.064
G01 X710.000 Y1600.000
G01 X387.977 Y1600.000
G01 X374.737 Y1595.788
G01 X341.036 Y1583.179
G01 X307.857 Y1568.850
G01 X275.279 Y1552.835
G01 X243.380 Y1535.171
G01 X212.237 Y1515.898
G01 X181.927 Y1495.065
G01 X152.524 Y1472.719
G01 X124.103 Y1448.917
G01 X96.735 Y1423.717
G01 X70.489 Y1397.183
G01 X45.434 Y1369.383
G01 X21.634 Y1340.387
G01 X5.000 Y1318.105
G01 X5.000 Y416.465
G01 X26.991 Y393.708
G01 X50.517 Y372.121
G01 X75.191 Y352.092
G01 X100.948 Y333.669
G01 X127.721 Y316.899
G01 X155.440 Y301.820
G01 X184.034 Y288.470
G01 X213.432 Y276.878
G01 X243.561 Y267.071
G01 X274.348 Y259.072
G01 X305.719 Y252.898
G01 X337.598 Y248.561
G01 X369.911 Y246.072
G01 X402.581 Y245.434
G01 X435.533 Y246.648
G01 X468.691 Y249.711
G01 X501.977 Y254.614
G01 X535.315 Y261.346
G01 X568.629 Y269.891
G01 X601.841 Y280.229
G01 X634.875 Y292.336
G01 X667.655 Y306.185
G01 X700.103 Y321.742
G01 X710.000 Y327.065
G01 X710.000 Y1600.000
G01 X396.294 Y1600.000
G01 X391.696 Y1598.704
G01 X358.941 Y1587.646
G01 X326.650 Y1574.892
G01 X294.898 Y1560.472
G01 X263.763 Y1544.417
G01 X233.320 Y1526.763
G01 X203.644 Y1507.553
G01 X174.808 Y1486.832
G01 X146.884 Y1464.648
G01 X119.944 Y1441.058
G01 X94.055 Y1416.118
G01 X69.284 Y1389.892
G01 X45.696 Y1362.447
G01 X23.352 Y1333.854
G01 X5.000 Y1307.981
G01 X5.000 Y459.590
G01 X6.490 Y457.682
G01 X27.222 Y434.068
G01 X49.138 Y411.872
G01 X72.179 Y391.149
G01 X96.281 Y371.951
G01 X121.382 Y354.324
G01 X147.414 Y338.311
G01 X174.313 Y323.950
G01 X202.009 Y311.276
G01 X230.434 Y300.317
G01 X259.518 Y291.100
G01 X289.191 Y283.646
G01 X319.383 Y277.970
G01 X350.020 Y274.087
G01 X381.032 Y272.005
G01 X412.346 Y271.729
G01 X443.890 Y273.259
G01 X475.591 Y276.593
G01 X507.375 Y281.722
G01 X539.169 Y288.637
G01 X570.901 Y297.322
G01 X602.496 Y307.757
G01 X633.881 Y319.921
G01 X664.983 Y333.786
G01 X695.729 Y349.322
G01 X710.000 Y357.404
G01 X710.000 Y1600.000
G01 X408.631 Y1600.000
G01 X405.866 Y1599.324
G01 X374.065 Y1589.783
G01 X342.672 Y1578.578
G01 X311.762 Y1565.732
G01 X281.410 Y1551.272
G01 X251.689 Y1535.231
G01 X222.673 Y1517.644
G01 X194.434 Y1498.552
G01 X167.043 Y1478.000
G01 X140.568 Y1456.038
G01 X115.078 Y1432.720
G01 X90.638 Y1408.102
G01 X67.312 Y1382.248
G01 X45.161 Y1355.223
G01 X24.242 Y1327.099
G01 X5.000 Y1298.526
G01 X5.000 Y504.168
G01 X8.592 Y499.138
G01 X27.864 Y475.114
G01 X48.290 Y452.418
G01 X69.816 Y431.107
G01 X92.380 Y411.233
G01 X115.924 Y392.846
G01 X140.384 Y375.991
G01 X165.698 Y360.707
G01 X191.801 Y347.031
G01 X218.627 Y334.996
G01 X246.112 Y324.631
G01 X274.187 Y315.959
G01 X302.785 Y309.001
G01 X331.839 Y303.773
G01 X361.280 Y300.289
G01 X391.039 Y298.556
G01 X421.046 Y298.581
G01 X451.234 Y300.363
G01 X481.530 Y303.901
G01 X511.867 Y309.189
G01 X542.173 Y316.214
G01 X572.379 Y324.965
G01 X602.413 Y335.422
G01 X632.207 Y347.564
G01 X661.689 Y361.365
G01 X690.789 Y376.795
G01 X710.000 Y388.212
G01 X710.000 Y1592.695
G01 X698.927 Y1595.757
G01 X679.722 Y1600.000
G01 X429.159 Y1600.000
G01 X417.420 Y1597.576
G01 X386.576 Y1589.507
G01 X356.088 Y1579.810
G01 X326.030 Y1568.504
G01 X296.473 Y1555.612
G01 X267.491 Y1541.161
G01 X239.155 Y1525.183
G01 X211.536 Y1507.713
G01 X184.703 Y1488.793
G01 X158.724 Y1468.465
G01 X133.667 Y1446.780
G01 X109.595 Y1423.790
G01 X86.572 Y1399.553
G01 X64.657 Y1374.131
G01 X43.909 Y1347.589
G01 X24.381 Y1319.996
G01 X6.127 Y1291.427
G01 X5.000 Y1289.466
G01 X5.000 Y549.543
G01 X10.701 Y540.866
G01 X28.622 Y516.556
G01 X47.670 Y493.482
G01 X67.790 Y471.702
G01 X88.927 Y451.270
G01 X111.022 Y432.236
G01 X134.018 Y414.646
G01 X157.853 Y398.543
G01 X182.468 Y383.966
G01 X207.799 Y370.949
G01 X233.783 Y359.524
G01 X260.359 Y349.718
G01 X287.460 Y341.554
G01 X315.022 Y335.052
G01 X342.981 Y330.229
G01 X371.271 Y327.098
G01 X399.824 Y325.666
G01 X428.577 Y325.939
G01 X457.460 Y327.920
G01 X486.409 Y331.606
G01 X515.354 Y336.992
G01 X544.230 Y344.067
G01 X572.969 Y352.820
G01 X601.503 Y363.232
G01 X629.764 Y375.283
G01 X657.685 Y388.949
G01 X685.199 Y404.200
G01 X710.000 Y419.612
G01 X710.000 Y1577.499
G01 X697.540 Y1581.440
G01 X668.095 Y1589.096
G01 X638.321 Y1595.200
G01 X608.286 Y1599.735
G01 X605.572 Y1600.000
G01 X469.873 Y1600.000
G01 X456.657 Y1598.491
G01 X426.537 Y1593.431
G01 X396.652 Y1586.775
G01 X367.073 Y1578.532
G01 X337.873 Y1568.719
G01 X309.122 Y1557.354
G01 X280.891 Y1544.459
G01 X253.250 Y1530.061
G01 X226.269 Y1514.192
G01 X200.015 Y1496.887
G01 X174.556 Y1478.187
G01 X149.957 Y1458.134
G01 X126.283 Y1436.778
G01 X103.595 Y1414.171
G01 X81.952 Y1390.370
G01 X61.412 Y1365.436
G01 X42.030 Y1339.435
G01 X23.856 Y1312.434
G01 X6.938 Y1284.506
G01 X5.000 Y1280.934
G01 X5.000 Y595.012
G01 X12.585 Y582.530
G01 X29.256 Y558.067
G01 X47.024 Y534.747
G01 X65.839 Y512.627
G01 X85.647 Y491.764
G01 X106.394 Y472.208
G01 X128.024 Y454.007
G01 X150.480 Y437.204
G01 X173.703 Y421.841
G01 X197.635 Y407.953
G01 X222.216 Y395.575
G01 X247.385 Y384.736
G01 X273.081 Y375.462
G01 X299.243 Y367.777
G01 X325.808 Y361.700
G01 X352.713 Y357.246
G01 X379.896 Y354.429
G01 X407.292 Y353.258
G01 X434.839 Y353.739
G01 X462.473 Y355.873
G01 X490.128 Y359.659
G01 X517.740 Y365.093
G01 X545.244 Y372.166
G01 X572.575 Y380.866
G01 X599.669 Y391.176
G01 X626.459 Y403.077
G01 X652.882 Y416.545
G01 X678.873 Y431.551
G01 X704.366 Y448.065
G01 X710.000 Y452.129
G01 X710.000 Y1559.834
G01 X693.953 Y1565.545
G01 X665.800 Y1573.961
G01 X637.291 Y1580.901
G01 X608.490 Y1586.347
G01 X579.467 Y1590.280
G01 X550.289 Y1592.687
G01 X521.023 Y1593.558
G01 X491.739 Y1592.885
G01 X462.506 Y1590.664
G01 X433.392 Y1586.895
G01 X404.469 Y1581.581
G01 X375.804 Y1574.729
G01 X347.469 Y1566.350
G01 X319.532 Y1556.457
G01 X292.062 Y1545.071
G01 X265.129 Y1532.212
G01 X238.801 Y1517.909
G01 X213.143 Y1502.191
G01 X188.224 Y1485.095
G01 X164.106 Y1466.659
G01 X140.853 Y1446.928
G01 X118.527 Y1425.950
G01 X97.186 Y1403.777
G01 X76.887 Y1380.464
G01 X57.683 Y1356.073
G01 X39.627 Y1330.667
G01 X22.764 Y1304.314
G01 X7.141 Y1277.085
G01 X5.000 Y1272.901
G01 X5.000 Y639.826
G01 X14.071 Y623.771
G01 X29.578 Y599.292
G01 X46.154 Y575.863
G01 X63.751 Y553.542
G01 X82.320 Y532.385
G01 X101.807 Y512.442
G01 X122.160 Y493.762
G01 X143.325 Y476.390
G01 X165.246 Y460.368
G01 X187.867 Y445.734
G01 X211.131 Y432.523
G01 X234.981 Y420.768
G01 X259.358 Y410.497
G01 X284.203 Y401.736
G01 X309.456 Y394.506
G01 X335.059 Y388.828
G01 X360.950 Y384.717
G01 X387.069 Y382.186
G01 X413.355 Y381.243
G01 X439.746 Y381.896
G01 X466.181 Y384.147
G01 X492.596 Y387.996
G01 X518.931 Y393.437
G01 X545.121 Y400.464
G01 X571.105 Y409.065
G01 X596.820 Y419.225
G01 X622.202 Y430.925
G01 X647.189 Y444.142
G01 X671.719 Y458.849
G01 X695.730 Y475.015
G01 X710.000 Y485.727
G01 X710.000 Y1539.593
G01 X688.309 Y1548.166
G01 X661.438 Y1557.237
G01 X634.184 Y1564.910
G01 X606.612 Y1571.164
G01 X578.786 Y1575.979
G01 X550.772 Y1579.339
G01 X522.635 Y1581.230
G01 X494.443 Y1581.643
G01 X466.261 Y1580.571
G01 X438.157 Y1578.010
G01 X410.199 Y1573.959
G01 X382.454 Y1568.423
G01 X354.991 Y1561.407
G01 X327.877 Y1552.923
G01 X301.180 Y1542.985
G01 X274.968 Y1531.611
G01 X249.306 Y1518.825
G01 X224.261 Y1504.653
G01 X199.899 Y1489.126
G01 X176.282 Y1472.279
G01 X153.473 Y1454.151
G01 X131.531 Y1434.785
G01 X110.517 Y1414.230
G01 X90.486 Y1392.537
G01 X71.490 Y1369.762
G01 X53.582 Y1345.964
G01 X36.808 Y1321.205
G01 X21.214 Y1295.554
G01 X6.839 Y1269.078
G01 X5.000 Y1265.261
G01 X5.000 Y683.250
G01 X15.046 Y664.217
G01 X29.461 Y639.862
G01 X44.919 Y616.466
G01 X61.374 Y594.084
G01 X78.779 Y572.773
G01 X97.083 Y552.584
G01 X116.237 Y533.565
G01 X136.188 Y515.763
G01 X156.884 Y499.219
G01 X178.272 Y483.974
G01 X200.297 Y470.063
G01 X222.905 Y457.521
G01 X246.039 Y446.379
G01 X269.643 Y436.663
G01 X293.661 Y428.400
G01 X318.036 Y421.609
G01 X342.709 Y416.312
G01 X367.623 Y412.522
G01 X392.719 Y410.254
G01 X417.937 Y409.516
G01 X443.219 Y410.315
G01 X468.504 Y412.655
G01 X493.732 Y416.535
G01 X518.844 Y421.952
G01 X543.777 Y428.899
G01 X568.471 Y437.364
G01 X592.866 Y447.334
G01 X616.901 Y458.791
G01 X640.515 Y471.712
G01 X663.648 Y486.071
G01 X686.241 Y501.839
G01 X708.235 Y518.980
G01 X710.000 Y520.509
G01 X710.000 Y1516.449
G01 X705.859 Y1518.499
G01 X680.730 Y1529.411
G01 X655.135 Y1539.031
G01 X629.133 Y1547.331
G01 X602.786 Y1554.288
G01 X576.157 Y1559.881
G01 X549.307 Y1564.092
G01 X522.301 Y1566.905
G01 X495.202 Y1568.307
G01 X468.076 Y1568.290
G01 X440.987 Y1566.845
G01 X414.002 Y1563.971
G01 X387.186 Y1559.666
G01 X360.605 Y1553.935
G01 X334.325 Y1546.784
G01 X308.413 Y1538.225
G01 X282.935 Y1528.272
G01 X257.956 Y1516.944
G01 X233.541 Y1504.264
G01 X209.754 Y1490.258
G01 X186.657 Y1474.957
G01 X164.312 Y1458.397
G01 X142.779 Y1440.615
G01 X122.115 Y1421.656
G01 X102.376 Y1401.567
G01 X83.615 Y1380.399
G01 X65.883 Y1358.206
G01 X49.227 Y1335.047
G01 X33.692 Y1310.985
G01 X19.318 Y1286.084
G01 X6.143 Y1260.412
G01 X5.000 Y1257.887
G01 X5.000 Y724.612
G01 X15.451 Y703.500
G01 X28.836 Y679.408
G01 X43.239 Y656.183
G01 X58.614 Y633.882
G01 X74.918 Y612.561
G01 X92.103 Y592.268
G01 X110.122 Y573.055
G01 X128.925 Y554.965
G01 X148.462 Y538.042
G01 X168.682 Y522.327
G01 X189.534 Y507.857
G01 X210.966 Y494.667
G01 X232.924 Y482.789
G01 X255.354 Y472.252
G01 X278.203 Y463.084
G01 X301.415 Y455.308
G01 X324.936 Y448.945
G01 X348.709 Y444.015
G01 X372.678 Y440.533
G01 X396.787 Y438.512
G01 X420.978 Y437.961
G01 X445.193 Y438.887
G01 X469.375 Y441.295
G01 X493.464 Y445.184
G01 X517.403 Y450.551
G01 X541.132 Y457.390
G01 X564.593 Y465.691
G01 X587.726 Y475.440
G01 X610.473 Y486.619
G01 X632.774 Y499.208
G01 X654.573 Y513.180
G01 X675.811 Y528.506
G01 X696.433 Y545.154
G01 X710.000 Y557.347
G01 X710.000 Y1490.179
G01 X695.158 Y1498.118
G01 X671.323 Y1509.394
G01 X647.002 Y1519.456
G01 X622.252 Y1528.277
G01 X597.131 Y1535.832
G01 X571.701 Y1542.098
G01 X546.020 Y1547.056
G01 X520.150 Y1550.688
G01 X494.152 Y1552.979
G01 X468.090 Y1553.918
G01 X442.026 Y1553.494
G01 X416.024 Y1551.702
G01 X390.148 Y1548.540
G01 X364.463 Y1544.007
G01 X339.032 Y1538.108
G01 X313.921 Y1530.849
G01 X289.194 Y1522.243
G01 X264.916 Y1512.304
G01 X241.149 Y1501.052
G01 X217.957 Y1488.508
G01 X195.401 Y1474.700
G01 X173.542 Y1459.660
G01 X152.439 Y1443.421
G01 X132.150 Y1426.023
G01 X112.728 Y1407.509
G01 X94.228 Y1387.925
G01 X76.699 Y1367.322
G01 X60.189 Y1345.754
G01 X44.742 Y1323.279
G01 X30.398 Y1299.957
G01 X17.197 Y1275.851
G01 X5.170 Y1251.029
G01 X5.000 Y1250.628
G01 X5.000 Y763.350
G01 X15.286 Y741.263
G01 X27.691 Y717.566
G01 X41.087 Y694.650
G01 X55.433 Y672.569
G01 X70.688 Y651.377
G01 X86.805 Y631.125
G01 X103.741 Y611.860
G01 X121.449 Y593.628
G01 X139.880 Y576.471
G01 X158.987 Y560.432
G01 X178.720 Y545.546
G01 X199.031 Y531.852
G01 X219.867 Y519.380
G01 X241.178 Y508.163
G01 X262.912 Y498.228
G01 X285.017 Y489.602
G01 X307.440 Y482.308
G01 X330.127 Y476.367
G01 X353.024 Y471.796
G01 X376.078 Y468.612
G01 X399.231 Y466.828
G01 X422.430 Y466.452
G01 X445.618 Y467.493
G01 X468.738 Y469.953
G01 X491.733 Y473.835
G01 X514.547 Y479.134
G01 X537.122 Y485.846
G01 X559.401 Y493.960
G01 X581.326 Y503.463
G01 X602.840 Y514.339
G01 X623.888 Y526.565
G01 X644.412 Y540.118
G01 X664.358 Y554.969
G01 X683.672 Y571.084
G01 X702.300 Y588.427
G01 X710.000 Y596.402
G01 X710.000 Y1460.651
G01 X704.705 Y1464.048
G01 X682.721 Y1476.690
G01 X660.179 Y1488.226
G01 X637.133 Y1498.627
G01 X613.637 Y1507.865
G01 X589.748 Y1515.914
G01 X565.523 Y1522.749
G01 X541.018 Y1528.350
G01 X516.294 Y1532.698
G01 X491.408 Y1535.776
G01 X466.423 Y1537.569
G01 X441.397 Y1538.067
G01 X416.394 Y1537.261
G01 X391.474 Y1535.146
G01 X366.701 Y1531.720
G01 X342.138 Y1526.983
G01 X317.847 Y1520.941
G01 X293.892 Y1513.600
G01 X270.335 Y1504.973
G01 X247.239 Y1495.075
G01 X224.665 Y1483.926
G01 X202.674 Y1471.549
G01 X181.325 Y1457.970
G01 X160.678 Y1443.221
G01 X140.789 Y1427.337
G01 X121.711 Y1410.357
G01 X103.498 Y1392.323
G01 X86.200 Y1373.281
G01 X69.863 Y1353.282
G01 X54.533 Y1332.379
G01 X40.249 Y1310.627
G01 X27.051 Y1288.086
G01 X14.971 Y1264.819
G01 X5.000 Y1242.991
G01 X5.000 Y799.037
G01 X14.601 Y777.171
G01 X26.062 Y753.996
G01 X38.491 Y731.518
G01 X51.848 Y709.790
G01 X66.093 Y688.865
G01 X81.184 Y668.791
G01 X97.077 Y649.615
G01 X113.730 Y631.383
G01 X131.097 Y614.138
G01 X149.133 Y597.919
G01 X167.790 Y582.764
G01 X187.021 Y568.711
G01 X206.778 Y555.792
G01 X227.013 Y544.039
G01 X247.676 Y533.482
G01 X268.717 Y524.149
G01 X290.086 Y516.063
G01 X311.731 Y509.248
G01 X333.600 Y503.724
G01 X355.642 Y499.509
G01 X377.802 Y496.619
G01 X400.028 Y495.065
G01 X422.265 Y494.858
G01 X444.458 Y496.005
G01 X466.553 Y498.510
G01 X488.494 Y502.373
G01 X510.225 Y507.592
G01 X531.691 Y514.163
G01 X552.836 Y522.074
G01 X573.603 Y531.313
G01 X593.939 Y541.864
G01 X613.787 Y553.705
G01 X633.094 Y566.814
G01 X651.808 Y581.160
G01 X669.875 Y596.713
G01 X687.245 Y613.435
G01 X703.870 Y631.287
G01 X710.000 Y638.619
G01 X710.000 Y1418.349
G01 X704.769 Y1425.382
G01 X689.283 Y1444.339
G01 X673.190 Y1462.266
G01 X656.532 Y1479.120
G01 X710.000 Y1431.140
G01 X710.000 Y1427.381
G01 X709.358 Y1427.868
G01 X689.302 Y1441.592
G01 X668.625 Y1454.319
G01 X647.376 Y1466.019
G01 X625.608 Y1476.659
G01 X603.373 Y1486.213
G01 X580.722 Y1494.653
G01 X557.711 Y1501.955
G01 X534.395 Y1508.097
G01 X510.828 Y1513.058
G01 X487.070 Y1516.820
G01 X463.176 Y1519.367
G01 X439.206 Y1520.686
G01 X415.220 Y1520.768
G01 X391.277 Y1519.603
G01 X367.439 Y1517.188
G01 X343.765 Y1513.522
G01 X320.318 Y1508.605
G01 X297.159 Y1502.443
G01 X274.349 Y1495.044
G01 X251.949 Y1486.422
G01 X230.020 Y1476.592
G01 X208.621 Y1465.573
G01 X187.812 Y1453.390
G01 X167.649 Y1440.069
G01 X148.188 Y1425.643
G01 X129.484 Y1410.145
G01 X111.588 Y1393.615
G01 X94.551 Y1376.095
G01 X78.418 Y1357.631
G01 X63.234 Y1338.271
G01 X49.041 Y1318.068
G01 X35.875 Y1297.077
G01 X23.772 Y1275.356
G01 X12.762 Y1252.964
G01 X5.000 Y1234.912
G01 X5.000 Y831.406
G01 X13.487 Y810.922
G01 X24.036 Y788.385
G01 X35.527 Y766.466
G01 X47.924 Y745.216
G01 X61.189 Y724.685
G01 X75.283 Y704.922
G01 X90.165 Y685.972
G01 X105.793 Y667.878
G01 X122.126 Y650.683
G01 X139.121 Y634.427
G01 X156.732 Y619.147
G01 X174.915 Y604.880
G01 X193.625 Y591.659
G01 X212.815 Y579.517
G01 X232.439 Y568.484
G01 X252.448 Y558.588
G01 X272.795 Y549.855
G01 X293.429 Y542.310
G01 X314.303 Y535.974
G01 X335.365 Y530.867
G01 X356.565 Y527.006
G01 X377.850 Y524.408
G01 X399.169 Y523.083
G01 X420.469 Y523.041
G01 X441.696 Y524.291
G01 X462.797 Y526.834
G01 X483.718 Y530.674
G01 X504.403 Y535.806
G01 X524.800 Y542.225
G01 X544.853 Y549.922
G01 X564.509 Y558.885
G01 X583.713 Y569.096
G01 X602.413 Y580.535
G01 X620.557 Y593.179
G01 X638.094 Y606.999
G01 X654.974 Y621.964
G01 X671.148 Y638.038
G01 X686.572 Y655.182
G01 X701.200 Y673.353
G01 X710.000 Y685.574
G01 X710.000 Y1344.587
G01 X706.187 Y1350.991
G01 X692.718 Y1371.620
G01 X678.574 Y1391.407
G01 X663.797 Y1410.307
G01 X648.426 Y1428.276
G01 X632.503 Y1445.274
G01 X616.069 Y1461.261
G01 X599.167 Y1476.201
G01 X691.051 Y1404.734
G01 X672.308 Y1418.379
G01 X652.936 Y1431.103
G01 X632.984 Y1442.873
G01 X612.498 Y1453.659
G01 X591.529 Y1463.432
G01 X570.126 Y1472.167
G01 X548.341 Y1479.837
G01 X526.225 Y1486.419
G01 X503.833 Y1491.893
G01 X481.218 Y1496.239
G01 X458.436 Y1499.439
G01 X435.543 Y1501.480
G01 X412.596 Y1502.350
G01 X389.654 Y1502.038
G01 X366.774 Y1500.538
G01 X344.017 Y1497.846
G01 X321.441 Y1493.962
G01 X299.106 Y1488.889
G01 X277.073 Y1482.632
G01 X255.400 Y1475.200
G01 X234.147 Y1466.607
G01 X213.373 Y1456.870
G01 X193.134 Y1446.009
G01 X173.488 Y1434.047
G01 X154.490 Y1421.013
G01 X136.192 Y1406.938
G01 X118.647 Y1391.857
G01 X101.903 Y1375.808
G01 X86.008 Y1358.834
G01 X71.004 Y1340.979
G01 X56.934 Y1322.292
G01 X43.835 Y1302.824
G01 X31.742 Y1282.628
G01 X20.686 Y1261.760
G01 X10.694 Y1240.279
G01 X5.000 Y1226.190
G01 X5.000 Y860.352
G01 X12.074 Y842.249
G01 X21.733 Y820.455
G01 X32.309 Y799.205
G01 X43.768 Y778.548
G01 X56.075 Y758.532
G01 X69.193 Y739.203
G01 X83.084 Y720.604
G01 X97.710 Y702.780
G01 X113.030 Y685.770
G01 X129.004 Y669.613
G01 X145.590 Y654.347
G01 X162.746 Y640.006
G01 X180.429 Y626.627
G01 X198.594 Y614.239
G01 X217.199 Y602.874
G01 X236.196 Y592.561
G01 X255.541 Y583.326
G01 X275.187 Y575.195
G01 X295.085 Y568.191
G01 X315.189 Y562.335
G01 X335.449 Y557.646
G01 X355.816 Y554.141
G01 X376.238 Y551.835
G01 X396.666 Y550.739
G01 X417.048 Y550.863
G01 X437.331 Y552.214
G01 X457.463 Y554.795
G01 X477.391 Y558.607
G01 X497.063 Y563.648
G01 X516.424 Y569.911
G01 X535.424 Y577.388
G01 X554.007 Y586.065
G01 X572.124 Y595.926
G01 X589.723 Y606.950
G01 X606.753 Y619.115
G01 X623.166 Y632.392
G01 X638.914 Y646.750
G01 X653.951 Y662.154
G01 X668.234 Y678.565
G01 X681.722 Y695.942
G01 X694.376 Y714.238
G01 X706.158 Y733.407
G01 X710.000 Y740.466
G01 X710.000 Y1260.277
G01 X702.983 Y1274.927
G01 X691.603 Y1296.478
G01 X679.491 Y1317.376
G01 X666.683 Y1337.573
G01 X653.217 Y1357.021
G01 X639.131 Y1375.679
G01 X624.463 Y1393.502
G01 X609.252 Y1410.452
G01 X593.539 Y1426.489
G01 X577.364 Y1441.578
G01 X560.767 Y1455.684
G01 X543.789 Y1468.773
G01 X635.720 Y1407.128
G01 X617.064 Y1418.882
G01 X597.866 Y1429.724
G01 X578.170 Y1439.627
G01 X558.024 Y1448.563
G01 X537.476 Y1456.507
G01 X516.576 Y1463.435
G01 X495.374 Y1469.325
G01 X473.922 Y1474.157
G01 X452.272 Y1477.914
G01 X430.479 Y1480.579
G01 X408.597 Y1482.138
G01 X386.682 Y1482.582
G01 X364.790 Y1481.900
G01 X342.979 Y1480.089
G01 X321.305 Y1477.144
G01 X299.828 Y1473.067
G01 X278.605 Y1467.861
G01 X257.693 Y1461.533
G01 X237.152 Y1454.093
G01 X217.038 Y1445.555
G01 X197.407 Y1435.937
G01 X178.315 Y1425.259
G01 X159.816 Y1413.547
G01 X141.963 Y1400.827
G01 X124.806 Y1387.132
G01 X108.394 Y1372.497
G01 X92.774 Y1356.960
G01 X77.989 Y1340.562
G01 X64.079 Y1323.348
G01 X51.084 Y1305.365
G01 X39.037 Y1286.662
G01 X27.969 Y1267.292
G01 X17.910 Y1247.309
G01 X8.883 Y1226.769
G01 X5.000 Y1216.525
G01 X5.000 Y885.932
G01 X10.519 Y870.928
G01 X19.306 Y849.971
G01 X28.984 Y829.488
G01 X39.522 Y809.527
G01 X50.887 Y790.133
G01 X63.044 Y771.351
G01 X75.959 Y753.222
G01 X89.595 Y735.788
G01 X103.914 Y719.087
G01 X118.880 Y703.158
G01 X134.453 Y688.037
G01 X150.592 Y673.759
G01 X167.259 Y660.357
G01 X184.411 Y647.862
G01 X202.006 Y636.307
G01 X220.002 Y625.718
G01 X238.356 Y616.125
G01 X257.022 Y607.551
G01 X275.955 Y600.023
G01 X295.110 Y593.561
G01 X314.441 Y588.186
G01 X333.898 Y583.917
G01 X353.434 Y580.769
G01 X373.001 Y578.758
G01 X392.547 Y577.893
G01 X412.023 Y578.184
G01 X431.378 Y579.638
G01 X450.560 Y582.257
G01 X469.519 Y586.042
G01 X488.201 Y590.990
G01 X506.557 Y597.095
G01 X524.533 Y604.346
G01 X542.080 Y612.732
G01 X559.148 Y622.236
G01 X575.686 Y632.837
G01 X591.647 Y644.511
G01 X606.984 Y657.232
G01 X621.652 Y670.968
G01 X635.608 Y685.685
G01 X648.810 Y701.345
G01 X661.220 Y717.907
G01 X672.802 Y735.326
G01 X683.523 Y753.557
G01 X693.352 Y772.548
G01 X702.262 Y792.248
G01 X710.000 Y812.014
G01 X710.000 Y1158.246
G01 X703.414 Y1177.883
G01 X695.007 Y1200.076
G01 X685.789 Y1221.849
G01 X675.790 Y1243.151
G01 X665.042 Y1263.933
G01 X653.580 Y1284.146
G01 X641.438 Y1303.746
G01 X628.651 Y1322.689
G01 X615.256 Y1340.931
G01 X601.289 Y1358.432
G01 X586.788 Y1375.154
G01 X571.790 Y1391.058
G01 X556.335 Y1406.109
G01 X540.459 Y1420.273
G01 X524.203 Y1433.516
G01 X507.607 Y1445.809
G01 X490.709 Y1457.122
G01 X581.769 Y1404.946
G01 X563.352 Y1414.893
G01 X544.471 Y1423.944
G01 X525.173 Y1432.072
G01 X505.502 Y1439.255
G01 X485.508 Y1445.470
G01 X465.238 Y1450.696
G01 X444.743 Y1454.914
G01 X424.074 Y1458.108
G01 X403.283 Y1460.263
G01 X382.424 Y1461.367
G01 X361.551 Y1461.410
G01 X340.718 Y1460.384
G01 X319.982 Y1458.286
G01 X299.397 Y1455.113
G01 X279.021 Y1450.867
G01 X258.910 Y1445.553
G01 X239.120 Y1439.180
G01 X219.706 Y1431.757
G01 X200.724 Y1423.300
G01 X182.228 Y1413.827
G01 X164.271 Y1403.360
G01 X146.904 Y1391.924
G01 X130.179 Y1379.547
G01 X114.142 Y1366.261
G01 X98.839 Y1352.101
G01 X84.314 Y1337.104
G01 X70.607 Y1321.312
G01 X57.756 Y1304.768
G01 X45.797 Y1287.518
G01 X34.759 Y1269.610
G01 X24.672 Y1251.096
G01 X15.561 Y1232.026
G01 X7.446 Y1212.454
G01 X5.000 Y1205.560
G01 X5.000 Y908.367
G01 X8.997 Y896.782
G01 X16.928 Y876.740
G01 X25.723 Y857.111
G01 X35.352 Y837.936
G01 X45.786 Y819.261
G01 X56.993 Y801.127
G01 X68.941 Y783.573
G01 X81.595 Y766.639
G01 X94.922 Y750.363
G01 X108.886 Y734.780
G01 X123.450 Y719.927
G01 X138.577 Y705.836
G01 X154.231 Y692.540
G01 X170.371 Y680.071
G01 X186.960 Y668.459
G01 X203.955 Y657.731
G01 X221.317 Y647.917
G01 X239.004 Y639.041
G01 X256.972 Y631.128
G01 X275.178 Y624.202
G01 X293.578 Y618.283
G01 X312.125 Y613.390
G01 X330.774 Y609.542
G01 X349.478 Y606.754
G01 X368.188 Y605.039
G01 X386.857 Y604.408
G01 X405.434 Y604.869
G01 X423.871 Y606.427
G01 X442.116 Y609.085
G01 X460.121 Y612.844
G01 X477.834 Y617.699
G01 X495.205 Y623.644
G01 X512.185 Y630.669
G01 X528.725 Y638.760
G01 X544.775 Y647.902
G01 X560.290 Y658.072
G01 X575.221 Y669.249
G01 X589.526 Y681.404
G01 X603.162 Y694.507
G01 X616.087 Y708.524
G01 X628.264 Y723.418
G01 X639.656 Y739.150
G01 X650.231 Y755.675
G01 X659.957 Y772.949
G01 X668.808 Y790.923
G01 X676.760 Y809.548
G01 X683.791 Y828.770
G01 X689.884 Y848.536
G01 X695.026 Y868.790
G01 X699.206 Y889.477
G01 X702.416 Y910.537
G01 X704.654 Y931.914
G01 X705.918 Y953.548
G01 X706.212 Y975.380
G01 X705.543 Y997.353
G01 X703.919 Y1019.408
G01 X701.353 Y1041.488
G01 X697.860 Y1063.535
G01 X693.457 Y1085.494
G01 X688.165 Y1107.309
G01 X682.006 Y1128.928
G01 X675.005 Y1150.298
G01 X667.186 Y1171.367
G01 X658.579 Y1192.088
G01 X649.211 Y1212.411
G01 X639.114 Y1232.290
G01 X628.320 Y1251.680
G01 X616.860 Y1270.539
G01 X604.768 Y1288.823
G01 X592.079 Y1306.494
G01 X578.826 Y1323.511
G01 X565.046 Y1339.838
G01 X550.774 Y1355.438
G01 X536.046 Y1370.276
G01 X520.900 Y1384.320
G01 X505.372 Y1397.537
G01 X489.500 Y1409.896
G01 X473.321 Y1421.369
G01 X456.875 Y1431.926
G01 X440.201 Y1441.542
G01 X529.524 Y1398.399
G01 X511.484 Y1406.630
G01 X493.056 Y1413.983
G01 X474.285 Y1420.435
G01 X455.216 Y1425.967
G01 X435.898 Y1430.557
G01 X416.378 Y1434.190
G01 X396.706 Y1436.849
G01 X376.932 Y1438.522
G01 X357.110 Y1439.197
G01 X337.290 Y1438.865
G01 X317.526 Y1437.522
G01 X297.873 Y1435.163
G01 X278.384 Y1431.788
G01 X259.114 Y1427.400
G01 X240.117 Y1422.005
G01 X221.447 Y1415.612
G01 X203.159 Y1408.233
G01 X185.305 Y1399.885
G01 X167.936 Y1390.585
G01 X151.103 Y1380.357
G01 X134.856 Y1369.225
G01 X119.241 Y1357.219
G01 X104.304 Y1344.371
G01 X90.086 Y1330.714
G01 X76.630 Y1316.286
G01 X63.971 Y1301.129
G01 X52.144 Y1285.283
G01 X41.182 Y1268.794
G01 X31.113 Y1251.709
G01 X21.960 Y1234.075
G01 X13.747 Y1215.943
G01 X6.491 Y1197.364
G01 X5.000 Y1192.863
G01 X5.000 Y928.049
G01 X7.693 Y919.678
G01 X14.784 Y900.619
G01 X22.709 Y881.914
G01 X31.443 Y863.605
G01 X40.957 Y845.731
G01 X51.222 Y828.333
G01 X62.209 Y811.447
G01 X73.887 Y795.113
G01 X86.223 Y779.364
G01 X99.186 Y764.235
G01 X112.742 Y749.761
G01 X126.857 Y735.973
G01 X141.495 Y722.903
G01 X156.620 Y710.582
G01 X172.196 Y699.038
G01 X188.185 Y688.300
G01 X204.549 Y678.396
G01 X221.248 Y669.350
G01 X238.242 Y661.188
G01 X255.490 Y653.933
G01 X272.948 Y647.607
G01 X290.575 Y642.230
G01 X308.327 Y637.820
G01 X326.157 Y634.394
G01 X344.020 Y631.966
G01 X361.869 Y630.549
G01 X379.658 Y630.153
G01 X397.337 Y630.785
G01 X414.859 Y632.449
G01 X432.175 Y635.149
G01 X449.236 Y638.882
G01 X465.992 Y643.644
G01 X482.397 Y649.429
G01 X498.400 Y656.226
G01 X513.956 Y664.021
G01 X529.017 Y672.796
G01 X543.538 Y682.532
G01 X557.476 Y693.205
G01 X570.788 Y704.787
G01 X583.434 Y717.249
G01 X595.376 Y730.557
G01 X606.579 Y744.674
G01 X617.008 Y759.563
G01 X626.635 Y775.181
G01 X635.432 Y791.485
G01 X643.373 Y808.427
G01 X650.439 Y825.962
G01 X656.611 Y844.037
G01 X661.874 Y862.604
G01 X666.218 Y881.608
G01 X669.635 Y900.997
G01 X672.120 Y920.718
G01 X673.672 Y940.716
G01 X674.293 Y960.936
G01 X673.988 Y981.324
G01 X672.765 Y1001.827
G01 X670.635 Y1022.392
G01 X667.612 Y1042.964
G01 X663.712 Y1063.493
G01 X658.952 Y1083.927
G01 X653.354 Y1104.217
G01 X646.940 Y1124.313
G01 X639.735 Y1144.170
G01 X631.763 Y1163.740
G01 X623.052 Y1182.979
G01 X613.631 Y1201.844
G01 X603.530 Y1220.292
G01 X592.777 Y1238.284
G01 X581.406 Y1255.778
G01 X569.447 Y1272.739
G01 X556.934 Y1289.128
G01 X543.899 Y1304.910
G01 X530.376 Y1320.051
G01 X516.400 Y1334.517
G01 X502.005 Y1348.277
G01 X487.225 Y1361.299
G01 X472.098 Y1373.552
G01 X456.657 Y1385.009
G01 X440.941 Y1395.642
G01 X424.986 Y1405.423
G01 X408.829 Y1414.328
G01 X392.510 Y1422.333
G01 X479.288 Y1387.710
G01 X461.753 Y1394.320
G01 X443.903 Y1400.073
G01 X425.781 Y1404.952
G01 X407.433 Y1408.938
G01 X388.906 Y1412.015
G01 X370.248 Y1414.169
G01 X351.507 Y1415.388
G01 X332.735 Y1415.662
G01 X313.981 Y1414.985
G01 X295.298 Y1413.351
G01 X276.738 Y1410.759
G01 X258.352 Y1407.210
G01 X240.194 Y1402.708
G01 X222.315 Y1397.260
G01 X204.769 Y1390.876
G01 X187.605 Y1383.570
G01 X170.874 Y1375.359
G01 X154.627 Y1366.261
G01 X138.909 Y1356.301
G01 X123.768 Y1345.503
G01 X109.248 Y1333.897
G01 X95.391 Y1321.515
G01 X82.237 Y1308.391
G01 X69.821 Y1294.561
G01 X58.180 Y1280.066
G01 X47.344 Y1264.945
G01 X37.342 Y1249.244
G01 X28.198 Y1233.006
G01 X19.935 Y1216.278
G01 X12.571 Y1199.107
G01 X6.122 Y1181.541
G01 X5.000 Y1177.903
G01 X5.000 Y945.562
G01 X6.795 Y939.531
G01 X13.064 Y921.509
G01 X20.135 Y903.788
G01 X27.985 Y886.407
G01 X36.589 Y869.405
G01 X45.922 Y852.819
G01 X55.954 Y836.683
G01 X66.659 Y821.033
G01 X78.008 Y805.902
G01 X89.970 Y791.323
G01 X102.516 Y777.327
G01 X115.613 Y763.947
G01 X129.229 Y751.211
G01 X143.331 Y739.149
G01 X157.885 Y727.790
G01 X172.857 Y717.161
G01 X188.210 Y707.288
G01 X203.907 Y698.198
G01 X219.912 Y689.913
G01 X236.184 Y682.459
G01 X252.685 Y675.857
G01 X269.373 Y670.127
G01 X286.206 Y665.288
G01 X303.142 Y661.358
G01 X320.138 Y658.353
G01 X337.147 Y656.285
G01 X354.126 Y655.166
G01 X371.027 Y655.005
G01 X387.804 Y655.808
G01 X404.409 Y657.579
G01 X420.797 Y660.320
G01 X436.918 Y664.027
G01 X452.726 Y668.697
G01 X468.174 Y674.321
G01 X483.216 Y680.888
G01 X497.805 Y688.384
G01 X511.899 Y696.791
G01 X525.453 Y706.088
G01 X538.427 Y716.252
G01 X550.780 Y727.256
G01 X562.476 Y739.070
G01 X573.478 Y751.661
G01 X583.754 Y764.994
G01 X593.273 Y779.032
G01 X602.009 Y793.734
G01 X609.936 Y809.058
G01 X617.033 Y824.960
G01 X623.282 Y841.394
G01 X628.669 Y858.314
G01 X633.180 Y875.671
G01 X636.808 Y893.416
G01 X639.547 Y911.500
G01 X641.395 Y929.873
G01 X642.353 Y948.485
G01 X642.425 Y967.285
G01 X641.617 Y986.224
G01 X639.939 Y1005.252
G01 X637.403 Y1024.322
G01 X634.024 Y1043.384
G01 X629.817 Y1062.393
G01 X624.803 Y1081.302
G01 X619.001 Y1100.066
G01 X612.433 Y1118.641
G01 X605.123 Y1136.986
G01 X597.097 Y1155.058
G01 X588.381 Y1172.818
G01 X579.002 Y1190.226
G01 X568.987 Y1207.245
G01 X558.367 Y1223.839
G01 X547.171 Y1239.971
G01 X535.430 Y1255.607
G01 X523.173 Y1270.714
G01 X510.432 Y1285.259
G01 X497.240 Y1299.211
G01 X483.629 Y1312.539
G01 X469.631 Y1325.213
G01 X455.280 Y1337.204
G01 X440.610 Y1348.485
G01 X425.655 Y1359.028
G01 X410.450 Y1368.807
G01 X395.031 Y1377.797
G01 X379.434 Y1385.974
G01 X363.695 Y1393.315
G01 X347.854 Y1399.800
G01 X431.345 Y1373.110
G01 X414.436 Y1378.198
G01 X397.281 Y1382.456
G01 X379.923 Y1385.869
G01 X362.407 Y1388.421
G01 X344.780 Y1390.101
G01 X327.089 Y1390.896
G01 X309.382 Y1390.800
G01 X291.708 Y1389.807
G01 X274.117 Y1387.913
G01 X256.660 Y1385.119
G01 X239.387 Y1381.426
G01 X222.347 Y1376.840
G01 X205.592 Y1371.369
G01 X189.170 Y1365.025
G01 X173.131 Y1357.822
G01 X157.522 Y1349.778
G01 X142.390 Y1340.914
G01 X127.779 Y1331.251
G01 X113.732 Y1320.818
G01 X100.292 Y1309.643
G01 X87.496 Y1297.757
G01 X75.382 Y1285.194
G01 X63.982 Y1271.991
G01 X53.328 Y1258.185
G01 X43.449 Y1243.817
G01 X34.369 Y1228.928
G01 X26.110 Y1213.561
G01 X18.691 Y1197.761
G01 X12.128 Y1181.571
G01 X6.434 Y1165.037
G01 X5.000 Y1160.024
G01 X5.000 Y961.745
G01 X6.484 Y956.300
G01 X11.952 Y939.354
G01 X18.188 Y922.664
G01 X25.171 Y906.265
G01 X32.879 Y890.193
G01 X41.288 Y874.481
G01 X50.374 Y859.162
G01 X60.112 Y844.270
G01 X70.475 Y829.835
G01 X81.437 Y815.889
G01 X92.970 Y802.460
G01 X105.044 Y789.579
G01 X117.631 Y777.274
G01 X130.701 Y765.573
G01 X144.221 Y754.503
G01 X158.161 Y744.090
G01 X172.487 Y734.361
G01 X187.165 Y725.340
G01 X202.159 Y717.052
G01 X217.435 Y709.518
G01 X232.954 Y702.762
G01 X248.678 Y696.804
G01 X264.568 Y691.663
G01 X280.584 Y687.358
G01 X296.683 Y683.903
G01 X312.823 Y681.314
G01 X328.962 Y679.602
G01 X345.054 Y678.779
G01 X361.055 Y678.851
G01 X376.920 Y679.824
G01 X392.602 Y681.700
G01 X408.057 Y684.479
G01 X423.238 Y688.160
G01 X438.099 Y692.734
G01 X452.597 Y698.195
G01 X466.686 Y704.530
G01 X480.323 Y711.723
G01 X493.466 Y719.758
G01 X506.075 Y728.612
G01 X518.110 Y738.263
G01 X529.534 Y748.684
G01 X540.313 Y759.845
G01 X550.414 Y771.714
G01 X559.806 Y784.257
G01 X568.463 Y797.438
G01 X576.360 Y811.217
G01 X583.476 Y825.556
G01 X589.791 Y840.412
G01 X595.290 Y855.741
G01 X599.961 Y871.501
G01 X603.795 Y887.645
G01 X606.785 Y904.129
G01 X608.929 Y920.907
G01 X610.225 Y937.931
G01 X610.678 Y955.157
G01 X610.291 Y972.539
G01 X609.074 Y990.032
G01 X607.036 Y1007.591
G01 X604.191 Y1025.171
G01 X600.553 Y1042.731
G01 X596.140 Y1060.227
G01 X590.969 Y1077.620
G01 X585.062 Y1094.868
G01 X578.439 Y1111.933
G01 X571.124 Y1128.776
G01 X563.140 Y1145.362
G01 X554.513 Y1161.654
G01 X545.269 Y1177.617
G01 X535.434 Y1193.218
G01 X525.035 Y1208.424
G01 X514.101 Y1223.203
G01 X502.660 Y1237.524
G01 X490.740 Y1251.357
G01 X478.372 Y1264.671
G01 X465.585 Y1277.439
G01 X452.410 Y1289.631
G01 X438.877 Y1301.220
G01 X425.019 Y1312.181
G01 X410.867 Y1322.485
G01 X396.455 Y1332.109
G01 X381.815 Y1341.027
G01 X366.981 Y1349.216
G01 X351.990 Y1356.654
G01 X336.876 Y1363.318
G01 X321.677 Y1369.189
G01 X306.428 Y1374.248
G01 X385.964 Y1354.841
G01 X369.796 Y1358.513
G01 X353.447 Y1361.385
G01 X336.960 Y1363.445
G01 X320.381 Y1364.682
G01 X303.755 Y1365.087
G01 X287.129 Y1364.653
G01 X270.549 Y1363.377
G01 X254.064 Y1361.255
G01 X237.721 Y1358.290
G01 X221.569 Y1354.486
G01 X205.656 Y1349.848
G01 X190.029 Y1344.387
G01 X174.735 Y1338.116
G01 X159.821 Y1331.049
G01 X145.331 Y1323.205
G01 X131.308 Y1314.606
G01 X117.795 Y1305.274
G01 X104.832 Y1295.237
G01 X92.456 Y1284.523
G01 X80.703 Y1273.164
G01 X69.606 Y1261.193
G01 X59.196 Y1248.644
G01 X49.500 Y1235.556
G01 X40.543 Y1221.966
G01 X32.348 Y1207.914
G01 X24.933 Y1193.441
G01 X18.315 Y1178.588
G01 X12.505 Y1163.397
G01 X7.516 Y1147.911
G01 X5.000 Y1138.399
G01 X5.000 Y977.813
G01 X6.928 Y969.981
G01 X11.621 Y954.142
G01 X17.046 Y938.518
G01 X23.182 Y923.142
G01 X30.012 Y908.045
G01 X37.513 Y893.258
G01 X45.664 Y878.814
G01 X54.443 Y864.741
G01 X63.827 Y851.069
G01 X73.790 Y837.825
G01 X84.309 Y825.040
G01 X95.358 Y812.738
G01 X106.909 Y800.948
G01 X118.937 Y789.697
G01 X131.411 Y779.009
G01 X144.305 Y768.910
G01 X157.586 Y759.425
G01 X171.224 Y750.578
G01 X185.187 Y742.392
G01 X199.441 Y734.890
G01 X213.952 Y728.093
G01 X228.684 Y722.023
G01 X243.601 Y716.698
G01 X258.663 Y712.136
G01 X273.832 Y708.354
G01 X289.068 Y705.366
G01 X304.330 Y703.186
G01 X319.576 Y701.824
G01 X334.762 Y701.290
G01 X349.846 Y701.589
G01 X364.784 Y702.726
G01 X379.532 Y704.703
G01 X394.045 Y707.517
G01 X408.280 Y711.165
G01 X422.193 Y715.641
G01 X435.741 Y720.933
G01 X448.882 Y727.030
G01 X461.575 Y733.917
G01 X473.781 Y741.574
G01 X485.460 Y749.981
G01 X496.577 Y759.113
G01 X507.098 Y768.946
G01 X516.990 Y779.448
G01 X526.224 Y790.590
G01 X534.773 Y802.339
G01 X542.611 Y814.659
G01 X549.718 Y827.513
G01 X556.075 Y840.864
G01 X561.666 Y854.672
G01 X566.477 Y868.897
G01 X570.500 Y883.497
G01 X573.727 Y898.430
G01 X576.154 Y913.656
G01 X577.780 Y929.131
G01 X578.607 Y944.814
G01 X578.638 Y960.662
G01 X577.881 Y976.636
G01 X576.343 Y992.693
G01 X574.037 Y1008.795
G01 X570.976 Y1024.901
G01 X567.174 Y1040.973
G01 X562.649 Y1056.974
G01 X557.417 Y1072.868
G01 X551.500 Y1088.619
G01 X544.917 Y1104.193
G01 X537.691 Y1119.556
G01 X529.843 Y1134.676
G01 X521.398 Y1149.521
G01 X512.379 Y1164.060
G01 X502.812 Y1178.263
G01 X492.722 Y1192.101
G01 X482.134 Y1205.546
G01 X471.076 Y1218.569
G01 X459.574 Y1231.143
G01 X447.655 Y1243.240
G01 X435.348 Y1254.836
G01 X422.680 Y1265.903
G01 X409.682 Y1276.417
G01 X396.382 Y1286.353
G01 X382.812 Y1295.685
G01 X369.002 Y1304.391
G01 X354.984 Y1312.448
G01 X340.792 Y1319.834
G01 X326.458 Y1326.527
G01 X312.017 Y1332.507
G01 X297.504 Y1337.755
G01 X282.956 Y1342.253
G01 X268.410 Y1345.986
G01 X343.403 Y1333.157
G01 X328.082 Y1335.524
G01 X312.643 Y1337.126
G01 X297.129 Y1337.955
G01 X281.585 Y1338.004
G01 X266.054 Y1337.267
G01 X250.582 Y1335.741
G01 X235.215 Y1333.426
G01 X219.998 Y1330.325
G01 X204.977 Y1326.444
G01 X190.197 Y1321.790
G01 X175.704 Y1316.374
G01 X161.541 Y1310.210
G01 X147.752 Y1303.315
G01 X134.378 Y1295.706
G01 X121.460 Y1287.406
G01 X109.036 Y1278.440
G01 X97.144 Y1268.832
G01 X85.817 Y1258.613
G01 X75.088 Y1247.812
G01 X64.986 Y1236.462
G01 X55.539 Y1224.598
G01 X46.771 Y1212.254
G01 X38.704 Y1199.467
G01 X31.357 Y1186.276
G01 X24.745 Y1172.717
G01 X18.883 Y1158.830
G01 X13.781 Y1144.655
G01 X9.445 Y1130.230
G01 X5.883 Y1115.594
G01 X5.000 Y1110.903
G01 X5.000 Y995.655
G01 X5.032 Y995.465
G01 X8.277 Y980.608
G01 X12.229 Y965.897
G01 X16.871 Y951.364
G01 X22.188 Y937.040
G01 X28.163 Y922.954
G01 X34.776 Y909.133
G01 X42.009 Y895.608
G01 X49.843 Y882.404
G01 X58.256 Y869.549
G01 X67.228 Y857.068
G01 X76.737 Y844.989
G01 X86.759 Y833.336
G01 X97.272 Y822.135
G01 X108.251 Y811.410
G01 X119.670 Y801.186
G01 X131.503 Y791.486
G01 X143.724 Y782.334
G01 X156.303 Y773.754
G01 X169.212 Y765.767
G01 X182.420 Y758.397
G01 X195.895 Y751.662
G01 X209.604 Y745.585
G01 X223.514 Y740.183
G01 X237.588 Y735.476
G01 X251.790 Y731.479
G01 X266.082 Y728.207
G01 X280.427 Y725.674
G01 X294.783 Y723.892
G01 X309.111 Y722.870
G01 X323.369 Y722.615
G01 X337.515 Y723.132
G01 X351.508 Y724.425
G01 X365.306 Y726.493
G01 X378.865 Y729.333
G01 X392.144 Y732.941
G01 X405.102 Y737.309
G01 X417.697 Y742.426
G01 X429.891 Y748.278
G01 X441.644 Y754.850
G01 X452.920 Y762.123
G01 X463.683 Y770.075
G01 X473.899 Y778.683
G01 X483.538 Y787.920
G01 X492.569 Y797.759
G01 X500.967 Y808.170
G01 X508.707 Y819.120
G01 X515.768 Y830.577
G01 X522.130 Y842.504
G01 X527.777 Y854.867
G01 X532.697 Y867.628
G01 X536.880 Y880.750
G01 X540.316 Y894.195
G01 X543.003 Y907.924
G01 X544.937 Y921.900
G01 X546.120 Y936.083
G01 X546.553 Y950.436
G01 X546.243 Y964.922
G01 X545.197 Y979.503
G01 X543.424 Y994.143
G01 X540.937 Y1008.807
G01 X537.747 Y1023.461
G01 X533.870 Y1038.069
G01 X529.323 Y1052.601
G01 X524.121 Y1067.022
G01 X518.284 Y1081.304
G01 X511.832 Y1095.415
G01 X504.784 Y1109.326
G01 X497.161 Y1123.009
G01 X488.986 Y1136.436
G01 X480.280 Y1149.580
G01 X471.066 Y1162.414
G01 X461.368 Y1174.912
G01 X451.209 Y1187.049
G01 X440.614 Y1198.799
G01 X429.607 Y1210.138
G01 X418.213 Y1221.042
G01 X406.459 Y1231.486
G01 X394.371 Y1241.447
G01 X381.976 Y1250.901
G01 X369.302 Y1259.825
G01 X356.378 Y1268.197
G01 X343.233 Y1275.995
G01 X329.897 Y1283.198
G01 X316.402 Y1289.784
G01 X302.780 Y1295.734
G01 X289.065 Y1301.029
G01 X275.289 Y1305.652
G01 X261.489 Y1309.585
G01 X247.700 Y1312.816
G01 X233.959 Y1315.329
G01 X303.907 Y1308.326
G01 X289.533 Y1309.507
G01 X275.102 Y1309.965
G01 X260.655 Y1309.693
G01 X246.235 Y1308.689
G01 X231.885 Y1306.951
G01 X217.648 Y1304.480
G01 X203.567 Y1301.281
G01 X189.685 Y1297.361
G01 X176.046 Y1292.728
G01 X162.691 Y1287.395
G01 X149.661 Y1281.376
G01 X136.997 Y1274.689
G01 X124.736 Y1267.353
G01 X112.916 Y1259.389
G01 X101.573 Y1250.823
G01 X90.738 Y1241.680
G01 X80.444 Y1231.989
G01 X70.719 Y1221.779
G01 X61.590 Y1211.082
G01 X53.079 Y1199.931
G01 X45.209 Y1188.359
G01 X37.998 Y1176.401
G01 X31.462 Y1164.092
G01 X25.614 Y1151.468
G01 X20.465 Y1138.565
G01 X16.023 Y1125.418
G01 X12.294 Y1112.065
G01 X9.280 Y1098.540
G01 X6.984 Y1084.879
G01 X5.403 Y1071.116
G01 X5.000 Y1064.694
G01 X5.000 Y1028.612
G01 X6.150 Y1015.713
G01 X8.068 Y1001.934
G01 X10.658 Y988.244
G01 X13.908 Y974.673
G01 X17.806 Y961.248
G01 X22.337 Y947.998
G01 X27.487 Y934.947
G01 X33.239 Y922.124
G01 X39.578 Y909.552
G01 X46.486 Y897.257
G01 X53.945 Y885.263
G01 X61.938 Y873.595
G01 X70.445 Y862.276
G01 X79.447 Y851.329
G01 X88.922 Y840.779
G01 X98.849 Y830.647
G01 X109.207 Y820.956
G01 X119.971 Y811.730
G01 X131.118 Y802.990
G01 X142.622 Y794.759
G01 X154.456 Y787.057
G01 X166.595 Y779.906
G01 X179.007 Y773.326
G01 X191.664 Y767.337
G01 X204.533 Y761.957
G01 X217.584 Y757.204
G01 X230.780 Y753.095
G01 X244.088 Y749.644
G01 X257.471 Y746.866
G01 X270.892 Y744.771
G01 X284.314 Y743.371
G01 X297.696 Y742.673
G01 X311.000 Y742.683
G01 X324.185 Y743.405
G01 X337.212 Y744.840
G01 X350.040 Y746.986
G01 X362.629 Y749.840
G01 X374.940 Y753.396
G01 X386.932 Y757.645
G01 X398.569 Y762.574
G01 X409.812 Y768.171
G01 X420.626 Y774.417
G01 X430.978 Y781.295
G01 X440.833 Y788.783
G01 X450.162 Y796.858
G01 X458.937 Y805.494
G01 X467.130 Y814.663
G01 X474.719 Y824.337
G01 X481.682 Y834.485
G01 X488.001 Y845.075
G01 X493.659 Y856.075
G01 X498.643 Y867.451
G01 X502.942 Y879.169
G01 X506.549 Y891.194
G01 X509.458 Y903.492
G01 X511.666 Y916.027
G01 X513.173 Y928.764
G01 X513.981 Y941.671
G01 X514.093 Y954.712
G01 X513.516 Y967.854
G01 X512.259 Y981.065
G01 X510.330 Y994.313
G01 X507.741 Y1007.566
G01 X504.506 Y1020.795
G01 X500.637 Y1033.971
G01 X496.152 Y1047.064
G01 X491.065 Y1060.048
G01 X485.393 Y1072.894
G01 X479.156 Y1085.578
G01 X472.371 Y1098.074
G01 X465.057 Y1110.357
G01 X457.234 Y1122.403
G01 X448.923 Y1134.188
G01 X440.143 Y1145.688
G01 X430.917 Y1156.882
G01 X421.265 Y1167.745
G01 X411.209 Y1178.256
G01 X400.772 Y1188.392
G01 X389.977 Y1198.132
G01 X378.848 Y1207.452
G01 X367.409 Y1216.332
G01 X355.686 Y1224.750
G01 X343.704 Y1232.685
G01 X331.491 Y1240.115
G01 X319.073 Y1247.021
G01 X306.481 Y1253.383
G01 X293.743 Y1259.181
G01 X280.891 Y1264.398
G01 X267.956 Y1269.015
G01 X254.971 Y1273.017
G01 X241.970 Y1276.389
G01 X228.987 Y1279.117
G01 X216.058 Y1281.190
G01 X203.219 Y1282.598
G01 X267.708 Y1280.636
G01 X254.375 Y1280.760
G01 X241.041 Y1280.207
G01 X227.746 Y1278.974
G01 X214.530 Y1277.063
G01 X201.435 Y1274.476
G01 X188.500 Y1271.218
G01 X175.766 Y1267.299
G01 X163.273 Y1262.728
G01 X151.060 Y1257.517
G01 X139.164 Y1251.684
G01 X127.623 Y1245.244
G01 X116.471 Y1238.220
G01 X105.742 Y1230.631
G01 X95.468 Y1222.503
G01 X85.678 Y1213.861
G01 X76.399 Y1204.734
G01 X67.658 Y1195.148
G01 X59.477 Y1185.136
G01 X51.876 Y1174.727
G01 X44.873 Y1163.954
G01 X38.485 Y1152.849
G01 X32.723 Y1141.444
G01 X27.599 Y1129.774
G01 X23.120 Y1117.870
G01 X19.293 Y1105.767
G01 X16.122 Y1093.495
G01 X13.607 Y1081.087
G01 X11.750 Y1068.575
G01 X10.547 Y1055.989
G01 X9.995 Y1043.359
G01 X10.089 Y1030.715
G01 X10.822 Y1018.085
G01 X12.185 Y1005.497
G01 X14.171 Y992.976
G01 X16.768 Y980.550
G01 X19.966 Y968.243
G01 X23.752 Y956.080
G01 X28.115 Y944.084
G01 X33.041 Y932.279
G01 X38.516 Y920.688
G01 X44.526 Y909.333
G01 X51.055 Y898.237
G01 X58.089 Y887.420
G01 X65.610 Y876.905
G01 X73.602 Y866.712
G01 X82.047 Y856.864
G01 X90.927 Y847.382
G01 X100.223 Y838.285
G01 X109.913 Y829.597
G01 X119.978 Y821.336
G01 X130.395 Y813.525
G01 X141.139 Y806.183
G01 X152.188 Y799.330
G01 X163.514 Y792.986
G01 X175.092 Y787.170
G01 X186.891 Y781.899
G01 X198.883 Y777.191
G01 X211.037 Y773.063
G01 X223.320 Y769.528
G01 X235.698 Y766.602
G01 X248.138 Y764.295
G01 X260.604 Y762.618
G01 X273.059 Y761.579
G01 X285.466 Y761.186
G01 X297.788 Y761.442
G01 X309.987 Y762.349
G01 X322.024 Y763.908
G01 X333.862 Y766.115
G01 X345.462 Y768.965
G01 X356.788 Y772.452
G01 X367.803 Y776.565
G01 X378.471 Y781.291
G01 X388.759 Y786.617
G01 X398.633 Y792.524
G01 X408.062 Y798.995
G01 X417.016 Y806.006
G01 X425.469 Y813.537
G01 X433.394 Y821.561
G01 X440.769 Y830.052
G01 X447.573 Y838.982
G01 X453.788 Y848.324
G01 X459.397 Y858.046
G01 X464.388 Y868.118
G01 X468.750 Y878.510
G01 X472.475 Y889.189
G01 X475.556 Y900.125
G01 X477.991 Y911.285
G01 X479.778 Y922.638
G01 X480.918 Y934.154
G01 X481.414 Y945.802
G01 X481.272 Y957.553
G01 X480.497 Y969.376
G01 X479.099 Y981.244
G01 X477.087 Y993.129
G01 X474.472 Y1005.004
G01 X471.267 Y1016.843
G01 X467.484 Y1028.622
G01 X463.138 Y1040.316
G01 X458.243 Y1051.900
G01 X452.816 Y1063.354
G01 X446.871 Y1074.653
G01 X440.427 Y1085.776
G01 X433.500 Y1096.702
G01 X426.107 Y1107.411
G01 X418.266 Y1117.880
G01 X409.996 Y1128.090
G01 X401.315 Y1138.021
G01 X392.243 Y1147.652
G01 X382.799 Y1156.964
G01 X373.004 Y1165.935
G01 X362.877 Y1174.547
G01 X352.442 Y1182.778
G01 X341.721 Y1190.610
G01 X330.736 Y1198.022
G01 X319.511 Y1204.996
G01 X308.072 Y1211.511
G01 X296.446 Y1217.549
G01 X284.658 Y1223.092
G01 X272.738 Y1228.121
G01 X260.714 Y1232.621
G01 X248.617 Y1236.576
G01 X236.479 Y1239.970
G01 X224.331 Y1242.791
G01 X212.207 Y1245.026
G01 X200.140 Y1246.666
G01 X188.166 Y1247.702
G01 X176.320 Y1248.127
G01 X235.025 Y1250.395
G01 X222.818 Y1249.600
G01 X210.661 Y1248.180
G01 X198.591 Y1246.137
G01 X186.647 Y1243.475
G01 X174.867 Y1240.202
G01 X163.287 Y1236.326
G01 X151.945 Y1231.858
G01 X140.875 Y1226.813
G01 X130.113 Y1221.207
G01 X119.692 Y1215.058
G01 X109.643 Y1208.386
G01 X99.996 Y1201.213
G01 X90.779 Y1193.562
G01 X82.018 Y1185.459
G01 X73.737 Y1176.931
G01 X65.958 Y1168.004
G01 X58.700 Y1158.708
G01 X51.980 Y1149.072
G01 X45.814 Y1139.125
G01 X40.214 Y1128.897
G01 X35.189 Y1118.419
G01 X30.749 Y1107.720
G01 X26.898 Y1096.831
G01 X23.642 Y1085.781
G01 X20.982 Y1074.598
G01 X18.919 Y1063.312
G01 X17.450 Y1051.949
G01 X16.574 Y1040.537
G01 X16.286 Y1029.102
G01 X16.581 Y1017.670
G01 X17.451 Y1006.264
G01 X18.890 Y994.909
G01 X20.890 Y983.628
G01 X23.440 Y972.443
G01 X26.531 Y961.375
G01 X30.153 Y950.446
G01 X34.295 Y939.676
G01 X38.946 Y929.085
G01 X44.092 Y918.694
G01 X49.723 Y908.522
G01 X55.824 Y898.589
G01 X62.383 Y888.913
G01 X69.386 Y879.515
G01 X76.816 Y870.413
G01 X84.660 Y861.627
G01 X92.901 Y853.176
G01 X101.520 Y845.079
G01 X110.502 Y837.357
G01 X119.825 Y830.028
G01 X129.469 Y823.110
G01 X139.414 Y816.624
G01 X149.636 Y810.588
G01 X160.112 Y805.019
G01 X170.815 Y799.935
G01 X181.718 Y795.353
G01 X192.795 Y791.288
G01 X204.015 Y787.755
G01 X215.348 Y784.768
G01 X226.762 Y782.338
G01 X238.224 Y780.476
G01 X249.701 Y779.190
G01 X261.157 Y778.488
G01 X272.559 Y778.375
G01 X283.870 Y778.852
G01 X295.055 Y779.921
G01 X306.077 Y781.580
G01 X316.902 Y783.825
G01 X327.494 Y786.649
G01 X337.818 Y790.045
G01 X347.842 Y794.001
G01 X357.531 Y798.505
G01 X366.856 Y803.540
G01 X375.786 Y809.090
G01 X384.293 Y815.135
G01 X392.351 Y821.655
G01 X399.935 Y828.627
G01 X407.024 Y836.027
G01 X413.597 Y843.830
G01 X419.637 Y852.010
G01 X425.129 Y860.538
G01 X430.059 Y869.389
G01 X434.417 Y878.534
G01 X438.195 Y887.943
G01 X441.386 Y897.589
G01 X443.988 Y907.444
G01 X445.997 Y917.479
G01 X447.415 Y927.666
G01 X448.244 Y937.979
G01 X448.487 Y948.390
G01 X448.151 Y958.874
G01 X447.242 Y969.407
G01 X445.768 Y979.962
G01 X443.739 Y990.518
G01 X441.166 Y1001.052
G01 X438.059 Y1011.540
G01 X434.432 Y1021.964
G01 X430.296 Y1032.301
G01 X425.664 Y1042.532
G01 X420.552 Y1052.638
G01 X414.972 Y1062.600
G01 X408.939 Y1072.399
G01 X402.469 Y1082.018
G01 X395.576 Y1091.438
G01 X388.276 Y1100.641
G01 X380.584 Y1109.609
G01 X372.518 Y1118.325
G01 X364.094 Y1126.771
G01 X355.329 Y1134.928
G01 X346.241 Y1142.780
G01 X336.850 Y1150.306
G01 X327.174 Y1157.490
G01 X317.234 Y1164.313
G01 X307.051 Y1170.758
G01 X296.647 Y1176.805
G01 X286.045 Y1182.438
G01 X275.271 Y1187.639
G01 X264.349 Y1192.392
G01 X253.306 Y1196.680
G01 X242.170 Y1200.488
G01 X230.970 Y1203.803
G01 X219.734 Y1206.610
G01 X208.495 Y1208.898
G01 X197.284 Y1210.658
G01 X186.133 Y1211.880
G01 X175.075 Y1212.557
G01 X164.143 Y1212.685
G01 X153.370 Y1212.261
G01 X206.059 Y1217.933
G01 X195.051 Y1216.369
G01 X184.138 Y1214.238
G01 X173.354 Y1211.546
G01 X162.735 Y1208.301
G01 X152.314 Y1204.513
G01 X142.124 Y1200.194
G01 X132.199 Y1195.359
G01 X122.568 Y1190.025
G01 X113.261 Y1184.210
G01 X104.307 Y1177.933
G01 X95.730 Y1171.217
G01 X87.556 Y1164.084
G01 X79.808 Y1156.560
G01 X72.504 Y1148.668
G01 X65.664 Y1140.435
G01 X59.303 Y1131.888
G01 X53.436 Y1123.054
G01 X48.074 Y1113.960
G01 X43.227 Y1104.634
G01 X38.902 Y1095.102
G01 X35.106 Y1085.393
G01 X31.842 Y1075.531
G01 X29.113 Y1065.544
G01 X26.919 Y1055.457
G01 X25.260 Y1045.295
G01 X24.132 Y1035.080
G01 X23.534 Y1024.838
G01 X23.460 Y1014.589
G01 X23.905 Y1004.357
G01 X24.863 Y994.160
G01 X26.327 Y984.021
G01 X28.289 Y973.957
G01 X30.743 Y963.988
G01 X33.678 Y954.133
G01 X37.087 Y944.409
G01 X40.959 Y934.833
G01 X45.287 Y925.424
G01 X50.058 Y916.199
G01 X55.264 Y907.174
G01 X60.893 Y898.367
G01 X66.933 Y889.795
G01 X73.373 Y881.476
G01 X80.200 Y873.426
G01 X87.400 Y865.664
G01 X94.960 Y858.206
G01 X102.864 Y851.072
G01 X111.095 Y844.278
G01 X119.637 Y837.842
G01 X128.471 Y831.782
G01 X137.578 Y826.116
G01 X146.935 Y820.860
G01 X156.521 Y816.031
G01 X166.312 Y811.646
G01 X176.283 Y807.718
G01 X186.407 Y804.263
G01 X196.657 Y801.293
G01 X207.004 Y798.821
G01 X217.418 Y796.856
G01 X227.868 Y795.408
G01 X238.322 Y794.483
G01 X248.748 Y794.087
G01 X259.113 Y794.223
G01 X269.384 Y794.892
G01 X279.527 Y796.093
G01 X289.510 Y797.824
G01 X299.299 Y800.078
G01 X308.862 Y802.849
G01 X318.167 Y806.127
G01 X327.184 Y809.901
G01 X335.883 Y814.156
G01 X344.236 Y818.877
G01 X352.217 Y824.047
G01 X359.802 Y829.646
G01 X366.966 Y835.655
G01 X373.689 Y842.052
G01 X379.952 Y848.813
G01 X385.739 Y855.915
G01 X391.034 Y863.333
G01 X395.826 Y871.042
G01 X400.104 Y879.017
G01 X403.860 Y887.233
G01 X407.088 Y895.662
G01 X409.784 Y904.281
G01 X411.947 Y913.064
G01 X413.576 Y921.986
G01 X414.672 Y931.024
G01 X415.240 Y940.153
G01 X415.283 Y949.352
G01 X414.807 Y958.597
G01 X413.820 Y967.869
G01 X412.329 Y977.147
G01 X410.343 Y986.410
G01 X407.873 Y995.642
G01 X404.927 Y1004.822
G01 X401.517 Y1013.935
G01 X397.654 Y1022.963
G01 X393.350 Y1031.889
G01 X388.616 Y1040.699
G01 X383.464 Y1049.375
G01 X377.907 Y1057.903
G01 X371.957 Y1066.267
G01 X365.627 Y1074.452
G01 X358.930 Y1082.442
G01 X351.880 Y1090.222
G01 X344.490 Y1097.776
G01 X336.776 Y1105.089
G01 X328.752 Y1112.143
G01 X320.433 Y1118.924
G01 X311.837 Y1125.414
G01 X302.981 Y1131.598
G01 X293.883 Y1137.458
G01 X284.562 Y1142.977
G01 X275.038 Y1148.141
G01 X265.334 Y1152.931
G01 X255.472 Y1157.333
G01 X245.475 Y1161.332
G01 X235.368 Y1164.913
G01 X225.178 Y1168.062
G01 X214.931 Y1170.767
G01 X204.656 Y1173.017
G01 X194.382 Y1174.800
G01 X184.138 Y1176.110
G01 X173.956 Y1176.938
G01 X163.865 Y1177.280
G01 X153.898 Y1177.132
G01 X144.085 Y1176.493
G01 X134.459 Y1175.363
G01 X180.987 Y1183.608
G01 X171.238 Y1181.435
G01 X161.620 Y1178.758
G01 X152.167 Y1175.588
G01 X142.907 Y1171.935
G01 X133.871 Y1167.812
G01 X125.087 Y1163.234
G01 X116.582 Y1158.218
G01 X108.382 Y1152.781
G01 X100.511 Y1146.945
G01 X92.992 Y1140.729
G01 X85.845 Y1134.156
G01 X79.089 Y1127.250
G01 X72.741 Y1120.032
G01 X66.815 Y1112.529
G01 X61.323 Y1104.764
G01 X56.278 Y1096.762
G01 X51.687 Y1088.548
G01 X47.558 Y1080.147
G01 X43.896 Y1071.582
G01 X40.704 Y1062.878
G01 X37.986 Y1054.057
G01 X35.741 Y1045.142
G01 X33.969 Y1036.156
G01 X32.668 Y1027.118
G01 X31.835 Y1018.050
G01 X31.467 Y1008.971
G01 X31.560 Y999.899
G01 X32.108 Y990.852
G01 X33.106 Y981.848
G01 X34.548 Y972.904
G01 X36.427 Y964.035
G01 X38.737 Y955.257
G01 X41.471 Y946.586
G01 X44.622 Y938.037
G01 X48.181 Y929.624
G01 X52.142 Y921.362
G01 X56.496 Y913.267
G01 X61.235 Y905.353
G01 X66.350 Y897.635
G01 X71.832 Y890.128
G01 X77.670 Y882.849
G01 X83.854 Y875.812
G01 X90.374 Y869.034
G01 X97.215 Y862.530
G01 X104.365 Y856.318
G01 X111.811 Y850.413
G01 X119.535 Y844.831
G01 X127.522 Y839.590
G01 X135.753 Y834.705
G01 X144.209 Y830.192
G01 X152.870 Y826.066
G01 X161.713 Y822.341
G01 X170.715 Y819.031
G01 X179.851 Y816.149
G01 X189.096 Y813.706
G01 X198.422 Y811.712
G01 X207.801 Y810.176
G01 X217.205 Y809.106
G01 X226.604 Y808.506
G01 X235.968 Y808.380
G01 X245.267 Y808.730
G01 X254.469 Y809.556
G01 X263.544 Y810.855
G01 X272.461 Y812.623
G01 X281.191 Y814.854
G01 X289.705 Y817.538
G01 X297.973 Y820.666
G01 X305.969 Y824.226
G01 X313.666 Y828.202
G01 X321.040 Y832.581
G01 X328.068 Y837.343
G01 X334.728 Y842.472
G01 X341.001 Y847.947
G01 X346.869 Y853.747
G01 X352.317 Y859.851
G01 X357.330 Y866.237
G01 X361.898 Y872.882
G01 X366.011 Y879.762
G01 X369.662 Y886.856
G01 X372.844 Y894.140
G01 X375.553 Y901.592
G01 X377.789 Y909.188
G01 X379.551 Y916.909
G01 X380.840 Y924.731
G01 X381.658 Y932.636
G01 X382.009 Y940.603
G01 X381.899 Y948.613
G01 X381.333 Y956.649
G01 X380.318 Y964.692
G01 X378.862 Y972.727
G01 X376.973 Y980.738
G01 X374.658 Y988.709
G01 X371.928 Y996.627
G01 X368.791 Y1004.476
G01 X365.257 Y1012.244
G01 X361.335 Y1019.918
G01 X357.035 Y1027.484
G01 X352.367 Y1034.929
G01 X347.341 Y1042.241
G01 X341.967 Y1049.407
G01 X336.256 Y1056.414
G01 X330.218 Y1063.248
G01 X323.864 Y1069.897
G01 X317.207 Y1076.346
G01 X310.258 Y1082.581
G01 X303.030 Y1088.589
G01 X295.536 Y1094.353
G01 X287.791 Y1099.860
G01 X279.810 Y1105.095
G01 X271.610 Y1110.042
G01 X263.207 Y1114.686
G01 X254.620 Y1119.013
G01 X245.870 Y1123.008
G01 X236.975 Y1126.656
G01 X227.960 Y1129.944
G01 X218.846 Y1132.859
G01 X209.658 Y1135.389
G01 X200.421 Y1137.523
G01 X191.162 Y1139.252
G01 X181.907 Y1140.566
G01 X172.685 Y1141.460
G01 X163.524 Y1141.927
G01 X154.453 Y1141.965
G01 X145.501 Y1141.570
G01 X136.696 Y1140.745
G01 X128.069 Y1139.490
G01 X119.646 Y1137.810
G01 X159.956 Y1147.802
G01 X151.510 Y1145.189
G01 X143.223 Y1142.142
G01 X135.124 Y1138.672
G01 X127.238 Y1134.793
G01 X119.591 Y1130.520
G01 X112.204 Y1125.869
G01 X105.101 Y1120.859
G01 X98.301 Y1115.508
G01 X91.823 Y1109.837
G01 X85.684 Y1103.867
G01 X79.899 Y1097.618
G01 X74.482 Y1091.113
G01 X69.442 Y1084.374
G01 X64.790 Y1077.424
G01 X60.535 Y1070.284
G01 X56.681 Y1062.977
G01 X53.233 Y1055.523
G01 X50.196 Y1047.945
G01 X47.569 Y1040.261
G01 X45.355 Y1032.493
G01 X43.552 Y1024.659
G01 X42.158 Y1016.777
G01 X41.172 Y1008.865
G01 X40.590 Y1000.939
G01 X40.408 Y993.016
G01 X40.623 Y985.109
G01 X41.230 Y977.235
G01 X42.224 Y969.406
G01 X43.600 Y961.636
G01 X45.353 Y953.939
G01 X47.477 Y946.326
G01 X49.968 Y938.811
G01 X52.819 Y931.405
G01 X56.025 Y924.122
G01 X59.581 Y916.973
G01 X63.479 Y909.972
G01 X67.714 Y903.131
G01 X72.278 Y896.464
G01 X77.165 Y889.984
G01 X82.367 Y883.705
G01 X87.873 Y877.641
G01 X93.676 Y871.807
G01 X99.765 Y866.216
G01 X106.128 Y860.886
G01 X112.753 Y855.829
G01 X119.626 Y851.062
G01 X126.731 Y846.599
G01 X134.054 Y842.454
G01 X141.575 Y838.643
G01 X149.276 Y835.179
G01 X157.137 Y832.074
G01 X165.136 Y829.342
G01 X173.251 Y826.992
G01 X181.456 Y825.035
G01 X189.728 Y823.479
G01 X198.041 Y822.332
G01 X206.367 Y821.599
G01 X214.680 Y821.284
G01 X222.952 Y821.388
G01 X231.154 Y821.912
G01 X239.260 Y822.855
G01 X247.241 Y824.212
G01 X255.070 Y825.978
G01 X262.720 Y828.145
G01 X270.165 Y830.705
G01 X277.380 Y833.646
G01 X284.341 Y836.955
G01 X291.026 Y840.619
G01 X297.413 Y844.621
G01 X303.483 Y848.946
G01 X309.218 Y853.574
G01 X314.603 Y858.488
G01 X319.622 Y863.668
G01 X324.263 Y869.094
G01 X328.517 Y874.745
G01 X332.374 Y880.601
G01 X335.828 Y886.642
G01 X338.874 Y892.846
G01 X341.508 Y899.195
G01 X343.728 Y905.669
G01 X345.535 Y912.248
G01 X346.930 Y918.915
G01 X347.915 Y925.651
G01 X348.493 Y932.439
G01 X348.668 Y939.265
G01 X348.447 Y946.112
G01 X347.834 Y952.967
G01 X346.836 Y959.815
G01 X345.460 Y966.644
G01 X343.713 Y973.442
G01 X341.602 Y980.196
G01 X339.134 Y986.896
G01 X336.318 Y993.531
G01 X333.160 Y1000.090
G01 X329.669 Y1006.564
G01 X325.851 Y1012.941
G01 X321.715 Y1019.212
G01 X317.268 Y1025.366
G01 X312.518 Y1031.393
G01 X307.474 Y1037.280
G01 X302.143 Y1043.019
G01 X296.534 Y1048.595
G01 X290.657 Y1053.998
G01 X284.522 Y1059.215
G01 X278.139 Y1064.234
G01 X271.519 Y1069.040
G01 X264.675 Y1073.621
G01 X257.620 Y1077.963
G01 X250.368 Y1082.052
G01 X242.934 Y1085.875
G01 X235.336 Y1089.419
G01 X227.591 Y1092.669
G01 X219.717 Y1095.614
G01 X211.736 Y1098.240
G01 X203.668 Y1100.538
G01 X195.535 Y1102.496
G01 X187.361 Y1104.106
G01 X179.171 Y1105.358
G01 X170.989 Y1106.247
G01 X162.841 Y1106.767
G01 X154.753 Y1106.915
G01 X146.752 Y1106.688
G01 X138.863 Y1106.087
G01 X131.114 Y1105.113
G01 X123.531 Y1103.768
G01 X116.138 Y1102.060
G01 X108.962 Y1099.994
G01 X143.081 Y1110.918
G01 X135.961 Y1108.043
G01 X129.020 Y1104.807
G01 X122.278 Y1101.221
G01 X115.759 Y1097.302
G01 X109.479 Y1093.066
G01 X103.459 Y1088.529
G01 X97.714 Y1083.711
G01 X92.258 Y1078.629
G01 X87.106 Y1073.304
G01 X82.268 Y1067.754
G01 X77.753 Y1062.000
G01 X73.572 Y1056.062
G01 X69.728 Y1049.959
G01 X66.229 Y1043.710
G01 X63.076 Y1037.335
G01 X60.274 Y1030.851
G01 X57.822 Y1024.278
G01 X55.720 Y1017.630
G01 X53.969 Y1010.926
G01 X52.566 Y1004.179
G01 X51.508 Y997.405
G01 X50.794 Y990.618
G01 X50.420 Y983.830
G01 X50.382 Y977.054
G01 X50.677 Y970.302
G01 X51.301 Y963.585
G01 X52.249 Y956.913
G01 X53.519 Y950.296
G01 X55.106 Y943.746
G01 X57.006 Y937.272
G01 X59.215 Y930.884
G01 X61.730 Y924.592
G01 X64.547 Y918.405
G01 X67.662 Y912.336
G01 X71.070 Y906.393
G01 X74.768 Y900.589
G01 X78.749 Y894.935
G01 X83.008 Y889.443
G01 X87.541 Y884.124
G01 X92.339 Y878.993
G01 X97.394 Y874.062
G01 X102.700 Y869.345
G01 X108.244 Y864.854
G01 X114.018 Y860.604
G01 X120.008 Y856.609
G01 X126.201 Y852.882
G01 X132.583 Y849.436
G01 X139.138 Y846.285
G01 X145.849 Y843.439
G01 X152.696 Y840.912
G01 X159.660 Y838.713
G01 X166.721 Y836.852
G01 X173.857 Y835.338
G01 X181.043 Y834.176
G01 X188.258 Y833.373
G01 X195.477 Y832.933
G01 X202.674 Y832.857
G01 X209.825 Y833.146
G01 X216.906 Y833.799
G01 X223.890 Y834.813
G01 X230.753 Y836.183
G01 X237.472 Y837.902
G01 X244.022 Y839.963
G01 X250.382 Y842.354
G01 X256.530 Y845.066
G01 X262.444 Y848.084
G01 X268.108 Y851.396
G01 X273.502 Y854.985
G01 X278.612 Y858.835
G01 X283.423 Y862.931
G01 X287.922 Y867.253
G01 X292.099 Y871.785
G01 X295.945 Y876.508
G01 X299.452 Y881.403
G01 X302.614 Y886.454
G01 X305.428 Y891.641
G01 X307.890 Y896.947
G01 X310.001 Y902.355
G01 X311.759 Y907.850
G01 X313.166 Y913.414
G01 X314.224 Y919.034
G01 X314.938 Y924.695
G01 X315.310 Y930.384
G01 X315.345 Y936.089
G01 X315.049 Y941.798
G01 X314.427 Y947.501
G01 X313.485 Y953.186
G01 X312.228 Y958.845
G01 X310.663 Y964.470
G01 X308.795 Y970.050
G01 X306.631 Y975.579
G01 X304.175 Y981.049
G01 X301.434 Y986.451
G01 X298.414 Y991.778
G01 X295.119 Y997.022
G01 X291.555 Y1002.175
G01 X287.727 Y1007.229
G01 X283.642 Y1012.175
G01 X279.305 Y1017.004
G01 X274.722 Y1021.707
G01 X269.899 Y1026.272
G01 X264.844 Y1030.691
G01 X259.564 Y1034.950
G01 X254.068 Y1039.041
G01 X248.365 Y1042.949
G01 X242.466 Y1046.664
G01 X236.380 Y1050.173
G01 X230.122 Y1053.463
G01 X223.703 Y1056.523
G01 X217.140 Y1059.341
G01 X210.447 Y1061.903
G01 X203.642 Y1064.200
G01 X196.744 Y1066.221
G01 X189.770 Y1067.956
G01 X182.743 Y1069.396
G01 X175.682 Y1070.534
G01 X168.610 Y1071.363
G01 X161.550 Y1071.877
G01 X154.525 Y1072.075
G01 X147.558 Y1071.952
G01 X140.674 Y1071.510
G01 X133.896 Y1070.749
G01 X127.247 Y1069.671
G01 X120.750 Y1068.283
G01 X114.429 Y1066.589
G01 X108.305 Y1064.598
G01 X102.397 Y1062.319
G01 X130.433 Y1073.380
G01 X124.642 Y1070.427
G01 X119.037 Y1067.185
G01 X113.633 Y1063.671
G01 X108.447 Y1059.898
G01 X103.493 Y1055.883
G01 X98.783 Y1051.643
G01 X94.327 Y1047.195
G01 X90.136 Y1042.558
G01 X86.218 Y1037.748
G01 X82.578 Y1032.782
G01 X79.223 Y1027.679
G01 X76.154 Y1022.455
G01 X73.375 Y1017.127
G01 X70.888 Y1011.709
G01 X68.692 Y1006.217
G01 X66.786 Y1000.666
G01 X65.170 Y995.069
G01 X63.841 Y989.438
G01 X62.796 Y983.785
G01 X62.034 Y978.122
G01 X61.551 Y972.458
G01 X61.344 Y966.804
G01 X61.409 Y961.167
G01 X61.744 Y955.557
G01 X62.345 Y949.982
G01 X63.209 Y944.448
G01 X64.335 Y938.965
G01 X65.719 Y933.539
G01 X67.359 Y928.177
G01 X69.253 Y922.888
G01 X71.399 Y917.679
G01 X73.794 Y912.558
G01 X76.436 Y907.533
G01 X79.324 Y902.615
G01 X82.453 Y897.811
G01 X85.821 Y893.133
G01 X89.425 Y888.590
G01 X93.260 Y884.194
G01 X97.321 Y879.956
G01 X101.601 Y875.888
G01 X106.095 Y872.001
G01 X110.793 Y868.310
G01 X115.687 Y864.825
G01 X120.766 Y861.559
G01 X126.019 Y858.525
G01 X131.433 Y855.734
G01 X136.992 Y853.198
G01 X142.683 Y850.927
G01 X148.487 Y848.932
G01 X154.388 Y847.221
G01 X160.367 Y845.803
G01 X166.403 Y844.683
G01 X172.476 Y843.867
G01 X178.565 Y843.360
G01 X184.648 Y843.163
G01 X190.704 Y843.278
G01 X196.710 Y843.702
G01 X202.644 Y844.435
G01 X208.485 Y845.470
G01 X214.210 Y846.804
G01 X219.800 Y848.427
G01 X225.235 Y850.332
G01 X230.495 Y852.508
G01 X235.563 Y854.944
G01 X240.423 Y857.626
G01 X245.059 Y860.541
G01 X249.457 Y863.675
G01 X253.606 Y867.013
G01 X257.495 Y870.538
G01 X261.115 Y874.235
G01 X264.458 Y878.088
G01 X267.518 Y882.080
G01 X270.291 Y886.196
G01 X272.775 Y890.420
G01 X274.967 Y894.737
G01 X276.868 Y899.133
G01 X278.477 Y903.594
G01 X279.798 Y908.106
G01 X280.832 Y912.657
G01 X281.582 Y917.236
G01 X282.054 Y921.833
G01 X282.251 Y926.438
G01 X282.178 Y931.041
G01 X281.840 Y935.635
G01 X281.241 Y940.213
G01 X280.388 Y944.767
G01 X279.284 Y949.292
G01 X277.934 Y953.782
G01 X276.343 Y958.231
G01 X274.515 Y962.634
G01 X272.453 Y966.986
G01 X270.163 Y971.281
G01 X267.646 Y975.515
G01 X264.906 Y979.681
G01 X261.948 Y983.773
G01 X258.773 Y987.785
G01 X255.385 Y991.709
G01 X251.788 Y995.539
G01 X247.986 Y999.267
G01 X243.984 Y1002.882
G01 X239.785 Y1006.377
G01 X235.396 Y1009.742
G01 X230.822 Y1012.966
G01 X226.073 Y1016.039
G01 X221.154 Y1018.950
G01 X216.077 Y1021.687
G01 X210.851 Y1024.241
G01 X205.487 Y1026.599
G01 X200.000 Y1028.752
G01 X194.402 Y1030.688
G01 X188.708 Y1032.398
G01 X182.936 Y1033.874
G01 X177.101 Y1035.106
G01 X171.223 Y1036.087
G01 X165.320 Y1036.813
G01 X159.412 Y1037.276
G01 X153.519 Y1037.475
G01 X147.661 Y1037.407
G01 X141.860 Y1037.072
G01 X136.136 Y1036.470
G01 X130.510 Y1035.605
G01 X125.002 Y1034.479
G01 X119.632 Y1033.099
G01 X114.420 Y1031.471
G01 X109.383 Y1029.605
G01 X104.538 Y1027.509
G01 X99.902 Y1025.195
G01 X122.037 Y1035.622
G01 X117.555 Y1032.776
G01 X113.253 Y1029.716
G01 X109.142 Y1026.455
G01 X105.234 Y1023.010
G01 X101.536 Y1019.396
G01 X98.055 Y1015.627
G01 X94.799 Y1011.720
G01 X91.770 Y1007.689
G01 X88.973 Y1003.550
G01 X86.409 Y999.316
G01 X84.080 Y995.002
G01 X81.985 Y990.621
G01 X80.124 Y986.185
G01 X78.495 Y981.706
G01 X77.096 Y977.194
G01 X75.924 Y972.660
G01 X74.977 Y968.112
G01 X74.251 Y963.559
G01 X73.743 Y959.008
G01 X73.451 Y954.466
G01 X73.371 Y949.940
G01 X73.500 Y945.434
G01 X73.837 Y940.954
G01 X74.378 Y936.506
G01 X75.123 Y932.094
G01 X76.070 Y927.723
G01 X77.218 Y923.398
G01 X78.565 Y919.124
G01 X80.112 Y914.906
G01 X81.858 Y910.751
G01 X83.802 Y906.664
G01 X85.944 Y902.653
G01 X88.282 Y898.724
G01 X90.817 Y894.886
G01 X93.547 Y891.147
G01 X96.469 Y887.517
G01 X99.580 Y884.005
G01 X102.879 Y880.621
G01 X106.359 Y877.376
G01 X110.016 Y874.281
G01 X113.843 Y871.347
G01 X117.832 Y868.585
G01 X121.975 Y866.006
G01 X126.261 Y863.621
G01 X130.680 Y861.441
G01 X135.218 Y859.474
G01 X139.862 Y857.732
G01 X144.598 Y856.221
G01 X149.409 Y854.950
G01 X154.279 Y853.924
G01 X159.190 Y853.149
G01 X164.124 Y852.629
G01 X169.063 Y852.366
G01 X173.987 Y852.360
G01 X178.878 Y852.612
G01 X183.717 Y853.118
G01 X188.485 Y853.876
G01 X193.163 Y854.879
G01 X197.734 Y856.122
G01 X202.180 Y857.597
G01 X206.486 Y859.294
G01 X210.637 Y861.202
G01 X214.618 Y863.311
G01 X218.417 Y865.608
G01 X222.022 Y868.080
G01 X225.425 Y870.713
G01 X228.615 Y873.495
G01 X231.587 Y876.410
G01 X234.334 Y879.444
G01 X236.853 Y882.584
G01 X239.140 Y885.815
G01 X241.195 Y889.125
G01 X243.017 Y892.501
G01 X244.607 Y895.930
G01 X245.966 Y899.401
G01 X247.097 Y902.903
G01 X248.004 Y906.428
G01 X248.690 Y909.965
G01 X249.159 Y913.508
G01 X249.415 Y917.049
G01 X249.465 Y920.582
G01 X249.311 Y924.101
G01 X248.958 Y927.603
G01 X248.412 Y931.082
G01 X247.675 Y934.535
G01 X246.752 Y937.959
G01 X245.645 Y941.352
G01 X244.359 Y944.710
G01 X242.894 Y948.030
G01 X241.254 Y951.310
G01 X239.440 Y954.548
G01 X237.453 Y957.738
G01 X235.296 Y960.878
G01 X232.968 Y963.964
G01 X230.472 Y966.990
G01 X227.808 Y969.951
G01 X224.978 Y972.841
G01 X221.983 Y975.653
G01 X218.827 Y978.380
G01 X215.512 Y981.013
G01 X212.042 Y983.544
G01 X208.421 Y985.965
G01 X204.654 Y988.264
G01 X200.748 Y990.434
G01 X196.710 Y992.464
G01 X192.550 Y994.344
G01 X188.275 Y996.065
G01 X183.899 Y997.617
G01 X179.431 Y998.991
G01 X174.886 Y1000.179
G01 X170.278 Y1001.174
G01 X165.620 Y1001.968
G01 X160.931 Y1002.556
G01 X156.224 Y1002.934
G01 X151.519 Y1003.098
G01 X146.832 Y1003.046
G01 X142.181 Y1002.777
G01 X137.584 Y1002.293
G01 X133.059 Y1001.596
G01 X128.622 Y1000.688
G01 X124.292 Y999.576
G01 X120.083 Y998.265
G01 X116.013 Y996.763
G01 X112.094 Y995.079
G01 X108.341 Y993.222
G01 X104.766 Y991.204
G01 X101.380 Y989.035
G01 X117.869 Y998.089
G01 X114.650 Y995.532
G01 X111.594 Y992.834
G01 X108.708 Y990.006
G01 X105.996 Y987.062
G01 X103.462 Y984.016
G01 X101.109 Y980.880
G01 X98.937 Y977.668
G01 X96.948 Y974.391
G01 X95.140 Y971.060
G01 X93.513 Y967.686
G01 X92.064 Y964.279
G01 X90.790 Y960.848
G01 X89.688 Y957.400
G01 X88.754 Y953.944
G01 X87.987 Y950.485
G01 X87.380 Y947.029
G01 X86.932 Y943.580
G01 X86.639 Y940.143
G01 X86.498 Y936.721
G01 X86.507 Y933.317
G01 X86.663 Y929.934
G01 X86.965 Y926.573
G01 X87.413 Y923.238
G01 X88.004 Y919.930
G01 X88.740 Y916.652
G01 X89.620 Y913.406
G01 X90.645 Y910.195
G01 X91.815 Y907.023
G01 X93.133 Y903.894
G01 X94.600 Y900.813
G01 X96.215 Y897.783
G01 X97.980 Y894.813
G01 X99.896 Y891.907
G01 X101.963 Y889.073
G01 X104.180 Y886.320
G01 X106.546 Y883.655
G01 X109.059 Y881.087
G01 X111.716 Y878.627
G01 X114.514 Y876.283
G01 X117.446 Y874.066
G01 X120.508 Y871.984
G01 X123.692 Y870.049
G01 X126.989 Y868.269
G01 X130.389 Y866.653
G01 X133.883 Y865.210
G01 X137.458 Y863.948
G01 X141.101 Y862.873
G01 X144.799 Y861.991
G01 X148.537 Y861.307
G01 X152.301 Y860.825
G01 X156.074 Y860.546
G01 X159.841 Y860.472
G01 X163.587 Y860.602
G01 X167.294 Y860.934
G01 X170.948 Y861.466
G01 X174.533 Y862.191
G01 X178.035 Y863.106
G01 X181.438 Y864.201
G01 X184.731 Y865.469
G01 X187.900 Y866.901
G01 X190.934 Y868.487
G01 X193.825 Y870.215
G01 X196.561 Y872.074
G01 X199.137 Y874.052
G01 X201.547 Y876.136
G01 X203.784 Y878.315
G01 X205.847 Y880.577
G01 X207.733 Y882.909
G01 X209.440 Y885.299
G01 X210.970 Y887.737
G01 X212.323 Y890.211
G01 X213.501 Y892.713
G01 X214.508 Y895.233
G01 X215.347 Y897.764
G01 X216.022 Y900.297
G01 X216.538 Y902.826
G01 X216.899 Y905.348
G01 X217.111 Y907.856
G01 X217.177 Y910.347
G01 X217.103 Y912.819
G01 X216.893 Y915.270
G01 X216.551 Y917.697
G01 X216.081 Y920.101
G01 X215.485 Y922.481
G01 X214.765 Y924.835
G01 X213.925 Y927.165
G01 X212.965 Y929.469
G01 X211.885 Y931.747
G01 X210.687 Y934.000
G01 X209.371 Y936.225
G01 X207.935 Y938.421
G01 X206.379 Y940.586
G01 X204.702 Y942.717
G01 X202.903 Y944.811
G01 X200.983 Y946.864
G01 X198.939 Y948.870
G01 X196.773 Y950.825
G01 X194.485 Y952.722
G01 X192.075 Y954.553
G01 X189.545 Y956.312
G01 X186.898 Y957.990
G01 X184.138 Y959.580
G01 X181.269 Y961.072
G01 X178.297 Y962.458
G01 X175.229 Y963.730
G01 X172.072 Y964.879
G01 X168.834 Y965.897
G01 X165.527 Y966.776
G01 X162.161 Y967.509
G01 X158.748 Y968.091
G01 X155.301 Y968.517
G01 X151.832 Y968.781
G01 X148.356 Y968.881
G01 X144.887 Y968.815
G01 X141.440 Y968.582
G01 X138.029 Y968.183
G01 X134.668 Y967.621
G01 X131.373 Y966.897
G01 X128.157 Y966.017
G01 X125.033 Y964.986
G01 X122.015 Y963.812
G01 X119.112 Y962.502
G01 X116.338 Y961.064
G01 X113.700 Y959.509
G01 X111.208 Y957.847
G01 X108.868 Y956.088
G01 X106.687 Y954.243
G01 X117.853 Y961.217
G01 X115.827 Y959.128
G01 X113.936 Y956.964
G01 X112.181 Y954.736
G01 X110.562 Y952.455
G01 X109.078 Y950.131
G01 X107.728 Y947.775
G01 X106.510 Y945.394
G01 X105.421 Y942.997
G01 X104.456 Y940.592
G01 X103.611 Y938.184
G01 X102.883 Y935.779
G01 X102.267 Y933.382
G01 X101.759 Y930.996
G01 X101.353 Y928.623
G01 X101.047 Y926.266
G01 X100.837 Y923.926
G01 X100.719 Y921.604
G01 X100.692 Y919.300
G01 X100.752 Y917.013
G01 X100.899 Y914.744
G01 X101.132 Y912.491
G01 X101.452 Y910.255
G01 X101.858 Y908.035
G01 X102.351 Y905.831
G01 X102.934 Y903.644
G01 X103.609 Y901.474
G01 X104.377 Y899.324
G01 X105.242 Y897.195
G01 X106.206 Y895.091
G01 X107.271 Y893.015
G01 X108.440 Y890.972
G01 X109.716 Y888.967
G01 X111.098 Y887.005
G01 X112.589 Y885.095
G01 X114.189 Y883.242
G01 X115.896 Y881.454
G01 X117.710 Y879.741
G01 X119.628 Y878.109
G01 X121.646 Y876.568
G01 X123.760 Y875.126
G01 X125.964 Y873.791
G01 X128.250 Y872.572
G01 X130.612 Y871.475
G01 X133.040 Y870.508
G01 X135.525 Y869.677
G01 X138.056 Y868.987
G01 X140.620 Y868.443
G01 X143.208 Y868.048
G01 X145.805 Y867.803
G01 X148.399 Y867.710
G01 X150.978 Y867.768
G01 X153.528 Y867.976
G01 X156.038 Y868.330
G01 X158.494 Y868.826
G01 X160.885 Y869.460
G01 X163.200 Y870.224
G01 X165.428 Y871.112
G01 X167.561 Y872.114
G01 X169.589 Y873.222
G01 X171.507 Y874.426
G01 X173.307 Y875.716
G01 X174.984 Y877.082
G01 X176.537 Y878.512
G01 X177.961 Y879.997
G01 X179.256 Y881.526
G01 X180.421 Y883.088
G01 X181.459 Y884.675
G01 X182.371 Y886.277
G01 X183.159 Y887.886
G01 X183.829 Y889.494
G01 X184.384 Y891.096
G01 X184.829 Y892.684
G01 X185.170 Y894.255
G01 X185.411 Y895.805
G01 X185.559 Y897.330
G01 X185.619 Y898.830
G01 X185.596 Y900.303
G01 X185.495 Y901.749
G01 X185.321 Y903.168
G01 X185.077 Y904.563
G01 X184.767 Y905.933
G01 X184.394 Y907.282
G01 X183.958 Y908.612
G01 X183.462 Y909.925
G01 X182.906 Y911.222
G01 X182.290 Y912.507
G01 X181.613 Y913.781
G01 X180.873 Y915.045
G01 X180.069 Y916.300
G01 X179.198 Y917.547
G01 X178.258 Y918.783
G01 X177.246 Y920.009
G01 X176.160 Y921.222
G01 X174.997 Y922.418
G01 X173.754 Y923.595
G01 X172.430 Y924.748
G01 X171.024 Y925.871
G01 X169.534 Y926.958
G01 X167.961 Y928.004
G01 X166.306 Y929.001
G01 X164.571 Y929.942
G01 X162.757 Y930.820
G01 X160.871 Y931.627
G01 X158.915 Y932.355
G01 X156.896 Y932.998
G01 X154.821 Y933.549
G01 X152.699 Y934.002
G01 X150.536 Y934.351
G01 X148.344 Y934.591
G01 X146.131 Y934.719
G01 X143.910 Y934.732
G01 X141.690 Y934.628
G01 X139.484 Y934.407
G01 X137.302 Y934.068
G01 X135.157 Y933.614
G01 X133.058 Y933.048
G01 X131.018 Y932.374
G01 X129.046 Y931.596
G01 X127.152 Y930.722
G01 X125.344 Y929.757
G01 X123.631 Y928.710
G01 X122.019 Y927.590
G01 X120.513 Y926.405
G01 X119.119 Y925.164
G01 X117.838 Y923.878
G01 X116.675 Y922.556
G01 X115.629 Y921.207
G01 X121.861 Y925.437
G01 X120.934 Y923.982
G01 X120.103 Y922.512
G01 X119.364 Y921.037
G01 X118.714 Y919.564
G01 X118.148 Y918.099
G01 X117.662 Y916.647
G01 X117.250 Y915.215
G01 X116.906 Y913.804
G01 X116.625 Y912.419
G01 X116.401 Y911.061
G01 X116.228 Y909.730
G01 X116.103 Y908.428
G01 X116.019 Y907.152
G01 X115.972 Y905.901
G01 X115.960 Y904.674
G01 X115.979 Y903.467
G01 X116.026 Y902.278
G01 X116.102 Y901.103
G01 X116.205 Y899.940
G01 X116.336 Y898.784
G01 X116.495 Y897.635
G01 X116.685 Y896.487
G01 X116.908 Y895.341
G01 X117.166 Y894.193
G01 X117.464 Y893.044
G01 X117.805 Y891.893
G01 X118.193 Y890.741
G01 X118.632 Y889.588
G01 X119.125 Y888.439
G01 X119.677 Y887.295
G01 X120.291 Y886.161
G01 X120.970 Y885.041
G01 X121.715 Y883.940
G01 X122.529 Y882.866
G01 X123.412 Y881.824
G01 X124.364 Y880.821
G01 X125.384 Y879.863
G01 X126.469 Y878.959
G01 X127.616 Y878.116
G01 X128.822 Y877.339
G01 X130.080 Y876.636
G01 X131.385 Y876.012
G01 X132.730 Y875.473
G01 X134.107 Y875.024
G01 X135.508 Y874.669
G01 X136.923 Y874.409
G01 X138.343 Y874.247
G01 X139.758 Y874.184
G01 X141.160 Y874.219
G01 X142.537 Y874.350
G01 X143.881 Y874.575
G01 X145.182 Y874.889
G01 X146.432 Y875.289
G01 X147.622 Y875.769
G01 X148.746 Y876.320
G01 X149.797 Y876.937
G01 X150.769 Y877.611
G01 X151.659 Y878.334
G01 X152.463 Y879.096
G01 X153.179 Y879.890
G01 X153.806 Y880.705
G01 X154.344 Y881.532
G01 X154.795 Y882.364
G01 X155.162 Y883.192
G01 X155.446 Y884.008
G01 X155.654 Y884.806
G01 X155.789 Y885.580
G01 X155.857 Y886.323
G01 X155.865 Y887.032
G01 X155.819 Y887.704
G01 X155.725 Y888.336
G01 X155.590 Y888.927
G01 X155.422 Y889.478
G01 X155.225 Y889.987
G01 X155.007 Y890.459
G01 X154.772 Y890.894
G01 X154.526 Y891.295
G01 X154.272 Y891.668
G01 X154.015 Y892.016
G01 X153.756 Y892.343
G01 X153.497 Y892.654
G01 X153.240 Y892.955
G01 X152.983 Y893.250
G01 X152.727 Y893.543
G01 X152.468 Y893.839
G01 X152.206 Y894.141
G01 X151.936 Y894.453
G01 X151.655 Y894.776
G01 X151.360 Y895.113
G01 X151.046 Y895.464
G01 X150.708 Y895.829
G01 X150.343 Y896.206
G01 X149.946 Y896.595
G01 X149.513 Y896.993
G01 X149.041 Y897.395
G01 X148.526 Y897.799
G01 X147.967 Y898.197
G01 X147.361 Y898.587
G01 X146.709 Y898.961
G01 X146.011 Y899.313
G01 X145.266 Y899.637
G01 X144.479 Y899.928
G01 X143.651 Y900.178
G01 X142.786 Y900.382
G01 X141.890 Y900.534
G01 X140.968 Y900.630
G01 X140.027 Y900.665
G01 X139.074 Y900.637
G01 X138.115 Y900.542
G01 X137.160 Y900.379
G01 X136.216 Y900.147
G01 X135.291 Y899.848
G01 X134.394 Y899.482
G01 X133.532 Y899.052
G01 X132.714 Y898.562
G01 X131.945 Y898.016
G01 X131.233 Y897.420
G01 X130.584 Y896.780
G01 X130.001 Y896.103
G01 X129.488 Y895.397
G01 X129.049 Y894.668
G01 X128.685 Y893.926
G01 X128.396 Y893.179
G01 X128.182 Y892.434
G01 X128.041 Y891.701
G01 X127.971 Y890.985
G01 X127.967 Y890.295
G01 X129.713 Y891.156
G01 X129.770 Y890.487
G01 X129.875 Y889.856
G01 X130.019 Y889.270
G01 X130.197 Y888.729
G01 X130.401 Y888.238
G01 X130.623 Y887.797
G01 X130.858 Y887.407
G01 X131.097 Y887.066
G01 X131.334 Y886.773
G01 X131.562 Y886.524
G01 X131.777 Y886.317
G01 X131.972 Y886.146
G01 X132.145 Y886.007
G01 X132.290 Y885.895
G01 X132.407 Y885.804
G01 X132.493 Y885.728
G01 X132.548 Y885.660
G01 X132.573 Y885.595
G01 X132.569 Y885.528
G01 X132.537 Y885.453
G01 X132.481 Y885.365
G01 X132.405 Y885.260
G01 X132.313 Y885.135
G01 X132.209 Y884.987
G01 X132.098 Y884.814
G01 X131.987 Y884.616
G01 X131.879 Y884.392
G01 X131.780 Y884.144
G01 X131.695 Y883.873
G01 X131.629 Y883.582
G01 X131.585 Y883.275
G01 X131.567 Y882.955
G01 X131.577 Y882.627
G01 X131.618 Y882.297
G01 X131.691 Y881.969
G01 X131.795 Y881.650
G01 X131.930 Y881.344
G01 X132.095 Y881.059
G01 X132.285 Y880.798
G01 X132.499 Y880.567
G01 X132.731 Y880.371
G01 X132.978 Y880.212
G01 X133.232 Y880.095
G01 X133.488 Y880.022
G01 X133.740 Y879.993
G01 X133.981 Y880.009
G01 X134.204 Y880.070
G01 X134.403 Y880.173
G01 X134.570 Y880.317
G01 X134.701 Y880.498
G01 X134.788 Y880.711
G01 X134.829 Y880.950
G01 X134.817 Y881.211
G01 X134.750 Y881.486
G01 X134.626 Y881.768
G01 X134.444 Y882.051
G01 X134.202 Y882.325
G01 X133.901 Y882.584
G01 X133.545 Y882.820
G01 X133.135 Y883.026
G01 X132.675 Y883.194
G01 X132.170 Y883.319
G01 X131.627 Y883.395
G01 X131.051 Y883.417
G01 X130.450 Y883.381
G01 X129.832 Y883.283
G01 X129.203 Y883.123
G01 X128.573 Y882.899
G01 X127.951 Y882.611
G01 X127.343 Y882.261
G01 X126.758 Y881.851
G01 X126.203 Y881.384
G01 X125.686 Y880.865
G01 X125.213 Y880.298
G01 X124.789 Y879.690
G01 X124.419 Y879.046
G01 X124.107 Y878.374
G01 X123.855 Y877.682
G01 X123.665 Y876.975
G01 X123.538 Y876.263
G01 X123.473 Y875.552
G01 X123.469 Y874.849
G01 X123.524 Y874.161
G01 X123.634 Y873.493
G01 X123.796 Y872.853
G01 X124.005 Y872.243
G01 X124.255 Y871.668
G01 X124.542 Y871.131
G01 X124.860 Y870.634
G01 X125.202 Y870.178
G01 X125.563 Y869.763
G01 X125.937 Y869.389
G01 X126.318 Y869.053
G01 X126.702 Y868.753
G01 X127.085 Y868.486
G01 X127.462 Y868.248
G01 X127.830 Y868.034
G01 X128.187 Y867.840
G01 X128.532 Y867.661
G01 X128.865 Y867.492
G01 X129.185 Y867.328
G01 X129.494 Y867.163
G01 X129.794 Y866.993
G01 X130.087 Y866.814
G01 X130.377 Y866.623
G01 X130.669 Y866.416
G01 X130.965 Y866.192
G01 X131.273 Y865.949
G01 X131.595 Y865.687
G01 X131.938 Y865.407
G01 X132.306 Y865.109
G01 X132.704 Y864.796
G01 X133.136 Y864.471
G01 X133.607 Y864.139
G01 X134.118 Y863.805
G01 X134.674 Y863.473
G01 X135.275 Y863.150
G01 X135.922 Y862.842
G01 X136.614 Y862.556
G01 X137.351 Y862.299
G01 X138.129 Y862.078
G01 X138.946 Y861.898
G01 X139.797 Y861.768
G01 X140.677 Y861.692
G01 X141.578 Y861.675
G01 X142.495 Y861.723
G01 X143.419 Y861.839
G01 X141.185 Y858.757
G01 X142.093 Y859.007
G01 X142.990 Y859.340
G01 X143.869 Y859.756
G01 X144.720 Y860.254
G01 X145.534 Y860.830
G01 X146.303 Y861.482
G01 X147.017 Y862.204
G01 X147.671 Y862.992
G01 X148.257 Y863.839
G01 X148.769 Y864.737
G01 X149.202 Y865.680
G01 X149.552 Y866.659
G01 X149.816 Y867.664
G01 X149.992 Y868.688
G01 X150.080 Y869.722
G01 X150.080 Y870.756
G01 X149.992 Y871.783
G01 X149.820 Y872.795
G01 X149.567 Y873.783
G01 X149.237 Y874.742
G01 X148.835 Y875.664
G01 X148.366 Y876.546
G01 X147.836 Y877.382
G01 X147.251 Y878.169
G01 X146.617 Y878.905
G01 X145.942 Y879.589
G01 X145.230 Y880.220
G01 X144.489 Y880.798
G01 X143.724 Y881.325
G01 X142.939 Y881.803
G01 X142.140 Y882.235
G01 X141.331 Y882.624
G01 X140.513 Y882.974
G01 X139.690 Y883.288
G01 X138.863 Y883.571
G01 X138.033 Y883.827
G01 X137.198 Y884.060
G01 X136.360 Y884.274
G01 X135.514 Y884.472
G01 X134.661 Y884.657
G01 X133.795 Y884.831
G01 X132.915 Y884.996
G01 X132.016 Y885.152
G01 X131.095 Y885.300
G01 X130.148 Y885.438
G01 X129.171 Y885.565
G01 X128.161 Y885.678
G01 X127.115 Y885.773
G01 X126.030 Y885.847
G01 X124.904 Y885.894
G01 X123.737 Y885.909
G01 X122.527 Y885.887
G01 X121.277 Y885.820
G01 X119.986 Y885.703
G01 X118.659 Y885.529
G01 X117.298 Y885.292
G01 X115.909 Y884.985
G01 X114.497 Y884.603
G01 X113.068 Y884.140
G01 X111.631 Y883.592
G01 X110.194 Y882.956
G01 X108.765 Y882.228
G01 X107.353 Y881.406
G01 X105.970 Y880.491
G01 X104.624 Y879.481
G01 X103.326 Y878.378
G01 X102.087 Y877.186
G01 X100.915 Y875.908
G01 X99.821 Y874.548
G01 X98.812 Y873.113
G01 X97.898 Y871.610
G01 X97.086 Y870.046
G01 X96.382 Y868.430
G01 X95.792 Y866.771
G01 X95.320 Y865.078
G01 X94.969 Y863.362
G01 X94.741 Y861.632
G01 X94.636 Y859.899
G01 X94.656 Y858.172
G01 X94.797 Y856.462
G01 X95.058 Y854.777
G01 X95.435 Y853.126
G01 X95.922 Y851.517
G01 X96.516 Y849.957
G01 X97.209 Y848.452
G01 X97.996 Y847.007
G01 X98.870 Y845.628
G01 X99.822 Y844.316
G01 X100.847 Y843.074
G01 X101.936 Y841.904
G01 X103.082 Y840.804
G01 X104.280 Y839.776
G01 X105.522 Y838.817
G01 X106.803 Y837.926
G01 X108.118 Y837.098
G01 X109.462 Y836.332
G01 X110.831 Y835.622
G01 X112.223 Y834.967
G01 X113.636 Y834.361
G01 X115.067 Y833.801
G01 X116.517 Y833.282
G01 X117.985 Y832.803
G01 X119.472 Y832.360
G01 X120.979 Y831.950
G01 X122.508 Y831.573
G01 X124.060 Y831.226
G01 X125.638 Y830.911
G01 X127.242 Y830.627
G01 X128.876 Y830.376
G01 X130.540 Y830.161
G01 X132.236 Y829.983
G01 X133.964 Y829.847
G01 X135.724 Y829.757
G01 X137.515 Y829.718
G01 X139.337 Y829.735
G01 X141.186 Y829.813
G01 X143.059 Y829.958
G01 X144.951 Y830.175
G01 X146.857 Y830.471
G01 X148.771 Y830.849
G01 X150.685 Y831.316
G01 X152.591 Y831.874
G01 X154.480 Y832.528
G01 X156.343 Y833.280
G01 X158.169 Y834.131
G01 X159.947 Y835.083
G01 X161.666 Y836.136
G01 X156.013 Y828.584
G01 X157.621 Y829.868
G01 X159.157 Y831.269
G01 X160.610 Y832.780
G01 X161.970 Y834.396
G01 X163.227 Y836.110
G01 X164.373 Y837.913
G01 X165.399 Y839.797
G01 X166.297 Y841.751
G01 X167.063 Y843.764
G01 X167.692 Y845.826
G01 X168.178 Y847.926
G01 X168.521 Y850.051
G01 X168.719 Y852.190
G01 X168.772 Y854.331
G01 X168.680 Y856.463
G01 X168.448 Y858.575
G01 X168.077 Y860.657
G01 X167.573 Y862.699
G01 X166.940 Y864.692
G01 X166.184 Y866.630
G01 X165.312 Y868.504
G01 X164.332 Y870.308
G01 X163.249 Y872.039
G01 X162.072 Y873.691
G01 X160.808 Y875.263
G01 X159.464 Y876.752
G01 X158.047 Y878.157
G01 X156.565 Y879.479
G01 X155.022 Y880.718
G01 X153.424 Y881.875
G01 X151.777 Y882.952
G01 X150.085 Y883.951
G01 X148.351 Y884.876
G01 X146.577 Y885.727
G01 X144.766 Y886.508
G01 X142.920 Y887.222
G01 X141.038 Y887.870
G01 X139.122 Y888.453
G01 X137.170 Y888.975
G01 X135.182 Y889.434
G01 X133.158 Y889.830
G01 X131.096 Y890.164
G01 X128.995 Y890.434
G01 X126.855 Y890.638
G01 X124.675 Y890.772
G01 X122.455 Y890.834
G01 X120.195 Y890.820
G01 X117.897 Y890.724
G01 X115.563 Y890.542
G01 X113.196 Y890.268
G01 X110.798 Y889.898
G01 X108.375 Y889.425
G01 X105.933 Y888.844
G01 X103.477 Y888.149
G01 X101.017 Y887.337
G01 X98.559 Y886.402
G01 X96.114 Y885.341
G01 X93.692 Y884.152
G01 X91.304 Y882.832
G01 X88.961 Y881.380
G01 X86.674 Y879.796
G01 X84.457 Y878.083
G01 X82.322 Y876.242
G01 X80.280 Y874.277
G01 X78.344 Y872.194
G01 X76.526 Y869.999
G01 X74.836 Y867.698
G01 X73.285 Y865.301
G01 X71.883 Y862.817
G01 X70.637 Y860.257
G01 X69.557 Y857.632
G01 X68.648 Y854.953
G01 X67.916 Y852.233
G01 X67.364 Y849.485
G01 X66.994 Y846.721
G01 X66.809 Y843.954
G01 X66.807 Y841.197
G01 X66.988 Y838.463
G01 X67.349 Y835.762
G01 X67.885 Y833.106
G01 X68.593 Y830.507
G01 X69.466 Y827.972
G01 X70.498 Y825.512
G01 X71.681 Y823.133
G01 X73.007 Y820.842
G01 X74.469 Y818.645
G01 X76.058 Y816.546
G01 X77.766 Y814.548
G01 X79.583 Y812.654
G01 X81.502 Y810.864
G01 X83.515 Y809.180
G01 X85.615 Y807.601
G01 X87.793 Y806.125
G01 X90.045 Y804.752
G01 X92.363 Y803.478
G01 X94.743 Y802.302
G01 X97.181 Y801.221
G01 X99.673 Y800.232
G01 X102.215 Y799.332
G01 X104.805 Y798.520
G01 X107.441 Y797.793
G01 X110.121 Y797.150
G01 X112.844 Y796.589
G01 X115.609 Y796.111
G01 X118.415 Y795.714
G01 X121.260 Y795.401
G01 X124.144 Y795.172
G01 X127.064 Y795.030
G01 X130.020 Y794.977
G01 X133.007 Y795.017
G01 X136.024 Y795.153
G01 X139.066 Y795.389
G01 X142.128 Y795.731
G01 X145.205 Y796.181
G01 X148.290 Y796.745
G01 X151.376 Y797.427
G01 X154.453 Y798.232
G01 X157.513 Y799.162
G01 X160.546 Y800.222
G01 X163.540 Y801.412
G01 X166.483 Y802.736
G01 X169.363 Y804.194
G01 X172.168 Y805.785
G01 X174.883 Y807.508
G01 X177.495 Y809.361
G01 X179.992 Y811.339
G01 X182.359 Y813.437
G01 X173.900 Y800.945
G01 X176.047 Y803.355
G01 X178.057 Y805.903
G01 X179.917 Y808.580
G01 X181.616 Y811.373
G01 X183.147 Y814.272
G01 X184.499 Y817.263
G01 X185.666 Y820.334
G01 X186.643 Y823.470
G01 X187.424 Y826.656
G01 X188.006 Y829.880
G01 X188.388 Y833.125
G01 X188.569 Y836.377
G01 X188.550 Y839.622
G01 X188.333 Y842.847
G01 X187.922 Y846.038
G01 X187.320 Y849.183
G01 X186.534 Y852.270
G01 X185.570 Y855.289
G01 X184.434 Y858.230
G01 X183.134 Y861.083
G01 X181.678 Y863.843
G01 X180.074 Y866.501
G01 X178.331 Y869.054
G01 X176.457 Y871.496
G01 X174.461 Y873.825
G01 X172.349 Y876.037
G01 X170.130 Y878.132
G01 X167.810 Y880.108
G01 X165.397 Y881.965
G01 X162.896 Y883.703
G01 X160.312 Y885.324
G01 X157.651 Y886.827
G01 X154.916 Y888.214
G01 X152.111 Y889.485
G01 X149.239 Y890.642
G01 X146.303 Y891.683
G01 X143.303 Y892.611
G01 X140.244 Y893.423
G01 X137.125 Y894.120
G01 X133.950 Y894.699
G01 X130.719 Y895.159
G01 X127.436 Y895.497
G01 X124.101 Y895.710
G01 X120.718 Y895.794
G01 X117.291 Y895.746
G01 X113.824 Y895.560
G01 X110.321 Y895.233
G01 X106.788 Y894.758
G01 X103.233 Y894.132
G01 X99.662 Y893.349
G01 X96.084 Y892.405
G01 X92.509 Y891.296
G01 X88.948 Y890.019
G01 X85.412 Y888.569
G01 X81.912 Y886.945
G01 X78.463 Y885.147
G01 X75.077 Y883.173
G01 X71.769 Y881.024
G01 X68.553 Y878.704
G01 X65.443 Y876.215
G01 X62.455 Y873.562
G01 X59.603 Y870.751
G01 X56.900 Y867.791
G01 X54.361 Y864.688
G01 X51.998 Y861.455
G01 X49.823 Y858.100
G01 X47.849 Y854.638
G01 X46.085 Y851.081
G01 X44.539 Y847.442
G01 X43.220 Y843.737
G01 X42.133 Y839.981
G01 X41.284 Y836.188
G01 X40.675 Y832.376
G01 X40.309 Y828.558
G01 X40.185 Y824.752
G01 X40.304 Y820.971
G01 X40.661 Y817.231
G01 X41.255 Y813.544
G01 X42.078 Y809.926
G01 X43.127 Y806.386
G01 X44.393 Y802.938
G01 X45.868 Y799.591
G01 X47.545 Y796.354
G01 X49.415 Y793.235
G01 X51.467 Y790.240
G01 X53.694 Y787.376
G01 X56.084 Y784.647
G01 X58.629 Y782.056
G01 X61.319 Y779.605
G01 X64.145 Y777.296
G01 X67.099 Y775.131
G01 X70.172 Y773.108
G01 X73.357 Y771.227
G01 X76.646 Y769.488
G01 X80.034 Y767.890
G01 X83.514 Y766.430
G01 X87.080 Y765.108
G01 X90.729 Y763.922
G01 X94.454 Y762.872
G01 X98.253 Y761.956
G01 X102.120 Y761.175
G01 X106.052 Y760.528
G01 X110.046 Y760.016
G01 X114.097 Y759.640
G01 X118.202 Y759.402
G01 X122.354 Y759.304
G01 X126.551 Y759.348
G01 X130.785 Y759.538
G01 X135.051 Y759.876
G01 X139.341 Y760.366
G01 X143.648 Y761.012
G01 X147.962 Y761.818
G01 X152.275 Y762.786
G01 X156.575 Y763.921
G01 X160.851 Y765.224
G01 X165.091 Y766.699
G01 X169.280 Y768.347
G01 X173.406 Y770.168
G01 X177.453 Y772.162
G01 X181.406 Y774.328
G01 X185.250 Y776.664
G01 X188.968 Y779.166
G01 X192.545 Y781.829
G01 X195.965 Y784.647
G01 X199.212 Y787.612
G01 X202.271 Y790.716
G01 X205.127 Y793.949
G01 X194.522 Y776.105
G01 X197.041 Y779.710
G01 X199.354 Y783.463
G01 X201.450 Y787.351
G01 X203.319 Y791.357
G01 X204.952 Y795.467
G01 X206.343 Y799.662
G01 X207.487 Y803.925
G01 X208.378 Y808.240
G01 X209.015 Y812.589
G01 X209.396 Y816.954
G01 X209.522 Y821.319
G01 X209.395 Y825.665
G01 X209.017 Y829.979
G01 X208.393 Y834.243
G01 X207.529 Y838.444
G01 X206.431 Y842.568
G01 X205.106 Y846.602
G01 X203.562 Y850.536
G01 X201.807 Y854.358
G01 X199.851 Y858.060
G01 X197.702 Y861.633
G01 X195.370 Y865.071
G01 X192.864 Y868.368
G01 X190.193 Y871.519
G01 X187.366 Y874.519
G01 X184.391 Y877.367
G01 X181.276 Y880.058
G01 X178.028 Y882.592
G01 X174.656 Y884.966
G01 X171.165 Y887.180
G01 X167.561 Y889.233
G01 X163.850 Y891.123
G01 X160.037 Y892.850
G01 X156.127 Y894.412
G01 X152.124 Y895.808
G01 X148.033 Y897.038
G01 X143.857 Y898.097
G01 X139.602 Y898.985
G01 X135.271 Y899.697
G01 X130.869 Y900.232
G01 X126.402 Y900.585
G01 X121.874 Y900.752
G01 X117.294 Y900.729
G01 X112.666 Y900.511
G01 X108.000 Y900.094
G01 X103.304 Y899.474
G01 X98.588 Y898.645
G01 X93.862 Y897.603
G01 X89.138 Y896.346
G01 X84.428 Y894.869
G01 X79.746 Y893.169
G01 X75.106 Y891.247
G01 X70.524 Y889.099
G01 X66.014 Y886.728
G01 X61.594 Y884.133
G01 X57.280 Y881.319
G01 X53.089 Y878.289
G01 X49.037 Y875.049
G01 X45.143 Y871.606
G01 X41.422 Y867.968
G01 X37.892 Y864.144
G01 X34.567 Y860.147
G01 X31.464 Y855.989
G01 X28.594 Y851.683
G01 X25.973 Y847.244
G01 X23.611 Y842.688
G01 X21.519 Y838.032
G01 X19.706 Y833.293
G01 X18.179 Y828.490
G01 X16.944 Y823.640
G01 X16.005 Y818.762
G01 X15.365 Y813.874
G01 X15.026 Y808.995
G01 X14.985 Y804.143
G01 X15.242 Y799.335
G01 X15.793 Y794.587
G01 X16.633 Y789.916
G01 X17.756 Y785.337
G01 X19.156 Y780.864
G01 X20.823 Y776.509
G01 X22.749 Y772.284
G01 X24.925 Y768.200
G01 X27.341 Y764.266
G01 X29.987 Y760.489
G01 X32.851 Y756.877
G01 X35.925 Y753.435
G01 X39.196 Y750.169
G01 X42.655 Y747.081
G01 X46.292 Y744.174
G01 X50.097 Y741.450
G01 X54.061 Y738.911
G01 X58.175 Y736.558
G01 X62.430 Y734.391
G01 X66.820 Y732.410
G01 X71.335 Y730.615
G01 X75.970 Y729.006
G01 X80.717 Y727.584
G01 X85.569 Y726.349
G01 X90.521 Y725.300
G01 X95.565 Y724.440
G01 X100.696 Y723.769
G01 X105.906 Y723.289
G01 X111.189 Y723.001
G01 X116.537 Y722.909
G01 X121.942 Y723.014
G01 X127.396 Y723.319
G01 X132.888 Y723.828
G01 X138.411 Y724.544
G01 X143.951 Y725.469
G01 X149.498 Y726.606
G01 X155.038 Y727.958
G01 X160.558 Y729.527
G01 X166.043 Y731.315
G01 X171.478 Y733.322
G01 X176.847 Y735.548
G01 X182.132 Y737.993
G01 X187.316 Y740.655
G01 X192.380 Y743.530
G01 X197.308 Y746.614
G01 X202.079 Y749.901
G01 X206.675 Y753.384
G01 X211.078 Y757.055
G01 X215.270 Y760.903
G01 X219.233 Y764.918
G01 X222.950 Y769.086
G01 X226.406 Y773.394
G01 X229.586 Y777.827
G01 X217.542 Y754.284
G01 X220.261 Y759.129
G01 X222.706 Y764.123
G01 X224.867 Y769.248
G01 X226.736 Y774.482
G01 X228.306 Y779.808
G01 X229.572 Y785.203
G01 X230.532 Y790.649
G01 X231.182 Y796.124
G01 X231.523 Y801.608
G01 X231.555 Y807.082
G01 X231.283 Y812.527
G01 X230.709 Y817.924
G01 X229.840 Y823.256
G01 X228.680 Y828.506
G01 X227.239 Y833.659
G01 X225.523 Y838.701
G01 X223.542 Y843.618
G01 X221.306 Y848.399
G01 X218.823 Y853.032
G01 X216.104 Y857.508
G01 X213.158 Y861.818
G01 X209.997 Y865.955
G01 X206.629 Y869.911
G01 X203.064 Y873.683
G01 X199.312 Y877.264
G01 X195.381 Y880.650
G01 X191.281 Y883.838
G01 X187.019 Y886.823
G01 X182.603 Y889.604
G01 X178.040 Y892.177
G01 X173.338 Y894.539
G01 X168.504 Y896.688
G01 X163.544 Y898.620
G01 X158.464 Y900.333
G01 X153.272 Y901.822
G01 X147.974 Y903.085
G01 X142.576 Y904.118
G01 X137.087 Y904.916
G01 X131.515 Y905.474
G01 X125.866 Y905.789
G01 X120.152 Y905.856
G01 X114.381 Y905.670
G01 X108.564 Y905.225
G01 X102.713 Y904.519
G01 X96.840 Y903.545
G01 X90.959 Y902.302
G01 X85.085 Y900.784
G01 X79.233 Y898.991
G01 X73.419 Y896.920
G01 X67.660 Y894.571
G01 X61.975 Y891.944
G01 X56.381 Y889.041
G01 X50.898 Y885.864
G01 X45.546 Y882.420
G01 X40.343 Y878.712
G01 X35.310 Y874.750
G01 X30.466 Y870.542
G01 X25.830 Y866.098
G01 X21.420 Y861.430
G01 X17.255 Y856.553
G01 X13.351 Y851.482
G01 X9.725 Y846.231
G01 X6.392 Y840.820
G01 X5.000 Y838.268
G01 X5.000 Y737.070
G01 X6.903 Y734.029
G01 X10.145 Y729.481
G01 X13.650 Y725.133
G01 X17.408 Y720.993
G01 X21.405 Y717.068
G01 X25.633 Y713.361
G01 X30.078 Y709.877
G01 X34.732 Y706.620
G01 X39.582 Y703.592
G01 X44.621 Y700.796
G01 X49.837 Y698.233
G01 X55.221 Y695.906
G01 X60.765 Y693.815
G01 X66.458 Y691.962
G01 X72.294 Y690.349
G01 X78.262 Y688.977
G01 X84.354 Y687.848
G01 X90.562 Y686.964
G01 X96.875 Y686.327
G01 X103.284 Y685.940
G01 X109.779 Y685.806
G01 X116.349 Y685.926
G01 X122.984 Y686.304
G01 X129.670 Y686.943
G01 X136.394 Y687.846
G01 X143.144 Y689.014
G01 X149.903 Y690.451
G01 X156.656 Y692.157
G01 X163.387 Y694.135
G01 X170.078 Y696.384
G01 X176.709 Y698.904
G01 X183.263 Y701.694
G01 X189.719 Y704.751
G01 X196.057 Y708.071
G01 X202.256 Y711.650
G01 X208.294 Y715.480
G01 X214.150 Y719.555
G01 X219.804 Y723.864
G01 X225.234 Y728.397
G01 X230.419 Y733.142
G01 X235.340 Y738.084
G01 X239.977 Y743.209
G01 X244.313 Y748.499
G01 X248.330 Y753.937
G01 X252.013 Y759.504
G01 X255.347 Y765.181
G01 X242.610 Y735.660
G01 X245.357 Y741.770
G01 X247.765 Y748.020
G01 X249.824 Y754.386
G01 X251.529 Y760.845
G01 X252.875 Y767.375
G01 X253.860 Y773.951
G01 X254.482 Y780.552
G01 X254.743 Y787.154
G01 X254.644 Y793.735
G01 X254.189 Y800.274
G01 X253.384 Y806.750
G01 X252.234 Y813.144
G01 X250.746 Y819.437
G01 X248.929 Y825.612
G01 X246.792 Y831.654
G01 X244.345 Y837.546
G01 X241.598 Y843.275
G01 X238.560 Y848.828
G01 X235.244 Y854.195
G01 X231.659 Y859.365
G01 X227.817 Y864.328
G01 X223.728 Y869.076
G01 X219.403 Y873.602
G01 X214.852 Y877.898
G01 X210.084 Y881.959
G01 X205.110 Y885.778
G01 X199.939 Y889.351
G01 X194.580 Y892.673
G01 X189.043 Y895.737
G01 X183.334 Y898.541
G01 X177.465 Y901.078
G01 X171.443 Y903.345
G01 X165.277 Y905.336
G01 X158.975 Y907.045
G01 X152.549 Y908.469
G01 X146.007 Y909.601
G01 X139.359 Y910.437
G01 X132.618 Y910.971
G01 X125.794 Y911.196
G01 X118.900 Y911.110
G01 X111.950 Y910.705
G01 X104.958 Y909.978
G01 X97.939 Y908.924
G01 X90.910 Y907.541
G01 X83.889 Y905.824
G01 X76.893 Y903.773
G01 X69.942 Y901.386
G01 X63.056 Y898.663
G01 X56.256 Y895.607
G01 X49.562 Y892.220
G01 X42.997 Y888.506
G01 X36.582 Y884.472
G01 X30.341 Y880.125
G01 X24.295 Y875.475
G01 X18.465 Y870.532
G01 X12.875 Y865.310
G01 X7.544 Y859.822
G01 X5.000 Y856.934
G01 X5.000 Y683.205
G01 X5.374 Y682.844
G01 X10.369 Y678.533
G01 X15.623 Y674.489
G01 X21.123 Y670.718
G01 X26.858 Y667.224
G01 X32.816 Y664.010
G01 X38.987 Y661.080
G01 X45.359 Y658.438
G01 X51.922 Y656.086
G01 X58.665 Y654.027
G01 X65.578 Y652.264
G01 X72.648 Y650.801
G01 X79.866 Y649.640
G01 X87.218 Y648.784
G01 X94.694 Y648.236
G01 X102.281 Y648.000
G01 X109.964 Y648.079
G01 X117.731 Y648.476
G01 X125.566 Y649.193
G01 X133.453 Y650.233
G01 X141.376 Y651.599
G01 X149.316 Y653.292
G01 X157.256 Y655.313
G01 X165.176 Y657.663
G01 X173.054 Y660.340
G01 X180.870 Y663.344
G01 X188.602 Y666.672
G01 X196.226 Y670.319
G01 X203.720 Y674.281
G01 X211.060 Y678.550
G01 X218.221 Y683.118
G01 X225.180 Y687.975
G01 X231.913 Y693.109
G01 X238.397 Y698.508
G01 X244.608 Y704.157
G01 X250.524 Y710.038
G01 X256.123 Y716.135
G01 X261.385 Y722.428
G01 X266.291 Y728.896
G01 X270.824 Y735.518
G01 X274.966 Y742.270
G01 X278.704 Y749.129
G01 X282.024 Y756.072
G01 X269.375 Y720.372
G01 X271.983 Y727.751
G01 X274.187 Y735.252
G01 X275.983 Y742.847
G01 X277.366 Y750.512
G01 X278.334 Y758.219
G01 X278.888 Y765.943
G01 X279.029 Y773.660
G01 X278.760 Y781.344
G01 X278.086 Y788.972
G01 X277.012 Y796.523
G01 X275.546 Y803.973
G01 X273.696 Y811.303
G01 X271.471 Y818.493
G01 X268.881 Y825.526
G01 X265.936 Y832.385
G01 X262.648 Y839.053
G01 X259.027 Y845.518
G01 X255.085 Y851.764
G01 X250.834 Y857.781
G01 X246.284 Y863.557
G01 X241.448 Y869.082
G01 X236.337 Y874.345
G01 X230.963 Y879.339
G01 X225.335 Y884.055
G01 X219.466 Y888.485
G01 X213.366 Y892.621
G01 X207.045 Y896.457
G01 X200.514 Y899.986
G01 X193.784 Y903.200
G01 X186.866 Y906.094
G01 X179.770 Y908.659
G01 X172.507 Y910.890
G01 X165.091 Y912.780
G01 X157.531 Y914.323
G01 X149.843 Y915.510
G01 X142.038 Y916.337
G01 X134.132 Y916.797
G01 X126.140 Y916.884
G01 X118.078 Y916.592
G01 X109.963 Y915.916
G01 X101.813 Y914.853
G01 X93.647 Y913.398
G01 X85.487 Y911.549
G01 X77.352 Y909.304
G01 X69.266 Y906.663
G01 X61.250 Y903.627
G01 X53.328 Y900.199
G01 X45.525 Y896.382
G01 X37.864 Y892.182
G01 X30.372 Y887.607
G01 X23.071 Y882.666
G01 X15.988 Y877.369
G01 X9.147 Y871.730
G01 X5.000 Y867.967
G01 X5.000 Y636.791
G01 X9.387 Y633.840
G01 X16.004 Y629.897
G01 X22.879 Y626.287
G01 X29.999 Y623.015
G01 X37.353 Y620.085
G01 X44.927 Y617.503
G01 X52.709 Y615.272
G01 X60.686 Y613.398
G01 X68.844 Y611.884
G01 X77.169 Y610.734
G01 X85.647 Y609.954
G01 X94.264 Y609.546
G01 X103.002 Y609.514
G01 X111.846 Y609.863
G01 X120.779 Y610.594
G01 X129.780 Y611.711
G01 X138.832 Y613.216
G01 X147.914 Y615.109
G01 X157.003 Y617.393
G01 X166.079 Y620.067
G01 X175.117 Y623.128
G01 X184.093 Y626.575
G01 X192.983 Y630.404
G01 X201.760 Y634.609
G01 X210.400 Y639.183
G01 X218.874 Y644.118
G01 X227.157 Y649.404
G01 X235.221 Y655.028
G01 X243.042 Y660.978
G01 X250.591 Y667.237
G01 X257.844 Y673.788
G01 X264.776 Y680.613
G01 X271.363 Y687.690
G01 X277.583 Y694.999
G01 X283.414 Y702.515
G01 X288.835 Y710.215
G01 X293.830 Y718.071
G01 X298.382 Y726.057
G01 X302.475 Y734.147
G01 X306.098 Y742.311
G01 X309.240 Y750.522
G01 X297.489 Y708.519
G01 X299.794 Y717.156
G01 X301.637 Y725.887
G01 X303.014 Y734.685
G01 X303.925 Y743.521
G01 X304.370 Y752.366
G01 X304.351 Y761.194
G01 X303.873 Y769.977
G01 X302.941 Y778.690
G01 X301.563 Y787.309
G01 X299.745 Y795.809
G01 X297.498 Y804.169
G01 X294.831 Y812.368
G01 X291.754 Y820.384
G01 X288.279 Y828.201
G01 X284.418 Y835.800
G01 X280.182 Y843.165
G01 X275.584 Y850.280
G01 X270.636 Y857.132
G01 X265.351 Y863.708
G01 X259.740 Y869.994
G01 X253.817 Y875.979
G01 X247.593 Y881.652
G01 X241.081 Y887.003
G01 X234.293 Y892.022
G01 X227.242 Y896.698
G01 X219.938 Y901.023
G01 X212.396 Y904.987
G01 X204.628 Y908.582
G01 X196.646 Y911.798
G01 X188.465 Y914.627
G01 X180.097 Y917.062
G01 X171.558 Y919.092
G01 X162.863 Y920.711
G01 X154.027 Y921.910
G01 X145.069 Y922.683
G01 X136.004 Y923.022
G01 X126.854 Y922.921
G01 X117.636 Y922.374
G01 X108.373 Y921.377
G01 X99.086 Y919.926
G01 X89.798 Y918.017
G01 X80.533 Y915.650
G01 X71.316 Y912.825
G01 X62.172 Y909.543
G01 X53.129 Y905.808
G01 X44.212 Y901.623
G01 X35.449 Y896.996
G01 X26.867 Y891.935
G01 X18.493 Y886.452
G01 X10.356 Y880.557
G01 X5.000 Y876.278
G01 X5.000 Y592.963
G01 X7.131 Y591.720
G01 X14.922 Y587.731
G01 X22.989 Y584.137
G01 X31.319 Y580.944
G01 X39.896 Y578.159
G01 X48.706 Y575.787
G01 X57.734 Y573.834
G01 X66.964 Y572.306
G01 X76.378 Y571.209
G01 X85.960 Y570.546
G01 X95.692 Y570.324
G01 X105.555 Y570.545
G01 X115.529 Y571.214
G01 X125.592 Y572.334
G01 X135.723 Y573.906
G01 X145.898 Y575.933
G01 X156.094 Y578.415
G01 X166.286 Y581.350
G01 X176.446 Y584.738
G01 X186.550 Y588.573
G01 X196.568 Y592.853
G01 X206.473 Y597.569
G01 X216.236 Y602.715
G01 X225.827 Y608.279
G01 X235.218 Y614.250
G01 X244.378 Y620.614
G01 X253.280 Y627.356
G01 X261.894 Y634.458
G01 X270.193 Y641.899
G01 X278.148 Y649.660
G01 X285.735 Y657.717
G01 X292.928 Y666.045
G01 X299.703 Y674.618
G01 X306.038 Y683.409
G01 X311.915 Y692.389
G01 X317.313 Y701.527
G01 X322.216 Y710.794
G01 X326.611 Y720.158
G01 X330.485 Y729.588
G01 X333.827 Y739.052
G01 X336.631 Y748.518
G01 X326.608 Y700.173
G01 X328.456 Y710.039
G01 X329.785 Y719.968
G01 X330.597 Y729.929
G01 X330.892 Y739.891
G01 X330.674 Y749.824
G01 X329.949 Y759.701
G01 X328.722 Y769.493
G01 X327.001 Y779.174
G01 X324.795 Y788.718
G01 X322.114 Y798.101
G01 X318.969 Y807.300
G01 X315.371 Y816.292
G01 X311.332 Y825.058
G01 X306.865 Y833.578
G01 X301.981 Y841.833
G01 X296.695 Y849.806
G01 X291.019 Y857.480
G01 X284.967 Y864.841
G01 X278.552 Y871.874
G01 X271.787 Y878.563
G01 X264.687 Y884.897
G01 X257.264 Y890.863
G01 X249.532 Y896.447
G01 X241.506 Y901.639
G01 X233.199 Y906.426
G01 X224.626 Y910.797
G01 X215.802 Y914.741
G01 X206.743 Y918.247
G01 X197.463 Y921.305
G01 X187.981 Y923.905
G01 X178.314 Y926.037
G01 X168.480 Y927.692
G01 X158.498 Y928.860
G01 X148.390 Y929.534
G01 X138.175 Y929.706
G01 X127.878 Y929.371
G01 X117.520 Y928.521
G01 X107.128 Y927.154
G01 X96.727 Y925.265
G01 X86.343 Y922.854
G01 X76.004 Y919.921
G01 X65.738 Y916.467
G01 X55.575 Y912.495
G01 X45.544 Y908.012
G01 X35.674 Y903.025
G01 X25.997 Y897.543
G01 X16.542 Y891.577
G01 X7.338 Y885.143
G01 X5.000 Y883.338
G01 X5.000 Y550.488
G01 X9.050 Y548.463
G01 X18.063 Y544.565
G01 X27.364 Y541.130
G01 X36.938 Y538.165
G01 X46.767 Y535.678
G01 X56.833 Y533.677
G01 X67.118 Y532.169
G01 X77.603 Y531.159
G01 X88.266 Y530.653
G01 X99.088 Y530.657
G01 X110.044 Y531.175
G01 X121.113 Y532.211
G01 X132.270 Y533.767
G01 X143.489 Y535.845
G01 X154.743 Y538.446
G01 X166.006 Y541.568
