; file trimmed by trimify2x.pl
; Created by Sandify
; 
;   https://jeffeb3.github.io/sandify/
; 
;   Sandify Version: 0.1.3
; 
;   Machine Type: Rectangular
;     MinX: 5 MaxX: 710 MinY: 5 MaxY: 1600
;   Content Type: Shapes
;     Starting Size: 56
;     Offset: X: -395 Y: 81
;     Selected Shape: None
;     Number of Loops: 493
;     Spin: true
;       Spin Value: -1.5
;       Spin Switchbacks: 2
;     Grow: true
;       Grow Value: -24
;     Track: true
;       Track Count: 5
;       Track Size: 500
;       Track Grow: true
;           Track Grow Value: 6
;   Path Reversed: true
; 
; filename: '110219_7.gcode'

; BEGIN PRE
G28 Y
G28 X
G01 F30000; END PRE
G01 X710.000 Y1236.536
G01 X710.000 Y1592.777
G01 X703.890 Y1600.000
G01 X710.000 Y1600.000
G01 X710.000 Y1550.069
G01 X689.030 Y1577.742
G01 X671.588 Y1600.000
G01 X710.000 Y1600.000
G01 X710.000 Y1508.875
G01 X705.427 Y1515.513
G01 X657.765 Y1583.535
G01 X648.960 Y1600.000
G01 X710.000 Y1600.000
G01 X710.000 Y1468.747
G01 X675.891 Y1522.694
G01 X642.973 Y1595.042
G01 X639.952 Y1600.000
G01 X710.000 Y1600.000
G01 X710.000 Y1429.991
G01 X689.677 Y1465.265
G01 X662.949 Y1535.002
G01 X634.576 Y1589.823
G01 X623.734 Y1600.000
G01 X710.000 Y1600.000
G01 X710.000 Y1392.398
G01 X699.399 Y1412.363
G01 X678.520 Y1478.227
G01 X655.739 Y1530.457
G01 X610.210 Y1577.945
G01 X589.351 Y1600.000
G01 X710.000 Y1600.000
G01 X710.000 Y1355.665
G01 X705.353 Y1365.028
G01 X689.932 Y1425.828
G01 X672.433 Y1474.231
G01 X632.359 Y1519.904
G01 X579.912 Y1581.715
G01 X567.820 Y1600.000
G01 X710.000 Y1600.000
G01 X710.000 Y1319.638
G01 X707.844 Y1324.196
G01 X697.450 Y1378.845
G01 X684.874 Y1422.255
G01 X650.002 Y1464.883
G01 X603.619 Y1525.190
G01 X565.910 Y1591.155
G01 X558.952 Y1600.000
G01 X710.000 Y1600.000
G01 X710.000 Y1284.614
G01 X707.189 Y1290.668
G01 X701.353 Y1338.211
G01 X693.299 Y1375.564
G01 X663.326 Y1413.985
G01 X622.793 Y1471.540
G01 X591.292 Y1535.561
G01 X558.263 Y1584.137
G01 X536.974 Y1600.000
G01 X710.000 Y1600.000
G01 X710.000 Y1251.942
G01 X703.712 Y1265.093
G01 X701.936 Y1304.729
G01 X697.963 Y1335.090
G01 X672.540 Y1368.242
G01 X637.587 Y1421.862
G01 X612.091 Y1482.693
G01 X584.662 Y1529.344
G01 X534.916 Y1570.590
G01 X501.470 Y1600.000
G01 X5.000 Y1600.000
G01 X5.000 Y23.788
G01 X37.795 Y5.000
G01 X710.000 Y5.000
G01 X710.000 Y1264.491
G01 X709.498 Y1262.970
G01 X700.910 Y1249.340
G01 X709.796 Y1243.417
G01 X710.000 Y1243.099
G01 X710.000 Y1226.824
G01 X709.273 Y1226.510
G01 X697.745 Y1247.947
G01 X699.501 Y1279.048
G01 X699.135 Y1301.634
G01 X677.873 Y1328.580
G01 X648.185 Y1377.183
G01 X628.433 Y1433.644
G01 X606.430 Y1477.152
G01 X562.130 Y1517.235
G01 X505.765 Y1572.513
G01 X483.625 Y1600.000
G01 X5.000 Y1600.000
G01 X5.000 Y44.387
G01 X61.607 Y5.000
G01 X710.000 Y5.000
G01 X710.000 Y1329.175
G01 X699.811 Y1298.443
G01 X690.189 Y1276.876
G01 X698.743 Y1261.873
G01 X707.039 Y1239.492
G01 X698.933 Y1226.818
G01 X689.631 Y1239.520
G01 X694.368 Y1261.648
G01 X697.103 Y1275.848
G01 X679.575 Y1295.802
G01 X654.789 Y1338.425
G01 X640.472 Y1389.433
G01 X623.665 Y1428.647
G01 X584.693 Y1466.360
G01 X534.358 Y1520.778
G01 X492.727 Y1580.067
G01 X472.702 Y1600.000
G01 X5.000 Y1600.000
G01 X5.000 Y57.621
G01 X8.038 Y55.544
G01 X71.103 Y5.000
G01 X710.000 Y5.000
G01 X710.000 Y1399.623
G01 X709.180 Y1392.213
G01 X691.264 Y1340.809
G01 X680.056 Y1312.063
G01 X687.676 Y1288.564
G01 X695.267 Y1257.275
G01 X687.381 Y1235.978
G01 X679.725 Y1239.909
G01 X686.866 Y1252.821
G01 X692.169 Y1258.212
G01 X677.912 Y1270.555
G01 X657.625 Y1306.387
G01 X648.385 Y1350.981
G01 X636.494 Y1384.843
G01 X602.674 Y1419.042
G01 X558.286 Y1471.378
G01 X522.810 Y1529.369
G01 X485.997 Y1571.434
G01 X437.099 Y1600.000
G01 X5.000 Y1600.000
G01 X5.000 Y61.042
G01 X26.416 Y44.333
G01 X94.549 Y5.000
G01 X710.000 Y5.000
G01 X710.000 Y1472.552
G01 X705.497 Y1445.597
G01 X684.207 Y1389.121
G01 X670.882 Y1354.087
G01 X676.977 Y1322.838
G01 X683.258 Y1283.228
G01 X674.999 Y1253.698
G01 X668.397 Y1249.022
G01 X677.347 Y1252.675
G01 X684.655 Y1249.025
G01 X673.174 Y1253.322
G01 X656.942 Y1281.717
G01 X652.377 Y1319.083
G01 X645.071 Y1346.656
G01 X616.174 Y1376.288
G01 X577.590 Y1425.382
G01 X548.193 Y1480.859
G01 X516.917 Y1521.640
G01 X463.829 Y1556.408
G01 X404.057 Y1600.000
G01 X5.000 Y1600.000
G01 X5.000 Y72.286
G01 X43.904 Y50.788
G01 X146.434 Y5.498
G01 X147.287 Y5.000
G01 X710.000 Y5.000
G01 X710.000 Y1529.019
G01 X704.079 Y1502.777
G01 X678.982 Y1442.342
G01 X663.035 Y1402.019
G01 X667.035 Y1363.897
G01 X671.409 Y1316.712
G01 X662.184 Y1279.512
G01 X656.033 Y1266.579
G01 X666.178 Y1261.124
G01 X674.906 Y1248.398
G01 X665.673 Y1244.405
G01 X653.013 Y1264.898
G01 X652.678 Y1294.386
G01 X649.578 Y1314.877
G01 X625.324 Y1339.006
G01 X592.345 Y1383.786
G01 X568.892 Y1435.594
G01 X543.106 Y1473.909
G01 X495.386 Y1508.140
G01 X435.979 Y1556.676
G01 X393.757 Y1600.000
G01 X5.000 Y1600.000
G01 X5.000 Y90.104
G01 X77.982 Y58.863
G01 X173.517 Y5.000
G01 X710.000 Y5.000
G01 X710.000 Y1579.234
G01 X705.209 Y1562.610
G01 X675.917 Y1499.379
G01 X656.879 Y1454.838
G01 X658.239 Y1410.828
G01 X660.125 Y1356.945
G01 X649.347 Y1312.792
G01 X643.039 Y1292.123
G01 X653.751 Y1277.899
G01 X663.291 Y1256.256
G01 X655.748 Y1243.921
G01 X646.142 Y1256.234
G01 X649.546 Y1277.374
G01 X650.228 Y1290.152
G01 X630.284 Y1307.984
G01 X602.656 Y1347.495
G01 X584.954 Y1394.567
G01 X564.551 Y1429.291
G01 X522.206 Y1461.816
G01 X468.727 Y1510.108
G01 X424.052 Y1562.540
G01 X379.058 Y1597.458
G01 X372.314 Y1600.000
G01 X5.000 Y1600.000
G01 X5.000 Y110.151
G01 X8.767 Y108.557
G01 X112.642 Y51.103
G01 X184.218 Y5.000
G01 X710.000 Y5.000
G01 X710.000 Y1600.000
G01 X696.645 Y1600.000
G01 X675.319 Y1559.105
G01 X652.768 Y1511.467
G01 X650.975 Y1462.630
G01 X649.817 Y1403.032
G01 X636.909 Y1352.774
G01 X629.837 Y1325.044
G01 X640.478 Y1302.558
G01 X650.204 Y1272.339
G01 X643.768 Y1251.801
G01 X636.660 Y1255.848
G01 X643.273 Y1268.356
G01 X647.266 Y1272.967
G01 X631.250 Y1283.866
G01 X608.665 Y1317.291
G01 X596.464 Y1358.674
G01 X581.278 Y1388.768
G01 X544.252 Y1418.472
G01 X496.739 Y1465.340
G01 X458.096 Y1517.089
G01 X418.378 Y1552.491
G01 X357.779 Y1579.460
G01 X318.228 Y1600.000
G01 X5.000 Y1600.000
G01 X5.000 Y119.120
G01 X42.538 Y98.390
G01 X130.475 Y43.425
G01 X217.906 Y5.843
G01 X220.363 Y5.000
G01 X710.000 Y5.000
G01 X710.000 Y1600.000
G01 X666.597 Y1600.000
G01 X651.034 Y1570.799
G01 X645.621 Y1518.243
G01 X640.893 Y1453.990
G01 X625.300 Y1398.578
G01 X616.863 Y1364.591
G01 X626.793 Y1334.504
G01 X636.066 Y1296.220
G01 X630.130 Y1267.797
G01 X624.934 Y1263.678
G01 X634.187 Y1267.460
G01 X640.974 Y1263.632
G01 X628.455 Y1267.136
G01 X610.547 Y1293.813
G01 X603.538 Y1328.691
G01 X593.344 Y1353.228
G01 X561.523 Y1379.082
G01 X519.951 Y1423.398
G01 X487.386 Y1473.294
G01 X453.074 Y1508.022
G01 X397.520 Y1536.186
G01 X330.395 Y1576.400
G01 X298.149 Y1600.000
G01 X5.000 Y1600.000
G01 X5.000 Y122.682
G01 X59.588 Y88.922
G01 X147.324 Y53.136
G01 X251.189 Y19.556
G01 X282.577 Y5.000
G01 X710.000 Y5.000
G01 X710.000 Y1600.000
G01 X646.545 Y1600.000
G01 X642.533 Y1576.579
G01 X633.754 Y1508.777
G01 X614.950 Y1449.239
G01 X604.566 Y1409.904
G01 X613.149 Y1373.005
G01 X621.324 Y1327.317
G01 X615.265 Y1291.493
G01 X611.366 Y1279.487
G01 X622.652 Y1274.633
G01 X631.675 Y1262.282
G01 X622.169 Y1258.107
G01 X608.520 Y1277.546
G01 X606.337 Y1305.256
G01 X600.851 Y1323.445
G01 X574.057 Y1344.525
G01 X538.340 Y1385.244
G01 X511.833 Y1432.169
G01 X482.999 Y1465.087
G01 X432.670 Y1493.307
G01 X371.094 Y1535.004
G01 X318.616 Y1579.478
G01 X277.450 Y1600.000
G01 X5.000 Y1600.000
G01 X5.000 Y125.074
G01 X76.328 Y96.808
G01 X180.420 Y64.413
G01 X285.487 Y17.602
G01 X309.102 Y5.000
G01 X710.000 Y5.000
G01 X710.000 Y1600.000
G01 X635.140 Y1600.000
G01 X628.782 Y1566.326
G01 X606.282 Y1503.735
G01 X593.395 Y1460.035
G01 X600.009 Y1417.218
G01 X606.445 Y1364.913
G01 X599.628 Y1322.320
G01 X596.390 Y1302.871
G01 X609.071 Y1289.647
G01 X619.733 Y1268.871
G01 X612.711 Y1256.917
G01 X602.847 Y1268.803
G01 X605.064 Y1288.853
G01 X603.939 Y1300.052
G01 X581.933 Y1315.568
G01 X551.919 Y1351.749
G01 X531.389 Y1394.664
G01 X508.040 Y1424.688
G01 X463.057 Y1451.845
G01 X407.243 Y1493.878
G01 X360.395 Y1539.382
G01 X313.662 Y1567.083
G01 X247.373 Y1584.204
G01 X200.119 Y1600.000
G01 X5.000 Y1600.000
G01 X5.000 Y137.791
G01 X6.089 Y137.360
G01 X109.332 Y105.660
G01 X213.982 Y60.051
G01 X303.014 Y15.077
G01 X333.948 Y5.000
G01 X710.000 Y5.000
G01 X710.000 Y1600.000
G01 X615.784 Y1600.000
G01 X599.702 Y1561.016
G01 X583.796 Y1513.982
G01 X587.845 Y1466.217
G01 X591.911 Y1408.186
G01 X583.701 Y1359.581
G01 X580.474 Y1333.277
G01 X593.887 Y1312.114
G01 X605.553 Y1283.183
G01 X600.441 Y1263.527
G01 X593.838 Y1267.728
G01 X599.971 Y1279.798
G01 X602.801 Y1283.530
G01 X585.277 Y1292.839
G01 X560.749 Y1323.672
G01 X546.046 Y1361.642
G01 X528.125 Y1387.766
G01 X488.546 Y1412.788
G01 X438.643 Y1454.031
G01 X397.643 Y1499.432
G01 X355.887 Y1528.125
G01 X293.992 Y1547.984
G01 X221.031 Y1577.884
G01 X176.224 Y1600.000
G01 X5.000 Y1600.000
G01 X5.000 Y154.433
G01 X39.073 Y143.823
G01 X142.257 Y98.925
G01 X230.856 Y55.735
G01 X318.803 Y29.662
G01 X421.535 Y5.868
G01 X423.827 Y5.000
G01 X710.000 Y5.000
G01 X710.000 Y1600.000
G01 X587.711 Y1600.000
G01 X576.195 Y1570.714
G01 X577.121 Y1519.019
G01 X578.213 Y1456.229
G01 X567.985 Y1402.470
G01 X564.112 Y1370.024
G01 X577.577 Y1341.496
G01 X589.584 Y1304.842
G01 X585.771 Y1277.733
G01 X581.853 Y1274.289
G01 X591.363 Y1278.239
G01 X597.679 Y1274.200
G01 X584.269 Y1276.818
G01 X564.939 Y1301.637
G01 X555.845 Y1333.856
G01 X543.227 Y1355.172
G01 X509.043 Y1377.063
G01 X465.137 Y1416.434
G01 X430.140 Y1460.617
G01 X393.599 Y1489.209
G01 X336.441 Y1510.751
G01 X268.333 Y1543.663
G01 X209.954 Y1578.239
G01 X154.316 Y1592.977
G01 X81.612 Y1593.856
G01 X9.985 Y1600.000
G01 X5.000 Y1600.000
G01 X5.000 Y164.290
G01 X71.435 Y134.779
G01 X158.598 Y92.853
G01 X246.658 Y68.518
G01 X350.463 Y46.339
G01 X454.702 Y9.434
G01 X464.734 Y5.000
G01 X710.000 Y5.000
G01 X710.000 Y1600.000
G01 X569.545 Y1600.000
G01 X568.288 Y1574.616
G01 X565.836 Y1508.079
G01 X552.986 Y1450.099
G01 X547.819 Y1412.326
G01 X560.646 Y1377.131
G01 X572.314 Y1333.327
G01 X569.153 Y1299.170
G01 X567.303 Y1288.292
G01 X579.598 Y1284.153
G01 X588.871 Y1272.213
G01 X579.141 Y1267.825
G01 X564.654 Y1286.122
G01 X560.879 Y1311.924
G01 X553.368 Y1327.652
G01 X524.499 Y1345.513
G01 X486.608 Y1382.003
G01 X457.703 Y1423.899
G01 X426.556 Y1451.313
G01 X374.421 Y1473.465
G01 X311.535 Y1508.330
G01 X258.076 Y1545.445
G01 X206.247 Y1563.593
G01 X136.501 Y1569.361
G01 X56.622 Y1582.363
G01 X5.000 Y1592.407
G01 X5.000 Y167.061
G01 X87.336 Y127.010
G01 X174.527 Y103.851
G01 X278.370 Y82.802
G01 X383.024 Y47.525
G01 X471.190 Y11.771
G01 X499.980 Y5.000
G01 X710.000 Y5.000
G01 X710.000 Y1600.000
G01 X558.757 Y1600.000
G01 X555.253 Y1562.749
G01 X539.213 Y1501.528
G01 X532.121 Y1459.315
G01 X543.626 Y1418.251
G01 X554.262 Y1367.992
G01 X551.086 Y1327.333
G01 X550.646 Y1309.384
G01 X565.087 Y1297.355
G01 X576.736 Y1277.555
G01 X570.187 Y1266.016
G01 X560.117 Y1277.446
G01 X561.299 Y1296.322
G01 X558.626 Y1305.820
G01 X534.921 Y1318.873
G01 X502.989 Y1351.571
G01 X480.195 Y1390.179
G01 X454.555 Y1415.380
G01 X407.669 Y1437.084
G01 X350.319 Y1472.826
G01 X302.151 Y1511.437
G01 X254.567 Y1532.035
G01 X188.299 Y1541.830
G01 X111.776 Y1559.976
G01 X46.353 Y1578.643
G01 X5.000 Y1577.054
G01 X5.000 Y165.471
G01 X18.073 Y158.870
G01 X103.482 Y136.262
G01 X206.381 Y115.765
G01 X310.441 Y81.630
G01 X398.964 Y48.095
G01 X485.215 Y30.896
G01 X585.058 Y15.951
G01 X620.967 Y5.000
G01 X710.000 Y5.000
G01 X710.000 Y1600.000
G01 X540.916 Y1600.000
G01 X527.156 Y1555.788
G01 X517.542 Y1510.072
G01 X527.059 Y1464.011
G01 X535.974 Y1408.092
G01 X532.100 Y1361.594
G01 X532.389 Y1337.077
G01 X548.294 Y1317.509
G01 X561.685 Y1290.050
G01 X557.762 Y1271.382
G01 X551.616 Y1275.769
G01 X557.320 Y1287.373
G01 X559.141 Y1290.149
G01 X540.369 Y1297.753
G01 X514.264 Y1325.861
G01 X497.528 Y1360.279
G01 X477.438 Y1382.302
G01 X435.960 Y1402.538
G01 X384.399 Y1438.094
G01 X341.837 Y1477.139
G01 X298.887 Y1499.185
G01 X236.576 Y1512.075
G01 X163.952 Y1534.502
G01 X101.951 Y1557.799
G01 X44.569 Y1560.664
G01 X5.000 Y1554.028
G01 X5.000 Y174.527
G01 X34.493 Y166.435
G01 X135.542 Y145.852
G01 X238.055 Y112.284
G01 X325.970 Y80.457
G01 X413.099 Y65.467
G01 X514.728 Y52.603
G01 X616.410 Y24.648
G01 X670.226 Y5.000
G01 X710.000 Y5.000
G01 X710.000 Y1600.000
G01 X514.149 Y1600.000
G01 X504.593 Y1563.649
G01 X511.488 Y1513.513
G01 X518.008 Y1452.801
G01 X512.754 Y1401.225
G01 X513.073 Y1370.759
G01 X529.733 Y1344.140
G01 X544.190 Y1309.375
G01 X542.280 Y1283.759
G01 X539.502 Y1281.090
G01 X549.222 Y1285.238
G01 X555.117 Y1280.963
G01 X540.973 Y1282.621
G01 X520.483 Y1305.479
G01 X509.671 Y1334.916
G01 X495.099 Y1352.887
G01 X459.118 Y1370.704
G01 X413.531 Y1405.047
G01 X376.830 Y1443.477
G01 X338.849 Y1465.951
G01 X280.926 Y1480.957
G01 X212.703 Y1506.733
G01 X154.662 Y1533.813
G01 X100.009 Y1541.121
G01 X29.302 Y1534.658
G01 X5.000 Y1534.554
G01 X5.000 Y187.170
G01 X66.796 Y173.766
G01 X166.883 Y140.131
G01 X253.286 Y109.415
G01 X340.349 Y96.081
G01 X442.780 Y84.838
G01 X545.578 Y58.968
G01 X631.210 Y31.453
G01 X710.000 Y19.259
G01 X710.000 Y1600.000
G01 X495.078 Y1600.000
G01 X497.442 Y1565.832
G01 X500.927 Y1501.244
G01 X493.625 Y1445.422
G01 X493.270 Y1409.725
G01 X509.957 Y1376.658
G01 X524.770 Y1335.074
G01 X524.217 Y1302.836
G01 X524.191 Y1293.254
G01 X537.354 Y1289.926
G01 X546.830 Y1278.427
G01 X536.928 Y1273.800
G01 X521.759 Y1290.888
G01 X516.655 Y1314.686
G01 X507.489 Y1327.843
G01 X477.016 Y1342.376
G01 X437.517 Y1374.545
G01 X406.863 Y1411.349
G01 X374.128 Y1433.241
G01 X320.971 Y1449.367
G01 X257.605 Y1477.512
G01 X204.023 Y1507.460
G01 X152.646 Y1518.406
G01 X84.305 Y1516.950
G01 X6.738 Y1522.531
G01 X5.000 Y1522.687
G01 X5.000 Y198.828
G01 X97.843 Y165.893
G01 X181.902 Y135.634
G01 X268.014 Y123.320
G01 X370.307 Y113.130
G01 X473.260 Y88.885
G01 X559.909 Y64.050
G01 X642.854 Y54.687
G01 X710.000 Y49.636
G01 X710.000 Y1600.000
G01 X485.379 Y1600.000
G01 X485.277 Y1552.517
G01 X475.289 Y1493.332
G01 X473.569 Y1453.191
G01 X489.549 Y1414.376
G01 X503.989 Y1366.574
G01 X504.099 Y1328.172
G01 X506.160 Y1311.963
G01 X522.133 Y1301.290
G01 X534.627 Y1282.556
G01 X528.504 Y1271.460
G01 X518.279 Y1282.411
G01 X518.584 Y1300.052
G01 X514.627 Y1307.761
G01 X489.593 Y1318.254
G01 X456.213 Y1347.373
G01 X431.721 Y1381.601
G01 X404.438 Y1401.937
G01 X356.368 Y1418.192
G01 X298.261 Y1447.709
G01 X249.592 Y1479.563
G01 X202.003 Y1493.275
G01 X136.611 Y1496.051
G01 X61.802 Y1506.871
G01 X5.000 Y1517.008
G01 X5.000 Y200.616
G01 X31.735 Y190.334
G01 X112.707 Y159.852
G01 X197.060 Y147.868
G01 X298.334 Y138.080
G01 X400.527 Y114.895
G01 X487.277 Y92.259
G01 X571.733 Y85.598
G01 X669.601 Y80.959
G01 X710.000 Y72.646
G01 X710.000 Y1600.000
G01 X470.349 Y1600.000
G01 X458.312 Y1544.073
G01 X454.564 Y1500.325
G01 X469.112 Y1456.534
G01 X482.445 Y1403.208
G01 X482.501 Y1359.212
G01 X485.945 Y1336.792
G01 X504.039 Y1319.048
G01 X518.926 Y1293.215
G01 X516.046 Y1275.619
G01 X510.308 Y1280.220
G01 X515.635 Y1291.336
G01 X516.606 Y1293.100
G01 X496.852 Y1298.920
G01 X469.541 Y1324.218
G01 X451.242 Y1355.004
G01 X429.546 Y1372.870
G01 X386.814 Y1388.299
G01 X334.310 Y1418.195
G01 X290.957 Y1450.973
G01 X247.624 Y1466.533
G01 X185.729 Y1472.695
G01 X114.281 Y1487.980
G01 X53.983 Y1503.960
G01 X5.000 Y1500.226
G01 X5.000 Y199.694
G01 X46.473 Y182.845
G01 X128.344 Y170.478
G01 X227.796 Y160.393
G01 X328.380 Y137.624
G01 X414.361 Y116.601
G01 X499.432 Y112.118
G01 X598.736 Y109.611
G01 X698.120 Y92.042
G01 X710.000 Y89.079
G01 X710.000 Y1600.000
G01 X444.107 Y1600.000
G01 X443.232 Y1596.760
G01 X436.836 Y1550.268
G01 X449.256 Y1502.323
G01 X460.753 Y1444.239
G01 X460.031 Y1395.310
G01 X464.126 Y1367.205
G01 X483.613 Y1342.791
G01 X500.210 Y1310.134
G01 X499.972 Y1286.155
G01 X498.187 Y1284.342
G01 X508.067 Y1288.713
G01 X513.594 Y1284.181
G01 X498.874 Y1284.829
G01 X477.490 Y1305.654
G01 X465.331 Y1332.236
G01 X449.275 Y1346.798
G01 X412.058 Y1360.502
G01 X365.432 Y1389.816
G01 X327.736 Y1422.544
G01 X289.079 Y1439.011
G01 X231.190 Y1447.667
G01 X163.672 Y1466.573
G01 X106.791 Y1486.510
G01 X53.932 Y1486.832
G01 X5.000 Y1477.276
G01 X5.000 Y201.778
G01 X62.610 Y191.937
G01 X159.523 Y180.837
G01 X257.724 Y157.793
G01 X342.134 Y137.720
G01 X426.973 Y134.792
G01 X526.819 Y133.877
G01 X626.978 Y118.432
G01 X710.000 Y101.230
G01 X710.000 Y1600.000
G01 X421.345 Y1600.000
G01 X430.577 Y1550.908
G01 X439.538 Y1488.881
G01 X437.318 Y1435.749
G01 X441.321 Y1402.576
G01 X461.445 Y1372.002
G01 X479.028 Y1332.922
G01 X480.769 Y1302.809
G01 X482.332 Y1294.661
G01 X496.216 Y1292.217
G01 X505.844 Y1281.183
G01 X495.822 Y1276.299
G01 X480.131 Y1292.132
G01 X473.965 Y1313.865
G01 X463.514 Y1324.390
G01 X431.906 Y1335.546
G01 X391.356 Y1363.372
G01 X359.592 Y1395.104
G01 X325.971 Y1411.545
G01 X272.547 Y1421.779
G01 X209.488 Y1443.414
G01 X156.589 Y1466.483
G01 X106.471 Y1470.605
G01 X40.324 Y1462.392
G01 X5.000 Y1461.784
G01 X5.000 Y212.414
G01 X94.228 Y200.211
G01 X189.362 Y176.183
G01 X271.476 Y156.352
G01 X355.303 Y154.283
G01 X454.848 Y154.322
G01 X554.912 Y140.466
G01 X638.875 Y125.909
G01 X710.000 Y126.345
G01 X710.000 Y1600.000
G01 X413.772 Y1600.000
G01 X419.411 Y1536.323
G01 X414.999 Y1479.768
G01 X418.172 Y1442.211
G01 X438.161 Y1406.077
G01 X455.975 Y1361.080
G01 X458.989 Y1325.205
G01 X463.234 Y1310.933
G01 X480.500 Y1301.744
G01 X493.691 Y1284.145
G01 X487.942 Y1273.513
G01 X477.616 Y1283.970
G01 X477.203 Y1300.334
G01 X472.229 Y1306.203
G01 X446.235 Y1314.086
G01 X411.875 Y1339.593
G01 X386.240 Y1369.436
G01 X357.946 Y1384.945
G01 X309.388 Y1395.845
G01 X251.268 Y1419.295
G01 X202.875 Y1444.623
G01 X156.073 Y1451.762
G01 X92.345 Y1447.918
G01 X20.019 Y1451.899
G01 X5.000 Y1453.009
G01 X5.000 Y223.954
G01 X32.505 Y219.309
G01 X123.977 Y193.605
G01 X203.158 Y173.293
G01 X285.271 Y171.341
G01 X383.740 Y171.629
G01 X482.895 Y158.731
G01 X566.713 Y146.320
G01 X648.233 Y149.521
G01 X710.000 Y152.785
G01 X710.000 Y1600.000
G01 X400.540 Y1600.000
G01 X400.958 Y1585.747
G01 X393.701 Y1526.576
G01 X395.328 Y1485.370
G01 X414.415 Y1444.345
G01 X431.691 Y1394.025
G01 X435.238 Y1352.863
G01 X441.448 Y1332.798
G01 X461.411 Y1317.062
G01 X477.552 Y1292.975
G01 X475.566 Y1276.516
G01 X470.185 Y1281.350
G01 X475.189 Y1291.963
G01 X475.468 Y1292.679
G01 X454.998 Y1296.673
G01 X426.850 Y1319.122
G01 X407.454 Y1346.259
G01 X384.703 Y1359.980
G01 X341.344 Y1370.659
G01 X288.585 Y1395.010
G01 X245.174 Y1421.701
G01 X202.223 Y1431.029
G01 X141.521 Y1430.799
G01 X72.020 Y1439.362
G01 X14.173 Y1448.533
G01 X5.000 Y1446.651
G01 X5.000 Y229.203
G01 X62.138 Y210.858
G01 X137.837 Y189.360
G01 X217.619 Y186.774
G01 X314.315 Y186.565
G01 X411.817 Y173.928
G01 X494.721 Y163.014
G01 X576.606 Y168.332
G01 X672.473 Y175.475
G01 X710.000 Y172.398
G01 X710.000 Y1600.000
G01 X378.342 Y1600.000
G01 X374.023 Y1575.380
G01 X373.429 Y1531.287
G01 X390.868 Y1486.089
G01 X406.838 Y1431.109
G01 X410.162 Y1385.222
G01 X417.587 Y1359.795
G01 X439.509 Y1337.829
G01 X457.922 Y1307.453
G01 X459.110 Y1285.223
G01 X458.168 Y1284.324
G01 X468.157 Y1288.937
G01 X473.369 Y1284.135
G01 X458.234 Y1283.742
G01 X436.222 Y1302.502
G01 X423.083 Y1326.203
G01 X406.005 Y1337.351
G01 X368.099 Y1346.972
G01 X321.054 Y1371.334
G01 X283.043 Y1398.493
G01 X244.433 Y1409.156
G01 X187.330 Y1411.738
G01 X121.277 Y1424.130
G01 X66.310 Y1437.368
G01 X15.971 Y1431.231
G01 X5.000 Y1427.921
G01 X5.000 Y228.475
G01 X76.051 Y205.359
G01 X152.973 Y201.407
G01 X247.287 Y199.946
G01 X342.471 Y186.835
G01 X423.765 Y176.706
G01 X505.268 Y183.461
G01 X601.428 Y192.135
G01 X697.867 Y186.380
G01 X710.000 Y185.208
G01 X710.000 Y1600.000
G01 X354.632 Y1600.000
G01 X353.085 Y1579.192
G01 X368.170 Y1530.569
G01 X382.089 Y1471.639
G01 X384.435 Y1421.654
G01 X392.303 Y1391.382
G01 X415.409 Y1363.602
G01 X435.364 Y1327.254
G01 X439.072 Y1299.428
G01 X441.979 Y1292.817
G01 X456.432 Y1291.313
G01 X466.160 Y1280.758
G01 X456.072 Y1275.608
G01 X440.019 Y1290.161
G01 X433.056 Y1309.801
G01 X421.686 Y1317.680
G01 X389.402 Y1325.469
G01 X348.344 Y1349.000
G01 X316.083 Y1375.754
G01 X282.247 Y1386.900
G01 X229.268 Y1391.466
G01 X167.254 Y1406.887
G01 X115.782 Y1423.457
G01 X67.657 Y1421.216
G01 X5.000 Y1406.929
G01 X5.000 Y227.110
G01 X18.223 Y222.055
G01 X91.845 Y216.050
G01 X183.252 Y212.605
G01 X275.539 Y198.281
G01 X354.606 Y188.190
G01 X435.054 Y195.637
G01 X530.768 Y205.151
G01 X626.876 Y200.918
G01 X707.101 Y195.874
G01 X710.000 Y196.236
G01 X710.000 Y1600.000
G01 X341.538 Y1600.000
G01 X346.947 Y1577.037
G01 X358.108 Y1514.899
G01 X358.739 Y1461.490
G01 X366.278 Y1426.955
G01 X389.775 Y1393.861
G01 X410.502 Y1351.954
G01 X416.018 Y1318.821
G01 X422.115 Y1306.636
G01 X440.429 Y1299.026
G01 X454.163 Y1282.612
G01 X448.737 Y1272.459
G01 X438.363 Y1282.411
G01 X437.392 Y1297.480
G01 X431.665 Y1301.490
G01 X405.076 Y1306.760
G01 X370.191 Y1328.680
G01 X343.949 Y1354.202
G01 X315.251 Y1364.998
G01 X266.867 Y1370.718
G01 X209.435 Y1388.343
G01 X162.040 Y1407.465
G01 X116.752 Y1408.430
G01 X55.402 Y1398.449
G01 X5.000 Y1396.779
G01 X5.000 Y235.141
G01 X34.630 Y231.469
G01 X122.693 Y225.359
G01 X211.590 Y209.104
G01 X287.899 Y198.301
G01 X366.698 Y205.664
G01 X461.297 Y215.269
G01 X556.363 Y211.876
G01 X636.212 Y208.893
G01 X710.000 Y220.568
G01 X710.000 Y1600.000
G01 X330.750 Y1600.000
G01 X335.532 Y1560.164
G01 X333.749 Y1504.037
G01 X340.206 Y1465.869
G01 X363.295 Y1428.027
G01 X384.004 Y1381.055
G01 X390.577 Y1342.997
G01 X399.147 Y1325.485
G01 X420.645 Y1311.897
G01 X437.792 Y1289.642
G01 X436.546 Y1274.364
G01 X431.471 Y1279.444
G01 X436.204 Y1289.547
G01 X435.953 Y1289.201
G01 X415.030 Y1291.359
G01 X386.405 Y1310.968
G01 X366.363 Y1334.493
G01 X343.089 Y1344.150
G01 X299.701 Y1350.213
G01 X247.339 Y1369.212
G01 X204.559 Y1390.080
G01 X162.697 Y1393.515
G01 X103.898 Y1387.312
G01 X37.037 Y1389.655
G01 X5.000 Y1391.380
G01 X5.000 Y245.756
G01 X65.981 Y238.973
G01 X151.081 Y220.124
G01 X224.184 Y207.882
G01 X300.822 Y214.385
G01 X393.719 Y223.304
G01 X487.107 Y220.013
G01 X565.916 Y218.398
G01 X643.608 Y232.695
G01 X710.000 Y244.294
G01 X710.000 Y1600.000
G01 X314.392 Y1600.000
G01 X310.113 Y1548.593
G01 X314.770 Y1507.454
G01 X336.671 Y1465.478
G01 X356.567 Y1414.000
G01 X363.422 Y1371.478
G01 X373.705 Y1348.980
G01 X397.651 Y1329.648
G01 X417.545 Y1301.681
G01 X419.912 Y1281.278
G01 X419.659 Y1281.333
G01 X429.704 Y1286.197
G01 X434.655 Y1281.120
G01 X419.264 Y1279.678
G01 X396.885 Y1296.370
G01 X383.125 Y1317.209
G01 X365.471 Y1324.997
G01 X327.402 Y1330.631
G01 X280.529 Y1350.192
G01 X242.844 Y1371.996
G01 X204.956 Y1377.138
G01 X149.330 Y1374.005
G01 X85.434 Y1380.323
G01 X33.054 Y1387.380
G01 X5.000 Y1380.249
G01 X5.000 Y255.514
G01 X13.385 Y254.140
G01 X94.357 Y232.108
G01 X163.888 Y217.753
G01 X237.938 Y222.649
G01 X328.628 Y230.105
G01 X419.782 Y226.155
G01 X496.960 Y225.158
G01 X574.140 Y240.756
G01 X665.643 Y258.172
G01 X710.000 Y259.667
G01 X710.000 Y1600.000
G01 X289.222 Y1600.000
G01 X288.435 Y1594.468
G01 X290.627 Y1551.032
G01 X310.596 Y1505.567
G01 X328.903 Y1450.190
G01 X335.260 Y1403.729
G01 X346.470 Y1376.662
G01 X372.083 Y1351.911
G01 X393.996 Y1318.467
G01 X399.334 Y1293.045
G01 X403.336 Y1288.040
G01 X418.204 Y1287.509
G01 X427.980 Y1277.444
G01 X417.880 Y1272.022
G01 X401.622 Y1285.291
G01 X394.122 Y1302.847
G01 X382.188 Y1308.110
G01 X349.669 Y1312.599
G01 X308.623 Y1331.947
G01 X276.446 Y1353.893
G01 X243.025 Y1359.975
G01 X191.152 Y1359.175
G01 X130.858 Y1368.762
G01 X81.487 Y1379.290
G01 X36.007 Y1371.224
G01 X5.000 Y1360.835
G01 X5.000 Y258.052
G01 X41.666 Y245.745
G01 X107.335 Y228.682
G01 X178.447 Y231.275
G01 X266.507 Y236.525
G01 X354.952 Y231.156
G01 X429.991 Y230.006
G01 X506.091 Y246.130
G01 X597.021 Y264.256
G01 X688.234 Y268.772
G01 X710.000 Y269.809
G01 X710.000 Y1600.000
G01 X268.468 Y1600.000
G01 X268.390 Y1595.936
G01 X285.737 Y1547.643
G01 X301.712 Y1489.004
G01 X306.807 Y1439.175
G01 X318.151 Y1408.020
G01 X344.626 Y1378.252
G01 X367.785 Y1339.653
G01 X375.388 Y1309.418
G01 X383.000 Y1299.425
G01 X402.111 Y1293.456
G01 X416.235 Y1278.256
G01 X411.080 Y1268.588
G01 X400.710 Y1278.034
G01 X399.339 Y1291.807
G01 X393.116 Y1293.975
G01 X366.283 Y1296.674
G01 X331.310 Y1315.086
G01 X304.973 Y1336.416
G01 X276.444 Y1342.685
G01 X228.851 Y1343.474
G01 X172.754 Y1355.597
G01 X127.017 Y1368.910
G01 X83.895 Y1364.177
G01 X25.555 Y1348.612
G01 X5.000 Y1346.120
G01 X5.000 Y257.729
G01 X54.749 Y241.355
G01 X122.645 Y241.030
G01 X207.728 Y243.386
G01 X293.071 Y235.872
G01 X365.544 Y233.803
G01 X440.079 Y249.656
G01 X529.875 Y267.714
G01 X619.933 Y272.938
G01 X694.909 Y278.488
G01 X710.000 Y282.733
G01 X710.000 Y1600.000
G01 X260.215 Y1600.000
G01 X262.714 Y1591.061
G01 X275.672 Y1529.814
G01 X278.774 Y1477.219
G01 X289.473 Y1442.502
G01 X315.994 Y1408.181
G01 X339.601 Y1364.823
G01 X348.715 Y1330.069
G01 X359.228 Y1315.255
G01 X381.922 Y1303.908
G01 X399.826 Y1283.538
G01 X399.167 Y1269.465
G01 X394.345 Y1274.795
G01 X398.861 Y1284.388
G01 X398.234 Y1282.985
G01 X377.112 Y1283.331
G01 X348.360 Y1300.153
G01 X328.103 Y1320.160
G01 X304.810 Y1325.896
G01 X261.956 Y1327.545
G01 X210.596 Y1341.461
G01 X169.079 Y1356.845
G01 X128.948 Y1354.803
G01 X72.685 Y1343.121
G01 X9.075 Y1339.814
G01 X5.000 Y1339.604
G01 X5.000 Y256.883
G01 X6.271 Y256.354
G01 X70.736 Y252.596
G01 X152.564 Y251.451
G01 X234.488 Y241.125
G01 X304.045 Y237.404
G01 X376.607 Y252.197
G01 X464.789 Y269.394
G01 X553.163 Y274.562
G01 X626.991 Y281.335
G01 X699.622 Y303.693
G01 X710.000 Y306.571
G01 X710.000 Y1600.000
G01 X247.281 Y1600.000
G01 X251.412 Y1571.997
G01 X251.845 Y1517.254
G01 X261.151 Y1479.534
G01 X286.917 Y1441.171
G01 X310.163 Y1393.512
G01 X320.009 Y1354.604
G01 X332.663 Y1335.219
G01 X358.214 Y1318.650
G01 X379.250 Y1293.174
G01 X382.546 Y1274.642
G01 X382.828 Y1275.670
G01 X392.879 Y1280.789
G01 X397.620 Y1275.439
G01 X382.127 Y1272.957
G01 X359.633 Y1287.613
G01 X345.595 Y1305.655
G01 X327.793 Y1310.188
G01 X290.056 Y1311.994
G01 X243.906 Y1326.973
G01 X207.140 Y1343.707
G01 X170.591 Y1343.686
G01 X117.066 Y1335.271
G01 X55.942 Y1336.025
G01 X6.735 Y1337.487
G01 X5.000 Y1336.801
G01 X5.000 Y268.778
G01 X22.842 Y266.552
G01 X101.197 Y261.399
G01 X179.451 Y247.676
G01 X245.816 Y241.629
G01 X316.075 Y254.612
G01 X402.241 Y270.163
G01 X488.481 Y274.499
G01 X560.678 Y281.724
G01 X632.685 Y305.235
G01 X710.000 Y327.903
G01 X710.000 Y1600.000
G01 X228.745 Y1600.000
G01 X226.657 Y1558.681
G01 X233.877 Y1518.535
G01 X258.118 Y1476.673
G01 X280.208 Y1425.216
G01 X289.994 Y1382.577
G01 X304.001 Y1358.945
G01 X331.633 Y1337.390
G01 X355.084 Y1306.964
G01 X361.712 Y1284.016
G01 X366.558 Y1280.654
G01 X381.689 Y1281.110
G01 X391.462 Y1271.536
G01 X381.401 Y1265.846
G01 X365.092 Y1277.846
G01 X357.304 Y1293.357
G01 X345.145 Y1296.078
G01 X312.812 Y1297.386
G01 X272.263 Y1312.724
G01 X240.713 Y1330.096
G01 X208.286 Y1331.417
G01 X158.120 Y1325.626
G01 X100.153 Y1329.829
G01 X53.475 Y1334.841
G01 X11.204 Y1321.551
G01 X5.000 Y1318.774
G01 X5.000 Y280.036
G01 X53.730 Y273.805
G01 X128.122 Y256.199
G01 X191.083 Y247.235
G01 X258.777 Y257.717
G01 X342.601 Y270.877
G01 X426.336 Y273.617
G01 X496.498 Y280.512
G01 X567.421 Y304.382
G01 X652.752 Y330.167
G01 X710.000 Y338.405
G01 X710.000 Y1600.000
G01 X203.885 Y1600.000
G01 X208.295 Y1558.926
G01 X230.294 Y1514.128
G01 X250.463 Y1459.409
G01 X259.409 Y1413.507
G01 X273.968 Y1386.008
G01 X302.874 Y1359.776
G01 X327.976 Y1324.635
G01 X337.244 Y1297.400
G01 X346.031 Y1289.657
G01 X365.690 Y1285.357
G01 X380.052 Y1271.380
G01 X375.117 Y1262.198
G01 X364.803 Y1271.142
G01 X363.182 Y1283.640
G01 X356.711 Y1284.011
G01 X329.968 Y1284.225
G01 X295.320 Y1299.260
G01 X269.366 Y1316.585
G01 X241.535 Y1318.577
G01 X195.299 Y1314.756
G01 X141.122 Y1321.768
G01 X97.630 Y1329.739
G01 X57.249 Y1319.848
G01 X5.000 Y1300.267
G01 X5.000 Y290.168
G01 X10.207 Y289.125
G01 X80.587 Y267.263
G01 X139.986 Y254.892
G01 X204.914 Y262.264
G01 X286.137 Y272.352
G01 X367.070 Y272.773
G01 X434.871 Y278.569
G01 X504.328 Y301.995
G01 X588.525 Y327.556
G01 X672.798 Y340.424
G01 X710.000 Y347.455
G01 X710.000 Y1600.000
G01 X185.047 Y1600.000
G01 X204.095 Y1552.983
G01 X221.633 Y1495.558
G01 X228.989 Y1446.894
G01 X243.309 Y1415.953
G01 X272.669 Y1385.408
G01 X298.624 Y1345.855
G01 X309.788 Y1314.540
G01 X321.822 Y1302.509
G01 X345.373 Y1293.450
G01 X363.785 Y1274.986
G01 X363.562 Y1262.122
G01 X358.943 Y1267.702
G01 X363.292 Y1276.791
G01 X362.439 Y1274.355
G01 X341.363 Y1272.943
G01 X312.811 Y1287.072
G01 X292.746 Y1303.705
G01 X269.902 Y1305.722
G01 X228.100 Y1303.222
G01 X178.294 Y1312.390
G01 X138.609 Y1322.699
G01 X100.776 Y1315.662
G01 X47.601 Y1299.055
G01 X5.000 Y1293.125
G01 X5.000 Y294.001
G01 X36.875 Y281.318
G01 X92.595 Y265.162
G01 X154.607 Y268.918
G01 X233.027 Y275.337
G01 X310.927 Y272.779
G01 X376.113 Y276.749
G01 X443.797 Y298.944
G01 X526.484 Y323.483
G01 X609.085 Y336.140
G01 X677.191 Y350.311
G01 X710.000 Y364.752
G01 X710.000 Y1600.000
G01 X177.774 Y1600.000
G01 X180.109 Y1592.699
G01 X194.373 Y1533.132
G01 X199.441 Y1482.226
G01 X212.759 Y1448.301
G01 X241.763 Y1413.853
G01 X267.762 Y1370.247
G01 X280.046 Y1335.124
G01 X294.579 Y1318.971
G01 X321.314 Y1305.236
G01 X343.152 Y1282.287
G01 X347.130 Y1265.639
G01 X347.797 Y1267.638
G01 X357.804 Y1273.011
G01 X362.386 Y1267.394
G01 X346.939 Y1263.902
G01 X324.570 Y1276.584
G01 X310.579 Y1291.933
G01 X293.026 Y1293.367
G01 X256.080 Y1291.561
G01 X211.159 Y1302.237
G01 X175.849 Y1314.252
G01 X141.191 Y1309.490
G01 X90.316 Y1296.291
G01 X32.492 Y1292.049
G01 X5.000 Y1289.941
G01 X5.000 Y295.561
G01 X48.926 Y278.486
G01 X107.909 Y278.233
G01 X183.373 Y280.487
G01 X258.064 Y274.377
G01 X320.444 Y275.859
G01 X386.118 Y296.080
G01 X466.993 Y318.817
G01 X547.576 Y330.485
G01 X614.068 Y344.945
G01 X680.198 Y375.361
G01 X710.000 Y387.309
G01 X710.000 Y1600.000
G01 X164.434 Y1600.000
G01 X169.278 Y1571.611
G01 X171.428 Y1518.993
G01 X183.030 Y1482.563
G01 X210.897 Y1444.656
G01 X236.138 Y1397.400
G01 X248.752 Y1358.796
G01 X265.002 Y1338.751
G01 X294.159 Y1320.494
G01 X318.728 Y1293.145
G01 X326.309 Y1272.695
G01 X331.754 Y1270.981
G01 X346.999 Y1272.418
G01 X356.719 Y1263.330
G01 X346.747 Y1257.382
G01 X330.531 Y1268.146
G01 X322.692 Y1281.682
G01 X310.627 Y1281.975
G01 X278.870 Y1280.270
G01 X239.268 Y1291.826
G01 X208.836 Y1304.918
G01 X177.926 Y1301.844
G01 X130.002 Y1291.500
G01 X74.890 Y1290.829
G01 X31.413 Y1290.908
G01 X5.000 Y1278.682
G01 X5.000 Y297.180
G01 X8.955 Y295.177
G01 X64.822 Y290.644
G01 X137.211 Y288.353
G01 X208.562 Y278.217
G01 X267.997 Y276.635
G01 X331.484 Y294.205
G01 X410.312 Y314.407
G01 X488.604 Y324.330
G01 X553.181 Y338.297
G01 X618.241 Y368.909
G01 X697.308 Y401.332
G01 X710.000 Y404.388
G01 X710.000 Y1600.000
G01 X146.606 Y1600.000
G01 X145.547 Y1556.698
G01 X154.787 Y1518.255
G01 X180.784 Y1477.353
G01 X204.494 Y1426.884
G01 X216.655 Y1385.167
G01 X233.827 Y1361.516
G01 X264.608 Y1338.954
G01 X291.159 Y1307.356
G01 X301.673 Y1283.164
G01 X311.299 Y1277.686
G01 X331.262 Y1275.051
G01 X345.714 Y1262.285
G01 X340.950 Y1253.584
G01 X330.741 Y1262.037
G01 X329.014 Y1273.298
G01 X322.526 Y1271.950
G01 X296.187 Y1269.800
G01 X262.246 Y1281.639
G01 X237.114 Y1295.199
G01 X210.461 Y1293.223
G01 X166.089 Y1285.171
G01 X114.348 Y1287.523
G01 X73.610 Y1290.676
G01 X36.453 Y1276.223
G01 X5.000 Y1260.841
G01 X5.000 Y309.912
G01 X25.313 Y306.458
G01 X94.530 Y299.362
G01 X162.443 Y284.842
G01 X218.836 Y279.718
G01 X280.007 Y294.047
G01 X356.612 Y311.049
G01 X432.408 Y318.517
G01 X494.840 Y331.234
G01 X558.548 Y361.244
G01 X636.498 Y393.290
G01 X710.000 Y411.676
G01 X710.000 Y1600.000
G01 X122.813 Y1600.000
G01 X122.319 Y1594.858
G01 X128.634 Y1554.896
G01 X152.093 Y1511.481
G01 X173.550 Y1458.258
G01 X184.502 Y1413.830
G01 X201.802 Y1386.900
G01 X233.396 Y1360.302
G01 X261.145 Y1324.670
G01 X273.866 Y1296.861
G01 X287.003 Y1287.643
G01 X311.077 Y1280.877
G01 X329.755 Y1264.306
G01 X329.821 Y1252.634
G01 X325.357 Y1258.457
G01 X329.586 Y1267.054
G01 X328.649 Y1263.629
G01 X307.846 Y1260.543
G01 X279.803 Y1272.112
G01 X260.302 Y1285.560
G01 X238.336 Y1284.112
G01 X198.052 Y1277.785
G01 X150.290 Y1282.598
G01 X112.934 Y1288.297
G01 X77.890 Y1276.801
G01 X28.264 Y1255.876
G01 X5.000 Y1250.575
G01 X5.000 Y322.988
G01 X55.288 Y313.814
G01 X119.685 Y294.671
G01 X172.966 Y285.643
G01 X231.731 Y296.241
G01 X305.984 Y309.463
G01 X379.132 Y313.836
G01 X439.255 Y324.593
G01 X501.399 Y353.229
G01 X577.957 Y384.107
G01 X654.174 Y403.221
G01 X710.000 Y421.759
G01 X710.000 Y1600.000
G01 X104.525 Y1600.000
G01 X105.094 Y1592.025
G01 X125.432 Y1546.583
G01 X143.976 Y1491.079
G01 X153.011 Y1444.365
G01 X169.675 Y1414.517
G01 X201.275 Y1384.197
G01 X229.420 Y1344.796
G01 X243.587 Y1313.555
G01 X259.508 Y1300.683
G01 X287.010 Y1289.799
G01 X309.320 Y1269.371
G01 X313.739 Y1254.587
G01 X314.647 Y1257.536
G01 X324.560 Y1263.153
G01 X329.031 Y1257.284
G01 X313.768 Y1252.829
G01 X291.749 Y1263.627
G01 X278.105 Y1276.424
G01 X261.165 Y1274.961
G01 X225.427 Y1269.807
G01 X182.189 Y1276.516
G01 X148.809 Y1284.218
G01 X116.520 Y1275.195
G01 X68.763 Y1257.759
G01 X14.679 Y1249.139
G01 X5.000 Y1247.326
G01 X5.000 Y335.789
G01 X19.425 Y331.878
G01 X80.236 Y307.998
G01 X130.355 Y294.821
G01 X186.647 Y301.310
G01 X258.453 Y310.278
G01 X328.849 Y311.001
G01 X386.550 Y319.157
G01 X446.981 Y345.696
G01 X521.939 Y374.644
G01 X596.267 Y392.627
G01 X656.482 Y413.276
G01 X710.000 Y445.781
G01 X710.000 Y1600.000
G01 X94.995 Y1600.000
G01 X101.326 Y1582.215
G01 X116.382 Y1524.913
G01 X122.856 Y1476.354
G01 X138.164 Y1443.971
G01 X168.988 Y1410.277
G01 X196.735 Y1367.413
G01 X211.570 Y1332.973
G01 X229.510 Y1316.594
G01 X259.702 Y1301.669
G01 X284.976 Y1277.399
G01 X293.180 Y1259.430
G01 X298.987 Y1259.336
G01 X314.202 Y1261.729
G01 X323.821 Y1253.117
G01 X313.985 Y1246.925
G01 X298.000 Y1256.506
G01 X290.329 Y1268.162
G01 X278.651 Y1266.179
G01 X247.825 Y1261.671
G01 X209.575 Y1269.723
G01 X180.701 Y1278.884
G01 X151.765 Y1271.831
G01 X106.543 Y1257.425
G01 X54.733 Y1252.441
G01 X14.872 Y1248.213
G01 X5.000 Y1241.998
G01 X5.000 Y344.523
G01 X44.034 Y324.986
G01 X90.943 Y307.537
G01 X144.710 Y309.659
G01 X213.995 Y314.008
G01 X281.566 Y310.630
G01 X336.775 Y315.630
G01 X395.394 Y339.417
G01 X468.603 Y365.724
G01 X540.862 Y381.842
G01 X599.294 Y401.853
G01 X657.955 Y438.151
G01 X710.000 Y465.501
G01 X710.000 Y1600.000
G01 X83.609 Y1600.000
G01 X91.300 Y1559.334
G01 X94.650 Y1509.379
G01 X107.946 Y1474.865
G01 X137.258 Y1438.168
G01 X163.837 Y1392.183
G01 X178.566 Y1354.819
G01 X197.742 Y1335.126
G01 X229.847 Y1316.292
G01 X257.360 Y1288.256
G01 X268.709 Y1267.097
G01 X278.848 Y1263.855
G01 X298.880 Y1262.849
G01 X313.281 Y1251.266
G01 X308.640 Y1243.033
G01 X298.582 Y1251.011
G01 X296.883 Y1261.091
G01 X290.594 Y1258.127
G01 X264.945 Y1253.773
G01 X232.056 Y1262.637
G01 X208.139 Y1272.722
G01 X183.089 Y1267.137
G01 X141.021 Y1255.283
G01 X92.157 Y1253.478
G01 X54.598 Y1252.383
G01 X21.058 Y1234.004
G01 X5.000 Y1224.168
G01 X5.000 Y349.409
G01 X11.014 Y345.670
G01 X54.663 Y323.947
G01 X105.852 Y321.565
G01 X172.554 Y321.049
G01 X237.247 Y313.228
G01 X289.922 Y314.619
G01 X346.667 Y335.089
G01 X418.027 Y358.116
G01 X488.097 Y371.681
G01 X544.607 Y390.320
G01 X602.042 Y425.876
G01 X673.249 Y463.338
G01 X710.000 Y476.287
G01 X710.000 Y1600.000
G01 X68.483 Y1600.000
G01 X69.171 Y1593.932
G01 X68.927 Y1543.035
G01 X79.633 Y1506.803
G01 X106.759 Y1467.495
G01 X131.446 Y1418.755
G01 X145.318 Y1378.774
G01 X164.952 Y1356.001
G01 X198.174 Y1333.440
G01 X227.164 Y1301.769
G01 X240.958 Y1277.469
G01 X254.791 Y1271.040
G01 X279.065 Y1266.526
G01 X297.776 Y1251.806
G01 X297.992 Y1241.294
G01 X293.636 Y1247.346
G01 X297.792 Y1255.469
G01 X296.902 Y1251.114
G01 X276.583 Y1246.463
G01 X249.326 Y1255.639
G01 X230.726 Y1266.135
G01 X210.018 Y1261.521
G01 X171.662 Y1251.737
G01 X126.369 Y1252.637
G01 X91.764 Y1254.238
G01 X59.910 Y1238.864
G01 X14.203 Y1214.266
G01 X5.000 Y1211.327
G01 X5.000 Y354.641
G01 X21.448 Y344.084
G01 X70.002 Y337.177
G01 X134.056 Y331.671
G01 X195.824 Y319.184
G01 X245.940 Y316.620
G01 X300.775 Y333.308
G01 X370.223 Y352.503
G01 X438.027 Y362.904
G01 X492.532 Y379.486
G01 X548.620 Y413.552
G01 X618.564 Y449.720
G01 X687.938 Y474.215
G01 X710.000 Y484.547
G01 X710.000 Y1600.000
G01 X48.018 Y1600.000
G01 X46.130 Y1576.926
G01 X53.761 Y1539.396
G01 X78.106 Y1497.882
G01 X100.239 Y1446.773
G01 X112.548 Y1404.509
G01 X131.881 Y1378.924
G01 X165.428 Y1352.857
G01 X195.115 Y1317.728
G01 X210.617 Y1290.391
G01 X227.444 Y1280.789
G01 X255.311 Y1272.718
G01 X277.773 Y1254.760
G01 X282.403 Y1241.790
G01 X283.415 Y1245.652
G01 X293.190 Y1251.499
G01 X297.593 Y1245.397
G01 X282.643 Y1240.041
G01 X261.179 Y1249.070
G01 X248.153 Y1259.492
G01 X232.153 Y1255.372
G01 X197.991 Y1247.181
G01 X156.830 Y1250.303
G01 X125.787 Y1254.145
G01 X96.269 Y1241.382
G01 X52.011 Y1220.300
G01 X5.000 Y1208.692
G01 X5.000 Y364.459
G01 X37.090 Y356.524
G01 X98.424 Y346.019
G01 X157.217 Y328.759
G01 X204.753 Y322.012
G01 X257.654 Y334.561
G01 X325.149 Y349.474
G01 X390.646 Y356.184
G01 X443.107 Y370.099
G01 X497.778 Y401.981
G01 X566.337 Y436.119
G01 X633.964 Y459.361
G01 X687.481 Y485.117
G01 X710.000 Y502.582
G01 X710.000 Y1600.000
G01 X27.763 Y1600.000
G01 X30.775 Y1572.265
G01 X51.836 Y1528.960
G01 X70.829 Y1475.883
G01 X80.930 Y1431.690
G01 X99.249 Y1403.588
G01 X132.351 Y1374.270
G01 X161.956 Y1335.900
G01 X178.410 Y1305.673
G01 X197.494 Y1292.963
G01 X228.244 Y1281.341
G01 X253.822 Y1260.099
G01 X262.335 Y1244.552
G01 X268.276 Y1246.020
G01 X283.326 Y1249.327
G01 X292.801 Y1241.176
G01 X283.143 Y1234.761
G01 X267.514 Y1243.224
G01 X260.211 Y1253.123
G01 X249.185 Y1249.046
G01 X219.606 Y1241.986
G01 X183.063 Y1246.853
G01 X156.127 Y1252.473
G01 X129.553 Y1241.906
G01 X87.414 Y1223.970
G01 X39.265 Y1215.271
G01 X5.000 Y1207.758
G01 X5.000 Y380.262
G01 X7.064 Y379.516
G01 X65.588 Y364.115
G01 X121.346 Y342.091
G01 X166.274 Y331.047
G01 X217.218 Y339.216
G01 X282.727 Y349.504
G01 X345.896 Y352.099
G01 X396.305 Y362.821
G01 X449.530 Y391.899
G01 X516.636 Y423.328
G01 X582.420 Y444.610
G01 X634.297 Y469.601
G01 X686.179 Y510.496
G01 X710.000 Y526.017
G01 X710.000 Y1600.000
G01 X12.984 Y1600.000
G01 X28.395 Y1560.366
G01 X43.757 Y1505.734
G01 X51.080 Y1459.980
G01 X67.729 Y1429.679
G01 X99.658 Y1397.394
G01 X128.426 Y1356.033
G01 X145.076 Y1323.101
G01 X165.658 Y1307.393
G01 X198.543 Y1292.275
G01 X226.546 Y1267.756
G01 X238.335 Y1249.566
G01 X248.676 Y1248.490
G01 X268.554 Y1249.051
G01 X282.770 Y1238.603
G01 X278.210 Y1230.822
G01 X268.345 Y1238.347
G01 X266.796 Y1247.315
G01 X260.900 Y1242.862
G01 X236.196 Y1236.495
G01 X204.666 Y1242.642
G01 X182.306 Y1249.580
G01 X159.223 Y1240.787
G01 X119.830 Y1225.605
G01 X74.205 Y1220.185
G01 X40.161 Y1215.448
G01 X10.536 Y1193.806
G01 X5.000 Y1189.661
G01 X5.000 Y396.890
G01 X35.498 Y385.870
G01 X88.142 Y359.199
G01 X130.419 Y343.858
G01 X179.372 Y347.517
G01 X242.862 Y352.952
G01 X303.689 Y351.113
G01 X352.054 Y358.219
G01 X403.832 Y383.958
G01 X469.456 Y412.073
G01 X533.353 Y430.743
G01 X583.534 Y454.265
G01 X634.326 Y494.296
G01 X698.447 Y536.082
G01 X710.000 Y541.414
G01 X710.000 Y1600.000
G01 X5.715 Y1600.000
G01 X8.136 Y1591.746
G01 X19.470 Y1535.977
G01 X23.536 Y1489.046
G01 X37.934 Y1456.879
G01 X68.020 Y1421.935
G01 X95.237 Y1377.862
G01 X111.350 Y1342.445
G01 X132.672 Y1323.887
G01 X166.925 Y1305.370
G01 X196.619 Y1277.628
G01 X211.019 Y1256.778
G01 X225.157 Y1253.061
G01 X249.325 Y1250.721
G01 X267.850 Y1237.781
G01 X268.085 Y1228.378
G01 X263.795 Y1234.640
G01 X267.918 Y1242.312
G01 X267.194 Y1237.101
G01 X247.547 Y1231.017
G01 X221.325 Y1237.999
G01 X203.922 Y1245.808
G01 X184.800 Y1238.367
G01 X148.721 Y1225.536
G01 X106.248 Y1223.004
G01 X74.735 Y1221.057
G01 X46.386 Y1202.419
G01 X5.000 Y1174.902
G01 X5.000 Y412.548
G01 X8.127 Y411.091
G01 X57.556 Y379.990
G01 X97.119 Y360.456
G01 X144.030 Y359.589
G01 X205.454 Y360.057
G01 X263.921 Y353.578
G01 X310.256 Y356.745
G01 X360.599 Y378.710
G01 X424.734 Y402.993
G01 X486.736 Y418.474
G01 X535.213 Y439.881
G01 X584.875 Y478.334
G01 X647.871 Y518.716
G01 X710.000 Y547.449
G01 X710.000 Y1600.000
G01 X5.000 Y1600.000
G01 X5.000 Y1500.487
G01 X10.402 Y1484.873
G01 X38.050 Y1447.596
G01 X63.060 Y1401.115
G01 X77.942 Y1363.460
G01 X99.267 Y1342.232
G01 X134.119 Y1320.453
G01 X164.754 Y1289.584
G01 X181.058 Y1266.102
G01 X198.330 Y1259.693
G01 X226.176 Y1254.349
G01 X248.488 Y1238.771
G01 X253.114 Y1227.538
G01 X254.101 Y1232.259
G01 X263.697 Y1238.314
G01 X268.072 Y1232.003
G01 X253.551 Y1225.826
G01 X232.824 Y1233.224
G01 X220.657 Y1241.474
G01 X205.881 Y1234.972
G01 X173.610 Y1224.090
G01 X134.859 Y1224.045
G01 X106.486 Y1224.516
G01 X80.060 Y1208.571
G01 X39.592 Y1184.461
G01 X5.000 Y1172.796
G01 X5.000 Y423.046
G01 X29.565 Y404.271
G01 X66.327 Y380.746
G01 X111.121 Y375.441
G01 X170.413 Y370.935
G01 X226.487 Y359.720
G01 X270.797 Y358.739
G01 X319.719 Y376.600
G01 X382.371 Y396.631
G01 X442.493 Y408.433
G01 X489.292 Y427.151
G01 X537.828 Y463.370
G01 X599.658 Y501.650
G01 X660.287 Y529.071
G01 X706.841 Y558.833
G01 X710.000 Y561.912
G01 X710.000 Y1600.000
G01 X5.000 Y1600.000
G01 X5.000 Y1482.479
G01 X10.284 Y1474.080
G01 X32.505 Y1425.513
G01 X45.520 Y1385.892
G01 X66.147 Y1362.206
G01 X100.850 Y1337.334
G01 X131.675 Y1303.472
G01 X149.159 Y1277.425
G01 X168.859 Y1268.318
G01 X199.711 Y1259.910
G01 X225.215 Y1241.596
G01 X233.740 Y1228.372
G01 X239.604 Y1231.318
G01 X254.364 Y1235.481
G01 X263.654 Y1227.769
G01 X254.212 Y1221.156
G01 X239.053 Y1228.583
G01 X232.294 Y1236.868
G01 X222.150 Y1230.907
G01 X194.092 Y1221.577
G01 X159.558 Y1223.613
G01 X134.876 Y1226.120
G01 X110.980 Y1212.537
G01 X72.223 Y1191.634
G01 X28.005 Y1179.844
G01 X5.000 Y1171.986
G01 X5.000 Y431.103
G01 X38.025 Y404.535
G01 X80.600 Y394.975
G01 X137.668 Y385.592
G01 X191.296 Y369.653
G01 X233.568 Y364.421
G01 X281.071 Y377.954
G01 X342.245 Y393.419
G01 X400.511 Y401.148
G01 X445.678 Y416.689
G01 X493.121 Y450.093
G01 X553.788 Y485.632
G01 X612.801 Y511.027
G01 X657.866 Y539.916
G01 X702.741 Y584.306
G01 X710.000 Y590.058
G01 X710.000 Y1600.000
G01 X5.000 Y1600.000
G01 X5.000 Y1447.296
G01 X14.691 Y1409.481
G01 X33.977 Y1383.573
G01 X67.821 Y1355.811
G01 X98.104 Y1319.121
G01 X116.040 Y1290.615
G01 X137.445 Y1278.841
G01 X170.591 Y1267.354
G01 X198.631 Y1246.248
G01 X210.487 Y1230.914
G01 X220.739 Y1231.898
G01 X240.256 Y1233.933
G01 X254.166 Y1224.559
G01 X249.646 Y1217.207
G01 X240.011 Y1224.306
G01 X238.722 Y1232.247
G01 X233.389 Y1226.453
G01 X209.854 Y1218.289
G01 X179.945 Y1222.008
G01 X159.430 Y1226.162
G01 X138.613 Y1214.596
G01 X102.191 Y1196.589
G01 X60.083 Y1188.123
G01 X29.801 Y1180.373
G01 X5.000 Y1156.822
G01 X5.000 Y438.719
G01 X12.224 Y431.547
G01 X52.452 Y417.996
G01 X107.177 Y403.926
G01 X158.277 Y383.375
G01 X198.475 Y373.895
G01 X244.541 Y382.985
G01 X304.227 Y393.674
G01 X360.659 Y397.041
G01 X404.246 Y409.012
G01 X450.648 Y439.106
G01 X510.182 Y471.340
G01 X567.603 Y494.098
G01 X611.198 Y521.450
G01 X655.128 Y564.873
G01 X710.000 Y608.319
G01 X710.000 Y1600.000
G01 X5.000 Y1600.000
G01 X5.000 Y1404.548
G01 X35.689 Y1375.667
G01 X64.736 Y1336.348
G01 X82.418 Y1305.519
G01 X104.799 Y1291.147
G01 X139.506 Y1276.604
G01 X169.390 Y1252.691
G01 X183.950 Y1235.171
G01 X198.027 Y1234.044
G01 X221.803 Y1233.760
G01 X239.940 Y1222.503
G01 X240.075 Y1214.143
G01 X235.812 Y1220.592
G01 X239.939 Y1227.841
G01 X239.486 Y1221.861
G01 X220.676 Y1214.497
G01 X195.703 Y1219.507
G01 X179.746 Y1224.926
G01 X162.485 Y1215.026
G01 X128.965 Y1199.590
G01 X89.590 Y1194.138
G01 X61.427 Y1189.217
G01 X36.806 Y1167.946
G01 X5.000 Y1142.322
G01 X5.000 Y454.124
G01 X26.694 Y444.230
G01 X78.930 Y425.746
G01 X127.390 Y400.784
G01 X165.448 Y387.155
G01 X210.031 Y391.789
G01 X268.199 Y397.601
G01 X322.802 Y396.418
G01 X364.855 Y404.528
G01 X410.270 Y430.911
G01 X468.716 Y459.361
G01 X524.597 Y478.948
G01 X566.780 Y504.161
G01 X609.796 Y545.944
G01 X665.663 Y589.458
G01 X710.000 Y615.257
G01 X710.000 Y1600.000
G01 X5.000 Y1600.000
G01 X5.000 Y1396.740
G01 X5.055 Y1396.680
G01 X32.227 Y1354.956
G01 X48.983 Y1321.973
G01 X71.631 Y1305.104
G01 X107.164 Y1287.564
G01 X138.177 Y1260.866
G01 X154.776 Y1241.121
G01 X172.055 Y1237.774
G01 X199.519 Y1235.019
G01 X221.402 Y1221.697
G01 X225.827 Y1212.097
G01 X226.673 Y1217.607
G01 X236.051 Y1223.848
G01 X240.435 Y1217.357
G01 X226.444 Y1210.446
G01 X206.613 Y1216.372
G01 X195.508 Y1222.679
G01 X182.196 Y1214.095
G01 X152.075 Y1200.898
G01 X115.999 Y1198.134
G01 X90.555 Y1195.751
G01 X67.457 Y1177.203
G01 X30.981 Y1150.702
G01 X5.000 Y1139.491
G01 X5.000 Y472.598
G01 X52.948 Y450.779
G01 X98.630 Y421.687
G01 X134.450 Y404.096
G01 X177.472 Y404.356
G01 X234.060 Y405.289
G01 X286.816 Y399.474
G01 X327.364 Y403.533
G01 X371.836 Y425.904
G01 X429.241 Y450.187
G01 X483.646 Y466.154
G01 X524.500 Y488.696
G01 X566.670 Y528.231
G01 X621.587 Y569.597
G01 X675.075 Y600.116
G01 X710.000 Y629.021
G01 X710.000 Y1600.000
G01 X5.000 Y1600.000
G01 X5.000 Y1365.949
G01 X16.385 Y1339.798
G01 X38.625 Y1320.566
G01 X74.267 Y1300.121
G01 X105.693 Y1270.696
G01 X123.643 Y1248.722
G01 X143.460 Y1243.085
G01 X173.984 Y1237.744
G01 X199.059 Y1222.211
G01 X207.322 Y1211.175
G01 X212.917 Y1215.491
G01 X227.274 Y1220.436
G01 X236.342 Y1213.137
G01 X227.152 Y1206.357
G01 X212.559 Y1212.840
G01 X206.498 Y1219.672
G01 X197.432 Y1212.062
G01 X171.121 Y1200.769
G01 X138.841 Y1200.358
G01 X116.661 Y1200.204
G01 X95.682 Y1184.126
G01 X60.524 Y1160.839
G01 X20.414 Y1146.597
G01 X5.000 Y1139.225
G01 X5.000 Y492.327
G01 X29.284 Y478.689
G01 X72.025 Y445.814
G01 X105.479 Y424.525
G01 X146.829 Y420.579
G01 X201.744 Y416.724
G01 X252.603 Y406.292
G01 X291.646 Y406.212
G01 X335.200 Y424.370
G01 X391.598 Y444.201
G01 X444.590 Y456.191
G01 X484.206 Y475.617
G01 X525.619 Y512.367
G01 X579.651 Y550.994
G01 X631.747 Y579.446
G01 X669.893 Y611.155
G01 X707.686 Y657.950
G01 X710.000 Y660.155
G01 X710.000 Y1600.000
G01 X5.000 Y1600.000
G01 X5.000 Y1338.810
G01 X6.424 Y1337.371
G01 X41.492 Y1314.147
G01 X72.631 Y1282.086
G01 X91.243 Y1257.915
G01 X112.914 Y1249.949
G01 X145.827 Y1241.944
G01 X173.485 Y1224.091
G01 X185.061 Y1211.456
G01 X194.958 Y1214.356
G01 X213.925 Y1217.752
G01 X227.419 Y1209.376
G01 X222.903 Y1202.424
G01 X213.533 Y1209.128
G01 X212.597 Y1216.138
G01 X207.974 Y1209.167
G01 X185.793 Y1199.447
G01 X157.720 Y1201.050
G01 X139.279 Y1202.808
G01 X120.960 Y1188.927
G01 X87.731 Y1168.622
G01 X49.334 Y1157.696
G01 X22.970 Y1147.573
G01 X5.000 Y1125.523
G01 X5.000 Y511.130
G01 X8.019 Y509.091
G01 X47.635 Y472.833
G01 X78.569 Y448.172
G01 X118.104 Y440.263
G01 X171.216 Y431.797
G01 X220.095 Y416.855
G01 X257.600 Y412.641
G01 X300.231 Y426.485
G01 X355.634 Y441.679
G01 X407.262 Y449.430
G01 X445.730 Y465.386
G01 X486.481 Y498.900
G01 X539.711 Y534.269
G01 X590.499 Y560.095
G01 X627.398 Y590.225
G01 X664.395 Y635.965
G01 X710.000 Y679.371
G01 X710.000 Y1600.000
G01 X5.000 Y1600.000
G01 X5.000 Y1332.916
G01 X9.475 Y1329.500
G01 X39.664 Y1294.925
G01 X58.264 Y1268.620
G01 X81.100 Y1258.324
G01 X115.712 Y1247.611
G01 X145.302 Y1227.361
G01 X159.610 Y1212.999
G01 X173.288 Y1214.293
G01 X196.412 Y1215.915
G01 X213.977 Y1206.221
G01 X213.906 Y1198.824
G01 X209.635 Y1205.432
G01 X213.797 Y1212.290
G01 X213.706 Y1205.638
G01 X195.872 Y1197.164
G01 X172.325 Y1200.446
G01 X158.017 Y1203.792
G01 X142.832 Y1191.826
G01 X112.087 Y1174.249
G01 X76.011 Y1166.405
G01 X51.370 Y1159.101
G01 X30.611 Y1135.838
G01 X5.000 Y1111.112
G01 X5.000 Y524.558
G01 X25.548 Y502.365
G01 X53.787 Y474.709
G01 X91.335 Y463.143
G01 X142.484 Y450.315
G01 X189.263 Y431.051
G01 X225.162 Y422.798
G01 X266.827 Y432.319
G01 X321.216 Y442.786
G01 X371.505 Y446.138
G01 X408.898 Y458.362
G01 X449.076 Y488.277
G01 X501.592 Y519.956
G01 X551.174 Y542.666
G01 X586.940 Y570.664
G01 X623.236 Y614.731
G01 X671.940 Y660.308
G01 X710.000 Y687.527
G01 X710.000 Y1600.000
G01 X5.000 Y1600.000
G01 X5.000 Y1312.215
G01 X7.422 Y1309.090
G01 X25.370 Y1280.746
G01 X48.697 Y1268.150
G01 X84.314 Y1254.718
G01 X115.166 Y1232.030
G01 X131.584 Y1215.842
G01 X148.466 Y1215.371
G01 X175.219 Y1215.027
G01 X196.419 Y1203.803
G01 X200.466 Y1195.710
G01 X201.067 Y1201.927
G01 X210.194 Y1208.323
G01 X214.616 Y1201.684
G01 X201.242 Y1194.142
G01 X182.440 Y1198.767
G01 X172.566 Y1203.378
G01 X160.906 Y1193.037
G01 X133.137 Y1177.923
G01 X99.935 Y1172.906
G01 X77.600 Y1168.202
G01 X57.983 Y1147.642
G01 X25.609 Y1119.389
G01 X5.000 Y1108.443
G01 X5.000 Y535.105
G01 X5.868 Y534.001
G01 X31.228 Y503.765
G01 X66.596 Y488.895
G01 X115.591 Y472.015
G01 X160.117 Y448.686
G01 X194.303 Y436.568
G01 X234.922 Y441.844
G01 X288.241 Y447.588
G01 X337.184 Y446.470
G01 X373.547 Y454.797
G01 X413.223 Y480.844
G01 X465.105 Y508.488
G01 X513.585 Y527.679
G01 X548.348 Y553.064
G01 X584.065 Y594.898
G01 X632.032 Y638.306
G01 X678.382 Y670.861
G01 X710.000 Y704.496
G01 X710.000 Y1600.000
G01 X5.000 Y1600.000
G01 X5.000 Y1286.620
G01 X16.361 Y1279.349
G01 X52.304 Y1263.223
G01 X83.743 Y1238.086
G01 X101.629 Y1220.007
G01 X121.097 Y1217.643
G01 X150.898 Y1215.171
G01 X175.224 Y1202.232
G01 X182.979 Y1193.219
G01 X188.133 Y1198.774
G01 X201.987 Y1204.416
G01 X210.800 Y1197.500
G01 X201.891 Y1190.584
G01 X187.947 Y1196.227
G01 X182.708 Y1201.782
G01 X174.878 Y1192.774
G01 X150.494 Y1179.846
G01 X120.653 Y1177.388
G01 X101.156 Y1175.046
G01 X83.256 Y1157.007
G01 X51.827 Y1131.929
G01 X15.914 Y1115.873
G01 X5.000 Y1108.919
G01 X5.000 Y543.651
G01 X11.001 Y534.934
G01 X43.986 Y517.152
G01 X90.617 Y496.578
G01 X132.708 Y469.500
G01 X165.040 Y453.756
G01 X204.493 Y454.942
G01 X256.646 Y456.051
G01 X304.197 Y450.484
G01 X339.542 Y454.839
G01 X378.756 Y476.842
G01 X430.062 Y500.198
G01 X477.534 Y515.553
G01 X511.426 Y537.925
G01 X546.698 Y577.041
G01 X594.043 Y617.742
G01 X639.220 Y648.216
G01 X670.488 Y681.689
G01 X701.272 Y729.821
G01 X710.000 Y739.792
G01 X710.000 Y1600.000
G01 X5.000 Y1600.000
G01 X5.000 Y1281.140
G01 X20.327 Y1273.066
G01 X51.694 Y1245.504
G01 X70.403 Y1225.500
G01 X91.819 Y1221.147
G01 X124.044 Y1216.414
G01 X150.934 Y1201.603
G01 X161.918 Y1191.470
G01 X171.219 Y1196.114
G01 X189.472 Y1200.734
G01 X202.452 Y1193.267
G01 X197.911 Y1186.686
G01 X188.833 Y1193.029
G01 X188.329 Y1199.211
G01 X184.533 Y1191.244
G01 X163.855 Y1180.221
G01 X137.784 Y1180.042
G01 X121.589 Y1179.808
G01 X105.931 Y1164.086
G01 X76.036 Y1142.020
G01 X41.460 Y1129.226
G01 X19.079 Y1117.367
G01 X5.000 Y1094.796
G01 X5.000 Y559.944
G01 X23.624 Y547.517
G01 X67.668 Y523.642
G01 X107.121 Y493.179
G01 X137.427 Y474.106
G01 X175.559 Y471.422
G01 X226.408 Y468.058
G01 X272.481 Y458.143
G01 X306.778 Y458.538
G01 X345.534 Y476.411
G01 X396.293 Y495.319
G01 X442.829 Y506.610
G01 X475.967 Y525.653
G01 X510.926 Y561.646
G01 X557.776 Y599.175
G01 X601.914 Y627.059
G01 X632.150 Y658.937
G01 X662.291 Y705.949
G01 X704.619 Y754.172
G01 X710.000 Y758.830
G01 X710.000 Y1600.000
G01 X5.000 Y1600.000
G01 X5.000 Y1268.546
G01 X19.659 Y1254.240
G01 X38.557 Y1232.309
G01 X61.278 Y1225.902
G01 X95.286 Y1218.807
G01 X124.137 Y1201.997
G01 X137.817 Y1190.570
G01 X150.791 Y1194.077
G01 X173.030 Y1197.426
G01 X189.865 Y1189.154
G01 X189.494 Y1182.630
G01 X185.186 Y1189.365
G01 X189.411 Y1195.865
G01 X189.755 Y1188.649
G01 X173.010 Y1179.247
G01 X151.027 Y1181.058
G01 X138.522 Y1182.667
G01 X125.568 Y1169.043
G01 X97.743 Y1149.802
G01 X65.089 Y1140.105
G01 X44.059 Y1131.007
G01 X27.205 Y1106.388
G01 X5.000 Y1080.822
G01 X5.000 Y580.096
G01 X5.637 Y579.580
G01 X46.868 Y552.820
G01 X83.470 Y519.367
G01 X111.556 Y497.307
G01 X148.179 Y491.028
G01 X197.552 Y483.416
G01 X242.020 Y469.328
G01 X275.198 Y465.853
G01 X313.457 Y479.592
G01 X363.657 Y493.979
G01 X409.298 Y501.068
G01 X441.775 Y516.557
G01 X476.537 Y549.106
G01 X523.015 Y583.074
G01 X566.256 Y607.935
G01 X595.623 Y637.718
G01 X625.268 Y683.044
G01 X666.921 Y729.648
G01 X707.400 Y764.772
G01 X710.000 Y768.257
G01 X710.000 Y1600.000
G01 X5.000 Y1600.000
G01 X5.000 Y1242.626
G01 X6.722 Y1240.406
G01 X30.117 Y1231.913
G01 X65.260 Y1222.385
G01 X95.450 Y1203.478
G01 X111.254 Y1190.610
G01 X127.372 Y1192.781
G01 X153.120 Y1194.632
G01 X173.413 Y1185.319
G01 X176.926 Y1178.589
G01 X177.196 Y1185.419
G01 X186.043 Y1191.937
G01 X190.529 Y1185.186
G01 X177.842 Y1177.120
G01 X160.172 Y1180.629
G01 X151.657 Y1183.806
G01 X141.793 Y1172.046
G01 X116.515 Y1155.424
G01 X86.314 Y1148.634
G01 X67.194 Y1142.147
G01 X51.124 Y1120.166
G01 X22.874 Y1090.795
G01 X5.000 Y1079.399
G01 X5.000 Y601.567
G01 X28.353 Y583.709
G01 X61.886 Y547.685
G01 X87.545 Y523.009
G01 X122.449 Y513.453
G01 X170.141 Y501.875
G01 X212.841 Y483.848
G01 X244.786 Y476.662
G01 X282.464 Y486.341
G01 X332.053 Y496.215
G01 X376.799 Y499.049
G01 X408.675 Y510.842
G01 X443.329 Y539.712
G01 X489.540 Y569.818
G01 X532.020 Y591.299
G01 X560.686 Y618.558
G01 X590.002 Y661.697
G01 X631.121 Y706.136
G01 X670.480 Y739.700
G01 X696.058 Y775.012
G01 X710.000 Y802.770
G01 X710.000 Y1579.735
G01 X692.936 Y1595.333
G01 X685.966 Y1600.000
G01 X5.000 Y1600.000
G01 X5.000 Y1237.131
G01 X34.598 Y1227.168
G01 X65.502 Y1206.097
G01 X82.837 Y1191.668
G01 X101.533 Y1192.328
G01 X130.255 Y1192.480
G01 X153.546 Y1181.908
G01 X160.577 Y1174.726
G01 X165.141 Y1181.369
G01 X178.408 Y1187.614
G01 X186.940 Y1181.047
G01 X178.336 Y1174.033
G01 X165.106 Y1178.944
G01 X160.788 Y1183.409
G01 X154.313 Y1173.268
G01 X131.982 Y1159.045
G01 X104.706 Y1154.953
G01 X88.003 Y1150.901
G01 X73.267 Y1131.440
G01 X45.614 Y1105.161
G01 X13.896 Y1087.920
G01 X5.000 Y1080.522
G01 X5.000 Y622.378
G01 X12.252 Y615.902
G01 X42.510 Y577.737
G01 X65.534 Y550.838
G01 X98.494 Y538.355
G01 X144.278 Y523.131
G01 X185.014 Y501.452
G01 X215.573 Y490.773
G01 X252.546 Y496.534
G01 X301.424 Y501.978
G01 X345.231 Y500.582
G01 X376.524 Y508.621
G01 X411.123 Y533.661
G01 X457.144 Y559.688
G01 X498.981 Y577.512
G01 X527.106 Y601.896
G01 X556.263 Y642.416
G01 X597.007 Y684.208
G01 X635.403 Y715.699
G01 X659.972 Y749.924
G01 X683.960 Y798.375
G01 X710.000 Y834.068
G01 X710.000 Y1556.609
G01 X704.371 Y1561.328
G01 X659.539 Y1589.944
G01 X648.809 Y1600.000
G01 X5.000 Y1600.000
G01 X5.000 Y1232.339
G01 X34.915 Y1209.887
G01 X53.183 Y1193.809
G01 X73.868 Y1192.810
G01 X104.994 Y1191.085
G01 X130.771 Y1179.062
G01 X140.888 Y1171.196
G01 X149.385 Y1177.384
G01 X166.781 Y1183.075
G01 X179.168 Y1176.420
G01 X174.576 Y1170.176
G01 X165.811 Y1176.193
G01 X165.800 Y1181.660
G01 X162.924 Y1172.885
G01 X143.858 Y1160.827
G01 X119.903 Y1159.206
G01 X106.064 Y1157.395
G01 X93.162 Y1140.312
G01 X66.666 Y1117.023
G01 X35.938 Y1102.948
G01 X17.516 Y1089.979
G01 X5.000 Y1062.905
G01 X5.000 Y639.597
G01 X25.480 Y609.124
G01 X45.669 Y580.408
G01 X76.458 Y565.368
G01 X120.093 Y546.851
G01 X158.647 Y521.845
G01 X187.636 Y507.940
G01 X223.737 Y509.981
G01 X271.762 Y511.144
G01 X314.542 Y505.616
G01 X345.223 Y509.917
G01 X379.778 Y531.057
G01 X425.647 Y552.868
G01 X466.930 Y566.844
G01 X494.654 Y588.081
G01 X523.811 Y625.626
G01 X564.340 Y664.358
G01 X601.947 Y693.327
G01 X625.692 Y725.961
G01 X649.190 Y773.243
G01 X684.560 Y821.541
G01 X710.000 Y848.110
G01 X710.000 Y1533.821
G01 X671.120 Y1557.066
G01 X627.538 Y1597.000
G01 X625.117 Y1600.000
G01 X5.000 Y1600.000
G01 X5.000 Y1214.183
G01 X22.903 Y1197.079
G01 X44.985 Y1194.303
G01 X77.925 Y1190.552
G01 X105.636 Y1176.905
G01 X118.355 Y1168.148
G01 X130.360 Y1173.628
G01 X151.517 Y1178.498
G01 X167.484 Y1171.491
G01 X166.737 Y1165.740
G01 X162.368 Y1172.566
G01 X166.676 Y1178.747
G01 X167.513 Y1171.079
G01 X151.939 Y1160.939
G01 X131.619 Y1161.549
G01 X121.020 Y1161.764
G01 X110.393 Y1146.897
G01 X85.565 Y1126.471
G01 X56.379 Y1115.457
G01 X38.966 Y1105.151
G01 X25.973 Y1079.796
G01 X5.000 Y1050.988
G01 X5.000 Y651.957
G01 X10.917 Y641.455
G01 X28.092 Y611.328
G01 X56.492 Y594.113
G01 X97.734 Y572.676
G01 X133.874 Y544.698
G01 X161.086 Y527.870
G01 X196.117 Y526.436
G01 X243.107 Y523.523
G01 X284.728 Y514.022
G01 X314.723 Y514.672
G01 X349.194 Y531.916
G01 X394.907 Y549.454
G01 X435.686 Y559.468
G01 X463.116 Y577.365
G01 X492.409 Y611.657
G01 X532.872 Y646.995
G01 X569.862 Y673.060
G01 X592.982 Y703.662
G01 X616.181 Y749.271
G01 X651.030 Y795.914
G01 X684.635 Y831.107
G01 X704.714 Y866.879
G01 X710.000 Y880.570
G01 X710.000 Y1512.115
G01 X682.412 Y1527.290
G01 X639.711 Y1565.132
G01 X610.670 Y1600.000
G01 X5.000 Y1600.000
G01 X5.000 Y1198.992
G01 X15.483 Y1196.868
G01 X49.640 Y1190.970
G01 X78.718 Y1175.556
G01 X93.519 Y1165.719
G01 X108.553 Y1170.257
G01 X133.039 Y1174.055
G01 X152.235 Y1166.441
G01 X155.086 Y1160.913
G01 X154.950 Y1168.255
G01 X163.495 Y1174.860
G01 X168.065 Y1168.034
G01 X156.117 Y1159.558
G01 X139.657 Y1162.143
G01 X132.590 Y1164.157
G01 X124.610 Y1151.322
G01 X101.904 Y1133.609
G01 X74.764 Y1125.524
G01 X58.885 Y1117.789
G01 X46.349 Y1094.967
G01 X22.155 Y1065.091
G01 X5.000 Y1052.185
G01 X5.000 Y660.836
G01 X12.932 Y643.214
G01 X38.745 Y624.208
G01 X77.360 Y600.235
G01 X110.853 Y569.659
G01 X136.065 Y550.241
G01 X169.801 Y545.614
G01 X215.542 Y538.875
G01 X255.831 Y525.614
G01 X285.021 Y522.758
G01 X319.324 Y536.176
G01 X364.828 Y549.457
G01 X405.107 Y555.471
G01 X432.311 Y569.914
G01 X461.843 Y600.752
G01 X502.362 Y632.435
G01 X538.897 Y655.289
G01 X561.588 Y683.487
G01 X584.688 Y726.978
G01 X619.198 Y771.482
G01 X651.845 Y805.084
G01 X670.875 Y840.227
G01 X688.953 Y888.744
G01 X710.000 Y923.238
G01 X710.000 Y1492.574
G01 X693.150 Y1500.941
G01 X651.504 Y1536.296
G01 X621.581 Y1570.705
G01 X589.439 Y1593.154
G01 X576.307 Y1600.000
G01 X5.000 Y1600.000
G01 X5.000 Y1196.090
G01 X20.729 Y1192.412
G01 X50.600 Y1175.116
G01 X66.944 Y1164.036
G01 X84.493 Y1167.419
G01 X111.827 Y1169.911
G01 X133.839 Y1161.451
G01 X139.963 Y1155.882
G01 X143.815 Y1163.450
G01 X156.425 Y1170.192
G01 X164.655 Y1163.940
G01 X156.374 Y1156.864
G01 X143.907 Y1161.160
G01 X140.578 Y1164.728
G01 X135.537 Y1153.725
G01 X115.338 Y1138.553
G01 X90.692 Y1133.242
G01 X76.825 Y1127.959
G01 X65.261 Y1107.609
G01 X41.349 Y1080.702
G01 X13.740 Y1062.886
G01 X5.000 Y1053.396
G01 X5.000 Y671.524
G01 X23.349 Y655.278
G01 X59.124 Y629.156
G01 X89.745 Y596.367
G01 X112.732 Y574.708
G01 X144.936 Y567.198
G01 X189.189 Y556.918
G01 X227.942 Y540.154
G01 X256.166 Y533.988
G01 X290.170 Y543.707
G01 X335.363 Y552.810
G01 X375.101 Y554.856
G01 X402.100 Y565.802
G01 X431.930 Y593.063
G01 X472.594 Y620.908
G01 X508.807 Y640.319
G01 X531.251 Y665.810
G01 X554.448 Y706.808
G01 X588.808 Y748.749
G01 X620.693 Y780.309
G01 X638.875 Y814.329
G01 X656.411 Y862.143
G01 X685.765 Y910.775
G01 X710.000 Y940.669
G01 X710.000 Y1475.185
G01 X703.028 Y1478.244
G01 X662.649 Y1510.802
G01 X633.714 Y1542.328
G01 X601.992 Y1562.436
G01 X557.094 Y1584.658
G01 X537.559 Y1600.000
G01 X5.000 Y1600.000
G01 X5.000 Y1186.459
G01 X21.860 Y1175.670
G01 X39.202 Y1163.213
G01 X58.732 Y1165.252
G01 X88.397 Y1166.224
G01 X112.763 Y1156.695
G01 X121.777 Y1150.834
G01 X129.299 Y1158.346
G01 X145.720 Y1164.939
G01 X157.450 Y1158.990
G01 X152.786 Y1153.046
G01 X144.352 Y1158.777
G01 X144.878 Y1163.644
G01 X142.982 Y1154.257
G01 X125.597 Y1141.435
G01 X103.824 Y1138.720
G01 X92.392 Y1135.745
G01 X82.271 Y1117.779
G01 X59.163 Y1093.794
G01 X32.228 Y1079.010
G01 X17.659 Y1065.531
G01 X8.735 Y1037.657
G01 X5.000 Y1030.624
G01 X5.000 Y692.709
G01 X10.410 Y686.958
G01 X43.163 Y659.073
G01 X70.709 Y624.458
G01 X91.256 Y600.918
G01 X121.686 Y590.851
G01 X164.197 Y577.342
G01 X201.185 Y557.365
G01 X228.252 Y548.126
G01 X261.783 Y554.324
G01 X306.519 Y559.385
G01 X345.624 Y557.557
G01 X372.390 Y565.028
G01 X402.530 Y588.657
G01 X443.385 Y612.554
G01 X479.374 Y628.364
G01 X501.725 Y650.919
G01 X525.197 Y689.119
G01 X559.593 Y728.142
G01 X590.916 Y757.269
G01 X608.471 Y789.725
G01 X625.670 Y836.340
G01 X654.458 Y883.775
G01 X682.603 Y919.280
G01 X697.570 Y954.300
G01 X710.000 Y998.019
G01 X710.000 Y1460.610
G01 X672.838 Y1488.859
G01 X645.090 Y1517.212
G01 X613.964 Y1534.635
G01 X569.661 Y1555.031
G01 X526.222 Y1588.417
G01 X514.952 Y1600.000
G01 X5.000 Y1600.000
G01 X5.000 Y1167.932
G01 X10.860 Y1163.345
G01 X31.831 Y1163.880
G01 X63.291 Y1163.145
G01 X89.515 Y1152.340
G01 X100.987 Y1145.951
G01 X111.799 Y1153.133
G01 X131.708 Y1159.299
G01 X146.698 Y1153.386
G01 X145.515 Y1148.301
G01 X141.066 Y1155.182
G01 X145.473 Y1161.082
G01 X146.842 Y1153.079
G01 X132.494 Y1142.397
G01 X113.896 Y1142.078
G01 X105.255 Y1141.247
G01 X96.991 Y1125.551
G01 X75.168 Y1104.413
G01 X49.421 Y1092.608
G01 X35.551 Y1081.658
G01 X26.290 Y1056.160
G01 X6.513 Y1023.581
G01 X5.000 Y1022.035
G01 X5.000 Y713.952
G01 X29.588 Y689.629
G01 X53.888 Y653.574
G01 X71.798 Y628.514
G01 X100.222 Y616.228
G01 X140.736 Y599.820
G01 X175.717 Y576.944
G01 X201.408 Y564.901
G01 X234.260 Y567.794
G01 X278.352 Y568.995
G01 X316.686 Y563.440
G01 X343.142 Y567.519
G01 X373.555 Y587.526
G01 X414.597 Y607.436
G01 X450.418 Y619.557
G01 X472.791 Y639.019
G01 X496.687 Y674.185
G01 X531.282 Y710.003
G01 X562.240 Y736.371
G01 X579.392 Y766.882
G01 X596.476 Y811.855
G01 X624.895 Y857.618
G01 X652.033 Y891.962
G01 X665.872 Y926.748
G01 X678.477 Y974.131
G01 X703.078 Y1022.223
G01 X710.000 Y1031.573
G01 X710.000 Y1450.440
G01 X681.734 Y1470.566
G01 X655.403 Y1495.550
G01 X625.082 Y1510.029
G01 X581.570 Y1528.261
G01 X539.240 Y1559.758
G01 X508.632 Y1590.240
G01 X491.246 Y1600.000
G01 X5.000 Y1600.000
G01 X5.000 Y1163.360
G01 X37.056 Y1160.807
G01 X64.625 Y1148.547
G01 X78.089 Y1141.409
G01 X91.765 Y1148.004
G01 X114.777 Y1153.472
G01 X132.720 Y1147.329
G01 X134.805 Y1142.828
G01 X134.206 Y1150.573
G01 X142.433 Y1157.229
G01 X147.099 Y1150.367
G01 X135.927 Y1141.598
G01 X120.723 Y1143.456
G01 X115.153 Y1144.580
G01 X109.097 Y1131.016
G01 X88.985 Y1112.624
G01 X64.897 Y1103.716
G01 X52.212 Y1095.253
G01 X43.116 Y1072.148
G01 X22.832 Y1042.353
G01 X5.000 Y1026.719
G01 X5.000 Y735.981
G01 X18.472 Y720.486
G01 X39.397 Y683.366
G01 X54.506 Y657.147
G01 X80.711 Y642.982
G01 X118.981 Y624.015
G01 X151.710 Y598.571
G01 X175.794 Y584.016
G01 X207.736 Y583.850
G01 X250.962 Y581.414
G01 X288.349 Y572.322
G01 X314.371 Y573.142
G01 X344.968 Y589.594
G01 X386.144 Y605.537
G01 X421.803 Y613.948
G01 X444.268 Y630.227
G01 X468.697 Y662.195
G01 X503.626 Y694.593
G01 X534.394 Y717.945
G01 X551.359 Y746.193
G01 X568.552 Y789.141
G01 X596.813 Y832.810
G01 X623.153 Y865.550
G01 X636.071 Y899.626
G01 X648.042 Y946.706
G01 X671.831 Y994.488
G01 X696.247 Y1029.506
G01 X708.024 Y1062.190
G01 X710.000 Y1071.165
G01 X710.000 Y1441.972
G01 X688.990 Y1455.914
G01 X664.322 Y1477.428
G01 X635.042 Y1488.794
G01 X592.548 Y1504.610
G01 X551.522 Y1533.878
G01 X521.959 Y1562.067
G01 X490.206 Y1578.408
G01 X445.532 Y1595.852
G01 X439.260 Y1600.000
G01 X5.000 Y1600.000
G01 X5.000 Y1160.051
G01 X10.233 Y1159.331
G01 X38.629 Y1145.461
G01 X53.600 Y1137.377
G01 X69.681 Y1143.142
G01 X95.366 Y1147.655
G01 X115.896 Y1141.026
G01 X120.968 Y1136.838
G01 X124.011 Y1145.154
G01 X135.913 Y1152.284
G01 X143.824 Y1146.308
G01 X135.879 Y1139.210
G01 X124.205 Y1143.008
G01 X121.907 Y1145.877
G01 X118.337 Y1134.285
G01 X100.297 Y1118.509
G01 X78.288 Y1112.390
G01 X67.233 Y1106.344
G01 X58.775 Y1085.619
G01 X38.492 Y1058.637
G01 X14.823 Y1040.821
G01 X5.000 Y1026.566
G01 X5.000 Y757.830
G01 X9.844 Y751.323
G01 X27.315 Y713.503
G01 X39.500 Y686.476
G01 X63.303 Y670.771
G01 X99.103 Y649.589
G01 X129.345 Y621.917
G01 X151.587 Y605.157
G01 X182.373 Y602.203
G01 X224.488 Y596.380
G01 X260.717 Y583.980
G01 X286.140 Y581.715
G01 X316.786 Y594.728
G01 X357.992 Y606.780
G01 X393.445 Y611.519
G01 X416.025 Y624.587
G01 X441.048 Y653.258
G01 X476.405 Y682.087
G01 X507.125 Y702.235
G01 X524.097 Y727.968
G01 X541.612 Y768.571
G01 X569.927 Y809.783
G01 X595.691 Y840.530
G01 X607.920 Y873.466
G01 X619.468 Y919.766
G01 X642.612 Y966.745
G01 X665.763 Y1001.427
G01 X676.154 Y1034.676
G01 X684.766 Y1079.418
G01 X705.471 Y1124.919
G01 X710.000 Y1131.154
G01 X710.000 Y1435.081
G01 X694.257 Y1444.783
G01 X671.505 Y1462.821
G01 X643.517 Y1471.001
G01 X602.294 Y1484.236
G01 X562.793 Y1511.019
G01 X534.456 Y1536.598
G01 X503.343 Y1550.820
G01 X459.290 Y1567.012
G01 X415.769 Y1595.549
G01 X410.659 Y1600.000
G01 X5.000 Y1600.000
G01 X5.000 Y1147.043
G01 X12.056 Y1143.209
G01 X28.046 Y1134.009
G01 X46.053 Y1138.724
G01 X73.950 Y1142.043
G01 X96.657 Y1134.682
G01 X104.379 Y1130.540
G01 X110.787 Y1139.137
G01 X126.145 Y1146.456
G01 X137.169 Y1141.102
G01 X132.419 Y1135.420
G01 X124.327 Y1140.903
G01 X125.417 Y1145.289
G01 X124.534 Y1135.486
G01 X108.859 Y1122.173
G01 X89.283 Y1118.707
G01 X80.249 Y1114.978
G01 X72.866 Y1096.591
G01 X53.065 Y1072.422
G01 X29.791 Y1057.471
G01 X18.888 Y1044.049
G01 X13.700 Y1016.796
G01 X5.000 Y996.580
G01 X5.000 Y778.246
G01 X17.676 Y743.669
G01 X26.861 Y716.176
G01 X48.121 Y699.262
G01 X81.255 Y676.208
G01 X108.795 Y646.653
G01 X128.971 Y628.004
G01 X158.351 Y622.547
G01 X199.095 Y613.610
G01 X233.932 Y598.156
G01 X258.559 Y593.016
G01 X289.077 Y602.745
G01 X330.164 Y611.030
G01 X365.316 Y612.186
G01 X387.980 Y622.075
G01 X413.610 Y647.410
G01 X449.442 Y672.587
G01 X480.216 Y689.405
G01 X497.354 Y712.437
G01 X515.379 Y750.440
G01 X543.947 Y788.895
G01 X569.356 Y817.318
G01 X581.141 Y848.735
G01 X592.502 Y893.824
G01 X615.201 Y939.542
G01 X637.265 Y973.426
G01 X646.429 Y1006.763
G01 X654.134 Y1052.010
G01 X673.837 Y1097.977
G01 X695.397 Y1130.591
G01 X704.866 Y1159.251
G01 X710.000 Y1189.058
G01 X710.000 Y1429.636
G01 X697.209 Y1436.950
G01 X676.619 Y1451.601
G01 X650.178 Y1456.614
G01 X610.487 Y1467.197
G01 X572.752 Y1491.328
G01 X545.848 Y1514.061
G01 X515.567 Y1525.875
G01 X472.317 Y1540.459
G01 X429.915 Y1567.690
G01 X399.261 Y1593.872
G01 X384.846 Y1600.000
G01 X5.000 Y1600.000
G01 X5.000 Y1131.988
G01 X21.392 Y1134.914
G01 X51.020 Y1136.820
G01 X75.465 Y1128.499
G01 X85.456 Y1124.145
G01 X94.896 Y1132.739
G01 X113.429 Y1139.960
G01 X127.360 Y1134.960
G01 X125.697 Y1130.428
G01 X121.155 Y1137.327
G01 X125.670 Y1142.984
G01 X127.594 Y1134.765
G01 X114.497 Y1123.738
G01 X97.640 Y1122.763
G01 X90.960 Y1121.226
G01 X85.035 Y1105.107
G01 X66.160 Y1083.718
G01 X43.751 Y1071.623
G01 X33.274 Y1060.566
G01 X27.540 Y1035.481
G01 X11.644 Y1003.747
G01 X5.000 Y995.867
G01 X5.000 Y793.337
G01 X10.462 Y773.570
G01 X16.629 Y745.937
G01 X35.251 Y728.138
G01 X65.565 Y703.550
G01 X90.220 Y672.454
G01 X108.122 Y652.234
G01 X135.856 Y644.568
G01 X174.968 Y632.806
G01 X208.166 Y614.575
G01 X231.774 Y606.793
G01 X261.953 Y613.428
G01 X302.729 Y618.109
G01 X337.442 Y615.817
G01 X360.110 Y622.603
G01 X386.306 Y644.620
G01 X422.608 Y666.119
G01 X453.492 Y679.546
G01 X470.914 Y699.754
G01 X489.603 Y734.964
G01 X518.597 Y770.426
G01 X543.858 Y796.256
G01 X555.439 Y825.832
G01 X566.855 Y869.329
G01 X589.334 Y913.375
G01 X610.524 Y946.038
G01 X618.664 Y979.013
G01 X625.627 Y1024.284
G01 X644.432 Y1070.233
G01 X664.528 Y1103.229
G01 X672.443 Y1133.118
G01 X678.002 Y1173.528
G01 X695.602 Y1214.936
G01 X710.000 Y1233.768
G01 X710.000 Y1425.474
G01 X697.553 Y1432.096
G01 X679.351 Y1443.536
G01 X654.703 Y1445.493
G01 X616.806 Y1453.444
G01 X581.086 Y1474.846
G01 X555.839 Y1494.585
G01 X526.604 Y1503.785
G01 X484.368 Y1516.480
G01 X443.266 Y1542.046
G01 X413.669 Y1566.512
G01 X382.517 Y1578.765
G01 X338.769 Y1591.184
G01 X322.532 Y1600.000
G01 X5.000 Y1600.000
G01 X5.000 Y1131.944
G01 X27.077 Y1132.160
G01 X52.801 Y1122.669
G01 X64.650 Y1117.863
G01 X76.747 Y1126.176
G01 X98.118 Y1133.019
G01 X114.689 Y1128.102
G01 X115.933 Y1124.448
G01 X114.833 Y1132.482
G01 X122.729 Y1139.150
G01 X127.501 Y1132.291
G01 X117.121 Y1123.349
G01 X103.193 Y1124.676
G01 X99.128 Y1125.180
G01 X94.988 Y1111.228
G01 X77.431 Y1092.558
G01 X56.322 Y1083.281
G01 X46.714 Y1074.587
G01 X40.889 Y1051.727
G01 X24.290 Y1022.557
G01 X5.000 Y1003.044
G01 X5.000 Y806.105
G01 X5.604 Y802.928
G01 X8.790 Y775.467
G01 X24.735 Y757.096
G01 X52.121 Y731.302
G01 X73.748 Y699.002
G01 X89.201 Y677.532
G01 X115.068 Y667.955
G01 X152.296 Y653.664
G01 X183.605 Y632.945
G01 X205.958 Y622.777
G01 X235.564 Y626.531
G01 X275.806 Y627.801
G01 X309.898 Y622.231
G01 X332.443 Y626.037
G01 X359.113 Y644.799
G01 X395.830 Y662.648
G01 X426.828 Y672.678
G01 X444.605 Y689.996
G01 X464.066 Y722.283
G01 X493.623 Y754.579
G01 X518.918 Y777.606
G01 X530.520 Y805.080
G01 X542.230 Y846.662
G01 X564.718 Y888.677
G01 X585.266 Y919.740
G01 X592.618 Y951.941
G01 X599.048 Y996.785
G01 X617.113 Y1042.252
G01 X635.862 Y1075.176
G01 X642.305 Y1105.843
G01 X646.772 Y1147.435
G01 X663.290 Y1189.934
G01 X682.778 Y1218.764
G01 X690.674 Y1242.271
G01 X695.044 Y1275.111
G01 X710.000 Y1307.393
G01 X710.000 Y1422.348
G01 X695.048 Y1429.817
G01 X679.426 Y1438.301
G01 X656.795 Y1437.396
G01 X620.943 Y1442.824
G01 X587.484 Y1461.511
G01 X564.123 Y1478.200
G01 X536.162 Y1484.666
G01 X495.170 Y1495.270
G01 X455.574 Y1518.887
G01 X427.205 Y1541.300
G01 X396.693 Y1551.983
G01 X353.541 Y1563.694
G01 X310.649 Y1587.151
G01 X292.966 Y1600.000
G01 X5.000 Y1600.000
G01 X5.000 Y1127.241
G01 X29.152 Y1117.374
G01 X42.431 Y1111.894
G01 X56.781 Y1119.664
G01 X80.610 Y1125.856
G01 X99.503 Y1120.757
G01 X103.413 Y1117.703
G01 X105.579 Y1126.584
G01 X116.737 Y1133.988
G01 X124.320 Y1128.249
G01 X116.716 Y1121.169
G01 X105.850 Y1124.588
G01 X104.592 Y1126.953
G01 X102.495 Y1115.042
G01 X86.593 Y1099.000
G01 X67.168 Y1092.471
G01 X58.834 Y1086.109
G01 X53.349 Y1065.499
G01 X36.508 Y1038.960
G01 X16.538 Y1021.677
G01 X9.272 Y1006.721
G01 X8.633 Y978.779
G01 X5.000 Y965.344
G01 X5.000 Y802.080
G01 X16.564 Y785.848
G01 X40.970 Y759.168
G01 X59.473 Y725.996
G01 X72.342 Y703.588
G01 X96.150 Y692.398
G01 X131.260 Y675.880
G01 X160.440 Y652.972
G01 X181.301 Y640.683
G01 X210.086 Y641.790
G01 X249.545 Y639.867
G01 X282.804 Y631.220
G01 X305.059 Y632.200
G01 X332.066 Y647.810
G01 X369.092 Y662.083
G01 X400.156 Y668.759
G01 X418.305 Y683.176
G01 X438.599 Y712.466
G01 X468.812 Y741.481
G01 X494.285 Y761.559
G01 X506.106 Y786.727
G01 X518.329 Y826.129
G01 X541.051 Y865.810
G01 X561.195 Y894.946
G01 X568.012 Y926.006
G01 X574.146 Y970.010
G01 X591.669 Y1014.562
G01 X609.240 Y1046.982
G01 X614.355 Y1077.984
G01 X617.822 Y1120.301
G01 X633.280 Y1163.443
G01 X651.221 Y1193.229
G01 X657.527 Y1218.467
G01 X660.817 Y1253.406
G01 X675.907 Y1289.770
G01 X695.248 Y1312.259
G01 X703.368 Y1327.656
G01 X706.485 Y1351.486
G01 X710.000 Y1358.227
G01 X710.000 Y1419.850
G01 X689.514 Y1429.643
G01 X676.623 Y1435.492
G01 X656.199 Y1431.997
G01 X622.617 Y1435.090
G01 X591.651 Y1451.163
G01 X570.397 Y1464.832
G01 X543.941 Y1468.532
G01 X504.435 Y1476.930
G01 X466.567 Y1498.394
G01 X439.617 Y1518.490
G01 X409.927 Y1527.295
G01 X367.549 Y1537.935
G01 X325.735 Y1560.636
G01 X295.725 Y1582.309
G01 X265.403 Y1591.000
G01 X222.942 Y1598.132
G01 X218.366 Y1600.000
G01 X5.000 Y1600.000
G01 X5.000 Y1112.776
G01 X19.273 Y1106.424
G01 X35.453 Y1113.411
G01 X61.334 Y1118.694
G01 X82.189 Y1113.153
G01 X88.475 Y1110.425
G01 X93.669 Y1119.860
G01 X107.904 Y1127.718
G01 X118.190 Y1122.844
G01 X113.346 Y1117.386
G01 X105.600 Y1122.661
G01 X107.264 Y1126.684
G01 X107.399 Y1116.660
G01 X93.422 Y1103.125
G01 X76.010 Y1099.243
G01 X69.309 Y1095.153
G01 X64.560 Y1076.789
G01 X47.914 Y1052.915
G01 X28.097 Y1038.306
G01 X20.600 Y1025.462
G01 X18.830 Y999.352
G01 X7.759 Y966.763
G01 X5.000 Y962.222
G01 X5.000 Y824.016
G01 X10.678 Y814.125
G01 X32.108 Y786.868
G01 X47.445 Y753.143
G01 X57.640 Y730.104
G01 X79.237 Y717.597
G01 X112.026 Y699.154
G01 X138.858 Y674.358
G01 X157.998 Y660.223
G01 X185.710 Y658.928
G01 X224.127 Y654.050
G01 X256.317 Y642.548
G01 X278.082 Y640.884
G01 X305.247 Y653.480
G01 X342.429 Y664.287
G01 X373.463 Y667.696
G01 X391.950 Y679.248
G01 X413.085 Y705.518
G01 X443.999 Y731.192
G01 X469.749 Y748.230
G01 X481.948 Y770.948
G01 X494.875 Y807.963
G01 X518.033 Y845.064
G01 X538.004 Y872.002
G01 X544.544 Y901.605
G01 X550.635 Y944.400
G01 X567.842 Y987.643
G01 X584.441 Y1019.160
G01 X588.423 Y1050.077
G01 X591.041 Y1092.671
G01 X605.525 Y1136.012
G01 X621.951 Y1166.333
G01 X626.660 Y1192.899
G01 X628.803 Y1229.541
G01 X642.873 Y1267.453
G01 X660.861 Y1291.655
G01 X667.680 Y1309.415
G01 X670.133 Y1335.892
G01 X683.633 Y1364.659
G01 X702.259 Y1379.901
G01 X709.847 Y1386.785
G01 X710.000 Y1389.276
G01 X710.000 Y1423.745
G01 X698.934 Y1422.487
G01 X680.843 Y1431.051
G01 X670.783 Y1434.642
G01 X652.712 Y1428.890
G01 X621.591 Y1429.909
G01 X593.320 Y1443.547
G01 X574.380 Y1454.312
G01 X549.654 Y1455.300
G01 X511.873 Y1461.461
G01 X475.962 Y1480.653
G01 X450.637 Y1498.247
G01 X421.967 Y1504.941
G01 X380.563 Y1514.209
G01 X340.004 Y1535.789
G01 X311.017 Y1556.290
G01 X281.137 Y1564.296
G01 X239.044 Y1571.623
G01 X196.680 Y1589.794
G01 X178.903 Y1600.000
G01 X5.000 Y1600.000
G01 X5.000 Y1104.809
G01 X13.225 Y1107.610
G01 X40.733 Y1111.747
G01 X63.165 Y1105.519
G01 X71.495 Y1102.848
G01 X79.432 Y1112.545
G01 X96.499 Y1120.570
G01 X109.316 Y1116.297
G01 X107.146 Y1112.204
G01 X102.504 Y1119.082
G01 X107.131 Y1124.537
G01 X109.615 Y1116.219
G01 X97.767 Y1105.041
G01 X82.631 Y1103.675
G01 X77.866 Y1101.765
G01 X74.202 Y1085.610
G01 X58.153 Y1064.406
G01 X38.916 Y1052.496
G01 X31.611 Y1041.828
G01 X29.126 Y1017.664
G01 X16.776 Y987.284
G01 X5.000 Y971.155
G01 X5.000 Y922.154
G01 X5.333 Y920.554
G01 X5.000 Y913.519
G01 X5.000 Y846.047
G01 X6.964 Y841.674
G01 X25.479 Y814.134
G01 X37.665 Y780.167
G01 X45.148 Y756.795
G01 X64.427 Y743.260
G01 X94.731 Y723.193
G01 X119.026 Y696.812
G01 X136.234 Y681.110
G01 X162.631 Y677.666
G01 X199.744 Y670.081
G01 X230.619 Y655.964
G01 X251.672 Y651.859
G01 X278.783 Y661.604
G01 X315.929 Y669.089
G01 X346.791 Y669.353
G01 X365.532 Y678.115
G01 X387.463 Y701.388
G01 X419.069 Y723.712
G01 X445.149 Y737.671
G01 X457.839 Y757.847
G01 X471.620 Y792.325
G01 X495.388 Y826.659
G01 X515.395 Y851.182
G01 X521.907 Y879.065
G01 X528.208 Y920.334
G01 X545.337 Y961.921
G01 X561.200 Y992.172
G01 X564.278 Y1022.616
G01 X566.245 Y1065.066
G01 X579.898 Y1108.173
G01 X594.907 Y1138.614
G01 X598.079 Y1166.095
G01 X599.080 Y1204.026
G01 X612.059 Y1243.096
G01 X628.560 Y1268.669
G01 X633.902 Y1288.490
G01 X635.461 Y1317.343
G01 X648.380 Y1348.221
G01 X666.234 Y1365.556
G01 X673.168 Y1375.020
G01 X674.133 Y1392.499
G01 X684.981 Y1413.483
G01 X701.520 Y1421.836
G01 X707.150 Y1421.055
G01 X704.381 Y1427.789
G01 X709.540 Y1440.111
G01 X710.000 Y1440.173
G01 X710.000 Y1435.811
G01 X707.541 Y1440.381
G01 X710.000 Y1439.601
G01 X710.000 Y1439.019
G01 X703.186 Y1429.107
G01 X683.927 Y1426.086
G01 X669.010 Y1433.488
G01 X661.819 Y1435.235
G01 X646.196 Y1427.610
G01 X617.682 Y1426.877
G01 X592.272 Y1438.327
G01 X575.824 Y1446.380
G01 X553.031 Y1444.792
G01 X517.206 Y1448.769
G01 X483.478 Y1465.652
G01 X459.987 Y1480.644
G01 X432.549 Y1485.070
G01 X392.334 Y1492.739
G01 X353.228 Y1512.896
G01 X325.428 Y1531.879
G01 X296.146 Y1538.830
G01 X254.579 Y1545.946
G01 X213.048 Y1564.272
G01 X183.590 Y1581.696
G01 X155.094 Y1585.550
G01 X115.030 Y1586.297
G01 X73.919 Y1596.699
G01 X64.422 Y1600.000
G01 X13.558 Y1600.000
G01 X5.000 Y1597.476
G01 X5.000 Y1103.835
G01 X19.258 Y1105.214
G01 X42.864 Y1098.073
G01 X52.881 Y1095.204
G01 X63.234 Y1104.878
G01 X82.842 Y1112.785
G01 X97.962 Y1108.843
G01 X98.318 Y1105.846
G01 X96.694 Y1114.056
G01 X104.253 Y1120.696
G01 X109.132 Y1113.880
G01 X99.546 Y1104.881
G01 X86.883 Y1105.871
G01 X84.296 Y1106.018
G01 X82.013 Y1092.006
G01 X66.919 Y1073.442
G01 X48.654 Y1064.226
G01 X41.938 Y1055.765
G01 X39.147 Y1033.635
G01 X25.939 Y1005.586
G01 X9.807 Y986.938
G01 X6.522 Y971.491
G01 X10.566 Y943.982
G01 X6.489 Y910.071
G01 X5.000 Y905.116
G01 X5.000 Y869.027
G01 X5.258 Y868.257
G01 X20.975 Y840.718
G01 X30.081 Y806.805
G01 X34.870 Y783.389
G01 X51.775 Y769.109
G01 X79.477 Y747.714
G01 X101.083 Y720.049
G01 X116.180 Y703.058
G01 X141.039 Y697.723
G01 X176.595 Y687.688
G01 X205.906 Y671.208
G01 X226.012 Y664.880
G01 X252.836 Y671.957
G01 X289.722 Y676.289
G01 X320.230 Y673.560
G01 X339.097 Y679.640
G01 X361.730 Y699.978
G01 X393.968 Y718.984
G01 X420.375 Y729.873
G01 X433.621 Y747.466
G01 X448.361 Y779.309
G01 X472.872 Y810.741
G01 X493.095 Y832.690
G01 X499.802 Y858.643
G01 X506.556 Y898.121
G01 X523.847 Y937.755
G01 X539.217 Y966.426
G01 X541.646 Y996.048
G01 X543.194 Y1037.962
G01 X556.203 Y1080.432
G01 X569.949 Y1110.592
G01 X571.709 Y1138.583
G01 X571.639 Y1177.384
G01 X583.525 Y1217.205
G01 X598.480 Y1243.780
G01 X602.242 Y1265.324
G01 X602.748 Y1296.234
G01 X614.853 Y1328.947
G01 X631.648 Y1348.167
G01 X637.615 Y1360.063
G01 X638.293 Y1380.196
G01 X649.310 Y1403.439
G01 X665.923 Y1413.836
G01 X671.755 Y1415.411
G01 X669.911 Y1424.570
G01 X676.542 Y1438.740
G01 X689.278 Y1441.646
G01 X691.345 Y1435.057
G01 X683.458 Y1435.836
G01 X682.050 Y1443.967
G01 X687.275 Y1443.145
G01 X682.421 Y1432.770
G01 X665.877 Y1429.703
G01 X654.070 Y1436.386
G01 X649.725 Y1436.726
G01 X636.586 Y1427.648
G01 X610.770 Y1425.531
G01 X588.342 Y1435.099
G01 X574.524 Y1440.699
G01 X553.841 Y1436.744
G01 X520.179 Y1438.668
G01 X488.847 Y1453.287
G01 X467.394 Y1465.658
G01 X441.400 Y1467.741
G01 X402.600 Y1473.661
G01 X365.155 Y1492.165
G01 X338.726 Y1509.347
G01 X310.217 Y1514.929
G01 X269.352 Y1521.473
G01 X228.815 Y1539.546
G01 X200.152 Y1556.679
G01 X171.869 Y1560.692
G01 X131.904 Y1562.447
G01 X91.201 Y1574.240
G01 X62.963 Y1585.462
G01 X37.563 Y1582.447
G01 X5.000 Y1575.080
G01 X5.000 Y1096.687
G01 X21.721 Y1091.023
G01 X33.052 Y1087.719
G01 X45.470 Y1097.097
G01 X67.291 Y1104.605
G01 X84.438 Y1100.723
G01 X87.116 Y1098.549
G01 X88.365 Y1107.807
G01 X98.760 Y1115.370
G01 X106.011 Y1109.830
G01 X98.749 Y1102.807
G01 X88.688 Y1105.963
G01 X88.454 Y1108.015
G01 X87.790 Y1096.046
G01 X73.957 Y1080.061
G01 X57.011 Y1073.500
G01 X51.248 Y1067.246
G01 X48.536 Y1047.205
G01 X34.884 Y1021.583
G01 X18.303 Y1005.315
G01 X14.261 Y991.635
G01 X16.731 Y965.545
G01 X10.581 Y933.224
G01 X5.000 Y919.520
G01 X5.000 Y895.172
G01 X5.351 Y893.654
G01 X18.441 Y866.381
G01 X24.593 Y832.810
G01 X26.761 Y809.626
G01 X41.288 Y794.876
G01 X66.321 Y772.444
G01 X85.134 Y743.791
G01 X97.977 Y725.788
G01 X121.103 Y718.823
G01 X154.869 Y706.600
G01 X182.378 Y688.015
G01 X201.300 Y679.693
G01 X227.591 Y684.300
G01 X263.971 Y685.666
G01 X293.915 Y680.119
G01 X312.740 Y683.656
G01 X335.933 Y701.150
G01 X368.694 Y716.909
G01 X395.377 Y724.776
G01 X409.192 Y739.790
G01 X424.943 Y768.946
G01 X450.285 Y797.395
G01 X470.862 Y816.660
G01 X477.958 Y840.528
G01 X485.382 Y878.003
G01 X503.059 Y915.439
G01 X518.182 Y942.263
G01 X520.225 Y970.759
G01 X521.608 Y1011.789
G01 X534.193 Y1053.249
G01 X546.870 Y1082.754
G01 X547.395 Y1110.867
G01 X546.387 Y1150.127
G01 X557.246 Y1190.291
G01 X570.664 Y1217.488
G01 X572.817 Y1240.392
G01 X572.180 Y1273.007
G01 X583.310 Y1307.235
G01 X598.825 Y1328.078
G01 X603.568 Y1342.195
G01 X603.662 Y1364.810
G01 X614.497 Y1390.195
G01 X630.798 Y1402.598
G01 X636.443 Y1406.560
G01 X635.129 Y1418.225
G01 X642.823 Y1434.382
G01 X656.559 Y1438.875
G01 X659.700 Y1434.025
G01 X653.545 Y1436.530
G01 X654.400 Y1445.732
G01 X661.776 Y1445.376
G01 X658.985 Y1435.455
G01 X644.989 Y1432.784
G01 X636.164 Y1439.186
G01 X634.576 Y1438.562
G01 X623.896 Y1428.471
G01 X600.812 Y1425.368
G01 X581.432 Y1433.404
G01 X570.337 Y1436.865
G01 X551.898 Y1430.815
G01 X520.578 Y1430.887
G01 X491.829 Y1443.365
G01 X472.603 Y1453.175
G01 X448.260 Y1452.921
G01 X411.097 Y1457.019
G01 X375.527 Y1473.715
G01 X350.661 Y1488.887
G01 X323.116 Y1492.846
G01 X283.149 Y1498.513
G01 X243.782 Y1515.970
G01 X216.064 Y1532.425
G01 X188.137 Y1536.205
G01 X148.421 Y1538.565
G01 X108.266 Y1551.332
G01 X80.428 Y1563.462
G01 X54.841 Y1561.694
G01 X18.361 Y1555.527
G01 X5.000 Y1556.548
G01 X5.000 Y1082.999
G01 X12.432 Y1080.605
G01 X26.547 Y1089.431
G01 X50.226 Y1096.273
G01 X69.091 Y1092.187
G01 X73.844 Y1090.558
G01 X77.764 Y1100.575
G01 X90.841 Y1108.785
G01 X100.377 Y1104.277
G01 X95.436 Y1099.004
G01 X88.036 Y1104.110
G01 X90.265 Y1107.885
G01 X91.394 Y1097.830
G01 X79.069 Y1084.330
G01 X63.740 Y1080.351
G01 X59.253 Y1076.272
G01 X56.972 Y1058.344
G01 X43.266 Y1035.211
G01 X26.638 Y1021.406
G01 X22.222 Y1009.608
G01 X23.485 Y985.101
G01 X15.623 Y954.564
G01 X5.000 Y934.072
G01 X5.000 Y932.405
G01 X6.993 Y917.658
G01 X17.673 Y890.905
G01 X21.051 Y857.946
G01 X20.723 Y835.261
G01 X32.925 Y820.305
G01 X55.274 Y797.120
G01 X71.237 Y767.771
G01 X81.729 Y749.031
G01 X102.965 Y740.694
G01 X134.737 Y726.548
G01 X160.225 Y706.120
G01 X177.738 Y696.041
G01 X203.247 Y698.386
G01 X238.866 Y696.990
G01 X268.013 Y688.818
G01 X286.597 Y689.967
G01 X310.173 Y704.737
G01 X343.301 Y717.350
G01 X370.161 Y722.279
G01 X384.504 Y734.753
G01 X401.268 Y761.215
G01 X427.477 Y786.644
G01 X448.501 Y803.165
G01 X456.137 Y824.841
G01 X464.416 Y860.154
G01 X482.680 Y895.197
G01 X497.785 Y919.961
G01 X499.702 Y947.074
G01 X501.180 Y986.915
G01 X513.579 Y1027.035
G01 X525.415 Y1055.546
G01 X524.923 Y1083.419
G01 X523.158 Y1122.746
G01 X533.113 Y1162.857
G01 X545.071 Y1190.296
G01 X545.653 Y1214.187
G01 X543.857 Y1248.134
G01 X553.918 Y1283.527
G01 X568.002 Y1305.692
G01 X571.333 Y1321.769
G01 X570.604 Y1346.633
G01 X580.956 Y1373.976
G01 X596.602 Y1388.275
G01 X601.701 Y1394.578
G01 X600.543 Y1408.749
G01 X608.898 Y1426.951
G01 X623.223 Y1433.168
G01 X627.050 Y1430.261
G01 X622.262 Y1434.737
G01 X625.024 Y1445.299
G01 X634.222 Y1445.758
G01 X633.215 Y1436.685
G01 X621.544 Y1434.817
G01 X615.510 Y1441.352
G01 X616.528 Y1440.201
G01 X608.219 Y1429.538
G01 X587.840 Y1425.867
G01 X571.516 Y1432.749
G01 X563.182 Y1434.427
G01 X547.078 Y1426.605
G01 X518.234 Y1425.087
G01 X492.225 Y1435.611
G01 X475.389 Y1442.996
G01 X452.883 Y1440.486
G01 X417.571 Y1442.767
G01 X384.086 Y1457.578
G01 X360.980 Y1470.604
G01 X334.596 Y1472.760
G01 X295.734 Y1477.306
G01 X257.730 Y1493.838
G01 X231.124 Y1509.272
G01 X203.711 Y1512.461
G01 X164.410 Y1515.046
G01 X124.958 Y1528.381
G01 X97.650 Y1541.017
G01 X72.005 Y1540.124
G01 X35.308 Y1535.612
G01 X5.000 Y1539.522
G01 X5.000 Y1081.119
G01 X6.875 Y1082.096
G01 X32.044 Y1088.025
G01 X52.293 Y1083.481
G01 X58.838 Y1082.125
G01 X65.187 Y1092.609
G01 X80.737 Y1101.183
G01 X92.414 Y1097.449
G01 X89.728 Y1093.680
G01 X84.985 Y1100.497
G01 X89.721 Y1105.789
G01 X92.753 Y1097.487
G01 X82.123 Y1086.345
G01 X68.652 Y1084.843
G01 X65.711 Y1082.874
G01 X64.175 Y1067.050
G01 X50.774 Y1046.436
G01 X34.478 Y1035.145
G01 X30.061 Y1025.315
G01 X30.485 Y1002.527
G01 X21.283 Y973.943
G01 X9.199 Y954.962
G01 X9.906 Y940.080
G01 X18.433 Y914.083
G01 X19.259 Y881.992
G01 X16.612 Y860.059
G01 X26.593 Y845.154
G01 X46.297 Y821.492
G01 X59.409 Y791.732
G01 X67.500 Y772.524
G01 X86.732 Y763.073
G01 X116.342 Y747.268
G01 X139.620 Y725.263
G01 X155.516 Y713.667
G01 X180.006 Y713.967
G01 X214.606 Y710.021
G01 X242.712 Y699.430
G01 X260.837 Y698.366
G01 X284.587 Y710.551
G01 X317.892 Y720.144
G01 X344.784 Y722.246
G01 X359.569 Y732.253
G01 X377.295 Y756.048
G01 X404.356 Y778.460
G01 X425.869 Y792.222
G01 X434.150 Y811.645
G01 X443.425 Y844.682
G01 X462.440 Y877.192
G01 X477.732 Y899.729
G01 X479.768 Y925.254
G01 X481.595 Y963.647
G01 X494.053 Y1002.141
G01 X505.292 Y1029.360
G01 X504.030 Y1056.666
G01 X501.727 Y1095.698
G01 X510.949 Y1135.380
G01 X521.580 Y1162.692
G01 X520.693 Y1187.201
G01 X517.787 Y1222.099
G01 X526.757 Y1258.290
G01 X539.331 Y1281.447
G01 X541.127 Y1299.186
G01 X539.402 Y1326.020
G01 X549.030 Y1355.083
G01 X563.729 Y1371.103
G01 X567.970 Y1379.632
G01 X566.626 Y1396.235
G01 X575.261 Y1416.463
G01 X589.776 Y1424.462
G01 X593.900 Y1423.624
G01 X590.102 Y1430.242
G01 X594.394 Y1442.382
G01 X605.050 Y1443.940
G01 X605.509 Y1436.052
G01 X595.889 Y1435.347
G01 X592.401 Y1442.397
G01 X595.816 Y1441.130
G01 X589.728 Y1430.326
G01 X571.965 Y1426.502
G01 X558.643 Y1432.624
G01 X553.053 Y1432.899
G01 X539.320 Y1423.667
G01 X513.042 Y1420.867
G01 X489.884 Y1429.685
G01 X475.566 Y1434.845
G01 X455.061 Y1430.232
G01 X421.793 Y1430.775
G01 X390.591 Y1443.700
G01 X369.434 Y1454.519
G01 X344.410 Y1454.762
G01 X306.865 Y1458.011
G01 X270.426 Y1473.373
G01 X245.108 Y1487.498
G01 X218.385 Y1489.785
G01 X179.679 Y1492.247
G01 X141.098 Y1505.767
G01 X114.465 Y1518.520
G01 X88.903 Y1518.131
G01 X52.140 Y1514.912
G01 X14.509 Y1521.425
G01 X5.000 Y1523.826
G01 X5.000 Y1078.597
G01 X13.141 Y1080.080
G01 X34.428 Y1074.844
G01 X42.459 Y1073.499
G01 X50.957 Y1084.163
G01 X68.732 Y1092.816
G01 X82.358 Y1089.592
G01 X81.806 Y1087.067
G01 X79.654 Y1095.336
G01 X86.877 Y1101.911
G01 X91.859 Y1095.177
G01 X83.051 Y1086.235
G01 X71.616 Y1087.071
G01 X70.439 Y1087.114
G01 X69.913 Y1073.350
G01 X57.137 Y1055.251
G01 X41.522 Y1046.492
G01 X37.455 Y1038.686
G01 X37.399 Y1017.724
G01 X27.228 Y991.235
G01 X14.224 Y974.265
G01 X13.789 Y960.749
G01 X20.449 Y935.725
G01 X18.987 Y904.742
G01 X14.241 Y883.800
G01 X22.153 Y869.190
G01 X39.304 Y845.318
G01 X49.615 Y815.426
G01 X55.306 Y796.014
G01 X72.467 Y785.703
G01 X99.793 Y768.504
G01 X120.708 Y745.188
G01 X134.807 Y732.316
G01 X158.058 Y730.793
G01 X191.392 Y724.517
G01 X218.217 Y711.723
G01 X235.653 Y708.632
G01 X259.346 Y718.386
G01 X292.609 Y725.104
G01 X319.352 Y724.514
G01 X334.448 Y732.153
G01 X353.038 Y753.339
G01 X380.884 Y772.774
G01 X402.878 Y783.796
G01 X411.859 Y800.948
G01 X422.223 Y831.640
G01 X442.114 Y861.519
G01 X457.761 Y881.714
G01 X460.133 Y905.491
G01 X462.546 Y942.227
G01 X475.300 Y978.859
G01 X486.190 Y1004.532
G01 X484.419 Y1030.984
G01 X481.825 Y1069.392
G01 X490.521 Y1108.298
G01 X500.002 Y1135.139
G01 X497.804 Y1159.909
G01 X493.898 Y1195.383
G01 X501.820 Y1232.000
G01 X512.871 Y1255.805
G01 X513.082 Y1274.882
G01 X510.256 Y1303.373
G01 X518.983 Y1333.874
G01 X532.505 Y1351.390
G01 X535.627 Y1361.968
G01 X533.800 Y1380.862
G01 X542.370 Y1403.027
G01 X556.700 Y1412.791
G01 X560.746 Y1414.072
G01 X557.563 Y1422.925
G01 X562.998 Y1436.788
G01 X574.729 Y1439.659
G01 X576.307 Y1433.230
G01 X568.426 Y1433.992
G01 X567.192 Y1441.887
G01 X572.743 Y1440.879
G01 X568.671 Y1430.339
G01 X553.376 Y1426.765
G01 X542.943 Y1432.517
G01 X540.019 Y1431.783
G01 X528.636 Y1421.526
G01 X504.959 Y1417.787
G01 X484.717 Y1425.190
G01 X473.005 Y1428.380
G01 X454.626 Y1421.878
G01 X423.566 Y1420.831
G01 X394.823 Y1431.939
G01 X375.789 Y1440.567
G01 X352.317 Y1438.862
G01 X316.300 Y1440.708
G01 X281.628 Y1454.722
G01 X257.784 Y1467.310
G01 X231.935 Y1468.437
G01 X194.019 Y1470.474
G01 X156.490 Y1483.831
G01 X130.689 Y1496.336
G01 X105.362 Y1496.093
G01 X68.699 Y1493.806
G01 X31.444 Y1501.582
G01 X6.558 Y1509.066
G01 X5.000 Y1508.628
G01 X5.000 Y1069.541
G01 X15.880 Y1066.500
G01 X25.077 Y1064.923
G01 X35.425 Y1075.490
G01 X55.142 Y1083.942
G01 X70.484 Y1080.959
G01 X71.898 Y1079.409
G01 X72.217 Y1088.857
G01 X81.850 Y1096.465
G01 X88.770 Y1091.085
G01 X81.845 Y1084.157
G01 X72.568 Y1087.162
G01 X73.314 Y1089.085
G01 X74.009 Y1077.305
G01 X62.131 Y1061.681
G01 X47.508 Y1055.439
G01 X44.111 Y1049.679
G01 X43.913 Y1030.619
G01 X33.136 Y1006.337
G01 X19.575 Y991.507
G01 X18.332 Y979.512
G01 X23.433 Y955.657
G01 X19.973 Y926.004
G01 X13.385 Y906.276
G01 X19.425 Y892.194
G01 X34.162 Y868.370
G01 X41.773 Y838.614
G01 X45.116 Y819.256
G01 X60.190 Y808.336
G01 X85.155 Y790.005
G01 X103.597 Y765.643
G01 X115.758 Y751.739
G01 X137.578 Y748.616
G01 X169.418 Y740.237
G01 X194.728 Y725.462
G01 X211.246 Y720.539
G01 X234.644 Y728.030
G01 X267.624 Y732.033
G01 X294.011 Y728.903
G01 X309.251 Y734.292
G01 X328.564 Y752.953
G01 X357.082 Y769.476
G01 X379.498 Y777.814
G01 X389.182 Y792.708
G01 X400.678 Y821.028
G01 X421.520 Y848.222
G01 X437.649 Y866.003
G01 X440.538 Y887.918
G01 X443.744 Y922.836
G01 X457.012 Y957.414
G01 X467.794 Y981.333
G01 X465.777 Y1006.688
G01 X463.150 Y1044.183
G01 X471.552 Y1082.004
G01 X480.097 Y1108.059
G01 X476.787 Y1132.758
G01 X472.043 Y1168.446
G01 X479.019 Y1205.126
G01 X488.600 Y1229.235
G01 X487.243 Y1249.315
G01 X483.277 Y1279.128
G01 X490.994 Y1310.753
G01 X503.175 Y1329.499
G01 X504.978 Y1341.901
G01 X502.425 Y1362.888
G01 X510.630 Y1386.835
G01 X524.438 Y1398.281
G01 X528.058 Y1401.656
G01 X525.131 Y1412.763
G01 X531.326 Y1428.419
G01 X543.744 Y1432.746
G01 X546.075 Y1427.979
G01 X539.594 Y1430.447
G01 X540.288 Y1439.463
G01 X547.669 Y1439.041
G01 X545.361 Y1429.132
G01 X532.331 Y1426.181
G01 X524.617 Y1431.940
G01 X524.223 Y1430.587
G01 X515.114 Y1419.697
G01 X494.017 Y1415.383
G01 X476.701 Y1421.694
G01 X467.633 Y1423.211
G01 X451.464 Y1415.087
G01 X422.741 Y1412.654
G01 X396.601 Y1422.080
G01 X379.841 Y1428.601
G01 X358.096 Y1424.984
G01 X323.806 Y1425.394
G01 X291.100 Y1437.949
G01 X268.915 Y1448.841
G01 X244.131 Y1448.610
G01 X207.206 Y1449.973
G01 X170.920 Y1462.863
G01 X146.121 Y1474.791
G01 X121.195 Y1474.359
G01 X84.805 Y1472.657
G01 X48.095 Y1481.334
G01 X23.583 Y1489.608
G01 X5.000 Y1485.345
G01 X5.000 Y1057.042
G01 X7.067 Y1056.624
G01 X18.949 Y1066.835
G01 X40.305 Y1074.818
G01 X57.099 Y1071.813
G01 X60.271 Y1070.963
G01 X62.895 Y1081.307
G01 X74.808 Y1089.682
G01 X83.597 Y1085.426
G01 X78.562 Y1080.300
G01 X71.502 Y1085.274
G01 X74.272 Y1088.913
G01 X76.345 Y1079.007
G01 X65.588 Y1065.785
G01 X52.219 Y1062.007
G01 X49.776 Y1058.282
G01 X49.746 Y1041.168
G01 X38.708 Y1019.176
G01 X24.941 Y1006.584
G01 X23.223 Y996.239
G01 X27.082 Y973.726
G01 X21.939 Y945.603
G01 X13.794 Y927.295
G01 X18.192 Y913.958
G01 X30.697 Y890.428
G01 X35.756 Y861.070
G01 X36.853 Y842.016
G01 X49.873 Y830.733
G01 X72.449 Y811.529
G01 X88.356 Y786.383
G01 X98.476 Y771.691
G01 X118.709 Y767.194
G01 X148.856 Y756.941
G01 X172.439 Y740.413
G01 X187.819 Y733.859
G01 X210.683 Y739.263
G01 X243.131 Y740.722
G01 X268.937 Y735.218
G01 X284.125 Y738.494
G01 X303.984 Y754.731
G01 X333.020 Y768.435
G01 X355.754 Y774.167
G01 X366.094 Y786.850
G01 X378.715 Y812.799
G01 X400.532 Y837.294
G01 X417.223 Y852.628
G01 X420.767 Y872.612
G01 X424.937 Y905.592
G01 X438.906 Y937.971
G01 X449.800 Y959.975
G01 X447.792 Y984.034
G01 X445.390 Y1020.372
G01 X453.739 Y1056.838
G01 X461.584 Y1081.829
G01 X457.394 Y1106.153
G01 X452.015 Y1141.721
G01 X458.195 Y1178.117
G01 X466.417 Y1202.195
G01 X463.571 Y1222.941
G01 X458.494 Y1253.731
G01 X465.158 Y1286.150
G01 X475.900 Y1305.832
G01 X476.248 Y1319.795
G01 X472.787 Y1342.631
G01 X480.381 Y1368.155
G01 X493.376 Y1381.137
G01 X496.262 Y1386.517
G01 X493.259 Y1399.825
G01 X499.850 Y1417.274
G01 X512.573 Y1423.126
G01 X515.292 Y1420.153
G01 X509.859 Y1424.497
G01 X512.128 Y1434.845
G01 X521.004 Y1435.281
G01 X520.166 Y1426.319
G01 X509.152 Y1424.327
G01 X503.934 Y1430.439
G01 X505.882 Y1428.839
G01 X498.913 Y1417.703
G01 X480.320 Y1413.181
G01 X465.885 Y1418.742
G01 X459.446 Y1418.912
G01 X445.523 Y1409.471
G01 X419.221 Y1405.904
G01 X395.789 Y1413.841
G01 X381.424 Y1418.401
G01 X361.555 Y1412.975
G01 X329.173 Y1411.984
G01 X298.619 Y1423.041
G01 X278.272 Y1432.144
G01 X254.742 Y1430.422
G01 X219.012 Y1430.920
G01 X184.165 Y1443.093
G01 X160.544 Y1454.159
G01 X136.195 Y1453.240
G01 X100.266 Y1451.801
G01 X64.276 Y1461.027
G01 X40.295 Y1469.743
G01 X18.054 Y1465.419
G01 X5.000 Y1462.407
G01 X5.000 Y1059.424
G01 X24.567 Y1065.691
G01 X42.529 Y1062.410
G01 X47.222 Y1061.993
G01 X51.946 Y1072.946
G01 X65.967 Y1081.812
G01 X76.506 Y1078.432
G01 X73.311 Y1074.874
G01 X68.471 Y1081.594
G01 X73.308 Y1086.758
G01 X76.860 Y1078.582
G01 X67.393 Y1067.654
G01 X55.493 Y1066.254
G01 X54.243 Y1064.519
G01 X54.655 Y1049.359
G01 X43.671 Y1029.703
G01 X30.031 Y1019.417
G01 X28.161 Y1010.823
G01 X31.099 Y989.799
G01 X24.594 Y963.384
G01 X15.197 Y946.680
G01 X18.210 Y934.290
G01 X28.701 Y911.286
G01 X31.397 Y882.575
G01 X30.395 Y864.066
G01 X41.441 Y852.659
G01 X61.652 Y832.839
G01 X75.008 Y807.171
G01 X83.031 Y791.931
G01 X101.561 Y786.288
G01 X129.850 Y774.394
G01 X151.523 Y756.343
G01 X165.566 Y748.364
G01 X187.664 Y751.863
G01 X219.333 Y750.961
G01 X244.323 Y743.258
G01 X259.249 Y744.568
G01 X279.449 Y758.500
G01 X308.814 Y769.494
G01 X331.721 Y772.722
G01 X342.625 Y783.263
G01 X356.313 Y806.875
G01 X379.080 Y828.685
G01 X396.364 Y841.575
G01 X400.653 Y859.593
G01 X405.913 Y890.559
G01 X420.735 Y920.638
G01 X431.931 Y940.609
G01 X430.164 Y963.217
G01 X428.232 Y998.197
G01 X436.767 Y1033.083
G01 X444.156 Y1056.770
G01 X439.339 Y1080.453
G01 X433.557 Y1115.595
G01 X439.133 Y1151.388
G01 X446.153 Y1175.117
G01 X441.952 Y1196.206
G01 X435.851 Y1227.630
G01 X441.484 Y1260.506
G01 X450.755 Y1280.816
G01 X449.581 Y1296.052
G01 X445.092 Y1320.457
G01 X451.890 Y1347.309
G01 X463.837 Y1361.634
G01 X465.727 Y1368.871
G01 X462.359 Y1384.266
G01 X469.010 Y1403.437
G01 X481.679 Y1410.815
G01 X484.428 Y1409.697
G01 X479.690 Y1416.017
G01 X483.173 Y1427.843
G01 X493.186 Y1429.343
G01 X493.496 Y1421.589
G01 X484.214 Y1420.840
G01 X481.226 Y1427.611
G01 X485.275 Y1426.107
G01 X480.262 Y1415.092
G01 X464.040 Y1410.722
G01 X452.387 Y1415.875
G01 X448.508 Y1415.042
G01 X436.815 Y1404.614
G01 X412.971 Y1400.202
G01 X392.309 Y1406.885
G01 X380.418 Y1409.684
G01 X362.544 Y1402.612
G01 X332.225 Y1400.318
G01 X303.987 Y1409.903
G01 X285.641 Y1417.194
G01 X263.545 Y1413.916
G01 X229.211 Y1413.421
G01 X196.000 Y1424.683
G01 X173.737 Y1434.654
G01 X150.148 Y1432.994
G01 X114.873 Y1431.529
G01 X79.790 Y1440.980
G01 X56.504 Y1449.806
G01 X34.358 Y1445.925
G01 X5.000 Y1440.209
G01 X5.000 Y1055.919
G01 X8.277 Y1056.793
G01 X27.111 Y1053.001
G01 X33.067 Y1052.757
G01 X39.658 Y1064.036
G01 X55.574 Y1073.117
G01 X67.703 Y1070.356
G01 X66.253 Y1068.117
G01 X63.583 Y1076.335
G01 X70.476 Y1082.807
G01 X75.553 Y1076.191
G01 X67.490 Y1067.414
G01 X57.221 Y1068.271
G01 X57.355 Y1068.443
G01 X58.440 Y1055.213
G01 X47.791 Y1037.905
G01 X34.583 Y1029.959
G01 X32.865 Y1023.184
G01 X35.191 Y1003.770
G01 X27.648 Y979.214
G01 X17.312 Y964.276
G01 X19.218 Y953.013
G01 X27.938 Y930.753
G01 X28.496 Y902.923
G01 X25.582 Y885.190
G01 X34.778 Y873.891
G01 X52.693 Y853.706
G01 X63.532 Y827.773
G01 X69.449 Y812.226
G01 X86.204 Y805.664
G01 X112.511 Y792.362
G01 X132.124 Y773.023
G01 X144.657 Y763.828
G01 X165.781 Y765.611
G01 X196.432 Y762.534
G01 X220.375 Y752.817
G01 X234.818 Y752.318
G01 X255.138 Y764.075
G01 X284.616 Y772.483
G01 X307.519 Y773.326
G01 X318.856 Y781.813
G01 X333.507 Y803.144
G01 X357.151 Y822.312
G01 X375.008 Y832.790
G01 X380.083 Y848.842
G01 X386.511 Y877.751
G01 X402.293 Y905.468
G01 X413.943 Y923.329
G01 X412.618 Y944.373
G01 X411.378 Y977.837
G01 X420.327 Y1010.959
G01 X427.501 Y1033.148
G01 X422.317 Y1055.962
G01 X416.381 Y1090.410
G01 X421.568 Y1125.313
G01 X427.582 Y1148.404
G01 X422.206 Y1169.530
G01 X415.221 Y1201.258
G01 X419.904 Y1234.259
G01 X427.735 Y1254.885
G01 X425.034 Y1271.092
G01 X419.463 Y1296.766
G01 X425.343 Y1324.665
G01 X436.067 Y1340.099
G01 X436.757 Y1348.998
G01 X432.780 Y1366.310
G01 X439.198 Y1387.076
G01 X451.486 Y1395.917
G01 X453.932 Y1396.645
G01 X449.548 Y1404.973
G01 X453.884 Y1418.352
G01 X464.670 Y1421.059
G01 X465.791 Y1414.710
G01 X457.927 Y1415.430
G01 X456.867 Y1423.118
G01 X462.740 Y1422.011
G01 X459.451 Y1411.451
G01 X445.418 Y1407.572
G01 X436.394 Y1412.652
G01 X434.954 Y1411.157
G01 X425.424 Y1400.084
G01 X404.021 Y1395.139
G01 X386.143 Y1400.838
G01 X376.763 Y1402.119
G01 X360.961 Y1393.612
G01 X332.825 Y1390.169
G01 X307.038 Y1398.371
G01 X290.835 Y1403.891
G01 X270.336 Y1399.054
G01 X237.588 Y1397.504
G01 X206.202 Y1407.722
G01 X185.476 Y1416.425
G01 X162.832 Y1413.821
G01 X128.410 Y1412.085
G01 X94.427 Y1421.472
G01 X72.008 Y1430.100
G01 X50.129 Y1426.360
G01 X17.218 Y1420.796
G01 X5.000 Y1422.452
G01 X5.000 Y1045.259
G01 X11.179 Y1043.821
G01 X18.129 Y1043.508
G01 X26.333 Y1054.841
G01 X43.908 Y1063.862
G01 X57.432 Y1061.460
G01 X57.588 Y1060.280
G01 X56.992 Y1069.734
G01 X65.878 Y1077.276
G01 X72.475 Y1072.020
G01 X65.877 Y1065.223
G01 X57.348 Y1068.184
G01 X59.006 Y1070.147
G01 X60.951 Y1058.785
G01 X50.876 Y1043.801
G01 X38.371 Y1038.195
G01 X37.084 Y1033.275
G01 X39.090 Y1015.557
G01 X30.823 Y992.982
G01 X19.862 Y979.946
G01 X20.946 Y969.971
G01 X28.158 Y948.651
G01 X26.827 Y921.922
G01 X22.219 Y905.182
G01 X29.729 Y894.215
G01 X45.460 Y873.908
G01 X53.863 Y847.962
G01 X57.711 Y832.345
