; file trimmed by trimify2x.pl
; Created by Sandify
; 
;   https://jeffeb3.github.io/sandify/
; 
;   Sandify Version: 0.1.3
; 
;   Machine Type: Rectangular
;     MinX: 5 MaxX: 710 MinY: 5 MaxY: 1600
;   Content Type: Shapes
;     Starting Size: 341
;     Offset: X: 409 Y: 343
;     Selected Shape: Circle
;       Circle Lobes: 1
;     Number of Loops: 323
;     Spin: true
;       Spin Value: 1.7
;       Spin Switchbacks: 10
;     Grow: true
;       Grow Value: -6
;     Track: true
;       Track Count: 14
;       Track Size: 799.65
;       Track Grow: true
;           Track Grow Value: 39
;   Path Reversed: false
; 
; filename: '110219_4.gcode'

; BEGIN PRE
G28 Y
G28 X
G01 F30000; END PRE
G01 X710.000 Y1145.500
G01 X710.000 Y1475.052
G01 X704.665 Y1467.953
G01 X708.755 Y1482.055
G01 X665.965 Y1477.973
G01 X670.801 Y1456.638
G01 X649.736 Y1477.376
G01 X621.952 Y1447.632
G01 X631.515 Y1451.102
G01 X591.275 Y1451.133
G01 X591.924 Y1420.675
G01 X580.658 Y1438.267
G01 X548.441 Y1409.697
G01 X562.188 Y1402.029
G01 X527.660 Y1405.996
G01 X523.621 Y1368.905
G01 X522.771 Y1381.541
G01 X488.579 Y1356.457
G01 X504.898 Y1338.036
G01 X478.807 Y1345.311
G01 X470.060 Y1304.579
G01 X479.384 Y1310.796
G01 X445.936 Y1291.113
G01 X463.062 Y1263.202
G01 X447.468 Y1272.779
G01 X434.503 Y1231.656
G01 X452.939 Y1230.485
G01 X422.989 Y1217.575
G01 X439.175 Y1182.226
G01 X435.308 Y1192.831
G01 X419.098 Y1154.560
G01 X444.872 Y1145.643
G01 X420.978 Y1140.233
G01 X434.667 Y1100.131
G01 X442.823 Y1110.361
G01 X424.745 Y1077.912
G01 X455.537 Y1061.562
G01 X439.838 Y1063.696
G01 X449.806 Y1021.950
G01 X469.323 Y1030.430
G01 X451.042 Y1006.264
G01 X484.192 Y983.465
G01 X478.215 Y992.525
G01 X483.683 Y952.420
G01 X512.993 Y957.950
G01 X496.309 Y943.825
G01 X529.045 Y916.179
G01 X533.562 Y930.969
G01 X534.254 Y895.697
G01 X571.015 Y897.390
G01 X557.689 Y894.227
G01 X587.369 Y863.833
G01 X602.309 Y882.705
G01 X598.468 Y855.109
G01 X639.749 Y852.492
G01 X631.333 Y860.313
G01 X655.658 Y829.607
G01 X680.093 Y850.630
G01 X672.439 Y832.964
G01 X710.000 Y826.850
G01 X710.000 Y1487.069
G01 X686.226 Y1458.718
G01 X694.423 Y1470.136
G01 X651.925 Y1469.620
G01 X656.082 Y1444.686
G01 X639.689 Y1466.835
G01 X609.304 Y1438.126
G01 X622.163 Y1438.395
G01 X583.389 Y1442.342
G01 X582.425 Y1409.239
G01 X576.119 Y1427.397
G01 X541.762 Y1401.191
G01 X557.726 Y1390.090
G01 X525.743 Y1397.973
G01 X519.329 Y1359.431
G01 X523.314 Y1371.741
G01 X487.669 Y1350.146
G01 X504.956 Y1328.373
G01 X482.293 Y1339.222
G01 X470.652 Y1298.378
G01 X484.281 Y1303.412
G01 X450.227 Y1288.047
G01 X467.009 Y1257.181
G01 X455.451 Y1269.683
G01 X439.357 Y1229.819
G01 X461.207 Y1226.731
G01 X431.579 Y1218.603
G01 X446.162 Y1180.981
G01 X446.600 Y1193.621
G01 X427.326 Y1157.891
G01 X455.337 Y1146.518
G01 X432.686 Y1145.952
G01 X443.670 Y1104.491
G01 X456.032 Y1115.709
G01 X435.246 Y1086.887
G01 X466.907 Y1067.787
G01 X453.277 Y1074.422
G01 X459.688 Y1032.386
G01 X482.944 Y1040.744
G01 X462.563 Y1021.000
G01 X495.138 Y995.436
G01 X491.877 Y1008.281
G01 X493.256 Y969.014
G01 X525.505 Y973.353
G01 X507.518 Y964.082
G01 X538.283 Y933.933
G01 X545.918 Y951.482
G01 X542.350 Y918.137
G01 X580.976 Y917.704
G01 X567.257 Y919.424
G01 X593.733 Y887.047
G01 X611.904 Y907.431
G01 X604.001 Y882.709
G01 X645.891 Y877.249
G01 X638.013 Y889.574
G01 X658.168 Y857.609
G01 X685.640 Y878.786
G01 X674.467 Y864.712
G01 X710.000 Y856.035
G01 X710.000 Y1471.020
G01 X708.525 Y1470.963
G01 X710.000 Y1467.581
G01 X710.000 Y1460.435
G01 X695.774 Y1477.959
G01 X668.736 Y1449.429
G01 X680.750 Y1457.708
G01 X639.095 Y1461.033
G01 X642.005 Y1432.749
G01 X630.592 Y1455.867
G01 X597.671 Y1428.842
G01 X613.378 Y1425.563
G01 X576.646 Y1433.524
G01 X573.566 Y1398.180
G01 X572.349 Y1416.387
G01 X536.074 Y1393.142
G01 X553.692 Y1378.401
G01 X524.802 Y1390.115
G01 X515.621 Y1350.649
G01 X524.380 Y1362.086
G01 X487.639 Y1344.473
G01 X505.265 Y1319.303
G01 X486.501 Y1333.466
G01 X471.717 Y1293.112
G01 X489.405 Y1296.441
G01 X455.206 Y1285.739
G01 X471.004 Y1252.039
G01 X463.829 Y1267.056
G01 X444.523 Y1229.075
G01 X469.377 Y1223.619
G01 X440.594 Y1220.440
G01 X452.977 Y1180.824
G01 X457.912 Y1194.976
G01 X435.665 Y1162.380
G01 X465.370 Y1148.211
G01 X444.499 Y1152.462
G01 X452.277 Y1110.056
G01 X468.864 Y1121.672
G01 X445.624 Y1096.986
G01 X477.526 Y1074.941
G01 X466.463 Y1085.860
G01 X468.958 Y1044.043
G01 X495.795 Y1051.677
G01 X473.706 Y1036.734
G01 X505.049 Y1008.369
G01 X504.919 Y1024.611
G01 X502.020 Y986.742
G01 X536.883 Y989.328
G01 X518.087 Y985.126
G01 X546.251 Y952.604
G01 X557.296 Y972.386
G01 X549.466 Y941.528
G01 X589.495 Y938.498
G01 X575.932 Y945.131
G01 X598.656 Y911.050
G01 X620.199 Y932.331
G01 X608.418 Y910.992
G01 X650.355 Y902.348
G01 X643.571 Y919.016
G01 X659.138 Y886.199
G01 X689.625 Y906.876
G01 X675.285 Y896.805
G01 X710.000 Y885.077
G01 X710.000 Y1462.445
G01 X690.920 Y1463.329
G01 X698.304 Y1440.504
G01 X682.196 Y1467.726
G01 X652.251 Y1440.127
G01 X667.703 Y1444.850
G01 X627.482 Y1452.206
G01 X628.595 Y1420.911
G01 X622.393 Y1444.498
G01 X587.090 Y1419.804
G01 X605.126 Y1412.690
G01 X571.025 Y1424.670
G01 X565.370 Y1387.570
G01 X569.283 Y1405.275
G01 X531.397 Y1385.555
G01 X550.055 Y1367.046
G01 X524.790 Y1382.411
G01 X512.516 Y1342.610
G01 X525.894 Y1352.622
G01 X488.490 Y1339.425
G01 X505.799 Y1310.901
G01 X491.361 Y1328.031
G01 X473.270 Y1288.809
G01 X494.679 Y1289.930
G01 X460.851 Y1284.158
G01 X475.027 Y1247.836
G01 X472.519 Y1264.887
G01 X450.010 Y1229.424
G01 X477.374 Y1221.194
G01 X449.989 Y1223.040
G01 X459.608 Y1181.794
G01 X469.153 Y1196.885
G01 X444.114 Y1168.000
G01 X474.908 Y1150.762
G01 X456.355 Y1159.709
G01 X460.486 Y1116.841
G01 X481.226 Y1128.242
G01 X455.868 Y1108.157
G01 X487.346 Y1083.053
G01 X479.326 Y1097.947
G01 X477.621 Y1056.910
G01 X507.787 Y1063.222
G01 X484.450 Y1053.391
G01 X513.894 Y1022.281
G01 X517.261 Y1041.450
G01 X509.986 Y1005.568
G01 X547.051 Y1005.871
G01 X527.989 Y1006.866
G01 X552.940 Y972.190
G01 X567.618 Y993.617
G01 X555.618 Y965.807
G01 X596.514 Y959.764
G01 X583.681 Y971.244
G01 X602.150 Y935.824
G01 X627.124 Y957.344
G01 X611.739 Y939.872
G01 X653.110 Y927.781
G01 X647.972 Y948.536
G01 X658.602 Y915.339
G01 X691.989 Y934.850
G01 X674.914 Y929.142
G01 X710.000 Y913.443
G01 X710.000 Y1445.609
G01 X701.859 Y1436.700
G01 X710.000 Y1443.495
G01 X710.000 Y1450.258
G01 X674.550 Y1455.243
G01 X680.514 Y1428.684
G01 X669.597 Y1456.831
G01 X636.826 Y1430.846
G01 X655.252 Y1431.645
G01 X617.085 Y1443.132
G01 X615.881 Y1409.254
G01 X615.037 Y1432.763
G01 X577.598 Y1411.028
G01 X597.378 Y1399.864
G01 X566.497 Y1415.773
G01 X557.864 Y1377.474
G01 X566.852 Y1394.103
G01 X527.746 Y1378.430
G01 X546.789 Y1356.109
G01 X525.655 Y1374.854
G01 X510.036 Y1335.357
G01 X527.782 Y1343.398
G01 X490.211 Y1334.985
G01 X506.537 Y1303.242
G01 X496.801 Y1322.911
G01 X475.325 Y1285.486
G01 X500.026 Y1283.930
G01 X467.131 Y1283.269
G01 X479.065 Y1244.630
G01 X481.433 Y1263.169
G01 X455.825 Y1230.859
G01 X485.130 Y1219.507
G01 X459.716 Y1226.356
G01 X466.049 Y1183.928
G01 X480.228 Y1199.344
G01 X452.670 Y1174.715
G01 X483.893 Y1154.214
G01 X468.189 Y1167.637
G01 X468.297 Y1124.856
G01 X493.023 Y1135.416
G01 X465.964 Y1120.341
G01 X496.326 Y1092.153
G01 X491.786 Y1110.622
G01 X485.686 Y1070.968
G01 X518.836 Y1075.376
G01 X494.773 Y1070.892
G01 X521.651 Y1037.186
G01 X528.821 Y1058.737
G01 X517.168 Y1025.444
G01 X555.943 Y1022.978
G01 X537.191 Y1029.209
G01 X558.348 Y992.688
G01 X576.803 Y1015.117
G01 X560.825 Y990.902
G01 X601.988 Y981.501
G01 X590.466 Y997.664
G01 X604.234 Y961.344
G01 X632.607 Y982.421
G01 X613.984 Y969.257
G01 X654.136 Y953.540
G01 X651.174 Y978.030
G01 X656.598 Y944.986
G01 X692.677 Y962.666
G01 X673.375 Y961.616
G01 X709.239 Y940.847
G01 X710.000 Y944.590
G01 X710.000 Y1454.480
G01 X681.796 Y1427.891
G01 X700.445 Y1436.579
G01 X659.433 Y1446.698
G01 X663.406 Y1416.762
G01 X657.934 Y1445.302
G01 X622.511 Y1421.611
G01 X643.373 Y1418.182
G01 X607.892 Y1433.804
G01 X603.897 Y1397.855
G01 X608.463 Y1420.702
G01 X569.225 Y1402.524
G01 X590.112 Y1387.175
G01 X563.024 Y1406.824
G01 X551.079 Y1367.950
G01 X564.988 Y1382.922
G01 X525.127 Y1371.758
G01 X543.875 Y1345.676
G01 X527.332 Y1367.438
G01 X508.206 Y1328.924
G01 X529.969 Y1334.469
G01 X492.788 Y1331.126
G01 X507.466 Y1296.397
G01 X502.739 Y1318.102
G01 X477.898 Y1283.151
G01 X505.378 Y1278.499
G01 X474.006 Y1283.035
G01 X483.109 Y1242.472
G01 X490.478 Y1261.901
G01 X461.971 Y1233.362
G01 X492.584 Y1218.610
G01 X469.714 Y1230.342
G01 X472.301 Y1187.251
G01 X491.040 Y1202.355
G01 X461.325 Y1182.482
G01 X492.278 Y1158.609
G01 X479.926 Y1176.190
G01 X475.717 Y1134.099
G01 X504.164 Y1143.199
G01 X475.893 Y1133.471
G01 X504.434 Y1102.271
G01 X503.762 Y1123.828
G01 X493.163 Y1086.189
G01 X528.862 Y1088.145
G01 X504.643 Y1089.153
G01 X528.310 Y1053.094
G01 X539.514 Y1076.415
G01 X523.579 Y1046.314
G01 X563.495 Y1040.653
G01 X545.655 Y1052.058
G01 X562.484 Y1014.087
G01 X584.771 Y1036.835
G01 X565.101 Y1016.734
G01 X605.879 Y1003.705
G01 X596.242 Y1024.289
G01 X604.937 Y987.578
G01 X636.580 Y1007.517
G01 X615.169 Y999.047
G01 X653.422 Y979.620
G01 X653.133 Y1007.401
G01 X653.168 Y975.086
G01 X691.639 Y990.289
G01 X670.682 Y994.115
G01 X703.275 Y969.902
G01 X710.000 Y993.087
G01 X710.000 Y994.270
G01 X704.330 Y977.226
G01 X710.000 Y978.441
G01 X710.000 Y1434.648
G01 X695.055 Y1437.387
G01 X704.685 Y1411.972
G01 X694.737 Y1444.503
G01 X662.808 Y1418.904
G01 X684.553 Y1423.306
G01 X645.576 Y1437.687
G01 X647.021 Y1404.821
G01 X647.158 Y1433.175
G01 X609.355 Y1412.439
G01 X632.046 Y1404.554
G01 X599.882 Y1424.215
G01 X592.683 Y1386.782
G01 X602.611 Y1408.364
G01 X561.996 Y1394.293
G01 X583.309 Y1374.716
G01 X560.556 Y1397.820
G01 X545.047 Y1359.047
G01 X563.621 Y1371.790
G01 X523.541 Y1365.524
G01 X541.299 Y1335.829
G01 X529.753 Y1360.159
G01 X507.048 Y1323.338
G01 X532.387 Y1325.898
G01 X496.194 Y1327.822
G01 X508.580 Y1290.433
G01 X509.090 Y1313.605
G01 X481.001 Y1281.805
G01 X510.668 Y1273.697
G01 X481.430 Y1283.416
G01 X487.161 Y1241.407
G01 X499.560 Y1261.089
G01 X468.448 Y1236.904
G01 X499.679 Y1218.556
G01 X479.917 Y1234.947
G01 X478.368 Y1191.784
G01 X501.495 Y1205.926
G01 X470.066 Y1191.249
G01 X500.022 Y1163.990
G01 X491.486 Y1185.316
G01 X482.755 Y1144.562
G01 X514.561 Y1151.598
G01 X485.629 Y1147.476
G01 X511.649 Y1113.431
G01 X515.166 Y1137.512
G01 X500.064 Y1102.533
G01 X537.791 Y1101.536
G01 X514.025 Y1108.086
G01 X533.865 Y1070.011
G01 X549.254 Y1094.436
G01 X529.234 Y1068.113
G01 X569.655 Y1058.900
G01 X553.336 Y1075.318
G01 X565.363 Y1036.369
G01 X591.443 Y1058.726
G01 X568.461 Y1043.213
G01 X608.159 Y1026.378
G01 X600.961 Y1051.020
G01 X604.291 Y1014.487
G01 X638.977 Y1032.595
G01 X615.306 Y1029.138
G01 X650.966 Y1006.012
G01 X653.799 Y1036.554
G01 X648.362 Y1005.578
G01 X688.830 Y1017.692
G01 X666.845 Y1026.525
G01 X695.536 Y999.070
G01 X708.440 Y1032.720
G01 X694.974 Y1010.020
G01 X710.000 Y1011.761
G01 X710.000 Y1419.665
G01 X695.747 Y1405.240
G01 X710.000 Y1412.955
G01 X710.000 Y1419.634
G01 X676.679 Y1429.397
G01 X684.118 Y1400.237
G01 X679.832 Y1433.109
G01 X644.958 Y1409.764
G01 X669.242 Y1409.558
G01 X632.976 Y1428.200
G01 X631.404 Y1392.942
G01 X637.216 Y1420.494
G01 X597.397 Y1403.342
G01 X621.256 Y1390.859
G01 X593.024 Y1414.360
G01 X582.280 Y1376.100
G01 X597.418 Y1395.805
G01 X555.927 Y1386.330
G01 X576.960 Y1362.579
G01 X559.039 Y1388.758
G01 X539.802 Y1350.807
G01 X562.683 Y1360.771
G01 X522.978 Y1359.709
G01 X539.057 Y1326.648
G01 X532.841 Y1353.023
G01 X506.587 Y1318.614
G01 X534.969 Y1317.752
G01 X500.396 Y1325.040
G01 X509.877 Y1285.412
G01 X515.763 Y1309.428
G01 X484.645 Y1281.437
G01 X515.838 Y1269.587
G01 X489.346 Y1284.371
G01 X491.224 Y1241.474
G01 X508.583 Y1260.745
G01 X475.252 Y1241.449
G01 X506.370 Y1219.400
G01 X490.251 Y1240.127
G01 X484.258 Y1197.535
G01 X511.499 Y1210.072
G01 X478.873 Y1200.958
G01 X507.093 Y1170.395
G01 X502.784 Y1194.966
G01 X489.422 Y1156.225
G01 X524.131 Y1160.630
G01 X495.140 Y1162.277
G01 X517.956 Y1125.654
G01 X525.906 Y1151.626
G01 X506.403 Y1119.953
G01 X545.558 Y1115.563
G01 X522.875 Y1127.603
G01 X538.323 Y1087.936
G01 X557.951 Y1112.755
G01 X534.145 Y1090.766
G01 X574.380 Y1077.729
G01 X560.182 Y1098.893
G01 X567.008 Y1059.511
G01 X596.742 Y1080.754
G01 X570.915 Y1070.245
G01 X608.810 Y1049.521
G01 X604.568 Y1077.763
G01 X602.334 Y1042.022
G01 X639.740 Y1057.627
G01 X614.403 Y1059.420
G01 X646.780 Y1032.709
G01 X653.118 Y1065.401
G01 X642.229 Y1036.392
G01 X684.212 Y1044.852
G01 X661.868 Y1058.729
G01 X686.062 Y1028.330
G01 X702.681 Y1062.498
G01 X684.336 Y1042.780
G01 X710.000 Y1043.082
G01 X710.000 Y1409.264
G01 X699.025 Y1411.533
G01 X710.000 Y1391.564
G01 X710.000 Y1397.944
G01 X704.028 Y1422.767
G01 X673.444 Y1396.796
G01 X698.917 Y1404.212
G01 X659.579 Y1420.724
G01 X664.271 Y1388.287
G01 X665.830 Y1420.886
G01 X628.306 Y1400.490
G01 X654.500 Y1395.430
G01 X621.621 Y1418.232
G01 X616.606 Y1381.198
G01 X628.055 Y1407.311
G01 X586.673 Y1394.322
G01 X610.995 Y1377.194
G01 X587.276 Y1404.236
G01 X572.730 Y1365.863
G01 X592.821 Y1383.090
G01 X551.028 Y1378.623
G01 X571.060 Y1350.855
G01 X558.407 Y1379.642
G01 X535.377 Y1343.261
G01 X562.110 Y1349.935
G01 X523.420 Y1354.290
G01 X537.150 Y1318.211
G01 X536.514 Y1346.039
G01 X506.841 Y1314.758
G01 X537.653 Y1310.101
G01 X505.350 Y1322.746
G01 X511.364 Y1281.389
G01 X522.667 Y1305.587
G01 X488.834 Y1282.027
G01 X520.836 Y1266.236
G01 X497.688 Y1285.859
G01 X495.307 Y1242.701
G01 X517.453 Y1260.888
G01 X482.372 Y1246.955
G01 X512.617 Y1221.196
G01 X500.634 Y1245.836
G01 X489.984 Y1204.504
G01 X520.962 Y1214.812
G01 X487.721 Y1211.544
G01 X513.469 Y1177.863
G01 X513.727 Y1205.097
G01 X495.732 Y1169.057
G01 X532.797 Y1170.314
G01 X504.385 Y1177.795
G01 X523.350 Y1138.956
G01 X535.891 Y1166.129
G01 X512.190 Y1138.389
G01 X552.103 Y1130.241
G01 X531.141 Y1147.611
G01 X541.695 Y1106.860
G01 X565.519 Y1131.335
G01 X538.320 Y1114.191
G01 X577.634 Y1097.149
G01 X566.135 Y1122.688
G01 X567.447 Y1083.479
G01 X600.592 Y1102.888
G01 X572.468 Y1097.728
G01 X607.825 Y1073.134
G01 X607.004 Y1104.427
G01 X599.108 Y1070.126
G01 X638.812 Y1082.589
G01 X612.460 Y1089.778
G01 X640.884 Y1059.700
G01 X651.037 Y1093.860
G01 X634.821 Y1067.450
G01 X677.758 Y1071.755
G01 X655.748 Y1090.608
G01 X674.897 Y1057.660
G01 X695.358 Y1091.592
G01 X672.472 Y1075.413
G01 X710.000 Y1071.637
G01 X710.000 Y1080.515
G01 X699.565 Y1099.973
G01 X707.929 Y1067.090
G01 X710.000 Y1069.266
G01 X710.000 Y1093.338
G01 X709.811 Y1093.308
G01 X710.000 Y1093.246
G01 X710.000 Y1395.731
G01 X692.943 Y1376.348
G01 X710.000 Y1385.987
G01 X710.000 Y1393.968
G01 X677.649 Y1404.328
G01 X688.961 Y1375.281
G01 X686.121 Y1411.764
G01 X652.278 Y1388.006
G01 X680.390 Y1390.445
G01 X643.761 Y1411.359
G01 X645.201 Y1376.204
G01 X652.687 Y1407.880
G01 X612.903 Y1391.091
G01 X640.323 Y1381.025
G01 X611.487 Y1407.779
G01 X602.680 Y1369.657
G01 X619.618 Y1393.688
G01 X577.210 Y1385.376
G01 X601.262 Y1363.659
G01 X582.591 Y1393.845
G01 X564.079 Y1356.117
G01 X588.759 Y1370.290
G01 X547.296 Y1371.157
G01 X565.613 Y1339.633
G01 X558.590 Y1370.482
G01 X531.804 Y1336.432
G01 X561.842 Y1339.358
G01 X524.840 Y1349.240
G01 X535.585 Y1310.589
G01 X540.686 Y1339.221
G01 X507.829 Y1311.767
G01 X540.386 Y1303.021
G01 X511.005 Y1320.907
G01 X513.052 Y1278.412
G01 X529.707 Y1302.103
G01 X493.569 Y1283.546
G01 X525.618 Y1263.709
G01 X506.384 Y1287.841
G01 X499.425 Y1245.109
G01 X526.075 Y1261.542
G01 X489.791 Y1253.370
G01 X518.390 Y1223.997
G01 X510.979 Y1252.034
G01 X495.560 Y1212.683
G01 X529.799 Y1220.173
G01 X496.576 Y1222.936
G01 X519.136 Y1186.426
G01 X524.222 Y1215.668
G01 X501.696 Y1183.019
G01 X540.487 Y1180.674
G01 X513.317 Y1193.947
G01 X527.834 Y1153.347
G01 X545.025 Y1180.985
G01 X517.436 Y1157.775
G01 X557.378 Y1145.589
G01 X538.767 Y1168.022
G01 X544.001 Y1126.767
G01 X571.872 Y1150.148
G01 X541.766 Y1138.297
G01 X579.394 Y1117.169
G01 X571.134 Y1146.613
G01 X566.715 Y1108.231
G01 X602.925 Y1125.105
G01 X573.121 Y1125.553
G01 X605.207 Y1097.215
G01 X608.206 Y1130.926
G01 X594.659 Y1098.732
G01 X636.149 Y1107.465
G01 X609.475 Y1120.096
G01 X633.308 Y1086.969
G01 X647.497 Y1121.857
G01 X626.192 Y1098.666
G01 X669.448 Y1098.391
G01 X648.479 Y1122.045
G01 X662.100 Y1087.030
G01 X686.425 Y1119.942
G01 X659.439 Y1107.817
G01 X700.791 Y1098.520
G01 X687.609 Y1131.100
G01 X689.970 Y1097.323
G01 X710.000 Y1114.579
G01 X710.000 Y1125.354
G01 X692.399 Y1125.394
G01 X710.000 Y1116.836
G01 X710.000 Y1364.114
G01 X702.399 Y1351.536
G01 X710.000 Y1357.852
G01 X710.000 Y1376.898
G01 X685.940 Y1381.951
G01 X703.913 Y1356.793
G01 X696.524 Y1395.809
G01 X667.583 Y1368.657
G01 X696.987 Y1378.429
G01 X657.537 Y1396.235
G01 X665.878 Y1363.561
G01 X669.106 Y1399.706
G01 X632.318 Y1378.887
G01 X662.422 Y1376.086
G01 X629.220 Y1401.294
G01 X626.970 Y1364.063
G01 X640.354 Y1394.145
G01 X598.795 Y1381.571
G01 X626.713 Y1366.445
G01 X602.542 Y1396.838
G01 X589.680 Y1358.376
G01 X611.850 Y1379.693
G01 X569.026 Y1376.496
G01 X592.063 Y1350.351
G01 X578.909 Y1383.195
G01 X556.370 Y1346.899
G01 X585.174 Y1357.482
G01 X544.723 Y1363.912
G01 X560.628 Y1328.999
G01 X559.511 Y1361.293
G01 X529.114 Y1330.331
G01 X561.822 Y1329.122
G01 X527.199 Y1344.531
G01 X534.375 Y1303.847
G01 X545.268 Y1332.594
G01 X509.563 Y1309.629
G01 X543.120 Y1296.587
G01 X517.297 Y1319.488
G01 X514.955 Y1276.520
G01 X536.789 Y1299.003
G01 X498.844 Y1285.958
G01 X530.147 Y1262.073
G01 X515.352 Y1290.281
G01 X503.592 Y1248.706
G01 X534.359 Y1262.740
G01 X497.485 Y1260.636
G01 X523.668 Y1227.850
G01 X521.193 Y1258.685
G01 X500.999 Y1222.049
G01 X537.930 Y1226.187
G01 X505.397 Y1235.062
G01 X524.088 Y1196.111
G01 X534.170 Y1226.648
G01 X507.325 Y1198.059
G01 X547.140 Y1191.737
G01 X521.880 Y1210.648
G01 X531.418 Y1168.828
G01 X553.215 Y1196.168
G01 X522.145 Y1178.033
G01 X561.343 Y1161.628
G01 X545.687 Y1188.747
G01 X545.265 Y1147.632
G01 X576.928 Y1169.172
G01 X544.483 Y1162.986
G01 X579.647 Y1137.799
G01 X575.110 Y1170.581
G01 X564.847 Y1133.714
G01 X603.677 Y1147.391
G01 X572.868 Y1153.611
G01 X600.969 Y1121.760
G01 X608.107 Y1157.182
G01 X589.031 Y1127.766
G01 X631.711 Y1132.246
G01 X605.436 Y1150.258
G01 X624.093 Y1114.496
G01 X642.443 Y1149.327
G01 X616.392 Y1129.944
G01 X659.271 Y1124.753
G01 X640.046 Y1152.926
G01 X647.732 Y1116.404
G01 X675.840 Y1147.500
G01 X645.290 Y1139.884
G01 X684.702 Y1125.453
G01 X674.423 Y1161.287
G01 X670.592 Y1127.271
G01 X706.132 Y1151.859
G01 X673.967 Y1156.737
G01 X706.544 Y1134.366
G01 X706.311 Y1174.715
G01 X691.439 Y1146.298
G01 X710.000 Y1153.693
G01 X710.000 Y1174.072
G01 X700.650 Y1179.248
G01 X710.000 Y1167.744
G01 X710.000 Y1172.853
G01 X709.153 Y1172.154
G01 X710.000 Y1172.277
G01 X710.000 Y1332.338
G01 X704.069 Y1331.358
G01 X710.000 Y1329.432
G01 X710.000 Y1349.472
G01 X701.600 Y1325.546
G01 X710.000 Y1334.894
G01 X710.000 Y1354.517
G01 X684.045 Y1356.701
G01 X708.404 Y1335.872
G01 X696.318 Y1375.953
G01 X673.292 Y1345.491
G01 X703.161 Y1362.219
G01 X661.829 Y1375.729
G01 X677.205 Y1346.098
G01 X675.865 Y1385.420
G01 X643.330 Y1360.438
G01 X675.473 Y1364.878
G01 X638.704 Y1387.239
G01 X643.551 Y1351.518
G01 X652.945 Y1386.639
G01 X613.630 Y1369.449
G01 X645.017 Y1361.239
G01 X615.944 Y1390.523
G01 X609.641 Y1351.934
G01 X628.784 Y1379.745
G01 X586.020 Y1371.927
G01 X613.677 Y1351.795
G01 X594.745 Y1385.414
G01 X577.663 Y1347.406
G01 X604.696 Y1365.402
G01 X562.129 Y1367.666
G01 X583.410 Y1337.367
G01 X576.167 Y1372.300
G01 X549.646 Y1338.237
G01 X582.011 Y1344.750
G01 X543.288 Y1356.866
G01 X556.121 Y1319.031
G01 X561.088 Y1352.097
G01 X527.331 Y1324.962
G01 X562.002 Y1319.310
G01 X530.451 Y1340.135
G01 X533.538 Y1298.041
G01 X550.167 Y1326.187
G01 X512.049 Y1308.321
G01 X545.814 Y1290.877
G01 X524.156 Y1318.458
G01 X517.093 Y1275.744
G01 X543.820 Y1296.325
G01 X504.645 Y1289.220
G01 X534.396 Y1261.391
G01 X524.505 Y1293.147
G01 X507.827 Y1253.493
G01 X542.218 Y1264.518
G01 X505.421 Y1268.691
G01 X528.438 Y1232.802
G01 X531.177 Y1265.760
G01 X506.315 Y1232.572
G01 X545.281 Y1232.888
G01 X514.134 Y1247.845
G01 X528.328 Y1206.938
G01 X543.471 Y1238.009
G01 X512.627 Y1214.120
G01 X552.703 Y1203.532
G01 X530.013 Y1227.815
G01 X534.120 Y1185.391
G01 X560.367 Y1211.655
G01 X526.321 Y1199.080
G01 X563.970 Y1178.375
G01 X551.831 Y1209.700
G01 X545.518 Y1169.418
G01 X580.609 Y1188.391
G01 X546.464 Y1188.155
G01 X578.390 Y1159.044
G01 X577.991 Y1194.512
G01 X561.884 Y1159.868
G01 X602.794 Y1169.734
G01 X571.698 Y1181.786
G01 X595.137 Y1146.760
G01 X606.643 Y1183.123
G01 X582.272 Y1157.142
G01 X625.470 Y1156.925
G01 X600.326 Y1180.144
G01 X613.287 Y1142.257
G01 X635.818 Y1176.211
G01 X605.471 Y1161.184
G01 X647.230 Y1150.840
G01 X630.428 Y1183.138
G01 X631.864 Y1145.740
G01 X663.564 Y1174.225
G01 X630.073 Y1171.501
G01 X666.796 Y1151.926
G01 X659.989 Y1190.436
G01 X649.882 Y1156.877
G01 X688.073 Y1177.349
G01 X654.560 Y1187.220
G01 X683.086 Y1160.170
G01 X687.036 Y1201.500
G01 X666.396 Y1174.827
G01 X707.805 Y1185.489
G01 X677.389 Y1207.153
G01 X695.275 Y1175.093
G01 X709.771 Y1215.621
G01 X680.535 Y1198.308
G01 X710.000 Y1198.278
G01 X710.000 Y1213.228
G01 X697.096 Y1229.898
G01 X702.825 Y1195.772
G01 X710.000 Y1206.655
G01 X710.000 Y1228.987
G01 X691.549 Y1225.687
G01 X710.000 Y1220.387
G01 X710.000 Y1242.504
G01 X705.497 Y1220.903
G01 X710.000 Y1225.052
G01 X710.000 Y1253.494
G01 X698.842 Y1255.100
G01 X710.000 Y1247.556
G01 X710.000 Y1259.053
G01 X703.348 Y1248.880
G01 X710.000 Y1252.382
G01 X710.000 Y1280.954
G01 X701.997 Y1284.586
G01 X710.000 Y1273.463
G01 X710.000 Y1287.902
G01 X696.709 Y1277.903
G01 X710.000 Y1280.539
G01 X710.000 Y1304.740
G01 X700.805 Y1312.215
G01 X709.167 Y1279.347
G01 X710.000 Y1281.727
G01 X710.000 Y1314.445
G01 X686.142 Y1306.096
G01 X710.000 Y1302.971
G01 X710.000 Y1316.666
G01 X695.274 Y1336.228
G01 X691.151 Y1301.409
G01 X710.000 Y1328.712
G01 X710.000 Y1333.973
G01 X672.395 Y1331.633
G01 X702.549 Y1315.527
G01 X685.639 Y1355.148
G01 X669.303 Y1321.613
G01 X698.639 Y1344.732
G01 X656.346 Y1352.864
G01 X678.568 Y1326.806
G01 X672.349 Y1367.877
G01 X645.139 Y1338.733
G01 X678.459 Y1350.189
G01 X638.944 Y1368.424
G01 X651.123 Y1334.817
G01 X656.059 Y1373.760
G01 X620.266 Y1351.705
G01 X654.480 Y1350.528
G01 X621.155 Y1377.330
G01 X622.053 Y1339.228
G01 X637.597 Y1372.618
G01 X596.269 Y1359.692
G01 X628.186 Y1346.011
G01 X603.906 Y1379.045
G01 X593.282 Y1339.879
G01 X617.928 Y1364.752
G01 X574.606 Y1362.152
G01 X601.230 Y1337.178
G01 X588.043 Y1373.516
G01 X566.683 Y1336.788
G01 X598.106 Y1350.900
G01 X556.520 Y1358.871
G01 X575.322 Y1324.799
G01 X574.293 Y1361.179
G01 X543.947 Y1330.148
G01 X579.222 Y1332.183
G01 X542.960 Y1349.995
G01 X552.116 Y1309.805
G01 X563.236 Y1342.924
G01 X526.477 Y1320.319
G01 X562.340 Y1310.008
G01 X534.538 Y1336.023
G01 X533.099 Y1293.222
G01 X555.293 Y1320.038
G01 X515.288 Y1307.814
G01 X548.438 Y1285.969
G01 X531.504 Y1317.789
G01 X519.488 Y1276.102
G01 X550.711 Y1294.110
G01 X510.951 Y1293.281
G01 X538.346 Y1261.725
G01 X533.748 Y1296.412
G01 X512.145 Y1259.459
G01 X549.571 Y1266.919
G01 X513.558 Y1277.470
G01 X532.695 Y1238.889
G01 X540.831 Y1273.235
G01 X511.519 Y1244.209
G01 X551.788 Y1240.317
G01 X522.728 Y1261.210
G01 X531.866 Y1218.918
G01 X552.027 Y1249.735
G01 X517.608 Y1231.130
G01 X557.132 Y1216.092
G01 X537.646 Y1245.365
G01 X535.962 Y1203.021
G01 X566.393 Y1227.434
G01 X529.959 Y1220.823
G01 X565.238 Y1195.851
G01 X557.125 Y1230.800
G01 X544.792 Y1192.083
G01 X582.843 Y1207.797
G01 X547.699 Y1213.697
G01 X575.630 Y1180.909
G01 X579.701 Y1218.332
G01 X557.867 Y1186.622
G01 X600.226 Y1192.133
G01 X569.591 Y1209.963
G01 X587.744 Y1172.199
G01 X603.744 Y1208.688
G01 X574.427 Y1186.768
G01 X617.407 Y1181.503
G01 X594.121 Y1209.642
G01 X600.948 Y1170.216
G01 X627.569 Y1202.464
G01 X593.474 Y1192.275
G01 X633.338 Y1176.649
G01 X619.599 Y1212.575
G01 X614.572 Y1174.986
G01 X649.563 Y1200.087
G01 X613.832 Y1202.553
G01 X647.118 Y1177.937
G01 X644.280 Y1218.456
G01 X627.931 Y1186.073
G01 X668.288 Y1201.781
G01 X634.216 Y1216.726
G01 X658.039 Y1185.324
G01 X666.483 Y1226.855
G01 X640.349 Y1202.617
G01 X682.577 Y1207.550
G01 X653.310 Y1233.708
G01 X665.619 Y1198.364
G01 X684.703 Y1237.253
G01 X651.192 Y1223.401
G01 X691.608 Y1217.162
G01 X669.854 Y1252.288
G01 X669.606 Y1216.225
G01 X697.725 Y1249.070
G01 X659.888 Y1246.946
G01 X694.946 Y1230.155
G01 X682.729 Y1271.218
G01 X669.981 Y1237.750
G01 X704.696 Y1261.699
G01 X665.956 Y1271.616
G01 X692.558 Y1245.852
G01 X691.032 Y1289.300
G01 X666.933 Y1261.528
G01 X705.187 Y1274.531
G01 X669.031 Y1295.737
G01 X684.805 Y1263.397
G01 X694.142 Y1305.463
G01 X660.834 Y1285.995
G01 X699.220 Y1286.982
G01 X668.884 Y1317.718
G01 X672.392 Y1281.792
G01 X691.769 Y1318.829
G01 X652.193 Y1309.534
G01 X687.261 Y1298.506
G01 X665.439 Y1336.157
G01 X656.311 Y1299.959
G01 X683.980 Y1328.757
G01 X641.618 Y1330.594
G01 X670.180 Y1308.618
G01 X658.788 Y1349.938
G01 X637.758 Y1316.803
G01 X671.202 Y1334.871
G01 X629.767 Y1347.795
G01 X649.188 Y1316.904
G01 X649.192 Y1358.298
G01 X618.036 Y1331.279
G01 X654.197 Y1337.064
G01 X617.309 Y1360.020
G01 X625.746 Y1323.032
G01 X637.076 Y1360.872
G01 X598.465 Y1342.463
G01 X634.019 Y1335.484
G01 X604.884 Y1366.500
G01 X601.459 Y1326.762
G01 X623.022 Y1357.708
G01 X580.284 Y1349.614
G01 X611.947 Y1330.509
G01 X593.074 Y1366.863
G01 X577.960 Y1327.948
G01 X607.739 Y1349.246
G01 X564.573 Y1352.231
G01 X589.395 Y1322.696
G01 X582.381 Y1361.160
G01 X556.793 Y1326.552
G01 X592.032 Y1336.277
G01 X552.185 Y1350.091
G01 X567.825 Y1312.734
G01 X573.210 Y1349.860
G01 X539.307 Y1322.639
G01 X576.763 Y1319.875
G01 X543.697 Y1343.275
G01 X548.638 Y1301.385
G01 X565.868 Y1333.814
G01 X526.564 Y1316.385
G01 X562.800 Y1301.307
G01 X539.392 Y1332.171
G01 X533.081 Y1289.427
G01 X560.554 Y1314.193
G01 X519.270 Y1308.072
G01 X550.966 Y1281.937
G01 X539.253 Y1317.455
G01 X522.160 Y1277.603
G01 X557.375 Y1292.406
G01 X517.731 Y1298.086
G01 X541.987 Y1263.129
G01 X542.983 Y1300.055
G01 X516.565 Y1266.580
G01 X556.344 Y1269.992
G01 X521.844 Y1286.903
G01 X536.442 Y1246.143
G01 X550.052 Y1281.093
G01 X516.621 Y1256.910
G01 X557.395 Y1248.513
G01 X531.115 Y1275.078
G01 X534.716 Y1232.056
G01 X559.739 Y1261.813
G01 X522.265 Y1249.012
G01 X560.394 Y1229.446
G01 X544.702 Y1263.221
G01 X536.972 Y1221.691
G01 X571.208 Y1243.500
G01 X533.049 Y1243.164
G01 X565.141 Y1214.072
G01 X561.486 Y1251.974
G01 X543.123 Y1215.570
G01 X583.566 Y1227.390
G01 X548.168 Y1239.500
G01 X571.386 Y1203.391
G01 X580.165 Y1241.973
G01 X552.836 Y1213.893
G01 X595.937 Y1214.587
G01 X566.522 Y1238.027
G01 X578.832 Y1198.057
G01 X599.344 Y1233.821
G01 X565.538 Y1216.542
G01 X607.514 Y1205.980
G01 X586.791 Y1238.636
G01 X587.139 Y1198.334
G01 X617.647 Y1228.045
G01 X580.443 Y1223.104
G01 X617.617 Y1202.182
G01 X607.530 Y1241.135
G01 X595.938 Y1204.083
G01 X633.811 Y1225.063
G01 X596.604 Y1232.917
G01 X625.722 Y1203.482
G01 X627.271 Y1245.264
G01 X604.828 Y1214.785
G01 X646.776 Y1225.150
G01 X612.967 Y1245.138
G01 X631.486 Y1209.819
G01 X644.630 Y1250.724
G01 X613.395 Y1229.581
G01 X655.748 Y1228.414
G01 X628.437 Y1258.807
G01 X634.751 Y1220.787
G01 X658.407 Y1257.200
G01 X621.217 Y1247.345
G01 X660.256 Y1234.776
G01 X641.956 Y1272.930
G01 X635.535 Y1235.657
G01 X667.664 Y1264.372
G01 X627.884 Y1266.770
G01 X660.164 Y1243.964
G01 X652.573 Y1286.553
G01 X634.009 Y1253.426
G01 X671.798 Y1271.936
G01 X633.014 Y1286.469
G01 X655.668 Y1255.519
G01 X659.517 Y1298.823
G01 X630.470 Y1272.891
G01 X670.575 Y1279.601
G01 X636.272 Y1305.077
G01 X647.273 Y1268.816
G01 X662.250 Y1309.051
G01 X625.301 Y1292.729
G01 X664.146 Y1287.101
G01 X637.396 Y1321.351
G01 X635.731 Y1283.092
G01 X660.511 Y1316.742
G01 X618.933 Y1311.593
G01 X653.026 Y1294.190
G01 X636.214 Y1334.254
G01 X621.984 Y1297.496
G01 X654.343 Y1321.623
G01 X611.809 Y1328.209
G01 X638.060 Y1300.642
G01 X632.668 Y1343.030
G01 X607.075 Y1311.136
G01 X644.091 Y1323.639
G01 X604.351 Y1341.467
G01 X620.346 Y1306.249
G01 X626.824 Y1347.245
G01 X592.075 Y1323.139
G01 X630.388 Y1322.941
G01 X596.936 Y1350.499
G01 X601.159 Y1310.820
G01 X618.882 Y1346.811
G01 X577.994 Y1332.714
G01 X614.112 Y1319.855
G01 X589.873 Y1354.746
G01 X581.849 Y1314.182
G01 X609.179 Y1341.982
G01 X565.714 Y1339.206
G01 X596.324 Y1314.842
G01 X583.403 Y1353.989
G01 X563.743 Y1316.188
G01 X598.173 Y1333.316
G01 X555.928 Y1342.150
G01 X578.202 Y1308.448
G01 X577.692 Y1348.371
G01 X548.046 Y1316.722
G01 X586.432 Y1321.630
G01 X549.101 Y1341.305
G01 X560.950 Y1301.254
G01 X572.840 Y1338.380
G01 X535.757 Y1315.711
G01 X574.598 Y1307.922
G01 X545.449 Y1336.685
G01 X545.718 Y1293.829
G01 X568.894 Y1324.811
G01 X527.601 Y1313.138
G01 X563.356 Y1293.292
G01 X544.939 Y1328.557
G01 X533.514 Y1286.685
G01 X565.863 Y1308.704
G01 X523.978 Y1309.052
G01 X553.385 Y1278.855
G01 X547.310 Y1317.438
G01 X525.133 Y1280.246
G01 X563.730 Y1291.268
G01 X524.945 Y1303.576
G01 X545.318 Y1265.655
G01 X552.107 Y1304.060
G01 X521.099 Y1274.825
G01 X562.470 Y1273.785
G01 X530.222 Y1296.921
G01 X539.691 Y1254.588
G01 X558.735 Y1289.325
G01 X521.624 Y1270.612
G01 X562.056 Y1257.521
G01 X539.220 Y1289.375
G01 X536.902 Y1246.345
G01 X566.512 Y1274.239
G01 X526.593 Y1267.682
G01 X562.465 Y1243.624
G01 X551.098 Y1281.308
G01 X537.179 Y1241.363
G01 X574.732 Y1259.852
G01 X535.573 Y1266.001
G01 X563.681 Y1233.048
G01 X564.833 Y1273.151
G01 X540.548 Y1239.813
G01 X582.723 Y1247.173
G01 X547.845 Y1265.453
G01 X565.685 Y1226.483
G01 X579.304 Y1265.378
G01 X546.831 Y1241.593
G01 X589.898 Y1237.101
G01 X562.458 Y1265.862
G01 X568.451 Y1224.305
G01 X593.379 Y1258.479
G01 X555.643 Y1246.356
G01 X595.796 Y1230.360
G01 X578.301 Y1267.021
G01 X571.931 Y1226.561
G01 X606.007 Y1252.926
G01 X566.413 Y1253.551
G01 X600.104 Y1227.438
G01 X594.184 Y1268.725
G01 X576.043 Y1232.964
G01 X616.289 Y1249.140
G01 X578.420 Y1262.474
G01 X602.674 Y1228.554
G01 X608.930 Y1270.785
G01 X580.665 Y1242.932
G01 X623.545 Y1247.458
G01 X590.836 Y1272.341
G01 X603.517 Y1233.641
G01 X621.459 Y1273.057
G01 X585.624 Y1255.629
G01 X627.357 Y1248.097
G01 X602.787 Y1282.350
G01 X602.783 Y1242.340
G01 X630.874 Y1275.440
G01 X590.697 Y1270.044
G01 X627.592 Y1251.134
G01 X613.410 Y1291.747
G01 X600.734 Y1254.036
G01 X636.520 Y1277.887
G01 X595.615 Y1285.068
G01 X624.399 Y1256.488
G01 X621.921 Y1299.888
G01 X597.708 Y1267.894
G01 X638.031 Y1280.394
G01 X600.076 Y1299.582
G01 X618.182 Y1263.917
G01 X627.672 Y1306.281
G01 X594.080 Y1282.927
G01 X635.360 Y1282.989
G01 X603.763 Y1312.546
G01 X609.561 Y1273.024
G01 X630.200 Y1310.620
G01 X590.217 Y1298.063
G01 X628.769 Y1285.715
G01 X606.365 Y1323.076
G01 X599.310 Y1283.276
G01 X629.270 Y1312.793
G01 X586.447 Y1312.233
G01 X618.810 Y1288.608
G01 X607.605 Y1330.507
G01 X588.287 Y1294.041
G01 X624.890 Y1312.879
G01 X583.029 Y1324.443
G01 X606.276 Y1291.686
G01 X607.267 Y1334.438
G01 X577.362 Y1304.622
G01 X617.321 Y1311.129
G01 X580.131 Y1333.856
G01 X592.134 Y1294.923
G01 X605.222 Y1334.758
G01 X567.343 Y1314.314
G01 X607.055 Y1307.928
G01 X577.827 Y1339.851
G01 X577.450 Y1298.249
G01 X601.443 Y1331.641
G01 X558.915 Y1322.450
G01 X594.784 Y1303.752
G01 X576.098 Y1342.069
G01 X563.301 Y1301.542
G01 X596.027 Y1325.523
G01 X552.589 Y1328.455
G01 X581.352 Y1299.116
G01 X574.843 Y1340.439
G01 X550.694 Y1304.630
G01 X589.191 Y1317.058
G01 X548.668 Y1331.890
G01 X567.686 Y1294.527
G01 X573.906 Y1335.181
G01 X540.485 Y1307.308
G01 X581.270 Y1307.058
G01 X547.235 Y1332.494
G01 X554.735 Y1290.432
G01 X573.098 Y1326.784
G01 X533.320 Y1309.353
G01 X572.699 Y1296.421
G01 X548.153 Y1330.203
G01 X543.391 Y1287.185
G01 X572.229 Y1315.970
G01 X529.585 Y1310.548
G01 X563.989 Y1286.051
G01 X551.094 Y1325.163
G01 X534.426 Y1285.015
G01 X571.135 Y1303.630
G01 X529.386 Y1310.704
G01 X555.688 Y1276.791
G01 X555.576 Y1317.726
G01 X528.428 Y1284.017
G01 X569.705 Y1290.755
G01 X532.545 Y1309.692
G01 X548.342 Y1269.346
G01 X561.014 Y1308.422
G01 X525.759 Y1284.149
G01 X567.893 Y1278.354
G01 X538.622 Y1307.454
G01 X542.456 Y1264.238
G01 X566.779 Y1297.929
G01 X526.526 Y1285.246
G01 X565.733 Y1267.381
G01 X546.961 Y1304.030
G01 X538.449 Y1261.767
G01 X572.254 Y1287.019
G01 X530.577 Y1287.047
G01 X563.334 Y1258.651
G01 X556.747 Y1299.557
G01 X536.615 Y1261.991
G01 X576.893 Y1276.499
G01 X537.506 Y1289.228
G01 X560.870 Y1252.788
G01 X567.078 Y1294.271
G01 X537.102 Y1264.737
G01 X580.266 Y1267.155
G01 X546.696 Y1291.442
G01 X558.564 Y1250.169
G01 X577.041 Y1288.497
G01 X539.888 Y1269.623
G01 X582.094 Y1259.684
G01 X557.359 Y1293.357
G01 X556.661 Y1250.905
G01 X585.789 Y1282.625
G01 X544.777 Y1276.096
G01 X582.267 Y1254.646
G01 X568.609 Y1294.694
G01 X555.397 Y1254.838
G01 X592.612 Y1277.086
G01 X551.414 Y1283.493
G01 X580.846 Y1252.413
G01 X579.524 Y1295.259
G01 X554.975 Y1261.552
G01 X596.985 Y1272.314
G01 X559.302 Y1291.102
G01 X578.051 Y1253.144
G01 X589.227 Y1294.959
G01 X555.533 Y1270.423
G01 X598.614 Y1268.712
G01 X567.841 Y1298.225
G01 X574.232 Y1256.769
G01 X596.952 Y1293.817
G01 X557.126 Y1280.664
G01 X597.452 Y1266.615
G01 X576.371 Y1304.243
G01 X569.830 Y1262.993
G01 X602.104 Y1291.965
G01 X559.713 Y1291.402
G01 X593.693 Y1266.260
G01 X584.223 Y1308.668
G01 X565.327 Y1271.326
G01 X604.307 Y1289.632
G01 X563.149 Y1301.750
G01 X587.751 Y1267.757
G01 X590.775 Y1311.183
G01 X561.203 Y1281.111
G01 X603.431 Y1287.116
G01 X567.197 Y1310.878
G01 X580.215 Y1271.076
G01 X595.496 Y1311.667
G01 X557.879 Y1291.589
G01 X599.595 Y1284.758
G01 X571.540 Y1318.087
G01 X571.795 Y1276.048
G01 X597.996 Y1310.196
G01 X555.682 Y1301.952
G01 X593.162 Y1282.898
G01 X575.808 Y1322.861
G01 X563.254 Y1282.364
G01 X598.053 Y1307.034
G01 X554.814 Y1311.411
G01 X584.697 Y1281.842
G01 X579.611 Y1324.910
G01 X555.340 Y1289.605
G01 X595.638 Y1302.604
G01 X555.327 Y1319.262
G01 X574.920 Y1281.829
G01 X582.571 Y1324.187
G01 X548.719 Y1297.266
G01 X590.914 Y1297.438
G01 X557.126 Y1324.941
G01 X564.646 Y1283.000
G01 X584.358 Y1320.889
G01 X543.917 Y1304.800
G01 X584.225 Y1292.133
G01 X559.974 Y1328.068
G01 X554.709 Y1285.384
G01 X584.725 Y1315.436
G01 X541.275 Y1311.660
G01 X576.072 Y1287.284
G01 X563.522 Y1328.480
G01 X545.895 Y1288.887
G01 X583.530 Y1308.423
G01 X540.926 Y1317.343
G01 X567.068 Y1283.434
G01 X567.337 Y1326.239
G01 X538.876 Y1293.300
G01 X580.757 Y1300.574
G01 X542.779 Y1321.433
G01 X557.889 Y1281.021
G01 X570.950 Y1321.629
G01 X534.151 Y1298.315
G01 X576.516 Y1292.667
G01 X546.541 Y1323.638
G01 X549.219 Y1280.334
G01 X573.903 Y1315.125
G01 X532.010 Y1303.548
G01 X571.046 Y1285.470
G01 X551.737 Y1323.814
G01 X541.694 Y1281.490
G01 X575.787 Y1307.354
G01 X532.505 Y1308.577
G01 X564.691 Y1279.668
G01 X557.766 Y1321.978
G01 X535.846 Y1284.424
G01 X576.292 Y1299.037
G01 X535.458 Y1312.979
G01 X557.876 Y1275.805
G01 X563.949 Y1318.311
G01 X532.061 Y1288.892
G01 X575.230 Y1290.929
G01 X540.470 Y1316.369
G01 X551.073 Y1274.236
G01 X569.599 Y1313.140
G01 X530.548 Y1294.500
G01 X572.563 Y1283.753
G01 X546.968 Y1318.436
G01 X544.762 Y1275.096
G01 X574.083 Y1306.913
G01 X531.320 Y1300.732
G01 X568.401 Y1278.135
G01 X554.251 Y1318.976
G01 X539.385 Y1278.294
G01 X576.879 Y1300.161
G01 X534.196 Y1307.010
G01 X562.998 Y1274.551
G01 X561.558 Y1317.905
G01 X535.315 Y1283.515
G01 X577.627 Y1293.453
G01 X538.817 Y1312.735
G01 X556.732 Y1273.291
G01 X568.134 Y1315.281
G01 X532.820 Y1290.257
G01 X576.160 Y1287.347
G01 X544.680 Y1317.355
G01 X550.069 Y1274.426
G01 X573.301 Y1311.288
G01 X532.038 Y1297.875
G01 X572.519 Y1282.344
G01 X551.180 Y1320.405
G01 X543.524 Y1277.811
G01 X576.519 Y1306.232
G01 X532.968 Y1305.640
G01 X566.955 Y1278.841
G01 X557.669 Y1321.561
G01 X537.615 Y1283.097
G01 X577.430 Y1300.512
G01 X535.468 Y1312.806
G01 X559.901 Y1277.103
G01 X563.510 Y1320.661
G01 X532.817 Y1289.762
G01 X575.898 Y1294.584
G01 X539.267 Y1318.679
G01 X551.936 Y1277.234
G01 X568.134 Y1317.731
G01 X529.517 Y1297.161
G01 X572.014 Y1288.925
G01 X543.990 Y1322.680
G01 X543.737 Y1279.177
G01 X571.093 Y1312.978
G01 X527.984 Y1304.583
G01 X566.093 Y1283.992
G01 X549.193 Y1324.400
G01 X536.012 Y1282.711
G01 X572.100 Y1306.775
G01 X528.338 Y1311.320
G01 X558.645 Y1280.181
G01 X554.397 Y1323.635
G01 X529.441 Y1287.481
G01 X571.051 Y1299.632
G01 X530.546 Y1316.727
G01 X550.329 Y1277.796
G01 X559.136 Y1320.412
G01 X524.614 Y1293.026
G01 X568.041 Y1292.151
G01 X534.418 Y1320.285
G01 X541.892 Y1277.021
G01 X562.994 Y1314.985
G01 X521.976 Y1298.826
G01 X563.346 Y1284.973
G01 X539.627 Y1321.649
G01 X534.106 Y1277.907
G01 X565.644 Y1307.815
G01 X521.788 Y1304.345
G01 X557.406 Y1278.727
G01 X545.734 Y1320.683
G01 X527.692 Y1280.368
G01 X566.875 Y1299.533
G01 X524.099 Y1309.086
G01 X550.779 Y1273.971
G01 X552.225 Y1317.470
G01 X523.259 Y1284.193
G01 X566.606 Y1290.887
G01 X528.743 Y1312.636
G01 X544.092 Y1271.149
G01 X558.558 Y1312.311
G01 X521.244 Y1289.065
G01 X564.897 Y1282.672
G01 X535.346 Y1314.704
G01 X537.979 Y1270.548
G01 X564.205 Y1305.700
G01 X521.868 Y1294.588
G01 X561.936 Y1275.667
G01 X543.359 Y1315.149
G01 X533.025 Y1272.276
G01 X568.695 Y1298.279
G01 X525.116 Y1300.330
G01 X558.018 Y1270.561
G01 X552.102 Y1313.995
G01 X529.706 Y1276.252
G01 X571.657 Y1290.782
G01 X530.732 Y1305.854
G01 X553.520 Y1267.895
G01 X560.820 Y1311.425
G01 X528.346 Y1282.214
G01 X572.843 Y1283.971
G01 X538.236 Y1310.761
G01 X548.857 Y1268.010
G01 X568.747 Y1307.768
G01 X529.077 Y1289.736
G01 X572.150 Y1278.563
G01 X546.964 Y1314.722
G01 X544.446 Y1271.014
G01 X575.170 Y1303.465
G01 X531.833 Y1298.269
G01 X569.626 Y1275.167
G01 X556.124 Y1317.507
G01 X540.662 Y1276.771
G01 X579.486 Y1299.030
G01 X536.340 Y1307.184
G01 X565.459 Y1274.221
G01 X564.858 Y1318.998
G01 X537.799 Y1284.906
G01 X581.259 Y1294.994
G01 X542.146 Y1315.821
G01 X559.959 Y1275.952
G01 X572.322 Y1319.198
G01 X536.047 Y1294.837
G01 X580.250 Y1291.856
G01 X548.654 Y1323.547
G01 X553.530 Y1280.349
G01 X577.755 Y1318.224
G01 X535.467 Y1305.815
G01 X576.443 Y1290.035
G01 X555.176 Y1329.803
G01 X546.632 Y1287.156
G01 X580.550 Y1316.291
G01 X535.989 Y1316.988
G01 X570.044 Y1289.820
G01 X560.997 Y1334.149
G01 X539.741 Y1295.887
G01 X580.309 Y1313.684
G01 X537.421 Y1327.470
G01 X561.466 Y1291.340
G01 X565.436 Y1336.299
G01 X533.310 Y1305.865
G01 X576.881 Y1310.732
G01 X539.464 Y1336.415
G01 X551.297 Y1294.550
G01 X567.915 Y1336.136
G01 X527.732 Y1316.276
G01 X570.379 Y1307.766
G01 X541.748 Y1343.083
G01 X540.249 Y1299.222
G01 X568.015 Y1333.721
G01 X523.310 Y1326.236
G01 X561.181 Y1305.089
G01 X543.869 Y1346.906
G01 X529.108 Y1304.967
G01 X565.519 Y1329.284
G01 X520.238 Y1334.865
G01 X549.900 Y1302.946
G01 X545.433 Y1347.534
G01 X518.664 Y1311.262
G01 X560.443 Y1323.201
G01 X518.590 Y1341.364
G01 X537.338 Y1301.496
G01 X546.100 Y1344.867
G01 X509.654 Y1317.501
G01 X553.039 Y1315.958
G01 X518.322 Y1345.088
G01 X524.425 Y1300.804
G01 X545.621 Y1339.062
G01 X502.702 Y1323.044
G01 X543.786 Y1308.113
G01 X519.287 Y1345.607
G01 X512.144 Y1300.831
G01 X543.872 Y1330.525
G01 X498.274 Y1327.283
G01 X533.353 Y1300.248
G01 X521.252 Y1342.743
G01 X501.452 Y1301.448
G01 X540.871 Y1319.882
G01 X496.639 Y1329.697
G01 X522.547 Y1292.922
G01 X523.928 Y1336.600
G01 X493.199 Y1302.450
G01 X536.784 Y1307.924
G01 X497.857 Y1329.911
G01 X512.250 Y1286.631
G01 X527.001 Y1327.558
G01 X488.059 Y1303.584
G01 X531.916 Y1295.551
G01 X501.776 Y1327.735
G01 X503.342 Y1281.771
G01 X530.167 Y1316.252
G01 X486.475 Y1304.580
G01 X526.686 Y1283.702
G01 X508.044 Y1323.192
G01 X496.624 Y1278.614
G01 X533.154 Y1303.526
G01 X488.615 Y1305.190
G01 X521.590 Y1273.278
G01 X516.144 Y1316.529
G01 X492.749 Y1277.294
G01 X535.751 Y1290.365
G01 X494.360 Y1305.214
G01 X517.158 Y1265.074
G01 X525.436 Y1308.205
G01 X492.155 Y1277.804
G01 X537.822 Y1277.823
G01 X503.304 Y1304.534
G01 X513.895 Y1259.719
G01 X535.209 Y1298.858
G01 X495.024 Y1280.009
G01 X539.308 Y1266.938
G01 X514.790 Y1303.132
G01 X512.236 Y1257.628
G01 X544.735 Y1289.263
G01 X501.256 Y1283.663
G01 X540.230 Y1258.642
G01 X527.953 Y1301.102
G01 X512.491 Y1258.971
G01 X553.324 Y1280.265
G01 X510.464 Y1288.441
G01 X540.671 Y1253.690
G01 X541.787 Y1298.640
G01 X514.809 Y1263.664
G01 X560.379 Y1272.707
G01 X522.001 Y1293.969
G01 X540.759 Y1252.592
G01 X555.225 Y1296.039
G01 X519.154 Y1271.376
G01 X565.427 Y1267.361
G01 X534.999 Y1299.857
G01 X540.642 Y1255.566
G01 X567.218 Y1293.655
G01 X525.288 Y1281.558
G01 X568.158 Y1264.853
G01 X548.439 Y1305.735
G01 X540.462 Y1262.518
G01 X576.818 Y1291.875
G01 X532.785 Y1293.487
G01 X568.436 Y1265.604
G01 X561.223 Y1311.277
G01 X540.331 Y1273.042
G01 X583.251 Y1291.075
G01 X541.057 Y1306.323
G01 X566.300 Y1269.783
G01 X572.268 Y1316.225
G01 X540.310 Y1286.448
G01 X585.972 Y1291.576
G01 X549.393 Y1319.175
G01 X561.952 Y1277.279
G01 X580.587 Y1320.396
G01 X540.393 Y1301.806
G01 X584.715 Y1293.603
G01 X557.016 Y1331.165
G01 X555.735 Y1287.702
G01 X585.379 Y1323.690
G01 X540.506 Y1318.023
G01 X579.505 Y1297.254
G01 X563.154 Y1341.493
G01 X548.095 Y1300.398
G01 X586.091 Y1326.082
G01 X540.510 Y1333.921
G01 X570.658 Y1302.469
G01 X567.100 Y1349.497
G01 X539.547 Y1314.494
G01 X582.474 Y1327.611
G01 X540.213 Y1348.325
G01 X558.757 Y1309.028
G01 X568.286 Y1354.691
G01 X530.629 Y1328.962
G01 X574.610 Y1328.357
G01 X539.398 Y1360.158
G01 X544.605 Y1316.550
G01 X566.336 Y1356.801
G01 X521.864 Y1342.693
G01 X562.911 Y1328.427
G01 X537.846 Y1368.520
G01 X529.165 Y1324.516
G01 X561.114 Y1355.772
G01 X513.723 Y1354.587
G01 X548.099 Y1327.929
G01 X535.370 Y1372.764
G01 X513.485 Y1332.306
G01 X552.749 Y1351.770
G01 X506.600 Y1363.644
G01 X531.152 Y1326.957
G01 X531.850 Y1372.537
G01 X498.624 Y1339.246
G01 X541.637 Y1345.154
G01 X500.786 Y1369.042
G01 X513.236 Y1325.578
G01 X527.254 Y1367.820
G01 X485.568 Y1344.667
G01 X528.429 Y1336.448
G01 X496.470 Y1370.217
G01 X495.618 Y1323.822
G01 X521.665 Y1358.920
G01 X475.166 Y1347.963
G01 X513.983 Y1326.295
G01 X493.728 Y1366.911
G01 X479.571 Y1321.690
G01 X515.284 Y1346.456
G01 X468.065 Y1348.653
G01 X499.313 Y1315.406
G01 X492.542 Y1359.205
G01 X466.274 Y1319.152
G01 X508.435 Y1331.306
G01 X464.672 Y1346.434
G01 X485.505 Y1304.504
G01 X492.811 Y1347.526
G01 X456.723 Y1316.173
G01 X501.546 Y1314.549
G01 X465.125 Y1341.221
G01 X473.639 Y1294.279
G01 X494.371 Y1332.618
G01 X451.651 Y1312.720
G01 X495.120 Y1297.379
G01 X469.296 Y1333.169
G01 X464.698 Y1285.340
G01 X497.021 Y1315.500
G01 X451.471 Y1308.793
G01 X489.698 Y1281.018
G01 X476.800 Y1322.684
G01 X459.484 Y1278.176
G01 X500.540 Y1297.388
G01 X456.237 Y1304.435
G01 X485.814 Y1266.627
G01 X487.035 Y1310.399
G01 X458.548 Y1273.140
G01 X504.709 Y1279.613
G01 X465.640 Y1299.755
G01 X483.940 Y1255.224
G01 X499.229 Y1297.144
G01 X462.132 Y1270.428
G01 X509.321 Y1263.516
G01 X479.027 Y1294.933
G01 X484.439 Y1247.604
G01 X512.500 Y1283.887
G01 X470.141 Y1270.083
G01 X514.192 Y1250.347
G01 X495.448 Y1290.222
G01 X487.518 Y1244.293
G01 X525.922 Y1271.663
G01 X482.131 Y1272.006
G01 X519.162 Y1241.170
G01 X513.720 Y1285.941
G01 X493.194 Y1245.506
G01 X538.588 Y1261.494
G01 X497.337 Y1275.974
G01 X524.089 Y1236.773
G01 X532.521 Y1282.452
G01 X501.273 Y1251.140
G01 X549.676 Y1254.308
G01 X514.717 Y1281.671
G01 X528.843 Y1237.609
G01 X550.482 Y1280.137
G01 X511.344 Y1260.785
G01 X558.496 Y1250.856
G01 X533.022 Y1288.710
G01 X533.296 Y1243.751
G01 X566.286 Y1279.360
G01 X522.797 Y1273.760
G01 X564.536 Y1251.643
G01 X550.890 Y1296.671
G01 X537.311 Y1254.881
G01 X578.772 Y1280.432
G01 X534.853 Y1289.164
G01 X567.481 Y1256.873
G01 X566.942 Y1305.127
G01 X540.735 Y1270.309
G01 X587.010 Y1283.569
G01 X546.614 Y1305.948
G01 X567.229 Y1266.420
G01 X579.890 Y1313.669
G01 X543.396 Y1289.021
G01 X590.375 Y1288.860
G01 X557.131 Y1322.988
G01 X563.878 Y1279.822
G01 X588.638 Y1321.923
G01 X545.101 Y1309.746
G01 X588.587 Y1296.237
G01 X565.473 Y1339.167
G01 X557.716 Y1296.297
G01 X592.370 Y1329.562
G01 X545.650 Y1331.049
G01 X581.732 Y1305.459
G01 X570.804 Y1353.455
G01 X549.182 Y1314.793
G01 X590.619 Y1336.316
G01 X544.849 Y1351.438
G01 X570.248 Y1316.111
G01 X572.460 Y1364.971
G01 X538.834 Y1334.055
G01 X583.312 Y1341.968
G01 X542.526 Y1369.470
G01 X554.897 Y1327.617
G01 X570.012 Y1373.044
G01 X527.300 Y1352.716
G01 X570.782 Y1346.351
G01 X538.563 Y1383.858
G01 X536.703 Y1339.264
G01 X563.316 Y1377.250
G01 X515.238 Y1369.395
G01 X553.755 Y1349.345
G01 X532.911 Y1393.569
G01 X516.877 Y1350.254
G01 X552.541 Y1377.429
G01 X503.293 Y1382.805
G01 X533.304 Y1350.866
G01 X525.624 Y1397.893
G01 X496.727 Y1359.752
G01 X538.177 Y1373.688
G01 X492.061 Y1391.850
G01 X510.772 Y1350.866
G01 X516.867 Y1396.504
G01 X477.570 Y1366.954
G01 X521.015 Y1366.379
G01 X482.058 Y1395.719
G01 X487.682 Y1349.324
G01 X506.934 Y1389.477
G01 X460.635 Y1371.153
G01 X502.101 Y1356.069
G01 X473.703 Y1393.957
G01 X465.622 Y1346.254
G01 X496.245 Y1377.289
G01 X446.978 Y1371.805
G01 X482.672 Y1343.490
G01 X467.304 Y1386.508
G01 X446.135 Y1341.703
G01 X485.332 Y1360.776
G01 X437.419 Y1368.586
G01 X464.067 Y1329.485
G01 X463.055 Y1373.731
G01 X430.600 Y1335.765
G01 X474.821 Y1341.079
G01 X432.484 Y1361.435
G01 X447.635 Y1314.945
G01 X461.041 Y1356.390
G01 X420.131 Y1328.584
G01 X465.391 Y1319.559
G01 X432.382 Y1350.577
G01 X434.626 Y1300.753
G01 X461.246 Y1335.602
G01 X415.495 Y1320.370
G01 X457.728 Y1297.696
G01 X436.995 Y1336.535
G01 X426.097 Y1287.731
G01 X463.566 Y1312.768
G01 X417.049 Y1311.401
G01 X452.477 Y1276.990
G01 X445.899 Y1320.101
G01 X422.818 Y1276.590
G01 X467.823 Y1289.471
G01 X424.714 Y1302.028
G01 X450.184 Y1258.847
G01 X458.399 Y1302.302
G01 X425.210 Y1267.896
G01 X473.778 Y1267.369
G01 X437.974 Y1292.671
G01 X451.238 Y1244.488
G01 X473.588 Y1284.330
G01 X433.290 Y1262.049
G01 X481.146 Y1248.069
G01 X455.918 Y1283.814
G01 X455.834 Y1234.862
G01 X490.411 Y1267.467
G01 X446.663 Y1259.267
G01 X489.601 Y1233.011
G01 X477.298 Y1275.976
G01 X463.927 Y1230.585
G01 X507.744 Y1252.991
G01 X464.531 Y1259.595
G01 X498.790 Y1223.358
G01 X500.618 Y1269.692
G01 X475.220 Y1231.905
G01 X524.466 Y1242.077
G01 X485.738 Y1262.910
G01 X508.334 Y1219.907
G01 X524.244 Y1265.477
G01 X489.158 Y1238.686
G01 X539.534 Y1235.704
G01 X508.849 Y1268.944
G01 X517.834 Y1223.026
G01 X546.518 Y1263.782
G01 X504.951 Y1250.430
G01 X552.045 Y1234.572
G01 X532.245 Y1277.310
G01 X526.876 Y1232.617
G01 X565.875 Y1264.961
G01 X521.610 Y1266.316
G01 X561.287 Y1239.035
G01 X554.234 Y1287.531
G01 X535.039 Y1248.125
G01 X580.957 Y1269.222
G01 X538.009 Y1285.262
G01 X566.775 Y1249.055
G01 X573.180 Y1299.068
G01 X541.905 Y1268.564
G01 X590.701 Y1276.599
G01 X552.958 Y1306.010
G01 X568.265 Y1264.190
G01 X587.617 Y1311.352
G01 X547.070 Y1292.590
G01 X594.419 Y1286.926
G01 X565.284 Y1327.206
G01 X565.763 Y1283.607
G01 X596.368 Y1323.806
G01 X550.164 Y1318.593
G01 X591.838 Y1299.821
G01 X573.928 Y1347.501
G01 X559.502 Y1306.127
G01 X598.634 Y1335.873
G01 X550.874 Y1344.807
G01 X583.116 Y1314.695
G01 X578.022 Y1365.639
G01 X549.922 Y1330.298
G01 X594.060 Y1347.025
G01 X548.964 Y1369.441
G01 X568.829 Y1330.766
G01 X576.973 Y1380.532
G01 X537.627 Y1354.495
G01 X582.772 Y1356.786
G01 X544.305 Y1390.801
G01 X549.922 Y1347.098
G01 X570.521 Y1391.330
G01 X523.343 Y1377.028
G01 X565.376 Y1364.739
G01 X536.894 Y1407.415
G01 X527.644 Y1362.658
G01 X558.779 Y1397.467
G01 X507.867 Y1396.267
G01 X542.923 Y1370.535
G01 X526.879 Y1418.135
G01 X503.450 Y1376.374
G01 X542.244 Y1398.686
G01 X492.024 Y1410.762
G01 X516.839 Y1373.903
G01 X514.568 Y1422.217
G01 X478.907 Y1387.219
G01 X521.783 Y1395.043
G01 X476.619 Y1419.356
G01 X488.833 Y1374.658
G01 X500.433 Y1419.376
G01 X455.580 Y1394.281
G01 X498.588 Y1386.888
G01 X462.395 Y1421.278
G01 X460.771 Y1372.705
G01 X485.105 Y1409.806
G01 X434.926 Y1396.845
G01 X474.101 Y1374.838
G01 X450.009 Y1416.210
G01 X434.549 Y1368.051
G01 X469.348 Y1394.159
G01 X418.204 Y1394.455
G01 X449.928 Y1359.717
G01 X440.001 Y1404.322
G01 X411.957 Y1360.812
G01 X454.028 Y1373.501
G01 X406.388 Y1386.973
G01 X427.721 Y1342.502
G01 X432.779 Y1386.275
G01 X394.551 Y1351.217
G01 X440.065 Y1349.236
G01 X400.116 Y1374.604
G01 X409.062 Y1324.256
G01 X428.613 Y1363.179
G01 X383.537 Y1339.613
G01 X428.380 Y1323.005
G01 X399.652 Y1357.911
G01 X395.348 Y1306.058
G01 X427.629 Y1336.531
G01 X379.689 Y1326.464
G01 X419.825 Y1296.569
G01 X404.884 Y1337.790
G01 X387.675 Y1288.945
G01 X429.817 Y1308.109
G01 X383.286 Y1312.342
G01 X415.126 Y1271.690
G01 X415.338 Y1315.435
G01 X386.756 Y1273.846
G01 X435.030 Y1279.855
G01 X394.096 Y1297.918
G01 X414.813 Y1250.007
G01 X430.223 Y1292.260
G01 X392.847 Y1261.546
G01 X443.001 Y1253.732
G01 X411.385 Y1283.932
G01 X419.170 Y1232.929
G01 X448.493 Y1269.815
G01 X405.718 Y1252.645
G01 X453.349 Y1231.594
G01 X433.973 Y1271.166
G01 X428.193 Y1221.543
G01 X468.921 Y1249.681
G01 X424.652 Y1247.539
G01 X465.598 Y1215.042
G01 X460.311 Y1260.405
G01 X441.564 Y1216.540
G01 X490.184 Y1233.351
G01 X448.481 Y1246.409
G01 X479.183 Y1205.312
G01 X488.595 Y1252.391
G01 X458.649 Y1218.186
G01 X510.946 Y1222.128
G01 X475.659 Y1249.230
G01 X493.475 Y1203.182
G01 X516.890 Y1247.770
G01 X478.520 Y1226.302
G01 X529.949 Y1217.013
G01 X504.359 Y1255.779
G01 X507.796 Y1208.908
G01 X543.261 Y1247.049
G01 X499.999 Y1240.293
G01 X546.077 Y1218.623
G01 X532.599 Y1265.657
G01 X521.436 Y1222.206
G01 X565.913 Y1250.542
G01 X521.719 Y1259.193
G01 X558.424 Y1227.130
G01 X558.382 Y1278.323
G01 X533.687 Y1242.262
G01 X583.307 Y1258.334
G01 X542.217 Y1281.739
G01 X566.336 Y1242.229
G01 X579.834 Y1293.117
G01 X543.863 Y1267.788
G01 X594.271 Y1270.252
G01 X560.022 Y1306.460
G01 X569.436 Y1263.140
G01 X595.342 Y1309.300
G01 X551.336 Y1297.109
G01 X598.068 Y1285.851
G01 X573.765 Y1331.780
G01 X567.636 Y1288.647
G01 X603.676 Y1326.082
G01 X555.567 Y1328.278
G01 X594.450 Y1304.419
G01 X582.281 Y1356.122
G01 X561.124 Y1317.169
G01 X604.083 Y1342.660
G01 X556.142 Y1359.211
G01 X583.662 Y1325.002
G01 X584.702 Y1378.007
G01 X550.343 Y1346.860
G01 X596.347 Y1358.247
G01 X552.805 Y1387.832
G01 X566.425 Y1346.444
G01 X580.536 Y1396.150
G01 X535.950 Y1375.732
G01 X580.816 Y1372.099
G01 X545.485 Y1412.219
G01 X543.875 Y1367.455
G01 X569.722 Y1409.529
G01 X518.773 Y1401.792
G01 X558.384 Y1383.544
G01 X534.322 Y1430.732
G01 X517.483 Y1386.683
G01 X552.655 Y1417.443
G01 X499.759 Y1423.185
G01 X530.436 Y1392.007
G01 X519.678 Y1442.134
G01 X488.952 Y1402.803
G01 X530.181 Y1419.545
G01 X479.916 Y1438.329
G01 X498.759 Y1397.034
G01 X502.138 Y1445.668
G01 X460.096 Y1414.612
G01 X503.557 Y1415.844
G01 X460.264 Y1446.036
G01 X465.415 Y1398.311
G01 X482.498 Y1441.110
G01 X432.722 Y1421.118
G01 X474.380 Y1406.698
G01 X441.784 Y1445.605
G01 X432.605 Y1395.681
G01 X461.736 Y1428.785
G01 X408.508 Y1421.624
G01 X444.488 Y1392.773
G01 X425.372 Y1436.883
G01 X402.514 Y1389.161
G01 X440.967 Y1409.534
G01 X388.899 Y1415.797
G01 X415.842 Y1374.991
G01 X411.802 Y1420.291
G01 X377.159 Y1378.951
G01 X421.391 Y1384.657
G01 X375.016 Y1403.707
G01 X390.387 Y1354.470
G01 X401.701 Y1396.805
G01 X358.244 Y1365.435
G01 X404.216 Y1355.822
G01 X367.596 Y1385.856
G01 X369.917 Y1332.443
G01 X395.521 Y1367.896
G01 X347.045 Y1349.182
G01 X390.587 Y1324.946
G01 X366.952 Y1363.158
G01 X355.942 Y1310.193
G01 X393.528 Y1335.440
G01 X344.319 Y1330.927
G01 X381.507 Y1294.062
G01 X372.966 Y1336.903
G01 X349.572 Y1288.969
G01 X395.794 Y1301.588
G01 X350.247 Y1311.555
G01 X377.755 Y1265.184
G01 X385.111 Y1308.686
G01 X351.425 Y1269.926
G01 X402.196 Y1268.624
G01 X364.423 Y1292.060
G01 X379.822 Y1240.169
G01 X402.495 Y1280.309
G01 X361.567 Y1254.067
G01 X412.425 Y1238.805
G01 X385.885 Y1273.509
G01 X387.857 Y1220.602
G01 X423.930 Y1253.667
G01 X379.496 Y1242.192
G01 X425.993 Y1214.200
G01 X413.176 Y1256.987
G01 X401.630 Y1207.687
G01 X448.015 Y1230.619
G01 X404.155 Y1234.871
G01 X442.251 Y1196.548
G01 X444.450 Y1243.532
G01 X420.526 Y1202.182
G01 X473.228 Y1212.854
G01 X433.997 Y1232.426
G01 X460.414 Y1187.131
G01 X477.599 Y1234.082
G01 X443.555 Y1204.356
G01 X498.023 Y1201.769
G01 X467.080 Y1234.920
G01 X479.585 Y1186.678
G01 X510.394 Y1229.400
G01 X469.405 Y1213.979
G01 X520.922 Y1198.356
G01 X501.193 Y1242.168
G01 X498.795 Y1195.315
G01 X540.642 Y1230.021
G01 X496.502 Y1230.351
G01 X540.603 Y1203.120
G01 X534.008 Y1253.756
G01 X517.032 Y1212.547
G01 X566.331 Y1236.198
G01 X523.107 Y1252.358
G01 X555.967 Y1216.021
G01 X563.238 Y1269.065
G01 X533.294 Y1237.292
G01 X585.764 Y1247.866
G01 X547.427 Y1278.552
G01 X566.192 Y1236.461
G01 X586.798 Y1287.304
G01 X546.630 Y1267.953
G01 X597.673 Y1264.620
G01 X567.732 Y1307.255
G01 X570.773 Y1263.306
G01 X602.958 Y1307.550
G01 X556.192 Y1302.523
G01 X601.293 Y1285.714
G01 X582.478 Y1336.668
G01 X569.531 Y1294.945
G01 X610.463 Y1328.792
G01 X561.285 Y1338.725
G01 X596.415 Y1310.088
G01 X590.425 Y1364.989
G01 X562.613 Y1329.393
G01 X608.635 Y1349.970
G01 X561.410 Y1374.170
G01 X583.382 Y1336.410
G01 X590.734 Y1390.528
G01 X550.470 Y1364.414
G01 X597.422 Y1370.024
G01 X556.310 Y1406.514
G01 X563.067 Y1363.150
G01 X583.046 Y1411.804
G01 X533.820 Y1397.672
G01 X577.415 Y1387.940
G01 X545.995 Y1433.624
G01 X536.801 Y1388.660
G01 X567.528 Y1427.630
G01 X513.600 Y1426.894
G01 X549.809 Y1402.788
G01 X530.771 Y1453.719
G01 X506.281 Y1411.283
G01 X544.881 Y1437.178
G01 X490.911 Y1450.024
G01 X516.332 Y1413.768
G01 X511.236 Y1465.491
G01 X473.449 Y1429.456
G01 X516.319 Y1440.013
G01 X466.957 Y1465.380
G01 X479.127 Y1420.248
G01 X488.272 Y1468.190
G01 X440.363 Y1441.825
G01 X483.500 Y1436.108
G01 X442.980 Y1471.770
G01 X440.606 Y1421.795
G01 X463.016 Y1461.672
G01 X409.063 Y1447.346
G01 X448.428 Y1425.825
G01 X420.202 Y1468.595
G01 X403.290 Y1418.204
G01 X436.803 Y1446.404
G01 X381.439 Y1445.370
G01 X413.332 Y1409.890
G01 X399.767 Y1455.895
G01 X369.634 Y1409.519
G01 X411.106 Y1423.425
G01 X359.110 Y1435.712
G01 X380.512 Y1389.327
G01 X382.689 Y1434.362
G01 X341.857 Y1396.044
G01 X387.453 Y1394.276
G01 X343.338 Y1418.686
G01 X352.187 Y1365.394
G01 X369.811 Y1405.302
G01 X321.791 Y1378.338
G01 X367.331 Y1360.886
G01 X334.946 Y1395.109
G01 X330.335 Y1339.506
G01 X361.767 Y1370.555
G01 X310.755 Y1357.211
G01 X352.098 Y1325.442
G01 X334.289 Y1366.267
G01 X316.550 Y1313.147
G01 X358.956 Y1332.374
G01 X309.465 Y1333.688
G01 X342.879 Y1290.241
G01 X341.239 Y1333.854
G01 X311.922 Y1287.786
G01 X361.526 Y1293.277
G01 X317.984 Y1308.977
G01 X340.484 Y1257.536
G01 X355.208 Y1299.869
G01 X316.945 Y1264.806
G01 X369.367 Y1255.875
G01 X335.722 Y1284.411
G01 X345.338 Y1229.392
G01 X375.200 Y1266.497
G01 X331.468 Y1245.429
G01 X382.111 Y1222.693
G01 X361.474 Y1261.386
G01 X357.422 Y1207.551
G01 X399.884 Y1235.963
G01 X354.692 Y1230.658
G01 X399.147 Y1195.998
G01 X393.506 Y1241.283
G01 X376.256 Y1193.327
G01 X427.682 Y1210.383
G01 X385.207 Y1221.238
G01 X419.638 Y1177.636
G01 X429.674 Y1225.390
G01 X400.904 Y1187.527
G01 X456.873 Y1191.616
G01 X421.078 Y1217.625
G01 X442.561 Y1168.906
G01 X467.572 Y1214.823
G01 X430.005 Y1190.416
G01 X485.699 Y1181.123
G01 X459.967 Y1219.967
G01 X466.740 Y1170.468
G01 X504.692 Y1210.442
G01 X461.847 Y1201.702
G01 X512.467 Y1179.855
G01 X499.290 Y1228.113
G01 X490.897 Y1182.292
G01 X538.594 Y1212.789
G01 X494.461 Y1220.577
G01 X535.645 Y1188.171
G01 X536.385 Y1241.621
G01 X513.714 Y1203.658
G01 X567.068 Y1222.028
G01 X525.741 Y1245.774
G01 X553.942 Y1205.795
G01 X568.700 Y1259.783
G01 X533.891 Y1233.205
G01 X588.277 Y1237.917
G01 X553.578 Y1275.661
G01 X566.376 Y1231.811
G01 X593.966 Y1281.665
G01 X550.214 Y1269.020
G01 X600.872 Y1259.793
G01 X576.002 Y1308.352
G01 X572.309 Y1264.713
G01 X610.361 Y1306.150
G01 X561.625 Y1308.769
G01 X604.079 Y1286.589
G01 X591.321 Y1341.829
G01 X571.480 Y1302.491
G01 X616.638 Y1331.986
G01 X567.283 Y1349.855
G01 X597.736 Y1316.878
G01 X598.249 Y1374.072
G01 X563.996 Y1342.753
G01 X612.219 Y1357.850
G01 X566.624 Y1389.593
G01 X582.298 Y1348.944
G01 X596.009 Y1403.179
G01 X550.323 Y1382.883
G01 X597.241 Y1382.400
G01 X559.409 Y1425.391
G01 X558.795 Y1380.873
G01 X584.406 Y1427.482
G01 X531.247 Y1420.214
G01 X572.554 Y1404.343
G01 X545.756 Y1454.926
G01 X528.755 Y1410.672
G01 X563.861 Y1445.633
G01 X507.823 Y1452.214
G01 X539.668 Y1422.490
G01 X526.159 Y1476.295
G01 X494.098 Y1436.387
G01 X535.407 Y1456.680
G01 X481.315 Y1476.657
G01 X500.657 Y1435.819
G01 X501.477 Y1488.140
G01 X457.005 Y1456.239
G01 X500.640 Y1460.106
G01 X453.129 Y1491.787
G01 X458.017 Y1443.525
G01 X472.910 Y1489.738
G01 X419.772 Y1468.747
G01 X461.628 Y1455.849
G01 X424.741 Y1496.443
G01 X414.502 Y1445.070
G01 X441.946 Y1481.038
G01 X384.662 Y1472.842
G01 X420.784 Y1444.287
G01 X397.622 Y1490.154
G01 X372.937 Y1440.216
G01 X410.291 Y1462.662
G01 X353.766 Y1467.957
G01 X380.716 Y1426.204
G01 X373.170 Y1473.177
G01 X336.025 Y1429.053
G01 X379.778 Y1435.856
G01 X328.876 Y1454.086
G01 X344.049 Y1402.731
G01 X352.642 Y1446.497
G01 X306.167 Y1412.008
G01 X352.256 Y1402.398
G01 X311.377 Y1431.811
G01 X313.251 Y1375.276
G01 X337.099 Y1411.761
G01 X285.297 Y1389.840
G01 X329.483 Y1364.479
G01 X302.178 Y1402.289
G01 X290.456 Y1345.436
G01 X327.354 Y1371.182
G01 X274.754 Y1363.616
G01 X313.007 Y1324.552
G01 X301.666 Y1367.196
G01 X277.313 Y1314.901
G01 X323.934 Y1327.390
G01 X275.193 Y1334.673
G01 X304.055 Y1285.166
G01 X309.696 Y1328.635
G01 X274.857 Y1285.371
G01 X327.052 Y1283.256
G01 X286.542 Y1304.553
G01 X303.440 Y1248.805
G01 X325.617 Y1289.012
G01 X283.430 Y1258.455
G01 X336.597 Y1241.704
G01 X308.010 Y1274.938
G01 X311.488 Y1217.724
G01 X348.326 Y1250.884
G01 X302.638 Y1235.599
G01 X352.127 Y1205.505
G01 X338.144 Y1247.552
G01 X327.987 Y1193.815
G01 X376.344 Y1216.792
G01 X331.364 Y1218.013
G01 X372.889 Y1177.096
G01 X374.932 Y1224.072
G01 X352.179 Y1178.484
G01 X407.916 Y1189.085
G01 X367.831 Y1206.614
G01 X397.845 Y1158.405
G01 X415.934 Y1206.024
G01 X382.784 Y1172.582
G01 X441.120 Y1169.761
G01 X409.712 Y1201.988
G01 X425.710 Y1150.723
G01 X458.454 Y1194.683
G01 X418.054 Y1176.356
G01 X473.986 Y1160.316
G01 X454.278 Y1204.368
G01 X455.015 Y1154.615
G01 X499.718 Y1190.987
G01 X455.870 Y1189.449
G01 X504.602 Y1161.628
G01 X498.579 Y1213.623
G01 X484.167 Y1169.875
G01 X537.054 Y1195.455
G01 X493.868 Y1210.938
G01 X531.229 Y1173.879
G01 X539.640 Y1229.274
G01 X511.530 Y1195.546
G01 X568.070 Y1208.138
G01 X529.580 Y1239.402
G01 X552.386 Y1196.529
G01 X574.666 Y1250.513
G01 X535.504 Y1229.978
G01 X590.803 Y1228.589
G01 X560.599 Y1273.025
G01 X566.924 Y1228.324
G01 X601.231 Y1276.248
G01 X554.618 Y1270.942
G01 X603.843 Y1255.861
G01 X584.737 Y1309.714
G01 X574.082 Y1267.375
G01 X617.453 Y1305.151
G01 X567.612 Y1315.780
G01 X606.418 Y1288.545
G01 X600.184 Y1347.234
G01 X573.514 Y1311.262
G01 X622.117 Y1335.721
G01 X573.515 Y1361.583
G01 X598.426 Y1324.833
G01 X605.639 Y1383.348
G01 X565.298 Y1357.192
G01 X614.774 Y1366.354
G01 X571.717 Y1405.388
G01 X580.440 Y1362.615
G01 X600.417 Y1415.949
G01 X549.918 Y1402.181
G01 X595.769 Y1395.419
G01 X562.024 Y1444.371
G01 X553.652 Y1399.596
G01 X584.519 Y1443.182
G01 X528.237 Y1443.250
G01 X566.230 Y1421.339
G01 X544.685 Y1476.039
G01 X519.790 Y1433.439
G01 X558.648 Y1463.544
G01 X501.434 Y1477.631
G01 X527.989 Y1442.663
G01 X520.405 Y1498.386
G01 X480.996 Y1461.915
G01 X524.189 Y1475.961
G01 X470.951 Y1502.956
G01 X483.467 Y1458.152
G01 X490.328 Y1510.027
G01 X439.684 Y1483.047
G01 X483.135 Y1479.841
G01 X438.405 Y1517.428
G01 X435.511 Y1466.837
G01 X455.992 Y1510.277
G01 X398.380 Y1495.257
G01 X437.968 Y1475.088
G01 X405.515 Y1519.945
G01 X387.204 Y1468.088
G01 X419.253 Y1499.196
G01 X359.568 Y1497.480
G01 X391.510 Y1462.100
G01 X374.012 Y1510.193
G01 X341.656 Y1461.651
G01 X382.194 Y1477.569
G01 X325.532 Y1489.262
G01 X346.733 Y1441.724
G01 X345.552 Y1488.670
G01 X301.802 Y1447.682
G01 X347.005 Y1446.853
G01 X298.224 Y1470.806
G01 X306.571 Y1415.207
G01 X321.642 Y1456.668
G01 X270.198 Y1426.756
G01 X315.855 Y1409.066
G01 X279.151 Y1442.992
G01 X273.714 Y1384.108
G01 X303.560 Y1416.188
G01 X248.860 Y1399.851
G01 X290.754 Y1366.657
G01 X269.298 Y1407.335
G01 X250.424 Y1350.213
G01 X292.293 Y1369.817
G01 X239.122 Y1368.315
G01 X273.421 Y1322.335
G01 X269.079 Y1365.915
G01 X238.369 Y1315.431
G01 X288.490 Y1320.554
G01 X241.560 Y1333.810
G01 X265.159 Y1278.896
G01 X278.328 Y1321.253
G01 X238.504 Y1281.689
G01 X292.418 Y1271.616
G01 X255.950 Y1298.232
G01 X266.755 Y1239.041
G01 X296.328 Y1276.157
G01 X250.986 Y1250.834
G01 X303.948 Y1226.215
G01 X281.292 Y1263.613
G01 X278.404 Y1205.207
G01 X321.863 Y1233.544
G01 X275.154 Y1224.541
G01 X322.549 Y1187.350
G01 X315.879 Y1232.009
G01 X299.674 Y1179.420
G01 X353.305 Y1196.252
G01 X309.556 Y1204.223
G01 X347.307 Y1157.599
G01 X357.417 Y1205.385
G01 X329.503 Y1163.172
G01 X388.719 Y1166.841
G01 X352.038 Y1190.973
G01 X376.959 Y1138.948
G01 X403.179 Y1185.489
G01 X366.244 Y1157.344
G01 X425.981 Y1147.416
G01 X399.877 Y1185.504
G01 X409.948 Y1132.656
G01 X450.188 Y1173.742
G01 X407.749 Y1162.161
G01 X462.904 Y1139.475
G01 X449.959 Y1188.123
G01 X444.491 Y1139.168
G01 X495.413 Y1171.130
G01 X451.486 Y1177.194
G01 X497.358 Y1143.790
G01 X498.981 Y1198.714
G01 X478.668 Y1158.089
G01 X535.967 Y1178.126
G01 X494.698 Y1201.402
G01 X527.394 Y1160.340
G01 X543.676 Y1216.747
G01 X510.520 Y1188.208
G01 X569.290 Y1194.638
G01 X534.567 Y1233.208
G01 X551.337 Y1188.291
G01 X581.031 Y1241.300
G01 X538.150 Y1227.582
G01 X593.311 Y1219.984
G01 X568.406 Y1270.611
G01 X567.877 Y1226.037
G01 X608.492 Y1271.107
G01 X559.833 Y1273.665
G01 X606.572 Y1252.911
G01 X593.835 Y1311.311
G01 X576.128 Y1271.290
G01 X624.140 Y1304.615
G01 X574.118 Y1323.482
G01 X608.313 Y1291.647
G01 X608.953 Y1352.859
G01 X575.665 Y1321.221
G01 X626.826 Y1340.056
G01 X579.924 Y1373.825
G01 X598.505 Y1333.988
G01 X612.479 Y1392.804
G01 X566.538 Y1372.642
G01 X616.249 Y1375.537
G01 X576.617 Y1421.465
G01 X577.843 Y1377.425
G01 X603.852 Y1428.834
G01 X549.263 Y1422.213
G01 X592.987 Y1409.125
G01 X564.070 Y1463.367
G01 X547.687 Y1419.285
G01 X583.297 Y1458.911
G01 X524.782 Y1466.664
G01 X558.453 Y1438.954
G01 X542.690 Y1496.885
G01 X509.963 Y1456.899
G01 X551.827 Y1481.377
G01 X494.416 Y1503.018
G01 X514.812 Y1463.315
G01 X513.422 Y1519.931
G01 X467.034 Y1487.776
G01 X511.197 Y1495.042
G01 X459.790 Y1528.795
G01 X464.830 Y1480.752
G01 X477.717 Y1531.107
G01 X421.542 Y1509.769
G01 X463.809 Y1499.238
G01 X422.750 Y1542.184
G01 X411.698 Y1490.146
G01 X437.467 Y1529.786
G01 X376.240 Y1521.229
G01 X412.563 Y1493.844
G01 X385.265 Y1542.176
G01 X358.814 Y1490.788
G01 X394.911 Y1516.146
G01 X333.825 Y1521.131
G01 X360.681 Y1479.276
G01 X349.335 Y1528.637
G01 X309.559 Y1482.430
G01 X352.514 Y1491.145
G01 X296.767 Y1509.162
G01 X311.489 Y1456.456
G01 X316.885 Y1502.328
G01 X267.075 Y1465.317
G01 X312.824 Y1456.452
G01 X267.174 Y1485.767
G01 X268.205 Y1426.748
G01 X289.672 Y1464.862
G01 X234.054 Y1440.192
G01 X278.317 Y1414.327
G01 X246.669 Y1452.145
G01 X233.716 Y1391.873
G01 X269.191 Y1418.602
G01 X212.567 Y1408.277
G01 X251.239 Y1367.472
G01 X236.305 Y1410.195
G01 X210.380 Y1353.813
G01 X256.602 Y1366.508
G01 X203.928 Y1371.222
G01 X233.457 Y1318.847
G01 X236.520 Y1362.408
G01 X199.856 Y1314.700
G01 X252.662 Y1311.943
G01 X208.612 Y1331.034
G01 X226.322 Y1271.483
G01 X247.125 Y1311.727
G01 X202.983 Y1276.700
G01 X257.681 Y1258.448
G01 X226.231 Y1289.969
G01 X230.564 Y1228.289
G01 X267.330 Y1261.356
G01 X219.709 Y1241.904
G01 X271.495 Y1209.512
G01 X255.566 Y1250.418
G01 X246.220 Y1191.874
G01 X295.804 Y1214.562
G01 X249.082 Y1212.215
G01 X293.465 Y1168.332
G01 X294.654 Y1214.767
G01 X272.603 Y1164.386
G01 X330.768 Y1174.454
G01 X289.300 Y1189.258
G01 X322.495 Y1137.607
G01 X340.922 Y1185.261
G01 X308.324 Y1147.396
G01 X370.102 Y1143.776
G01 X337.824 Y1174.296
G01 X357.078 Y1119.352
G01 X391.358 Y1163.855
G01 X351.352 Y1141.805
G01 X411.476 Y1124.710
G01 X391.536 Y1168.167
G01 X395.362 Y1114.770
G01 X442.715 Y1152.091
G01 X399.124 Y1147.812
G01 X452.483 Y1118.724
G01 X446.944 Y1171.244
G01 X435.241 Y1124.168
G01 X491.720 Y1150.979
G01 X448.694 Y1164.909
G01 X490.772 Y1126.453
G01 X500.410 Y1183.414
G01 X474.457 Y1146.945
G01 X535.283 Y1160.917
G01 X496.915 Y1191.936
G01 X524.180 Y1147.640
G01 X548.395 Y1204.083
G01 X510.720 Y1181.628
G01 X570.691 Y1181.638
G01 X540.635 Y1227.159
G01 X550.839 Y1181.140
G01 X587.692 Y1232.200
G01 X541.837 Y1225.975
G01 X595.779 Y1212.203
G01 X576.907 Y1268.388
G01 X569.276 Y1224.973
G01 X615.648 Y1266.308
G01 X565.839 Y1277.128
G01 X609.054 Y1251.024
G01 X603.186 Y1313.120
G01 X578.482 Y1276.447
G01 X630.337 Y1304.610
G01 X581.098 Y1331.801
G01 X609.778 Y1295.949
G01 X617.512 Y1358.692
G01 X577.957 Y1332.323
G01 X630.699 Y1345.058
G01 X586.443 Y1386.497
G01 X598.002 Y1344.368
G01 X618.654 Y1402.436
G01 X567.731 Y1389.026
G01 X616.607 Y1385.454
G01 X581.239 Y1437.740
G01 X574.550 Y1393.366
G01 X606.211 Y1441.840
G01 X548.356 Y1442.877
G01 X588.884 Y1423.560
G01 X565.453 Y1482.300
G01 X540.951 Y1439.897
G01 X580.661 Y1474.682
G01 X520.869 Y1490.338
G01 X549.244 Y1457.212
G01 X539.679 Y1517.396
G01 X499.329 Y1480.974
G01 X543.347 Y1499.152
G01 X486.742 Y1528.250
G01 X500.185 Y1484.444
G01 X505.125 Y1540.877
G01 X452.266 Y1513.866
G01 X496.414 Y1513.945
G01 X447.798 Y1554.050
G01 X444.820 Y1503.594
G01 X463.573 Y1551.348
G01 X402.630 Y1536.282
G01 X442.681 Y1518.320
G01 X406.121 Y1565.946
G01 X386.672 Y1513.403
G01 X417.289 Y1548.252
G01 X353.396 Y1546.533
G01 X385.468 Y1512.132
G01 X363.948 Y1563.046
G01 X329.440 Y1513.102
G01 X368.903 Y1531.895
G01 X307.466 Y1543.664
G01 X328.384 Y1495.825
G01 X323.555 Y1545.423
G01 X276.757 Y1502.468
G01 X321.268 Y1503.414
G01 X267.494 Y1527.537
G01 X275.096 Y1470.399
G01 X287.142 Y1514.118
G01 X231.951 Y1481.860
G01 X277.283 Y1464.693
G01 X235.738 Y1498.867
G01 X229.083 Y1437.343
G01 X256.720 Y1471.080
G01 X197.830 Y1452.216
G01 X239.720 Y1418.231
G01 X213.930 Y1459.199
G01 X193.399 Y1398.547
G01 X234.001 Y1419.036
G01 X176.498 Y1415.023
G01 X211.043 Y1366.978
G01 X203.192 Y1410.828
G01 X170.467 Y1356.201
G01 X220.308 Y1361.317
G01 X169.228 Y1372.257
G01 X193.240 Y1314.139
G01 X203.980 Y1356.671
G01 X161.904 Y1312.666
G01 X216.499 Y1301.637
G01 X176.381 Y1326.282
G01 X187.682 Y1262.972
G01 X216.076 Y1300.089
G01 X168.406 Y1270.359
G01 X222.909 Y1243.852
G01 X197.393 Y1279.727
G01 X195.008 Y1216.585
G01 X238.616 Y1244.678
G01 X189.683 Y1231.617
G01 X239.323 Y1191.700
G01 X230.820 Y1235.346
G01 X215.065 Y1177.746
G01 X270.150 Y1194.032
G01 X224.474 Y1198.581
G01 X264.970 Y1148.557
G01 X274.439 Y1195.852
G01 X246.887 Y1148.722
G01 X308.742 Y1151.513
G01 X270.614 Y1173.087
G01 X298.552 Y1117.213
G01 X325.400 Y1163.755
G01 X288.731 Y1131.149
G01 X352.084 Y1120.017
G01 X325.174 Y1156.566
G01 X338.298 Y1099.693
G01 X380.417 Y1141.201
G01 X338.164 Y1125.948
G01 X397.634 Y1101.774
G01 X384.642 Y1149.977
G01 X382.043 Y1097.119
G01 X435.982 Y1129.829
G01 X392.201 Y1133.282
G01 X442.761 Y1098.185
G01 X445.161 Y1153.749
G01 X427.340 Y1109.644
G01 X488.590 Y1130.646
G01 X447.480 Y1152.564
G01 X484.888 Y1109.719
G01 X502.775 Y1167.760
G01 X471.584 Y1136.445
G01 X534.961 Y1143.944
G01 X500.471 Y1182.508
G01 X521.635 Y1135.858
G01 X553.695 Y1191.335
G01 X512.154 Y1175.781
G01 X572.246 Y1169.253
G01 X547.706 Y1221.224
G01 X550.940 Y1175.120
G01 X594.548 Y1223.278
G01 X546.562 Y1225.110
G01 X598.197 Y1205.344
G01 X586.000 Y1266.333
G01 X571.164 Y1225.142
G01 X622.607 Y1261.921
G01 X572.605 Y1281.265
G01 X611.294 Y1250.277
G01 X612.674 Y1315.127
G01 X581.178 Y1282.819
G01 X635.968 Y1305.207
G01 X588.496 Y1340.657
G01 X610.833 Y1301.498
G01 X625.740 Y1364.727
G01 X580.412 Y1344.507
G01 X633.684 Y1350.793
G01 X592.995 Y1399.515
G01 X596.953 Y1355.984
G01 X624.052 Y1412.251
G01 X568.882 Y1406.255
G01 X615.822 Y1396.162
G01 X585.492 Y1454.132
G01 X570.607 Y1410.413
G01 X607.398 Y1454.983
G01 X547.188 Y1464.063
G01 X583.464 Y1438.760
G01 X566.077 Y1501.096
G01 X533.496 Y1461.374
G01 X576.536 Y1490.518
G01 X516.474 Y1514.149
G01 X538.637 Y1476.127
G01 X535.556 Y1537.514
G01 X487.943 Y1505.578
G01 X533.166 Y1516.896
G01 X478.376 Y1553.201
G01 X484.171 Y1506.042
G01 X495.431 Y1561.183
G01 X436.745 Y1540.076
G01 X479.835 Y1532.695
G01 X434.930 Y1578.602
G01 X423.520 Y1526.642
G01 X447.833 Y1570.728
G01 X382.993 Y1562.460
G01 X419.784 Y1537.107
G01 X388.472 Y1588.609
G01 X360.530 Y1536.548
G01 X395.420 Y1565.673
G01 X329.882 Y1571.036
G01 X356.748 Y1529.967
G01 X341.518 Y1582.474
G01 X299.187 Y1534.948
G01 X341.223 Y1546.460
G01 X280.514 Y1564.950
G01 X294.718 Y1511.751
G01 X296.633 Y1560.498
G01 X243.356 Y1521.670
G01 X288.482 Y1514.409
G01 X237.725 Y1544.272
G01 X237.679 Y1483.543
G01 X256.298 Y1524.022
G01 X196.531 Y1497.209
G01 X240.442 Y1471.619
G01 X203.917 Y1510.016
G01 X189.343 Y1446.968
G01 X222.778 Y1475.335
G01 X161.612 Y1462.725
G01 X200.156 Y1420.827
G01 X180.930 Y1464.092
G01 X152.906 Y1404.096
G01 X198.001 Y1417.533
G01 X140.721 Y1419.996
G01 X170.283 Y1365.226
G01 X169.949 Y1409.210
G01 X130.823 Y1357.332
G01 X183.447 Y1354.311
G01 X135.069 Y1371.341
G01 X152.905 Y1308.259
G01 X171.446 Y1348.715
G01 X124.638 Y1309.281
G01 X180.058 Y1289.726
G01 X144.890 Y1319.498
G01 X149.379 Y1253.402
G01 X185.172 Y1286.388
G01 X134.874 Y1262.614
G01 X188.180 Y1227.927
G01 X169.436 Y1267.481
G01 X160.226 Y1203.955
G01 X210.183 Y1226.201
G01 X160.982 Y1219.927
G01 X207.524 Y1172.882
G01 X207.032 Y1218.404
G01 X185.070 Y1162.838
G01 X244.907 Y1172.061
G01 X201.371 Y1183.602
G01 X237.167 Y1128.121
G01 X255.196 Y1175.300
G01 X222.635 Y1132.428
G01 X287.243 Y1127.554
G01 X253.505 Y1155.685
G01 X275.586 Y1096.504
G01 X310.806 Y1140.934
G01 X270.804 Y1114.422
G01 X334.692 Y1095.698
G01 X314.060 Y1137.776
G01 X320.721 Y1080.038
G01 X370.307 Y1117.621
G01 X326.727 Y1109.752
G01 X384.493 Y1078.736
G01 X379.140 Y1130.945
G01 X370.079 Y1079.747
G01 X429.939 Y1107.069
G01 X386.989 Y1118.544
G01 X433.785 Y1077.975
G01 X444.532 Y1135.668
G01 X420.856 Y1095.612
G01 X485.979 Y1110.254
G01 X447.815 Y1140.127
G01 X479.759 Y1093.684
G01 X505.982 Y1151.799
G01 X470.094 Y1126.580
G01 X534.971 Y1127.331
G01 X505.305 Y1173.090
G01 X519.813 Y1125.059
G01 X559.475 Y1178.567
G01 X514.837 Y1170.634
G01 X573.939 Y1157.595
G01 X555.690 Y1215.380
G01 X551.687 Y1170.265
G01 X601.500 Y1214.608
G01 X552.310 Y1224.934
G01 X600.561 Y1199.503
G01 X595.577 Y1264.432
G01 X573.580 Y1226.540
G01 X629.282 Y1258.025
G01 X580.087 Y1286.007
G01 X613.306 Y1250.738
G01 X622.180 Y1317.327
G01 X584.243 Y1290.368
G01 X640.965 Y1306.485
G01 X596.244 Y1349.974
G01 X611.509 Y1308.332
G01 X633.518 Y1370.970
G01 X583.042 Y1357.704
G01 X635.737 Y1357.329
G01 X599.492 Y1412.802
G01 X595.397 Y1368.838
G01 X628.563 Y1422.263
G01 X569.989 Y1424.234
G01 X613.878 Y1407.713
G01 X589.276 Y1470.566
G01 X566.061 Y1428.533
G01 X607.323 Y1468.285
G01 X545.740 Y1485.658
G01 X576.744 Y1454.757
G01 X565.838 Y1519.693
G01 X525.372 Y1483.648
G01 X570.864 Y1506.447
G01 X511.564 Y1537.975
G01 X526.674 Y1495.707
G01 X530.226 Y1557.189
G01 X475.853 Y1530.613
G01 X521.259 Y1534.637
G01 X469.272 Y1577.750
G01 X466.836 Y1528.087
G01 X484.258 Y1580.819
G01 X420.514 Y1566.285
G01 X461.469 Y1551.319
G01 X422.983 Y1600.000
G01 X420.235 Y1600.000
G01 X401.017 Y1549.851
G01 X430.440 Y1589.237
G01 X362.668 Y1588.171
G01 X395.162 Y1555.620
G01 X374.453 Y1600.000
G01 X362.497 Y1600.000
G01 X333.372 Y1559.511
G01 X371.831 Y1582.057
G01 X305.724 Y1594.602
G01 X326.485 Y1547.358
G01 X317.991 Y1600.000
G01 X317.485 Y1600.000
G01 X268.160 Y1556.238
G01 X311.876 Y1559.865
G01 X252.985 Y1584.862
G01 X259.792 Y1527.049
G01 X268.532 Y1573.826
G01 X209.457 Y1539.933
G01 X254.197 Y1524.166
G01 X207.464 Y1559.259
G01 X199.365 Y1495.871
G01 X224.331 Y1532.032
G01 X160.906 Y1511.256
G01 X202.376 Y1477.275
G01 X171.706 Y1519.130
G01 X149.126 Y1455.593
G01 X187.847 Y1477.651
G01 X125.478 Y1471.615
G01 X159.729 Y1422.163
G01 X147.658 Y1466.774
G01 X112.379 Y1408.478
G01 X161.217 Y1414.145
G01 X105.292 Y1423.102
G01 X129.084 Y1362.261
G01 X136.563 Y1405.326
G01 X91.582 Y1357.155
G01 X146.065 Y1345.568
G01 X101.485 Y1368.400
G01 X112.591 Y1301.245
G01 X138.908 Y1338.565
G01 X88.174 Y1304.488
G01 X143.410 Y1276.303
G01 X114.153 Y1310.637
G01 X111.560 Y1242.802
G01 X154.408 Y1270.684
G01 X102.479 Y1253.412
G01 X153.583 Y1210.775
G01 X142.353 Y1253.213
G01 X126.359 Y1190.416
G01 X182.034 Y1206.017
G01 X133.666 Y1206.786
G01 X176.202 Y1153.160
G01 X184.179 Y1199.607
G01 X156.358 Y1147.154
G01 X220.088 Y1148.763
G01 X179.800 Y1167.240
G01 X210.167 Y1107.118
G01 X236.889 Y1153.161
G01 X199.946 Y1115.496
G01 X266.299 Y1102.704
G01 X237.965 Y1137.031
G01 X253.704 Y1075.557
G01 X297.095 Y1116.877
G01 X254.611 Y1097.195
G01 X317.965 Y1070.950
G01 X304.443 Y1117.923
G01 X304.447 Y1060.443
G01 X360.979 Y1093.215
G01 X317.073 Y1093.191
G01 X372.102 Y1055.723
G01 X374.962 Y1111.090
G01 X359.553 Y1062.685
G01 X424.543 Y1083.929
G01 X383.483 Y1103.568
G01 X425.609 Y1058.204
G01 X444.970 Y1117.042
G01 X415.851 Y1082.079
G01 X483.853 Y1089.928
G01 X449.658 Y1127.570
G01 X475.441 Y1078.433
G01 X509.935 Y1135.591
G01 X470.020 Y1117.330
G01 X535.290 Y1111.199
G01 X511.343 Y1163.657
G01 X518.769 Y1115.299
G01 X565.638 Y1165.852
G01 X518.773 Y1166.145
G01 X575.761 Y1146.774
G01 X564.489 Y1209.612
G01 X553.131 Y1166.594
G01 X608.457 Y1206.271
G01 X559.054 Y1225.388
G01 X602.883 Y1194.767
G01 X605.521 Y1262.677
G01 X576.563 Y1229.152
G01 X635.597 Y1254.706
G01 X588.232 Y1291.285
G01 X615.116 Y1252.465
G01 X631.582 Y1319.725
G01 X587.701 Y1299.044
G01 X645.273 Y1308.522
G01 X604.262 Y1359.677
G01 X611.955 Y1316.418
G01 X641.104 Y1377.262
G01 X586.500 Y1371.539
G01 X637.761 Y1364.322
G01 X607.064 Y1425.758
G01 X594.913 Y1382.281
G01 X633.936 Y1431.757
G01 X573.217 Y1442.018
G01 X613.294 Y1419.220
G01 X595.354 Y1485.956
G01 X564.187 Y1446.576
G01 X609.499 Y1480.608
G01 X547.950 Y1506.313
G01 X573.100 Y1470.295
G01 X569.373 Y1536.715
G01 X521.767 Y1505.286
G01 X569.132 Y1521.134
G01 X512.038 Y1560.318
G01 X519.766 Y1514.579
G01 X530.362 Y1575.036
G01 X470.291 Y1554.652
G01 X515.212 Y1551.135
G01 X467.945 Y1600.000
G01 X467.279 Y1600.000
G01 X456.694 Y1549.410
G01 X480.384 Y1598.715
G01 X412.880 Y1591.415
G01 X451.016 Y1569.007
G01 X431.684 Y1600.000
G01 X402.970 Y1600.000
G01 X387.885 Y1572.597
G01 X415.668 Y1600.000
G01 X362.112 Y1600.000
G01 X380.522 Y1573.813
G01 X371.910 Y1600.000
G01 X333.802 Y1600.000
G01 X317.675 Y1582.549
G01 X359.232 Y1597.977
G01 X352.602 Y1600.000
G01 X298.818 Y1600.000
G01 X308.158 Y1565.329
G01 X307.282 Y1600.000
G01 X281.195 Y1600.000
G01 X250.459 Y1578.397
G01 X295.163 Y1573.932
G01 X248.910 Y1600.000
G01 X239.356 Y1600.000
G01 X238.525 Y1544.048
G01 X254.256 Y1588.005
G01 X190.415 Y1560.058
G01 X233.925 Y1535.929
G01 X192.349 Y1575.894
G01 X176.096 Y1511.148
G01 X207.180 Y1542.243
G01 X141.240 Y1528.271
G01 X179.361 Y1486.381
G01 X155.374 Y1531.103
G01 X124.924 Y1468.427
G01 X168.336 Y1483.595
G01 X105.927 Y1484.583
G01 X135.001 Y1428.352
G01 X130.542 Y1473.534
G01 X88.381 Y1418.209
G01 X140.061 Y1415.741
G01 X86.580 Y1431.280
G01 X103.833 Y1365.361
G01 X119.179 Y1406.608
G01 X68.926 Y1363.221
G01 X124.157 Y1342.939
G01 X84.301 Y1371.283
G01 X88.099 Y1301.166
G01 X121.850 Y1334.402
G01 X67.944 Y1306.453
G01 X121.779 Y1269.752
G01 X99.126 Y1307.992
G01 X89.130 Y1239.540
G01 X138.337 Y1261.390
G01 X85.647 Y1251.006
G01 X133.351 Y1200.750
G01 X130.047 Y1245.099
G01 X107.246 Y1184.047
G01 X167.668 Y1192.167
G01 X121.054 Y1199.929
G01 X158.528 Y1140.225
G01 X175.081 Y1186.374
G01 X141.699 Y1137.840
G01 X208.176 Y1131.148
G01 X172.049 Y1156.063
G01 X196.185 Y1091.916
G01 X231.414 Y1135.441
G01 X190.701 Y1103.488
G01 X257.601 Y1082.284
G01 X235.513 Y1121.887
G01 X244.460 Y1058.774
G01 X295.580 Y1095.552
G01 X251.509 Y1082.841
G01 X313.214 Y1048.798
G01 X307.525 Y1099.390
G01 X300.836 Y1042.783
G01 X363.687 Y1069.372
G01 X320.580 Y1076.936
G01 X371.967 Y1032.968
G01 X383.609 Y1089.952
G01 X362.267 Y1044.845
G01 X431.658 Y1058.802
G01 X393.779 Y1085.959
G01 X430.655 Y1035.965
G01 X459.025 Y1094.266
G01 X425.328 Y1064.729
G01 X495.482 Y1064.834
G01 X466.630 Y1109.251
G01 X486.086 Y1057.771
G01 X529.075 Y1112.285
G01 X486.411 Y1101.100
G01 X551.451 Y1087.465
G01 X534.599 Y1145.356
G01 X535.247 Y1097.163
G01 X589.401 Y1143.210
G01 X541.924 Y1151.614
G01 X596.379 Y1125.664
G01 X593.381 Y1192.122
G01 X575.459 Y1151.786
G01 X636.264 Y1185.515
G01 X588.504 Y1213.074
G01 X627.775 Y1177.414
G01 X639.186 Y1246.830
G01 X604.519 Y1218.294
G01 X666.787 Y1237.015
G01 X623.227 Y1281.643
G01 X643.985 Y1239.806
G01 X668.987 Y1306.353
G01 X620.812 Y1292.559
G01 X679.129 Y1294.964
G01 X643.792 Y1353.090
G01 X644.264 Y1309.200
G01 X680.732 Y1367.330
G01 X623.402 Y1369.936
G01 X672.601 Y1356.194
G01 X648.684 Y1423.053
G01 X628.809 Y1381.437
G01 X673.489 Y1426.355
G01 X612.081 Y1445.558
G01 X647.704 Y1417.279
G01 X637.289 Y1487.313
G01 X598.723 Y1452.089
G01 X647.525 Y1480.156
G01 X587.390 Y1514.649
G01 X606.088 Y1474.718
G01 X609.958 Y1542.047
G01 X555.935 Y1516.733
G01 X604.305 Y1525.771
G01 X550.597 Y1572.837
G01 X550.441 Y1525.135
G01 X568.017 Y1584.058
G01 X503.076 Y1571.233
G01 X546.410 Y1560.700
G01 X516.249 Y1600.000
G01 X497.408 Y1600.000
G01 X484.308 Y1565.467
G01 X506.636 Y1600.000
G01 X457.437 Y1600.000
G01 X477.387 Y1583.034
G01 X469.320 Y1600.000
G01 X417.003 Y1600.000
G01 X411.865 Y1593.159
G01 X421.170 Y1600.000
G01 X397.494 Y1600.000
G01 X401.530 Y1591.552
G01 X399.824 Y1600.000
G01 X322.010 Y1600.000
G01 X323.606 Y1585.779
G01 X325.111 Y1600.000
G01 X280.029 Y1600.000
G01 X310.346 Y1591.510
G01 X298.648 Y1600.000
G01 X253.751 Y1600.000
G01 X248.556 Y1566.010
G01 X266.912 Y1600.000
G01 X249.209 Y1600.000
G01 X202.092 Y1585.567
G01 X242.638 Y1553.511
G01 X206.399 Y1597.963
G01 X181.175 Y1533.293
G01 X217.138 Y1558.684
G01 X149.050 Y1552.174
G01 X182.089 Y1503.014
G01 X164.655 Y1549.884
G01 X125.800 Y1489.378
G01 X172.366 Y1497.100
G01 X110.314 Y1505.317
G01 X132.610 Y1443.110
G01 X135.306 Y1487.891
G01 X86.031 Y1436.621
G01 X138.829 Y1425.612
G01 X88.155 Y1447.482
G01 X97.511 Y1377.395
G01 X119.951 Y1415.703
G01 X64.490 Y1377.872
G01 X118.678 Y1348.692
G01 X83.809 Y1381.876
G01 X79.276 Y1309.749
G01 X119.407 Y1337.738
G01 X62.650 Y1316.326
G01 X113.354 Y1271.134
G01 X97.414 Y1312.258
G01 X79.384 Y1244.107
G01 X133.674 Y1258.837
G01 X80.737 Y1255.355
G01 X123.492 Y1197.745
G01 X128.019 Y1242.729
G01 X98.194 Y1184.232
G01 X161.943 Y1183.960
G01 X117.709 Y1198.341
G01 X148.856 Y1133.044
G01 X173.662 Y1177.487
G01 X134.897 Y1133.503
G01 X202.649 Y1117.864
G01 X171.326 Y1148.488
G01 X188.326 Y1080.980
G01 X231.502 Y1120.577
G01 X187.542 Y1094.733
G01 X253.560 Y1064.794
G01 X238.287 Y1108.656
G01 X239.941 Y1044.687
G01 X298.007 Y1075.632
G01 X253.135 Y1070.018
G01 X311.895 Y1028.207
G01 X314.446 Y1081.198
G01 X300.981 Y1026.296
G01 X369.177 Y1045.642
G01 X327.814 Y1060.635
G01 X374.478 Y1010.538
G01 X395.077 Y1067.826
G01 X368.107 Y1026.815
G01 X440.791 Y1032.747
G01 X407.076 Y1066.985
G01 X437.901 Y1013.037
G01 X475.175 Y1069.500
G01 X437.534 Y1046.077
G01 X508.661 Y1038.080
G01 X486.056 Y1088.587
G01 X498.704 Y1035.676
G01 X549.780 Y1086.367
G01 X505.244 Y1082.765
G01 X568.881 Y1061.670
G01 X559.836 Y1124.114
G01 X553.559 Y1077.146
G01 X614.290 Y1117.725
G01 X567.216 Y1134.507
G01 X618.046 Y1102.415
G01 X623.753 Y1171.485
G01 X599.439 Y1134.931
G01 X664.755 Y1162.044
G01 X619.670 Y1198.040
G01 X653.445 Y1158.118
G01 X673.710 Y1227.984
G01 X633.785 Y1205.467
G01 X698.119 Y1217.030
G01 X659.297 Y1269.419
G01 X673.203 Y1225.603
G01 X706.443 Y1290.414
G01 X654.640 Y1284.365
G01 X710.000 Y1279.925
G01 X710.000 Y1285.115
G01 X683.479 Y1344.272
G01 X676.375 Y1300.891
G01 X710.000 Y1343.057
G01 X710.000 Y1357.165
G01 X660.763 Y1366.691
G01 X706.870 Y1346.688
G01 X690.466 Y1418.070
G01 X662.980 Y1379.438
G01 X710.000 Y1416.880
G01 X710.000 Y1420.188
G01 X651.697 Y1447.285
G01 X681.962 Y1414.114
G01 X679.507 Y1486.402
G01 X633.982 Y1456.406
G01 X685.366 Y1477.953
G01 X627.812 Y1521.086
G01 X639.363 Y1478.104
G01 X650.930 Y1545.246
G01 X591.222 Y1526.972
G01 X639.553 Y1528.970
G01 X590.292 Y1583.461
G01 X581.831 Y1534.855
G01 X606.145 Y1591.197
G01 X537.292 Y1586.630
G01 X577.957 Y1569.195
G01 X559.433 Y1600.000
G01 X523.834 Y1600.000
G01 X513.024 Y1580.895
G01 X529.225 Y1600.000
G01 X501.394 Y1600.000
G01 X504.376 Y1596.390
G01 X503.140 Y1600.000
G01 X263.195 Y1600.000
G01 X259.796 Y1588.388
G01 X268.679 Y1600.000
G01 X225.705 Y1600.000
G01 X251.966 Y1571.388
G01 X234.011 Y1600.000
G01 X211.229 Y1600.000
G01 X187.534 Y1556.105
G01 X227.634 Y1574.967
G01 X158.473 Y1576.195
G01 X185.399 Y1520.346
G01 X174.915 Y1568.370
G01 X127.945 Y1511.159
G01 X176.684 Y1510.854
G01 X116.069 Y1526.230
G01 X130.745 Y1458.889
G01 X140.654 Y1502.182
G01 X84.851 Y1455.938
G01 X137.632 Y1436.101
G01 X90.754 Y1463.891
G01 X91.635 Y1390.667
G01 X120.882 Y1424.953
G01 X61.039 Y1393.410
G01 X112.996 Y1355.366
G01 X83.922 Y1392.677
G01 X70.794 Y1319.668
G01 X116.697 Y1341.431
G01 X58.081 Y1326.980
G01 X104.518 Y1273.651
G01 X95.840 Y1316.710
G01 X69.848 Y1249.983
G01 X128.344 Y1256.806
G01 X76.228 Y1260.307
G01 X113.049 Y1195.983
G01 X125.650 Y1240.501
G01 X89.202 Y1185.577
G01 X155.207 Y1176.390
G01 X114.401 Y1197.116
G01 X138.470 Y1127.099
G01 X171.441 Y1168.680
G01 X127.986 Y1130.069
G01 X195.842 Y1105.266
G01 X170.255 Y1140.999
G01 X179.672 Y1071.156
G01 X230.381 Y1105.713
G01 X184.094 Y1086.533
G01 X248.062 Y1047.970
G01 X240.335 Y1095.214
G01 X234.591 Y1031.475
G01 X298.898 Y1055.621
G01 X254.290 Y1057.338
G01 X309.045 Y1008.186
G01 X320.299 Y1062.500
G01 X300.302 Y1010.350
G01 X372.909 Y1021.718
G01 X334.403 Y1044.030
G01 X375.485 Y988.509
G01 X405.191 Y1044.917
G01 X373.167 Y1008.918
G01 X448.063 Y1006.384
G01 X419.574 Y1047.257
G01 X443.766 Y990.272
G01 X489.769 Y1043.714
G01 X449.034 Y1027.101
G01 X520.004 Y1010.894
G01 X504.562 Y1066.746
G01 X510.148 Y1013.451
G01 X568.826 Y1059.238
G01 X523.469 Y1063.633
G01 X584.623 Y1035.314
G01 X584.072 Y1101.331
G01 X570.969 Y1056.667
G01 X637.528 Y1090.895
G01 X592.015 Y1116.149
G01 X638.288 Y1078.469
G01 X653.097 Y1149.023
G01 X622.835 Y1117.265
G01 X691.713 Y1137.154
G01 X650.466 Y1181.350
G01 X678.046 Y1137.988
G01 X707.238 Y1207.125
G01 X662.806 Y1191.487
G01 X710.000 Y1194.466
G01 X710.000 Y1228.364
G01 X695.126 Y1255.214
G01 X701.778 Y1210.433
G01 X710.000 Y1222.791
G01 X710.000 Y1273.792
G01 X688.560 Y1274.706
G01 X710.000 Y1270.277
G01 X710.000 Y1296.294
G01 X708.305 Y1291.495
G01 X710.000 Y1293.189
G01 X710.000 Y1357.761
G01 X698.527 Y1361.724
G01 X710.000 Y1354.667
G01 X710.000 Y1388.706
G01 X697.437 Y1376.249
G01 X710.000 Y1384.054
G01 X710.000 Y1435.720
G01 X691.984 Y1447.106
G01 X710.000 Y1419.175
G01 X710.000 Y1477.778
G01 X669.968 Y1459.459
G01 X710.000 Y1470.497
G01 X710.000 Y1486.432
G01 X669.113 Y1525.524
G01 X672.941 Y1480.463
G01 X692.146 Y1546.306
G01 X627.616 Y1535.906
G01 X674.824 Y1530.787
G01 X631.008 Y1592.095
G01 X613.967 Y1543.717
G01 X644.621 Y1596.461
G01 X585.042 Y1600.000
G01 X574.020 Y1600.000
G01 X609.835 Y1576.662
G01 X599.161 Y1600.000
G01 X546.290 Y1600.000
G01 X542.881 Y1595.635
G01 X547.718 Y1600.000
G01 X255.027 Y1600.000
G01 X261.960 Y1589.588
G01 X257.133 Y1600.000
G01 X209.757 Y1600.000
G01 X195.270 Y1579.511
G01 X238.638 Y1591.121
G01 X171.093 Y1600.000
G01 X169.587 Y1600.000
G01 X189.373 Y1538.395
G01 X186.090 Y1586.511
G01 X131.453 Y1533.686
G01 X181.290 Y1524.904
G01 X123.187 Y1547.208
G01 X129.512 Y1475.696
G01 X146.535 Y1516.393
G01 X84.926 Y1476.065
G01 X136.505 Y1447.267
G01 X94.356 Y1480.419
G01 X86.326 Y1405.172
G01 X121.935 Y1434.383
G01 X58.644 Y1409.739
G01 X107.176 Y1363.028
G01 X84.606 Y1403.630
G01 X62.778 Y1330.904
G01 X113.700 Y1345.538
G01 X54.283 Y1338.327
G01 X95.359 Y1277.374
G01 X94.361 Y1321.327
G01 X60.643 Y1257.137
G01 X122.349 Y1255.383
G01 X72.142 Y1265.786
G01 X102.128 Y1195.532
G01 X122.891 Y1238.431
G01 X80.372 Y1188.045
G01 X147.482 Y1169.561
G01 X111.121 Y1196.204
G01 X127.487 Y1122.448
G01 X168.370 Y1160.006
G01 X121.044 Y1127.495
G01 X187.798 Y1093.474
G01 X168.801 Y1133.573
G01 X170.337 Y1062.485
G01 X228.006 Y1090.939
G01 X180.403 Y1078.845
G01 X241.167 Y1031.933
G01 X241.599 Y1081.568
G01 X228.512 Y1019.163
G01 X298.217 Y1035.637
G01 X254.984 Y1044.763
G01 X304.732 Y988.849
G01 X325.004 Y1043.334
G01 X298.878 Y994.953
G01 X374.857 Y997.735
G01 X340.319 Y1027.093
G01 X375.060 Y966.979
G01 X413.863 Y1021.295
G01 X377.498 Y991.143
G01 X453.462 Y979.856
G01 X431.209 Y1026.760
G01 X448.318 Y967.745
G01 X502.712 Y1017.000
G01 X459.846 Y1007.777
G01 X529.511 Y983.416
G01 X522.051 Y1043.732
G01 X520.476 Y991.144
G01 X586.119 Y1031.010
G01 X541.065 Y1043.670
G01 X598.688 Y1008.521
G01 X607.188 Y1077.028
G01 X587.519 Y1035.744
G01 X659.028 Y1062.843
G01 X616.262 Y1096.501
G01 X657.124 Y1053.925
G01 X681.277 Y1124.774
G01 X645.665 Y1098.777
G01 X710.000 Y1109.762
G01 X710.000 Y1121.098
G01 X680.799 Y1162.965
G01 X701.601 Y1117.093
G01 X710.000 Y1131.939
G01 X710.000 Y1179.381
G01 X691.572 Y1176.314
G01 X710.000 Y1175.343
G01 X710.000 Y1462.126
G01 X706.676 Y1461.169
G01 X710.000 Y1461.628
G01 X710.000 Y1515.321
G01 X706.843 Y1481.797
G01 X710.000 Y1489.321
G01 X710.000 Y1544.616
G01 X665.099 Y1543.429
G01 X710.000 Y1531.298
G01 X710.000 Y1531.417
G01 X672.619 Y1598.651
G01 X646.880 Y1551.683
G01 X683.324 Y1599.870
G01 X682.617 Y1600.000
G01 X624.122 Y1600.000
G01 X642.036 Y1583.136
G01 X636.503 Y1600.000
G01 X186.473 Y1600.000
G01 X194.100 Y1557.172
G01 X197.751 Y1600.000
G01 X192.555 Y1600.000
G01 X136.412 Y1556.859
G01 X186.197 Y1539.298
G01 X131.647 Y1568.140
G01 X129.023 Y1493.526
G01 X152.895 Y1530.523
G01 X86.333 Y1496.896
G01 X135.494 Y1459.170
G01 X98.930 Y1496.982
G01 X81.707 Y1420.889
G01 X123.075 Y1444.026
G01 X57.361 Y1426.755
G01 X101.296 Y1371.743
G01 X85.819 Y1414.685
G01 X55.353 Y1343.424
G01 X110.405 Y1350.124
G01 X51.293 Y1350.275
G01 X85.978 Y1282.364
G01 X92.932 Y1326.097
G01 X51.883 Y1265.528
G01 X115.702 Y1254.656
G01 X68.488 Y1271.722
G01 X90.846 Y1196.445
G01 X119.695 Y1236.550
G01 X71.800 Y1191.585
G01 X138.804 Y1163.581
G01 X107.853 Y1195.557
G01 X116.028 Y1119.132
G01 X164.406 Y1151.533
G01 X114.137 Y1125.729
G01 X178.573 Y1082.602
G01 X166.922 Y1126.191
G01 X160.437 Y1054.996
G01 X224.342 Y1076.354
G01 X176.502 Y1071.621
G01 X232.947 Y1016.798
G01 X242.016 Y1067.734
G01 X221.804 Y1007.763
G01 X295.940 Y1015.802
G01 X255.214 Y1032.254
G01 X299.038 Y970.302
G01 X328.485 Y1023.749
G01 X296.787 Y980.099
G01 X375.011 Y973.832
G01 X345.523 Y1009.799
G01 X373.286 Y946.034
G01 X421.004 Y997.039
G01 X381.144 Y973.472
G01 X456.989 Y953.305
G01 X441.909 Y1005.489
G01 X451.635 Y945.520
G01 X513.915 Y989.464
G01 X469.974 Y988.076
G01 X537.194 Y955.783
G01 X538.422 Y1019.560
G01 X529.749 Y968.791
G01 X601.577 Y1001.806
G01 X558.000 Y1022.843
G01 X611.101 Y981.410
G01 X629.060 Y1051.241
G01 X603.247 Y1014.386
G01 X678.718 Y1033.699
G01 X639.886 Y1075.526
G01 X674.583 Y1028.879
G01 X708.158 Y1098.796
G01 X667.939 Y1079.446
G01 X710.000 Y1081.856
G01 X710.000 Y1548.773
G01 X703.638 Y1549.433
G01 X710.000 Y1546.540
G01 X710.000 Y1596.621
G01 X680.600 Y1558.710
G01 X710.000 Y1588.966
G01 X710.000 Y1600.000
G01 X666.219 Y1600.000
G01 X674.562 Y1588.651
G01 X672.197 Y1600.000
G01 X198.615 Y1600.000
G01 X199.673 Y1576.674
G01 X205.509 Y1600.000
G01 X175.091 Y1600.000
G01 X142.900 Y1580.570
G01 X191.427 Y1554.087
G01 X141.420 Y1588.921
G01 X129.390 Y1512.361
G01 X159.685 Y1544.581
G01 X89.136 Y1518.320
G01 X134.657 Y1471.867
G01 X104.435 Y1513.504
G01 X77.900 Y1437.785
G01 X124.277 Y1453.922
G01 X57.236 Y1444.351
G01 X95.443 Y1381.568
G01 X87.517 Y1425.802
G01 X48.639 Y1357.183
G01 X106.811 Y1355.258
G01 X49.131 Y1362.730
G01 X76.487 Y1288.673
G01 X91.504 Y1331.022
G01 X43.677 Y1275.098
G01 X108.427 Y1254.717
G01 X65.262 Y1278.041
G01 X79.326 Y1198.765
G01 X116.019 Y1234.896
G01 X63.574 Y1196.137
G01 X129.223 Y1158.556
G01 X104.570 Y1195.133
G01 X104.218 Y1117.181
G01 X159.511 Y1143.337
G01 X107.326 Y1124.713
G01 X168.237 Y1072.762
G01 X164.571 Y1118.848
G01 X150.089 Y1048.703
G01 X219.363 Y1062.066
G01 X172.418 Y1064.811
G01 X223.484 Y1002.672
G01 X241.522 Y1053.740
G01 X214.566 Y997.273
G01 X292.053 Y996.246
G01 X254.968 Y1019.775
G01 X292.053 Y952.639
G01 X330.665 Y1003.808
G01 X294.098 Y965.776
G01 X373.372 Y950.150
G01 X349.969 Y992.130
G01 X370.251 Y925.752
G01 X426.535 Y972.242
G01 X384.140 Y955.881
G01 X458.660 Y926.874
G01 X451.594 Y983.447
G01 X453.792 Y923.650
G01 X523.301 Y961.222
G01 X479.417 Y967.967
G01 X543.083 Y928.127
G01 X553.569 Y994.256
G01 X538.026 Y946.418
G01 X615.127 Y971.757
G01 X574.230 Y1001.117
G01 X621.895 Y954.094
G01 X649.565 Y1024.020
G01 X618.187 Y992.588
G01 X696.537 Y1003.602
G01 X662.806 Y1053.193
G01 X690.702 Y1003.415
G01 X710.000 Y1033.883
G01 X710.000 Y1064.756
G01 X689.663 Y1059.242
G01 X710.000 Y1058.127
G01 X710.000 Y1600.000
G01 X704.156 Y1600.000
G01 X707.422 Y1593.232
G01 X706.786 Y1600.000
G01 X206.450 Y1600.000
G01 X206.194 Y1596.889
G01 X207.556 Y1600.000
G01 X157.098 Y1600.000
G01 X197.015 Y1569.320
G01 X162.954 Y1600.000
G01 X149.805 Y1600.000
G01 X130.730 Y1532.171
G01 X166.859 Y1558.586
G01 X93.385 Y1540.216
G01 X134.062 Y1485.409
G01 X110.822 Y1529.919
G01 X75.028 Y1455.814
G01 X125.521 Y1464.121
G01 X58.300 Y1462.415
G01 X89.715 Y1392.550
G01 X89.646 Y1436.955
G01 X42.753 Y1372.119
G01 X102.927 Y1361.014
G01 X47.806 Y1375.600
G01 X67.002 Y1296.342
G01 X90.029 Y1336.112
G01 X36.126 Y1285.781
G01 X100.563 Y1255.660
G01 X62.451 Y1284.679
G01 X67.698 Y1202.520
G01 X111.820 Y1233.520
G01 X55.770 Y1201.632
G01 X118.802 Y1154.589
G01 X101.237 Y1194.899
G01 X92.187 Y1116.610
G01 X153.657 Y1135.504
G01 X100.656 Y1124.383
G01 X156.871 Y1064.057
G01 X161.694 Y1111.543
G01 X139.409 Y1043.605
G01 X213.055 Y1048.187
G01 X168.161 Y1058.362
G01 X212.875 Y989.653
G01 X240.050 Y1039.626
G01 X206.892 Y987.681
G01 X286.560 Y977.101
G01 X254.225 Y1007.291
G01 X283.877 Y935.944
G01 X331.473 Y983.585
G01 X290.875 Y951.957
G01 X369.957 Y926.830
G01 X353.599 Y974.074
G01 X366.051 Y906.196
G01 X430.383 Y947.009
G01 X386.513 Y938.338
G01 X458.508 Y900.704
G01 X460.178 Y960.647
G01 X454.873 Y902.174
G01 X530.799 Y932.402
G01 X488.160 Y947.416
G01 X547.218 Y900.575
G01 X567.384 Y967.859
G01 X545.366 Y924.037
G01 X626.711 Y941.005
G01 X589.702 Y978.460
G01 X631.118 Y926.679
G01 X668.581 Y995.428
G01 X632.369 Y970.340
G01 X710.000 Y972.622
G01 X710.000 Y977.731
G01 X684.931 Y1029.478
G01 X705.528 Y977.607
G01 X710.000 Y983.143
G01 X710.000 Y1600.000
G01 X188.656 Y1600.000
G01 X203.006 Y1585.043
G01 X190.166 Y1600.000
G01 X152.529 Y1600.000
G01 X133.158 Y1552.910
G01 X174.377 Y1572.567
G01 X99.119 Y1562.460
G01 X133.791 Y1499.841
G01 X118.033 Y1546.171
G01 X73.206 Y1474.913
G01 X126.798 Y1474.679
G01 X60.571 Y1480.836
G01 X84.220 Y1404.728
G01 X92.153 Y1448.124
G01 X37.803 Y1388.160
G01 X98.776 Y1367.471
G01 X47.315 Y1388.793
G01 X57.650 Y1305.397
G01 X88.460 Y1341.390
G01 X29.321 Y1297.497
G01 X92.160 Y1257.576
G01 X60.031 Y1291.573
G01 X56.093 Y1207.724
G01 X107.065 Y1232.483
G01 X48.454 Y1207.994
G01 X107.617 Y1151.777
G01 X97.811 Y1194.828
G01 X80.062 Y1117.417
G01 X146.824 Y1128.127
G01 X94.162 Y1124.670
G01 X144.573 Y1056.585
G01 X158.236 Y1104.292
G01 X128.511 Y1039.690
G01 X205.416 Y1034.837
G01 X163.734 Y1052.223
G01 X201.225 Y977.827
G01 X237.536 Y1025.442
G01 X198.870 Y978.961
G01 X279.477 Y958.504
G01 X252.950 Y994.772
G01 X274.617 Y920.288
G01 X330.840 Y963.167
G01 X287.172 Y938.612
G01 X364.801 Y904.014
G01 X356.350 Y955.628
G01 X360.783 Y887.417
G01 X432.481 Y921.455
G01 X388.279 Y920.807
G01 X456.577 Y874.930
G01 X467.573 Y937.114
G01 X454.957 Y881.119
G01 X536.354 Y903.139
G01 X496.180 Y926.389
G01 X549.654 Y873.247
G01 X579.759 Y940.423
G01 X551.823 Y901.652
G01 X636.284 Y909.695
G01 X604.352 Y954.847
G01 X638.825 Y899.259
G01 X685.988 Y965.543
G01 X645.815 Y947.621
G01 X710.000 Y942.443
G01 X710.000 Y992.373
G01 X706.163 Y1004.365
G01 X710.000 Y988.705
G01 X710.000 Y1600.000
G01 X150.856 Y1600.000
G01 X136.786 Y1574.517
G01 X182.210 Y1586.561
G01 X106.360 Y1584.924
G01 X133.932 Y1515.199
G01 X126.009 Y1562.215
G01 X72.548 Y1495.006
G01 X128.109 Y1485.657
G01 X64.052 Y1499.502
G01 X79.072 Y1418.129
G01 X94.983 Y1459.304
G01 X33.890 Y1405.220
G01 X94.390 Y1374.706
G01 X47.641 Y1402.224
G01 X48.561 Y1315.853
G01 X86.753 Y1346.891
G01 X23.344 Y1310.158
G01 X83.282 Y1260.553
G01 X57.967 Y1298.672
G01 X44.646 Y1214.376
G01 X101.725 Y1231.855
G01 X41.681 Y1215.139
G01 X95.756 Y1150.213
G01 X94.245 Y1194.906
G01 X67.970 Y1119.589
G01 X139.005 Y1121.307
G01 X87.868 Y1125.507
G01 X131.448 Y1050.433
G01 X154.139 Y1097.118
G01 X117.503 Y1036.929
G01 X196.458 Y1022.139
G01 X159.126 Y1046.346
G01 X188.650 Y967.271
G01 X233.919 Y1011.253
G01 X190.579 Y971.078
G01 X270.834 Y940.589
G01 X251.103 Y982.196
G01 X264.386 Y905.729
G01 X328.706 Y942.651
G01 X283.034 Y925.700
G01 X357.951 Y881.840
G01 X358.152 Y936.799
G01 X354.549 Y869.449
G01 X432.778 Y895.705
G01 X389.443 Y903.252
G01 X452.928 Y849.680
G01 X473.684 Y912.886
G01 X454.123 Y860.498
G01 X539.923 Y873.578
G01 X503.440 Y904.855
G01 X550.455 Y846.254
G01 X590.586 Y912.013
G01 X557.447 Y879.255
G01 X643.817 Y877.977
G01 X618.106 Y930.256
G01 X645.080 Y871.918
G01 X701.672 Y934.456
G01 X658.538 Y924.405
G01 X710.000 Y914.495
G01 X710.000 Y1600.000
G01 X143.910 Y1600.000
G01 X141.724 Y1596.919
G01 X182.270 Y1600.000
G01 X117.033 Y1600.000
G01 X134.585 Y1531.511
G01 X134.682 Y1578.016
G01 X73.156 Y1516.006
G01 X129.466 Y1497.120
G01 X68.732 Y1518.304
G01 X74.394 Y1432.765
G01 X98.082 Y1470.501
G01 X31.105 Y1423.203
G01 X89.818 Y1382.799
G01 X48.759 Y1415.813
G01 X39.869 Y1327.708
G01 X84.871 Y1352.657
G01 X18.261 Y1323.670
G01 X74.008 Y1264.678
G01 X56.219 Y1305.929
G01 X33.491 Y1222.461
G01 X95.784 Y1231.715
G01 X35.491 Y1222.981
G01 X83.323 Y1149.981
G01 X90.487 Y1195.129
G01 X56.033 Y1123.096
G01 X130.203 Y1115.150
G01 X81.784 Y1126.824
G01 X117.613 Y1045.675
G01 X149.346 Y1090.058
G01 X106.485 Y1035.285
G01 X186.208 Y1010.218
G01 X154.317 Y1040.685
G01 X175.272 Y958.045
G01 X229.142 Y997.134
G01 X182.091 Y963.988
G01 X260.678 Y923.492
G01 X248.634 Y969.547
G01 X253.300 Y892.311
G01 X325.020 Y922.147
G01 X278.497 Y913.178
G01 X349.468 Y860.439
G01 X358.930 Y917.603
G01 X347.450 Y852.318
G01 X431.230 Y869.895
G01 X390.000 Y885.631
G01 X447.632 Y825.075
G01 X478.419 Y888.013
G01 X452.446 Y840.314
G01 X541.476 Y843.867
G01 X509.895 Y882.786
G01 X549.697 Y819.695
G01 X599.761 Y882.710
G01 X562.279 Y856.828
G01 X649.295 Y846.006
G01 X630.879 Y904.675
G01 X649.954 Y844.729
G01 X710.000 Y897.424
G01 X710.000 Y902.075
G01 X670.543 Y900.660
G01 X710.000 Y888.451
G01 X710.000 Y1600.000
G01 X129.251 Y1600.000
G01 X135.857 Y1548.792
G01 X143.986 Y1593.555
G01 X75.126 Y1537.810
G01 X130.895 Y1509.133
G01 X74.590 Y1537.136
G01 X70.310 Y1448.638
G01 X101.397 Y1481.732
G01 X29.525 Y1442.003
G01 X85.118 Y1391.824
G01 X50.629 Y1429.486
G01 X31.708 Y1340.946
G01 X82.783 Y1358.744
G01 X14.130 Y1337.930
G01 X64.427 Y1270.027
G01 X54.738 Y1313.312
G01 X22.760 Y1231.948
G01 X89.232 Y1232.147
G01 X29.913 Y1231.433
G01 X70.428 Y1151.153
G01 X86.482 Y1195.503
G01 X44.371 Y1127.895
G01 X120.436 Y1109.766
G01 X75.908 Y1128.554
G01 X103.193 Y1042.374
G01 X143.802 Y1083.160
G01 X95.552 Y1034.707
G01 X174.706 Y999.200
G01 X149.275 Y1035.203
G01 X161.218 Y950.196
G01 X223.154 Y983.171
G01 X173.467 Y957.638
G01 X249.071 Y907.342
G01 X245.484 Y956.821
G01 X241.480 Y880.061
G01 X319.740 Y901.772
G01 X273.581 Y900.996
G01 X339.429 Y839.938
G01 X358.605 Y898.071
G01 X339.584 Y836.031
G01 X427.809 Y844.163
G01 X389.933 Y867.909
G01 X440.775 Y801.226
G01 X481.685 Y862.558
G01 X449.997 Y820.557
G01 X541.000 Y814.160
G01 X515.489 Y860.160
G01 X547.464 Y793.660
G01 X607.184 Y852.609
G01 X566.355 Y834.347
G01 X652.722 Y813.934
G01 X642.581 Y878.101
G01 X653.523 Y817.752
G01 X710.000 Y856.989
G01 X710.000 Y871.881
G01 X681.823 Y876.348
G01 X710.000 Y864.094
G01 X710.000 Y1600.000
G01 X137.579 Y1600.000
G01 X137.859 Y1567.044
G01 X150.476 Y1600.000
G01 X140.159 Y1600.000
G01 X78.541 Y1560.307
G01 X132.432 Y1521.763
G01 X81.589 Y1555.902
G01 X66.952 Y1465.732
G01 X104.881 Y1493.026
G01 X29.217 Y1461.506
G01 X80.364 Y1401.852
G01 X53.205 Y1443.180
G01 X24.213 Y1355.535
G01 X80.465 Y1365.213
G01 X10.991 Y1352.832
G01 X54.640 Y1276.671
G01 X53.470 Y1320.796
G01 X12.581 Y1242.790
G01 X82.075 Y1233.244
G01 X24.960 Y1240.404
G01 X57.195 Y1153.791
G01 X82.176 Y1196.046
G01 X33.092 Y1133.932
G01 X109.734 Y1105.268
G01 X70.226 Y1130.634
G01 X88.322 Y1040.580
