; file trimmed by trimify2x.pl
; Created by Sandify
; 
;   https://jeffeb3.github.io/sandify/
; 
;   Sandify Version: 0.1.3
; 
;   Machine Type: Rectangular
;     MinX: 5 MaxX: 710 MinY: 5 MaxY: 1600
;   Content Type: Shapes
;     Starting Size: 15
;     Offset: X: 51 Y: 810
;     Selected Shape: None
;     Number of Loops: 493
;     Spin: true
;       Spin Value: -0.6
;       Spin Switchbacks: 15
;     Grow: true
;       Grow Value: 78
;     Track: true
;       Track Count: 12
;       Track Size: 498.15
;       Track Grow: true
;           Track Grow Value: -3
;   Path Reversed: true
; 
; filename: '110219_8.gcode'

; BEGIN PRE
G28 Y
G28 X
G01 F30000; END PRE
G01 X5.000 Y6.328
G01 X5.915 Y5.000
G01 X5.000 Y5.000
G01 X5.000 Y7.061
G01 X6.287 Y5.000
G01 X708.921 Y5.000
G01 X710.000 Y5.873
G01 X710.000 Y5.000
G01 X5.000 Y5.000
G01 X5.000 Y6.316
G01 X5.898 Y5.000
G01 X693.960 Y5.000
G01 X710.000 Y19.267
G01 X710.000 Y5.000
G01 X5.000 Y5.000
G01 X5.000 Y15.522
G01 X12.961 Y5.000
G01 X675.224 Y5.000
G01 X710.000 Y37.225
G01 X710.000 Y5.000
G01 X5.000 Y5.000
G01 X5.000 Y27.662
G01 X20.429 Y7.741
G01 X22.104 Y5.000
G01 X653.725 Y5.000
G01 X710.000 Y54.591
G01 X710.000 Y5.000
G01 X5.000 Y5.000
G01 X5.000 Y37.377
G01 X19.016 Y17.830
G01 X25.683 Y5.000
G01 X630.799 Y5.000
G01 X710.000 Y67.118
G01 X710.000 Y5.000
G01 X5.000 Y5.000
G01 X5.000 Y41.107
G01 X14.494 Y25.862
G01 X24.285 Y5.000
G01 X612.074 Y5.000
G01 X623.018 Y14.896
G01 X710.000 Y74.809
G01 X710.000 Y5.000
G01 X5.000 Y5.000
G01 X5.000 Y37.639
G01 X6.405 Y35.033
G01 X20.987 Y5.000
G01 X596.675 Y5.000
G01 X618.974 Y22.655
G01 X710.000 Y80.528
G01 X710.000 Y5.000
G01 X5.000 Y5.000
G01 X5.000 Y33.287
G01 X20.852 Y5.000
G01 X583.363 Y5.000
G01 X614.484 Y26.569
G01 X705.221 Y85.477
G01 X710.000 Y89.066
G01 X710.000 Y5.000
G01 X5.000 Y5.000
G01 X5.000 Y39.136
G01 X26.545 Y5.000
G01 X570.738 Y5.000
G01 X606.788 Y28.403
G01 X692.143 Y89.899
G01 X710.000 Y103.563
G01 X710.000 Y5.000
G01 X5.000 Y5.000
G01 X5.000 Y51.037
G01 X34.034 Y5.000
G01 X556.633 Y5.000
G01 X595.373 Y31.410
G01 X680.133 Y98.345
G01 X710.000 Y119.556
G01 X710.000 Y5.000
G01 X5.000 Y5.000
G01 X5.000 Y62.938
G01 X35.831 Y7.836
G01 X36.857 Y5.000
G01 X539.362 Y5.000
G01 X582.345 Y38.151
G01 X671.842 Y108.817
G01 X710.000 Y132.525
G01 X710.000 Y5.000
G01 X5.000 Y5.000
G01 X5.000 Y69.846
G01 X30.011 Y15.873
G01 X33.539 Y5.000
G01 X518.950 Y5.000
G01 X571.039 Y48.754
G01 X667.542 Y117.988
G01 X710.000 Y141.045
G01 X710.000 Y5.000
G01 X5.000 Y5.000
G01 X5.000 Y67.629
G01 X21.035 Y26.237
G01 X28.707 Y5.000
G01 X495.798 Y5.000
G01 X563.781 Y60.794
G01 X664.915 Y123.428
G01 X710.000 Y146.399
G01 X710.000 Y5.000
G01 X5.000 Y5.000
G01 X5.000 Y59.177
G01 X11.765 Y40.706
G01 X27.886 Y5.000
G01 X470.138 Y5.000
G01 X471.136 Y5.900
G01 X560.305 Y70.902
G01 X660.587 Y125.258
G01 X710.000 Y151.828
G01 X710.000 Y5.000
G01 X5.000 Y5.000
G01 X5.000 Y59.413
G01 X5.457 Y58.314
G01 X32.922 Y5.000
G01 X448.337 Y5.000
G01 X464.949 Y19.249
G01 X557.903 Y77.029
G01 X652.397 Y126.097
G01 X710.000 Y161.107
G01 X710.000 Y5.000
G01 X5.000 Y5.000
G01 X5.000 Y73.055
G01 X38.658 Y5.000
G01 X428.522 Y5.000
G01 X462.233 Y30.075
G01 X553.224 Y79.839
G01 X640.873 Y129.317
G01 X710.000 Y174.754
G01 X710.000 Y5.000
G01 X5.000 Y5.000
G01 X5.000 Y89.819
G01 X39.666 Y5.258
G01 X39.720 Y5.000
G01 X409.318 Y5.000
G01 X459.951 Y36.769
G01 X544.535 Y82.298
G01 X628.906 Y136.775
G01 X710.000 Y188.546
G01 X710.000 Y5.000
G01 X5.000 Y5.000
G01 X5.000 Y102.133
G01 X5.652 Y100.853
G01 X32.704 Y13.878
G01 X34.353 Y5.000
G01 X391.150 Y5.000
G01 X454.866 Y40.537
G01 X532.908 Y87.687
G01 X619.824 Y147.537
G01 X710.000 Y198.383
G01 X710.000 Y5.000
G01 X5.000 Y5.000
G01 X5.000 Y101.926
G01 X23.374 Y25.857
G01 X28.538 Y5.000
G01 X375.962 Y5.000
G01 X445.728 Y44.618
G01 X521.530 Y97.392
G01 X615.152 Y158.476
G01 X710.000 Y203.683
G01 X710.000 Y5.000
G01 X5.000 Y5.000
G01 X5.000 Y84.409
G01 X15.061 Y42.041
G01 X28.172 Y5.000
G01 X362.176 Y5.000
G01 X365.893 Y7.136
G01 X434.136 Y52.117
G01 X513.575 Y109.944
G01 X613.559 Y166.358
G01 X710.000 Y206.514
G01 X710.000 Y5.000
G01 X5.000 Y5.000
G01 X5.000 Y78.731
G01 X10.667 Y60.444
G01 X33.177 Y5.000
G01 X343.530 Y5.000
G01 X356.368 Y12.836
G01 X423.497 Y63.902
G01 X510.057 Y121.973
G01 X611.725 Y170.021
G01 X710.000 Y210.477
G01 X710.000 Y5.000
G01 X5.000 Y5.000
G01 X5.000 Y105.605
G01 X18.191 Y74.051
G01 X44.118 Y5.000
G01 X332.419 Y5.000
G01 X355.340 Y22.294
G01 X426.602 Y78.947
G01 X518.434 Y132.591
G01 X615.302 Y174.624
G01 X707.733 Y219.494
G01 X710.000 Y220.767
G01 X710.000 Y5.000
G01 X5.000 Y5.000
G01 X5.000 Y144.560
G01 X35.237 Y80.200
G01 X57.456 Y5.000
G01 X327.170 Y5.000
G01 X361.449 Y35.927
G01 X439.074 Y93.341
G01 X530.453 Y140.197
G01 X618.893 Y181.947
G01 X708.926 Y234.796
G01 X710.000 Y235.389
G01 X710.000 Y5.000
G01 X5.000 Y5.000
G01 X5.000 Y183.696
G01 X15.778 Y162.665
G01 X50.338 Y82.521
G01 X66.595 Y5.451
G01 X66.644 Y5.000
G01 X321.034 Y5.000
G01 X371.399 Y51.338
G01 X453.163 Y103.867
G01 X538.366 Y145.900
G01 X620.112 Y193.149
G01 X710.000 Y250.178
G01 X710.000 Y5.000
G01 X5.000 Y5.000
G01 X5.000 Y217.298
G01 X31.865 Y167.503
G01 X61.082 Y83.675
G01 X73.211 Y13.032
G01 X75.102 Y5.000
G01 X313.536 Y5.000
G01 X316.930 Y8.715
G01 X385.086 Y64.930
G01 X465.272 Y110.470
G01 X541.967 Y153.285
G01 X622.535 Y208.582
G01 X710.000 Y261.509
G01 X710.000 Y5.000
G01 X5.000 Y5.000
G01 X5.000 Y251.939
G01 X45.374 Y168.799
G01 X67.859 Y87.248
G01 X81.742 Y24.664
G01 X89.312 Y5.000
G01 X310.367 Y5.000
G01 X328.247 Y23.977
G01 X399.743 Y74.376
G01 X472.962 Y115.813
G01 X543.816 Y164.900
G01 X628.818 Y225.793
G01 X710.000 Y269.330
G01 X710.000 Y5.000
G01 X5.000 Y5.000
G01 X5.000 Y280.698
G01 X18.723 Y257.994
G01 X54.329 Y169.596
G01 X73.627 Y95.339
G01 X94.412 Y37.477
G01 X108.407 Y5.000
G01 X308.225 Y5.000
G01 X342.978 Y36.794
G01 X411.772 Y80.202
G01 X476.605 Y123.507
G01 X547.539 Y180.520
G01 X638.895 Y241.146
G01 X710.000 Y275.127
G01 X710.000 Y5.000
G01 X5.000 Y5.000
G01 X5.000 Y305.753
G01 X30.580 Y258.235
G01 X59.699 Y173.410
G01 X81.941 Y107.125
G01 X110.551 Y47.879
G01 X126.290 Y5.000
G01 X305.729 Y5.000
G01 X357.985 Y45.291
G01 X419.168 Y85.458
G01 X479.168 Y135.681
G01 X555.392 Y197.268
G01 X649.988 Y252.260
G01 X710.000 Y280.573
G01 X710.000 Y5.000
G01 X5.000 Y5.000
G01 X5.000 Y330.321
G01 X37.798 Y258.679
G01 X64.777 Y181.860
G01 X94.559 Y119.382
G01 X127.011 Y53.972
G01 X139.744 Y5.000
G01 X307.212 Y5.000
G01 X312.313 Y10.140
G01 X369.764 Y50.572
G01 X422.889 Y93.689
G01 X484.235 Y151.524
G01 X566.720 Y211.525
G01 X658.456 Y259.633
G01 X710.000 Y287.595
G01 X710.000 Y5.000
G01 X5.000 Y5.000
G01 X5.000 Y351.252
G01 X5.981 Y349.587
G01 X41.913 Y262.678
G01 X72.976 Y193.547
G01 X110.229 Y128.632
G01 X140.267 Y56.853
G01 X149.087 Y5.000
G01 X312.160 Y5.000
G01 X327.441 Y17.828
G01 X376.807 Y56.006
G01 X426.238 Y106.538
G01 X493.591 Y167.801
G01 X578.368 Y221.365
G01 X662.246 Y266.330
G01 X710.000 Y298.078
G01 X710.000 Y5.000
G01 X5.000 Y5.000
G01 X5.000 Y362.453
G01 X11.552 Y349.686
G01 X46.472 Y271.314
G01 X85.530 Y204.971
G01 X125.508 Y133.491
G01 X148.792 Y59.900
G01 X157.162 Y5.000
G01 X316.250 Y5.000
G01 X338.804 Y22.800
G01 X380.643 Y64.974
G01 X432.661 Y122.618
G01 X505.998 Y181.007
G01 X586.785 Y227.873
G01 X662.290 Y275.943
G01 X710.000 Y311.818
G01 X710.000 Y5.000
G01 X5.000 Y5.000
G01 X5.000 Y373.538
G01 X14.591 Y353.801
G01 X54.656 Y282.642
G01 X100.630 Y212.865
G01 X137.055 Y135.622
G01 X154.105 Y66.515
G01 X166.809 Y16.732
G01 X172.182 Y5.000
G01 X320.065 Y5.000
G01 X345.445 Y28.661
G01 X384.834 Y78.582
G01 X443.415 Y138.412
G01 X517.999 Y189.731
G01 X590.415 Y234.437
G01 X661.914 Y290.165
G01 X710.000 Y325.946
G01 X710.000 Y5.000
G01 X5.000 Y5.000
G01 X5.000 Y387.888
G01 X18.812 Y362.439
G01 X67.129 Y292.970
G01 X114.616 Y216.405
G01 X143.892 Y138.643
G01 X159.781 Y77.826
G01 X180.463 Y30.605
G01 X191.962 Y5.000
G01 X323.534 Y5.000
G01 X349.433 Y38.534
G01 X392.592 Y94.889
G01 X456.702 Y150.623
G01 X526.226 Y195.625
G01 X590.772 Y244.491
G01 X664.613 Y307.627
G01 X710.000 Y337.999
G01 X710.000 Y5.000
G01 X5.000 Y5.000
G01 X5.000 Y405.799
G01 X27.074 Y373.145
G01 X81.562 Y299.330
G01 X124.426 Y217.787
G01 X148.086 Y145.701
G01 X169.053 Y91.895
G01 X196.688 Y40.940
G01 X208.809 Y5.000
G01 X324.647 Y5.000
G01 X354.502 Y52.949
G01 X404.606 Y110.184
G01 X468.844 Y158.401
G01 X529.675 Y202.324
G01 X591.445 Y259.186
G01 X671.694 Y324.786
G01 X710.000 Y347.314
G01 X710.000 Y5.000
G01 X5.000 Y5.000
G01 X5.000 Y425.369
G01 X39.444 Y382.129
G01 X94.170 Y301.490
G01 X129.669 Y220.778
G01 X153.385 Y157.343
G01 X182.629 Y104.996
G01 X211.794 Y46.866
G01 X220.434 Y5.000
G01 X322.602 Y5.000
G01 X328.579 Y15.516
G01 X363.543 Y69.451
G01 X418.549 Y121.467
G01 X476.749 Y163.940
G01 X530.409 Y213.006
G01 X595.701 Y276.592
G01 X681.372 Y338.295
G01 X710.000 Y354.121
G01 X710.000 Y5.000
G01 X5.000 Y5.000
G01 X5.000 Y446.103
G01 X53.120 Y386.807
G01 X102.254 Y302.137
G01 X132.915 Y228.184
G01 X162.702 Y171.115
G01 X198.183 Y114.110
G01 X222.664 Y50.575
G01 X228.009 Y5.000
G01 X322.297 Y5.000
G01 X334.543 Y30.750
G01 X376.645 Y84.225
G01 X430.616 Y128.485
G01 X480.004 Y171.026
G01 X532.198 Y228.241
G01 X604.271 Y292.965
G01 X689.937 Y347.257
G01 X710.000 Y359.329
G01 X710.000 Y5.000
G01 X5.000 Y5.000
G01 X5.000 Y468.318
G01 X64.291 Y387.559
G01 X106.033 Y305.091
G01 X137.990 Y239.946
G01 X176.142 Y183.187
G01 X211.892 Y118.964
G01 X228.868 Y55.869
G01 X234.959 Y11.449
G01 X237.636 Y5.000
G01 X321.553 Y5.000
G01 X344.782 Y47.391
G01 X391.002 Y94.657
G01 X438.078 Y133.924
G01 X481.179 Y182.495
G01 X537.986 Y245.576
G01 X614.835 Y305.253
G01 X694.246 Y353.861
G01 X710.000 Y365.443
G01 X710.000 Y5.000
G01 X5.000 Y5.000
G01 X5.000 Y486.304
G01 X15.671 Y474.154
G01 X70.698 Y387.499
G01 X108.523 Y312.735
G01 X147.407 Y253.146
G01 X190.898 Y190.920
G01 X221.005 Y122.247
G01 X232.975 Y65.607
G01 X245.066 Y27.353
G01 X256.885 Y5.000
G01 X321.254 Y5.000
G01 X324.024 Y13.026
G01 X358.769 Y61.621
G01 X402.779 Y101.106
G01 X441.133 Y141.628
G01 X484.126 Y198.307
G01 X547.901 Y261.158
G01 X623.550 Y313.162
G01 X693.845 Y361.929
G01 X710.000 Y375.985
G01 X710.000 Y5.000
G01 X5.000 Y5.000
G01 X5.000 Y499.412
G01 X25.373 Y473.497
G01 X73.177 Y390.403
G01 X113.533 Y324.393
G01 X160.651 Y263.946
G01 X203.115 Y194.662
G01 X225.704 Y127.819
G01 X238.853 Y79.764
G01 X259.325 Y41.580
G01 X275.565 Y5.000
G01 X323.860 Y5.000
G01 X335.346 Y29.730
G01 X373.285 Y71.284
G01 X409.688 Y106.693
G01 X442.806 Y154.009
G01 X491.387 Y215.541
G01 X559.133 Y272.319
G01 X627.632 Y319.381
G01 X691.306 Y374.351
G01 X710.000 Y391.181
G01 X710.000 Y5.000
G01 X5.000 Y5.000
G01 X5.000 Y509.314
G01 X30.188 Y472.772
G01 X75.121 Y398.159
G01 X123.096 Y336.747
G01 X174.496 Y270.168
G01 X210.482 Y197.538
G01 X229.016 Y138.118
G01 X249.067 Y95.418
G01 X274.923 Y51.439
G01 X288.104 Y5.000
G01 X324.642 Y5.000
G01 X349.992 Y43.389
G01 X384.563 Y77.359
G01 X412.549 Y115.217
G01 X446.929 Y170.406
G01 X502.467 Y230.334
G01 X567.806 Y279.384
G01 X627.249 Y327.794
G01 X690.520 Y391.125
G01 X710.000 Y407.215
G01 X710.000 Y5.000
G01 X5.000 Y5.000
G01 X5.000 Y516.658
G01 X31.558 Y475.606
G01 X80.219 Y409.479
G01 X136.080 Y346.055
G01 X185.157 Y272.781
G01 X213.806 Y203.367
G01 X234.794 Y152.495
G01 X263.135 Y108.684
G01 X287.964 Y57.241
G01 X294.282 Y9.329
G01 X294.070 Y5.000
G01 X329.130 Y5.000
G01 X334.068 Y17.381
G01 X364.404 Y52.374
G01 X390.826 Y83.325
G01 X414.767 Y128.597
G01 X455.567 Y187.495
G01 X514.135 Y240.476
G01 X571.578 Y285.486
G01 X625.430 Y340.870
G01 X694.086 Y409.323
G01 X710.000 Y420.793
G01 X710.000 Y5.000
G01 X5.000 Y5.000
G01 X5.000 Y523.402
G01 X33.175 Y483.337
G01 X89.964 Y420.727
G01 X148.919 Y350.666
G01 X190.833 Y275.273
G01 X216.500 Y214.091
G01 X245.124 Y167.620
G01 X277.819 Y117.331
G01 X296.083 Y62.123
G01 X298.154 Y21.355
G01 X302.075 Y5.000
G01 X333.132 Y5.000
G01 X349.126 Y30.442
G01 X374.986 Y58.265
G01 X393.506 Y92.839
G01 X420.057 Y145.554
G01 X467.604 Y201.503
G01 X522.577 Y246.920
G01 X571.241 Y294.470
G01 X626.056 Y357.978
G01 X701.540 Y425.037
G01 X710.000 Y430.550
G01 X710.000 Y5.000
G01 X5.000 Y5.000
G01 X5.000 Y532.909
G01 X38.508 Y494.084
G01 X102.625 Y428.353
G01 X157.994 Y352.156
G01 X192.946 Y281.323
G01 X222.299 Y228.442
G01 X258.900 Y179.698
G01 X289.285 Y122.301
G01 X300.058 Y69.949
G01 X304.452 Y37.524
G01 X318.186 Y13.453
G01 X321.647 Y5.000
G01 X337.437 Y5.000
G01 X339.612 Y11.112
G01 X363.174 Y38.840
G01 X380.528 Y64.821
G01 X396.307 Y107.265
G01 X429.944 Y162.441
G01 X479.462 Y210.749
G01 X525.964 Y253.165
G01 X570.216 Y308.308
G01 X631.246 Y375.778
G01 X709.640 Y436.006
G01 X710.000 Y436.247
G01 X710.000 Y5.000
G01 X5.000 Y5.000
G01 X5.000 Y546.243
G01 X48.459 Y503.980
G01 X114.378 Y431.286
G01 X162.073 Y354.293
G01 X195.213 Y292.317
G01 X232.750 Y242.761
G01 X272.534 Y187.028
G01 X295.682 Y127.100
G01 X303.317 Y82.714
G01 X315.315 Y54.494
G01 X333.416 Y23.619
G01 X336.560 Y5.000
G01 X343.075 Y5.000
G01 X354.824 Y23.546
G01 X372.880 Y44.733
G01 X383.047 Y75.456
G01 X402.729 Y124.727
G01 X442.704 Y175.674
G01 X487.492 Y216.798
G01 X525.709 Y262.918
G01 X572.272 Y325.744
G01 X639.908 Y390.449
G01 X710.000 Y439.958
G01 X710.000 Y5.000
G01 X5.000 Y5.000
G01 X5.000 Y562.222
G01 X60.729 Y509.766
G01 X121.870 Y431.682
G01 X163.169 Y360.517
G01 X201.154 Y306.386
G01 X246.135 Y253.446
G01 X282.356 Y191.166
G01 X298.410 Y135.458
G01 X309.649 Y99.172
G01 X329.661 Y68.419
G01 X345.409 Y30.040
G01 X344.018 Y5.000
G01 X348.243 Y5.000
G01 X350.511 Y11.519
G01 X368.252 Y31.454
G01 X377.645 Y52.063
G01 X386.458 Y90.931
G01 X413.702 Y141.341
G01 X454.500 Y184.157
G01 X490.436 Y223.433
G01 X525.540 Y277.593
G01 X578.982 Y343.107
G01 X648.445 Y400.260
G01 X710.000 Y446.741
G01 X710.000 Y5.000
G01 X5.000 Y5.000
G01 X5.000 Y579.580
G01 X71.336 Y510.991
G01 X124.483 Y433.497
G01 X165.209 Y371.609
G01 X211.721 Y319.635
G01 X258.605 Y259.378
G01 X287.086 Y195.906
G01 X301.209 Y148.808
G01 X320.647 Y115.641
G01 X343.885 Y77.548
G01 X352.261 Y36.239
G01 X347.100 Y11.502
G01 X348.556 Y5.000
G01 X352.553 Y5.000
G01 X365.610 Y23.300
G01 X376.924 Y37.523
G01 X380.032 Y63.908
G01 X393.948 Y108.812
G01 X426.932 Y153.816
G01 X461.948 Y190.036
G01 X490.300 Y234.123
G01 X529.011 Y295.330
G01 X588.641 Y356.765
G01 X653.157 Y406.756
G01 X710.000 Y459.924
G01 X710.000 Y5.000
G01 X5.000 Y5.000
G01 X5.000 Y594.669
G01 X11.066 Y589.348
G01 X77.283 Y510.345
G01 X124.778 Y439.834
G01 X171.406 Y385.137
G01 X224.621 Y328.747
G01 X266.752 Y262.700
G01 X288.724 Y204.741
G01 X307.655 Y165.296
G01 X334.614 Y128.468
G01 X354.262 Y83.415
G01 X355.353 Y45.996
G01 X353.645 Y29.188
G01 X363.316 Y18.903
G01 X369.914 Y5.000
G01 X359.456 Y5.000
G01 X365.207 Y18.999
G01 X378.178 Y30.813
G01 X380.880 Y45.779
G01 X384.068 Y80.394
G01 X405.818 Y125.077
G01 X438.416 Y161.674
G01 X464.405 Y197.288
G01 X491.031 Y249.674
G01 X537.100 Y312.214
G01 X597.385 Y365.571
G01 X652.739 Y413.746
G01 X706.544 Y475.525
G01 X710.000 Y479.031
G01 X710.000 Y5.000
G01 X5.000 Y5.000
G01 X5.000 Y604.030
G01 X20.485 Y588.871
G01 X78.594 Y511.872
G01 X126.798 Y450.839
G01 X182.076 Y397.065
G01 X235.837 Y333.229
G01 X269.914 Y267.402
G01 X291.230 Y218.497
G01 X318.745 Y180.998
G01 X347.672 Y136.483
G01 X359.465 Y89.840
G01 X358.447 Y60.796
G01 X364.885 Y46.931
G01 X377.754 Y28.995
G01 X378.444 Y8.307
G01 X369.376 Y5.000
G01 X368.275 Y5.000
G01 X367.966 Y18.431
G01 X379.929 Y30.105
G01 X385.687 Y37.215
G01 X383.172 Y58.876
G01 X392.537 Y98.580
G01 X419.251 Y136.812
G01 X445.128 Y167.604
G01 X464.429 Y209.044
G01 X495.872 Y267.659
G01 X547.522 Y324.900
G01 X601.775 Y371.661
G01 X649.183 Y424.753
G01 X706.341 Y493.821
G01 X710.000 Y497.055
G01 X710.000 Y5.000
G01 X5.000 Y5.000
G01 X5.000 Y609.646
G01 X24.956 Y587.255
G01 X78.322 Y518.252
G01 X133.351 Y463.570
G01 X194.402 Y404.458
G01 X242.319 Y335.769
G01 X270.647 Y276.642
G01 X297.869 Y234.749
G01 X332.197 Y192.542
G01 X356.358 Y141.819
G01 X361.480 Y100.370
G01 X365.172 Y78.800
G01 X379.142 Y61.022
G01 X388.326 Y35.756
G01 X381.466 Y18.680
G01 X374.535 Y22.798
G01 X382.099 Y33.744
G01 X391.417 Y37.317
G01 X388.825 Y46.514
G01 X387.834 Y76.292
G01 X405.092 Y114.408
G01 X430.181 Y144.190
G01 X447.069 Y175.670
G01 X466.087 Y225.473
G01 X505.166 Y284.018
G01 X556.239 Y332.867
G01 X601.124 Y379.045
G01 X646.469 Y440.631
G01 X710.000 Y510.348
G01 X710.000 Y5.000
G01 X5.000 Y5.000
G01 X5.000 Y612.943
G01 X25.156 Y588.528
G01 X80.521 Y528.977
G01 X144.103 Y473.952
G01 X204.301 Y407.471
G01 X244.049 Y340.448
G01 X273.034 Y290.605
G01 X309.002 Y249.423
G01 X343.958 Y199.391
G01 X359.967 Y148.498
G01 X364.297 Y115.875
G01 X376.573 Y96.053
G01 X392.511 Y70.245
G01 X393.656 Y43.029
G01 X384.434 Y34.143
G01 X385.523 Y41.093
G01 X396.187 Y44.155
G01 X397.663 Y44.192
G01 X391.064 Y60.862
G01 X397.169 Y94.645
G01 X418.453 Y125.429
G01 X436.023 Y150.376
G01 X447.296 Y188.583
G01 X472.220 Y243.632
G01 X516.096 Y295.785
G01 X560.169 Y338.801
G01 X597.988 Y390.911
G01 X647.895 Y458.958
G01 X710.000 Y517.181
G01 X710.000 Y5.000
G01 X5.000 Y5.000
G01 X5.000 Y617.108
G01 X24.562 Y594.868
G01 X87.517 Y540.662
G01 X155.774 Y479.514
G01 X209.164 Y409.275
G01 X244.088 Y350.003
G01 X279.938 Y306.347
G01 X321.813 Y259.527
G01 X350.921 Y204.227
G01 X361.049 Y159.732
G01 X371.239 Y133.939
G01 X390.378 Y109.129
G01 X401.474 Y76.719
G01 X395.714 Y54.413
G01 X391.030 Y52.874
G01 X399.588 Y55.726
G01 X406.403 Y51.158
G01 X399.999 Y54.612
G01 X396.342 Y79.087
G01 X410.176 Y109.946
G01 X428.598 Y132.470
G01 X437.438 Y159.423
G01 X449.888 Y205.853
G01 X482.515 Y259.418
G01 X524.555 Y303.092
G01 X559.276 Y346.808
G01 X596.471 Y407.468
G01 X653.847 Y475.639
G01 X710.000 Y522.045
G01 X710.000 Y5.000
G01 X5.000 Y5.000
G01 X5.000 Y625.670
G01 X27.132 Y605.115
G01 X98.320 Y549.300
G01 X164.318 Y481.069
G01 X209.636 Y413.942
G01 X246.532 Y363.958
G01 X291.062 Y319.749
G01 X332.175 Y265.178
G01 X353.032 Y211.173
G01 X363.724 Y175.748
G01 X382.709 Y150.450
G01 X402.499 Y117.445
G01 X405.281 Y84.499
G01 X398.522 Y70.828
G01 X402.346 Y70.890
G01 X412.799 Y65.430
G01 X411.321 Y58.623
G01 X402.233 Y70.162
G01 X406.408 Y97.448
G01 X423.193 Y120.283
G01 X433.462 Y139.102
G01 X437.908 Y173.538
G01 X457.203 Y224.089
G01 X493.686 Y270.329
G01 X527.904 Y309.113
G01 X556.620 Y359.653
G01 X599.470 Y425.772
G01 X661.509 Y487.651
G01 X710.000 Y527.838
G01 X710.000 Y5.000
G01 X5.000 Y5.000
G01 X5.000 Y641.005
G01 X32.081 Y619.803
G01 X105.823 Y556.426
G01 X163.336 Y484.913
G01 X204.032 Y425.733
G01 X247.747 Y380.337
G01 X296.285 Y329.170
G01 X329.815 Y269.988
G01 X345.010 Y223.084
G01 X361.892 Y193.371
G01 X386.253 Y161.911
G01 X399.597 Y123.076
G01 X395.840 Y96.146
G01 X394.453 Y89.101
G01 X404.844 Y83.918
G01 X410.137 Y71.512
G01 X401.384 Y69.390
G01 X396.635 Y88.200
G01 X408.309 Y111.229
G01 X421.293 Y126.117
G01 X423.676 Y148.072
G01 X431.214 Y190.133
G01 X458.633 Y237.461
G01 X492.691 Y274.911
G01 X518.549 Y315.125
G01 X548.937 Y373.369
G01 X600.225 Y437.342
G01 X661.220 Y489.804
G01 X710.000 Y536.481
G01 X710.000 Y5.000
G01 X5.000 Y5.000
G01 X5.000 Y659.548
G01 X39.179 Y633.113
G01 X107.998 Y561.829
G01 X156.496 Y493.638
G01 X199.251 Y442.458
G01 X250.200 Y394.314
G01 X295.495 Y334.891
G01 X319.879 Y277.812
G01 X336.080 Y239.468
G01 X360.914 Y208.560
G01 X383.848 Y168.660
G01 X388.206 Y130.547
G01 X384.384 Y112.366
G01 X391.426 Y105.571
G01 X402.217 Y91.848
G01 X398.893 Y78.591
G01 X388.934 Y84.978
G01 X392.760 Y105.296
G01 X406.543 Y119.753
G01 X411.403 Y132.073
G01 X411.337 Y161.893
G01 X427.199 Y206.533
G01 X458.221 Y245.378
G01 X484.725 Y278.508
G01 X506.806 Y325.629
G01 X544.880 Y387.385
G01 X601.023 Y443.167
G01 X655.131 Y489.661
G01 X703.240 Y546.333
G01 X710.000 Y554.156
G01 X710.000 Y5.000
G01 X5.000 Y5.000
G01 X5.000 Y677.240
G01 X45.953 Y641.286
G01 X105.271 Y567.515
G01 X149.961 Y507.469
G01 X199.802 Y459.309
G01 X253.215 Y403.200
G01 X289.841 Y340.084
G01 X309.400 Y290.737
G01 X332.410 Y256.888
G01 X361.376 Y218.828
G01 X376.764 Y174.061
G01 X375.445 Y142.943
G01 X377.964 Y130.480
G01 X390.678 Y117.410
G01 X395.232 Y97.627
G01 X385.488 Y90.258
G01 X381.148 Y103.246
G01 X391.930 Y118.171
G01 X400.855 Y125.376
G01 X398.612 Y142.140
G01 X403.141 Y179.098
G01 X426.894 Y219.241
G01 X454.423 Y249.727
G01 X473.188 Y285.622
G01 X498.552 Y340.128
G01 X545.075 Y398.350
G01 X599.053 Y444.868
G01 X644.885 Y492.352
G01 X694.767 Y556.450
G01 X710.000 Y571.362
G01 X710.000 Y5.000
G01 X5.000 Y5.000
G01 X5.000 Y692.752
G01 X48.752 Y646.409
G01 X99.575 Y577.214
G01 X147.543 Y524.629
G01 X204.077 Y472.398
G01 X252.842 Y408.433
G01 X280.598 Y348.751
G01 X302.436 Y307.655
G01 X333.069 Y271.238
G01 X359.142 Y224.925
G01 X365.582 Y182.275
G01 X365.500 Y159.860
G01 X376.359 Y146.284
G01 X388.004 Y124.658
G01 X383.756 Y105.458
G01 X374.118 Y106.824
G01 X378.519 Y120.013
G01 X389.993 Y126.152
G01 X390.403 Y132.217
G01 X387.003 Y157.333
G01 X400.282 Y195.648
G01 X426.320 Y226.890
G01 X445.710 Y254.423
G01 X461.930 Y297.945
G01 X495.645 Y354.844
G01 X545.831 Y404.247
G01 X592.144 Y446.046
G01 X633.994 Y500.198
G01 X691.483 Y567.661
G01 X710.000 Y582.524
G01 X710.000 Y5.000
G01 X5.000 Y5.000
G01 X5.000 Y704.834
G01 X46.712 Y652.614
G01 X95.002 Y591.963
G01 X150.455 Y541.069
G01 X208.084 Y480.339
G01 X247.528 Y413.941
G01 X271.625 Y362.607
G01 X300.869 Y324.779
G01 X334.358 Y280.476
G01 X352.016 Y230.458
G01 X353.815 Y195.645
G01 X360.867 Y177.880
G01 X376.266 Y157.136
G01 X380.630 Y130.498
G01 X370.855 Y118.242
G01 X367.818 Y125.342
G01 X378.236 Y132.116
G01 X383.676 Y131.909
G01 X377.719 Y143.656
G01 X380.066 Y175.263
G01 X400.524 Y207.951
G01 X421.797 Y231.559
G01 X434.007 Y263.228
G01 X454.796 Y313.712
G01 X496.489 Y365.857
G01 X543.169 Y406.500
G01 X581.557 Y450.736
G01 X626.544 Y512.107
G01 X692.478 Y575.834
G01 X710.000 Y588.015
G01 X710.000 Y5.000
G01 X5.000 Y5.000
G01 X5.000 Y712.908
G01 X42.359 Y663.305
G01 X95.067 Y609.377
G01 X156.466 Y553.174
G01 X208.119 Y485.203
G01 X239.190 Y423.507
G01 X266.790 Y379.895
G01 X303.110 Y338.168
G01 X332.276 Y286.017
G01 X341.248 Y239.481
G01 X345.572 Y213.093
G01 X360.647 Y192.851
G01 X373.502 Y163.755
G01 X369.100 Y139.139
G01 X360.762 Y135.612
G01 X366.405 Y141.567
G01 X376.053 Y139.556
G01 X372.801 Y139.681
G01 X367.036 Y160.045
G01 X378.339 Y191.713
G01 X399.681 Y215.290
G01 X412.434 Y237.396
G01 X423.425 Y277.207
G01 X453.029 Y328.859
G01 X497.078 Y371.752
G01 X535.507 Y409.050
G01 X571.163 Y460.683
G01 X624.448 Y524.284
G01 X694.041 Y578.897
G01 X710.000 Y590.083
G01 X710.000 Y5.000
G01 X5.000 Y5.000
G01 X5.000 Y720.383
G01 X39.941 Y678.858
G01 X100.323 Y625.226
G01 X161.376 Y560.206
G01 X203.270 Y491.152
G01 X231.949 Y438.217
G01 X267.354 Y396.539
G01 X305.143 Y346.384
G01 X325.218 Y291.808
G01 X330.717 Y253.761
G01 X342.787 Y230.812
G01 X361.125 Y202.676
G01 X365.818 Y169.760
G01 X356.940 Y152.976
G01 X356.027 Y154.144
G01 X366.570 Y152.801
G01 X369.142 Y145.521
G01 X360.440 Y152.428
G01 X361.445 Y178.441
G01 X379.015 Y203.464
G01 X394.423 Y220.326
G01 X400.756 Y247.839
G01 X417.510 Y293.979
G01 X454.406 Y339.737
G01 X493.680 Y374.591
G01 X524.752 Y415.711
G01 X564.861 Y474.141
G01 X626.131 Y532.760
G01 X692.145 Y578.251
G01 X710.000 Y593.246
G01 X710.000 Y5.000
G01 X5.000 Y5.000
G01 X5.000 Y732.871
G01 X42.573 Y696.328
G01 X107.967 Y636.269
G01 X161.828 Y564.826
G01 X196.055 Y501.647
G01 X229.377 Y455.698
G01 X271.102 Y408.868
G01 X303.212 Y351.482
G01 X315.082 Y301.688
G01 X324.342 Y271.562
G01 X343.897 Y244.811
G01 X358.248 Y208.743
G01 X354.435 Y179.256
G01 X348.307 Y170.963
G01 X355.782 Y169.636
G01 X364.085 Y159.729
G01 X358.009 Y154.261
G01 X350.864 Y169.818
G01 X360.803 Y194.556
G01 X377.809 Y210.475
G01 X384.532 Y227.339
G01 X391.030 Y263.285
G01 X416.844 Y309.296
G01 X454.708 Y345.582
G01 X485.353 Y378.554
G01 X515.044 Y427.599
G01 X563.942 Y487.021
G01 X627.566 Y536.066
G01 X685.155 Y577.859
G01 X710.000 Y603.211
G01 X710.000 Y5.000
G01 X5.000 Y5.000
G01 X5.000 Y750.882
G01 X50.125 Y711.411
G01 X113.693 Y642.446
G01 X157.585 Y571.328
G01 X190.758 Y517.107
G01 X232.072 Y471.685
G01 X273.801 Y416.097
G01 X296.354 Y357.654
G01 X306.020 Y316.792
G01 X323.439 Y288.781
G01 X344.860 Y253.598
G01 X350.359 Y215.022
G01 X343.251 Y194.064
G01 X345.189 Y189.276
G01 X356.297 Y179.935
G01 X356.643 Y165.983
G01 X346.190 Y168.231
G01 X346.683 Y188.421
G01 X361.796 Y205.635
G01 X371.832 Y215.937
G01 X373.077 Y239.343
G01 X386.405 Y280.793
G01 X418.626 Y319.881
G01 X450.550 Y349.051
G01 X474.614 Y387.135
G01 X509.984 Y442.346
G01 X566.199 Y495.620
G01 X624.963 Y536.249
G01 X674.958 Y581.590
G01 X710.000 Y618.742
G01 X710.000 Y5.000
G01 X5.000 Y5.000
G01 X5.000 Y771.966
G01 X59.281 Y721.331
G01 X114.588 Y646.950
G01 X151.714 Y582.755
G01 X190.551 Y534.591
G01 X237.237 Y482.878
G01 X272.039 Y420.879
G01 X287.080 Y368.418
G01 X301.657 Y334.758
G01 X325.805 Y301.692
G01 X341.866 Y259.210
G01 X339.338 Y225.405
G01 X336.240 Y212.468
G01 X346.046 Y203.870
G01 X353.470 Y186.405
G01 X345.436 Y175.717
G01 X337.892 Y186.412
G01 X347.060 Y203.987
G01 X360.147 Y212.330
G01 X361.558 Y224.147
G01 X364.374 Y256.049
G01 X386.779 Y296.032
G01 X418.531 Y325.652
G01 X441.669 Y354.459
G01 X465.765 Y400.776
G01 X510.201 Y455.668
G01 X567.382 Y499.127
G01 X617.334 Y537.520
G01 X665.722 Y590.609
G01 X710.000 Y632.001
G01 X710.000 Y5.000
G01 X5.000 Y5.000
G01 X5.000 Y794.440
G01 X65.743 Y726.724
G01 X111.107 Y654.098
G01 X148.550 Y598.832
G01 X195.347 Y549.752
G01 X240.528 Y489.177
G01 X265.535 Y427.544
G01 X279.708 Y384.236
G01 X302.640 Y351.287
G01 X327.176 Y309.461
G01 X333.905 Y265.870
G01 X329.362 Y241.077
G01 X334.767 Y230.340
G01 X346.817 Y213.202
G01 X345.590 Y193.036
G01 X334.385 Y190.805
G01 X335.157 Y204.967
G01 X348.251 Y214.308
G01 X353.496 Y218.284
G01 X350.530 Y237.615
G01 X361.088 Y274.016
G01 X388.831 Y306.194
G01 X413.613 Y329.803
G01 X431.133 Y364.880
G01 X462.014 Y416.539
G01 X512.899 Y464.235
G01 X564.048 Y500.190
G01 X607.183 Y543.429
G01 X661.106 Y602.564
G01 X710.000 Y639.578
G01 X710.000 Y5.000
G01 X5.000 Y5.000
G01 X5.000 Y813.977
G01 X11.202 Y808.029
G01 X67.125 Y731.238
G01 X106.798 Y666.427
G01 X150.780 Y616.118
G01 X201.825 Y559.756
G01 X238.974 Y493.775
G01 X257.356 Y439.195
G01 X277.470 Y402.170
G01 X306.177 Y363.023
G01 X324.085 Y314.733
G01 X323.474 Y277.152
G01 X324.114 Y259.689
G01 X336.647 Y243.898
G01 X343.633 Y219.290
G01 X334.514 Y203.774
G01 X327.513 Y209.555
G01 X336.471 Y219.796
G01 X346.103 Y220.721
G01 X343.006 Y227.700
G01 X343.003 Y255.354
G01 X362.416 Y288.951
G01 X388.241 Y311.892
G01 X404.308 Y336.673
G01 X423.302 Y380.063
G01 X463.297 Y430.055
G01 X513.715 Y467.921
G01 X555.890 Y503.164
G01 X598.850 Y554.464
G01 X661.784 Y613.137
G01 X710.000 Y642.691
G01 X710.000 Y5.000
G01 X5.000 Y5.000
G01 X5.000 Y828.132
G01 X18.330 Y812.718
G01 X64.575 Y739.101
G01 X105.933 Y682.962
G01 X157.616 Y630.299
G01 X205.642 Y565.204
G01 X232.994 Y501.033
G01 X251.879 Y455.593
G01 X280.318 Y417.834
G01 X307.886 Y369.821
G01 X316.204 Y321.875
G01 X314.928 Y293.563
G01 X324.288 Y276.910
G01 X337.584 Y252.259
G01 X335.434 Y226.385
G01 X324.450 Y219.854
G01 X326.239 Y227.815
G01 X337.747 Y229.303
G01 X338.851 Y227.236
G01 X332.612 Y242.509
G01 X341.075 Y273.509
G01 X364.602 Y298.587
G01 X382.591 Y316.781
G01 X394.168 Y348.832
G01 X420.898 Y396.563
G01 X466.293 Y438.456
G01 X509.644 Y469.921
G01 X545.976 Y511.180
G01 X595.600 Y567.693
G01 X664.969 Y618.940
G01 X710.000 Y643.888
G01 X710.000 Y5.000
G01 X5.000 Y5.000
G01 X5.000 Y838.929
G01 X20.259 Y817.360
G01 X62.036 Y752.266
G01 X110.635 Y699.845
G01 X165.294 Y639.086
G01 X204.356 Y569.755
G01 X226.143 Y513.545
G01 X251.849 Y473.292
G01 X284.930 Y428.334
G01 X304.739 Y374.877
G01 X306.601 Y334.047
G01 X311.557 Y312.170
G01 X327.099 Y289.323
G01 X334.053 Y258.059
G01 X324.709 Y238.119
G01 X319.134 Y238.942
G01 X328.393 Y241.745
G01 X335.065 Y235.490
G01 X328.331 Y237.852
G01 X326.394 Y261.042
G01 X343.258 Y287.932
G01 X363.440 Y304.233
G01 X373.013 Y325.116
G01 X387.495 Y365.324
G01 X423.152 Y410.039
G01 X466.634 Y442.321
G01 X501.085 Y474.620
G01 X538.707 Y524.026
G01 X597.410 Y578.706
G01 X666.257 Y619.807
G01 X710.000 Y647.039
G01 X710.000 Y5.000
G01 X5.000 Y5.000
G01 X5.000 Y848.011
G01 X18.816 Y825.977
G01 X63.607 Y769.077
G01 X119.424 Y712.904
G01 X169.585 Y643.777
G01 X199.086 Y577.684
G01 X222.743 Y530.368
G01 X256.513 Y487.932
G01 X286.918 Y434.235
G01 X297.115 Y382.593
G01 X299.694 Y351.050
G01 X313.355 Y328.545
G01 X328.126 Y296.744
G01 X325.682 Y265.703
G01 X315.845 Y255.045
G01 X319.310 Y256.673
G01 X329.649 Y250.415
G01 X327.313 Y242.635
G01 X318.775 Y253.858
G01 X325.821 Y279.120
G01 X345.443 Y296.972
G01 X357.111 Y309.921
G01 X363.460 Y338.882
G01 X386.446 Y382.281
G01 X426.295 Y418.168
G01 X461.844 Y445.316
G01 X491.597 Y484.644
G01 X536.863 Y538.255
G01 X600.957 Y584.577
G01 X662.587 Y618.931
G01 X710.000 Y656.970
G01 X710.000 Y5.000
G01 X5.000 Y5.000
G01 X5.000 Y859.765
G01 X18.241 Y839.883
G01 X70.780 Y785.347
G01 X128.181 Y720.467
G01 X168.646 Y648.411
G01 X193.791 Y591.002
G01 X224.973 Y547.628
G01 X262.096 Y497.165
G01 X283.781 Y439.205
G01 X288.579 Y395.620
G01 X298.287 Y369.433
G01 X316.997 Y339.736
G01 X324.282 Y302.364
G01 X315.536 Y278.406
G01 X312.190 Y274.234
G01 X322.199 Y269.573
G01 X326.425 Y256.450
G01 X316.966 Y254.426
G01 X313.978 Y272.933
G01 X328.742 Y292.851
G01 X343.653 Y302.610
G01 X347.429 Y319.704
G01 X358.065 Y356.434
G01 X389.556 Y395.501
G01 X426.071 Y422.232
G01 X453.027 Y451.745
G01 X485.532 Y499.071
G01 X539.712 Y549.476
G01 X601.828 Y585.849
G01 X654.318 Y620.742
G01 X708.904 Y671.718
G01 X710.000 Y672.535
G01 X710.000 Y5.000
G01 X5.000 Y5.000
G01 X5.000 Y877.750
G01 X22.351 Y856.764
G01 X81.409 Y797.160
G01 X132.907 Y724.508
G01 X164.282 Y657.066
G01 X192.624 Y608.074
G01 X231.380 Y561.103
G01 X264.319 Y502.262
G01 X276.608 Y447.570
G01 X283.500 Y413.050
G01 X301.661 Y384.789
G01 X318.051 Y346.272
G01 X315.911 Y310.630
G01 X308.075 Y296.011
G01 X313.782 Y291.220
G01 X323.342 Y277.413
G01 X318.303 Y264.290
G01 X308.447 Y271.463
G01 X314.732 Y290.681
G01 X330.799 Y301.254
G01 X336.727 Y309.153
G01 X338.652 Y334.923
G01 X358.351 Y373.572
G01 X392.696 Y403.281
G01 X420.604 Y426.280
G01 X444.152 Y463.648
G01 X485.101 Y514.020
G01 X543.470 Y555.314
G01 X597.490 Y586.199
G01 X645.018 Y627.926
G01 X707.117 Y683.026
G01 X710.000 Y684.722
G01 X710.000 Y5.000
G01 X5.000 Y5.000
G01 X5.000 Y899.654
G01 X31.958 Y872.212
G01 X91.124 Y803.514
G01 X132.414 Y729.347
G01 X160.759 Y671.105
G01 X197.131 Y624.691
G01 X237.827 Y569.065
G01 X261.282 Y507.278
G01 X269.376 Y461.393
G01 X284.114 Y430.994
G01 X306.031 Y394.712
G01 X313.959 Y351.828
G01 X306.579 Y324.251
G01 X306.162 Y315.063
G01 X317.293 Y302.991
G01 X319.595 Y283.384
G01 X308.343 Y277.209
G01 X305.161 Y290.824
G01 X318.265 Y303.569
G01 X328.353 Y306.942
G01 X327.126 Y320.347
G01 X334.631 Y353.272
G01 X362.183 Y386.346
G01 X391.835 Y407.580
G01 X411.688 Y434.420
G01 X439.404 Y479.407
G01 X488.867 Y525.238
G01 X543.832 Y557.019
G01 X589.015 Y589.979
G01 X639.085 Y639.594
G01 X710.000 Y691.322
G01 X710.000 Y1600.000
G01 X5.000 Y1600.000
G01 X5.000 Y923.023
G01 X44.293 Y882.673
G01 X96.258 Y807.021
G01 X129.157 Y738.754
G01 X161.951 Y688.233
G01 X205.186 Y636.882
G01 X240.256 Y573.466
G01 X254.768 Y516.345
G01 X266.290 Y479.068
G01 X288.996 Y445.178
G01 X307.067 Y400.443
G01 X305.777 Y360.778
G01 X300.707 Y342.353
G01 X309.113 Y331.108
G01 X318.247 Y310.036
G01 X311.259 Y291.976
G01 X301.049 Y295.093
G01 X307.189 Y308.003
G01 X320.081 Y311.324
G01 X320.940 Y314.393
G01 X319.306 Y336.839
G01 X336.206 Y370.324
G01 X365.176 Y393.726
G01 X385.759 Y412.736
G01 X403.605 Y448.047
G01 X440.360 Y494.800
G01 X492.682 Y530.966
G01 X538.869 Y558.660
G01 X580.388 Y599.288
G01 X638.790 Y651.852
G01 X710.000 Y692.073
G01 X710.000 Y1600.000
G01 X5.000 Y1600.000
G01 X5.000 Y947.941
G01 X54.843 Y887.852
G01 X96.327 Y812.171
G01 X127.607 Y753.400
G01 X168.720 Y704.007
G01 X212.389 Y643.593
G01 X237.432 Y578.654
G01 X249.069 Y530.879
G01 X268.952 Y496.361
G01 X293.988 Y453.818
G01 X302.814 Y406.055
G01 X297.497 Y375.245
G01 X300.587 Y361.033
G01 X313.132 Y341.683
G01 X314.026 Y316.042
G01 X301.910 Y305.955
G01 X299.339 Y314.482
G01 X311.203 Y319.930
G01 X316.977 Y317.136
G01 X311.616 Y326.938
G01 X316.732 Y355.715
G01 X340.616 Y382.490
G01 X363.631 Y398.314
G01 X376.915 Y422.548
G01 X400.261 Y464.872
G01 X444.904 Y505.821
G01 X492.460 Y533.144
G01 X530.348 Y564.399
G01 X575.847 Y612.534
G01 X642.722 Y660.396
G01 X710.000 Y691.038
G01 X710.000 Y1600.000
G01 X5.000 Y1600.000
G01 X5.000 Y973.140
G01 X8.859 Y969.050
G01 X60.376 Y890.941
G01 X94.382 Y822.326
G01 X131.250 Y770.372
G01 X178.306 Y714.816
G01 X215.016 Y647.421
G01 X231.794 Y588.455
G01 X248.116 Y548.602
G01 X275.253 Y509.245
G01 X294.980 Y458.844
G01 X295.031 Y415.733
G01 X293.378 Y393.645
G01 X304.823 Y375.966
G01 X313.840 Y347.996
G01 X305.656 Y325.429
G01 X296.013 Y324.482
G01 X302.569 Y330.875
G01 X312.682 Y327.055
G01 X309.215 Y325.535
G01 X304.924 Y344.505
G01 X319.526 Y372.429
G01 X343.328 Y389.449
G01 X357.038 Y404.622
G01 X369.793 Y437.715
G01 X402.548 Y480.437
G01 X448.623 Y511.389
G01 X486.934 Y536.135
G01 X522.577 Y575.684
G01 X577.024 Y625.471
G01 X646.715 Y663.413
G01 X709.339 Y691.641
G01 X710.000 Y692.113
G01 X710.000 Y1600.000
G01 X5.000 Y1600.000
G01 X5.000 Y992.255
G01 X20.124 Y973.105
G01 X61.135 Y896.491
G01 X94.982 Y837.432
G01 X140.229 Y785.111
G01 X186.161 Y720.319
G01 X212.536 Y652.896
G01 X227.845 Y603.587
G01 X252.820 Y565.040
G01 X280.766 Y516.614
G01 X290.682 Y464.630
G01 X288.034 Y430.947
G01 X295.077 Y411.724
G01 X309.237 Y385.310
G01 X309.225 Y354.139
G01 X297.143 Y340.378
G01 X295.919 Y343.643
G01 X306.931 Y341.753
G01 X308.950 Y333.071
G01 X300.373 Y339.349
G01 X303.843 Y363.633
G01 X324.362 Y383.853
G01 X341.079 Y394.388
G01 X348.448 Y416.041
G01 X367.915 Y455.330
G01 X407.715 Y491.095
G01 X447.760 Y514.094
G01 X478.537 Y543.798
G01 X519.519 Y590.246
G01 X581.823 Y634.041
G01 X646.626 Y662.820
G01 X700.676 Y694.385
G01 X710.000 Y701.787
G01 X710.000 Y1600.000
G01 X5.000 Y1600.000
G01 X5.000 Y1009.513
G01 X26.065 Y975.892
G01 X60.701 Y907.355
G01 X101.132 Y854.028
G01 X151.216 Y794.464
G01 X188.995 Y723.704
G01 X207.995 Y663.433
G01 X229.132 Y621.148
G01 X260.434 Y576.522
G01 X281.709 Y521.053
G01 X283.519 Y475.059
G01 X285.810 Y449.436
G01 X300.504 Y425.399
G01 X309.664 Y390.976
G01 X301.020 Y364.351
G01 X292.798 Y359.332
G01 X300.260 Y359.059
G01 X307.997 Y348.292
G01 X300.999 Y342.449
G01 X294.964 Y357.773
G01 X307.765 Y379.777
G01 X326.675 Y390.397
G01 X334.088 Y401.884
G01 X342.444 Y432.543
G01 X371.449 Y470.808
G01 X411.190 Y496.479
G01 X441.757 Y518.483
G01 X471.790 Y556.880
G01 X522.116 Y603.594
G01 X585.803 Y637.109
G01 X641.138 Y663.008
G01 X692.673 Y702.746
G01 X710.000 Y715.143
G01 X710.000 Y1600.000
G01 X5.000 Y1600.000
G01 X5.000 Y1025.673
G01 X27.655 Y981.905
G01 X63.604 Y922.746
G01 X112.238 Y867.549
G01 X159.625 Y798.824
G01 X187.009 Y729.564
G01 X205.995 Y679.024
G01 X235.843 Y636.538
G01 X266.372 Y582.661
G01 X277.505 Y527.125
G01 X278.027 Y490.900
G01 X289.322 Y466.696
G01 X305.206 Y433.511
G01 X304.761 Y397.360
G01 X293.567 Y380.154
G01 X294.333 Y378.015
G01 X304.841 Y368.834
G01 X303.697 Y354.600
G01 X292.848 Y357.425
G01 X295.398 Y376.881
G01 X312.874 Y390.356
G01 X323.730 Y395.760
G01 X325.939 Y414.820
G01 X342.064 Y450.665
G01 X377.070 Y480.963
G01 X409.653 Y499.774
G01 X433.658 Y528.008
G01 X470.275 Y572.484
G01 X527.627 Y612.026
G01 X585.149 Y637.254
G01 X632.667 Y667.892
G01 X689.348 Y714.473
G01 X710.000 Y726.105
G01 X710.000 Y1600.000
G01 X5.000 Y1600.000
G01 X5.000 Y1040.277
G01 X28.920 Y993.405
G01 X72.277 Y938.735
G01 X124.479 Y875.395
G01 X162.695 Y801.896
G01 X183.788 Y740.812
G01 X209.597 Y696.206
G01 X244.651 Y646.544
G01 X267.286 Y586.641
G01 X271.192 Y538.304
G01 X277.812 Y509.258
G01 X295.835 Y478.997
G01 X305.343 Y438.631
G01 X296.937 Y408.403
G01 X290.907 Y399.306
G01 X299.680 Y392.288
G01 X305.441 Y374.854
G01 X295.740 Y364.968
G01 X288.861 Y376.471
G01 X300.338 Y392.243
G01 X314.690 Y396.515
G01 X316.483 Y404.463
G01 X321.192 Y432.429
G01 X346.738 Y465.816
G01 X380.169 Y486.165
G01 X403.280 Y505.597
G01 X428.088 Y542.682
G01 X474.206 Y585.987
G01 X531.448 Y615.128
G01 X579.256 Y639.057
G01 X625.767 Y678.272
G01 X691.696 Y725.047
G01 X710.000 Y732.726
G01 X710.000 Y1600.000
G01 X5.000 Y1600.000
G01 X5.000 Y1054.982
G01 X34.245 Y1008.881
G01 X85.395 Y950.872
G01 X133.352 Y878.694
G01 X161.367 Y808.221
G01 X183.909 Y756.695
G01 X218.249 Y710.368
G01 X250.928 Y651.519
G01 X263.335 Y593.096
G01 X267.412 Y554.625
G01 X283.106 Y525.493
G01 X300.727 Y485.904
G01 X300.286 Y445.355
G01 X290.761 Y424.925
G01 X294.057 Y417.274
G01 X304.357 Y400.940
G01 X300.664 Y381.541
G01 X288.488 Y380.976
G01 X290.806 Y395.292
G01 X305.567 Y401.909
G01 X311.087 Y402.379
G01 X308.967 Y418.801
G01 X322.315 Y450.776
G01 X352.643 Y475.358
G01 X377.951 Y490.120
G01 X395.660 Y516.893
G01 X428.143 Y559.045
G01 X480.260 Y594.143
G01 X530.196 Y616.080
G01 X571.160 Y646.029
G01 X624.079 Y691.258
G01 X696.989 Y730.708
G01 X710.000 Y735.096
G01 X710.000 Y1600.000
G01 X5.000 Y1600.000
G01 X5.000 Y1073.733
G01 X45.418 Y1024.027
G01 X98.734 Y957.182
G01 X136.708 Y881.580
G01 X159.679 Y820.119
G01 X189.865 Y773.275
G01 X228.121 Y718.850
G01 X251.854 Y655.172
G01 X258.106 Y604.997
G01 X269.288 Y572.625
G01 X290.587 Y536.334
G01 X300.589 Y490.596
G01 X293.071 Y457.217
G01 X289.895 Y444.039
G01 X300.292 Y430.269
G01 X304.468 Y406.527
G01 X292.902 Y392.894
G01 X286.041 Y400.400
G01 X296.637 Y409.691
G01 X306.813 Y407.737
G01 X303.747 Y412.292
G01 X305.599 Y437.273
G01 X328.001 Y465.379
G01 X355.248 Y480.403
G01 X371.337 Y497.395
G01 X391.397 Y532.932
G01 X433.295 Y572.459
G01 X483.783 Y597.281
G01 X524.006 Y619.541
G01 X565.525 Y658.230
G01 X627.863 Y702.192
G01 X700.585 Y730.993
G01 X710.000 Y734.445
G01 X710.000 Y1600.000
G01 X5.000 Y1600.000
G01 X5.000 Y1099.524
G01 X7.712 Y1095.363
G01 X60.404 Y1034.629
G01 X107.995 Y959.516
G01 X136.212 Y888.422
G01 X162.067 Y836.107
G01 X200.363 Y786.049
G01 X234.662 Y722.748
G01 X248.333 Y662.092
G01 X256.224 Y621.630
G01 X276.306 Y587.649
G01 X295.582 Y542.093
G01 X295.538 Y497.748
G01 X288.375 Y474.297
G01 X294.621 Y461.068
G01 X304.955 Y437.808
G01 X299.333 Y413.677
G01 X286.752 Y409.780
G01 X289.466 Y418.677
G01 X301.845 Y418.405
G01 X302.624 Y414.176
G01 X297.055 Y427.889
G01 X308.202 Y455.565
G01 X334.018 Y474.229
G01 X352.371 Y485.089
G01 X364.374 Y510.345
G01 X393.020 Y549.768
G01 X439.710 Y580.229
G01 X481.922 Y599.114
G01 X516.469 Y628.517
G01 X565.510 Y672.198
G01 X633.799 Y707.768
G01 X699.045 Y729.079
G01 X710.000 Y734.792
G01 X710.000 Y1600.000
G01 X5.000 Y1600.000
G01 X5.000 Y1129.387
G01 X21.321 Y1109.432
G01 X74.678 Y1039.398
G01 X111.701 Y962.334
G01 X136.259 Y900.880
G01 X170.379 Y851.859
G01 X211.162 Y792.986
G01 X235.664 Y726.208
G01 X244.417 Y674.658
G01 X260.241 Y639.046
G01 X284.629 Y596.975
G01 X295.213 Y546.481
G01 X289.163 Y510.391
G01 X289.383 Y493.132
G01 X301.617 Y472.682
G01 X304.578 Y443.063
G01 X291.980 Y425.985
G01 X285.939 Y429.327
G01 X296.052 Y431.960
G01 X302.474 Y423.974
G01 X295.372 Y425.281
G01 X295.166 Y446.966
G01 X314.754 Y469.425
G01 X336.037 Y479.162
G01 X345.664 Y493.815
G01 X361.530 Y527.500
G01 X399.253 Y562.870
G01 X442.811 Y583.431
G01 X475.563 Y604.258
G01 X512.236 Y642.317
G01 X570.625 Y683.254
G01 X637.192 Y708.275
G01 X692.458 Y729.666
G01 X710.000 Y741.530
G01 X710.000 Y1600.000
G01 X5.000 Y1600.000
G01 X5.000 Y1157.669
G01 X38.002 Y1118.366
G01 X84.261 Y1040.872
G01 X112.216 Y969.717
G01 X141.027 Y916.761
G01 X182.602 Y863.103
G01 X217.909 Y795.909
G01 X232.766 Y733.652
G01 X244.595 Y691.415
G01 X268.897 Y652.692
G01 X289.659 Y601.665
G01 X290.348 Y554.135
G01 X286.137 Y527.849
G01 X295.622 Y509.021
G01 X306.170 Y479.148
G01 X299.234 Y450.750
G01 X287.126 Y443.575
G01 X290.790 Y446.819
G01 X301.108 Y439.717
G01 X297.798 Y431.060
G01 X289.688 Y441.972
G01 X299.200 Y464.934
G01 X320.719 Y477.536
G01 X332.551 Y484.650
G01 X339.534 Y508.273
G01 X364.684 Y544.526
G01 X405.848 Y570.172
G01 X440.356 Y586.220
G01 X468.762 Y615.124
G01 X513.895 Y656.985
G01 X577.031 Y688.640
G01 X635.128 Y707.428
G01 X684.418 Y735.820
G01 X710.000 Y753.124
G01 X710.000 Y1600.000
G01 X5.000 Y1600.000
G01 X5.000 Y1188.556
G01 X53.047 Y1121.612
G01 X88.400 Y1043.726
G01 X114.183 Y982.610
G01 X151.658 Y931.463
G01 X194.188 Y868.500
G01 X219.073 Y799.303
G01 X230.384 Y746.796
G01 X250.771 Y708.020
G01 X277.935 Y660.477
G01 X289.127 Y605.878
G01 X285.048 Y567.494
G01 X289.070 Y546.164
G01 X303.248 Y519.182
G01 X305.340 Y484.182
G01 X292.513 Y463.962
G01 X288.015 Y462.985
G01 X297.988 Y458.864
G01 X301.105 Y445.114
G01 X290.831 Y443.316
G01 X289.354 Y461.387
G01 X306.461 Y477.886
G01 X322.084 Y482.421
G01 X325.914 Y494.804
G01 X338.193 Y526.281
G01 X371.840 Y557.116
G01 X408.421 Y573.483
G01 X434.001 Y593.060
G01 X466.098 Y630.316
G01 X520.273 Y668.020
G01 X580.175 Y689.541
G01 X628.525 Y710.112
G01 X679.676 Y747.216
G01 X710.000 Y763.952
G01 X710.000 Y1600.000
G01 X5.000 Y1600.000
G01 X5.000 Y1204.905
G01 X12.459 Y1195.848
G01 X57.492 Y1117.191
G01 X85.769 Y1047.113
G01 X118.130 Y994.213
G01 X163.231 Y937.662
G01 X199.891 Y867.670
G01 X216.785 Y804.855
G01 X233.496 Y761.405
G01 X262.610 Y718.400
G01 X285.458 Y662.710
G01 X287.951 Y612.794
G01 X287.888 Y583.970
G01 X301.417 Y559.646
G01 X312.865 Y523.589
G01 X305.688 Y491.413
G01 X295.252 Y480.974
G01 X300.627 Y478.345
G01 X309.387 Y464.523
G01 X302.782 Y451.720
G01 X293.051 Y459.733
G01 X301.381 Y477.651
G01 X318.686 Y484.233
G01 X324.284 Y487.960
G01 X326.678 Y510.066
G01 X348.317 Y543.066
G01 X383.488 Y564.236
G01 X409.968 Y578.244
G01 X432.100 Y607.339
G01 X472.795 Y647.899
G01 X529.761 Y676.585
G01 X579.788 Y694.346
G01 X622.876 Y724.023
G01 X681.718 Y766.160
G01 X710.000 Y777.911
G01 X710.000 Y1600.000
G01 X5.000 Y1600.000
G01 X5.000 Y1211.424
G01 X19.825 Y1190.628
G01 X55.263 Y1114.025
G01 X84.274 Y1054.943
G01 X126.782 Y1003.062
G01 X172.513 Y937.654
G01 X199.595 Y867.846
G01 X215.583 Y815.742
G01 X242.353 Y774.728
G01 X273.803 Y722.786
G01 X287.377 Y665.321
G01 X287.338 Y625.455
G01 X296.921 Y600.365
G01 X314.371 Y567.254
G01 X317.045 Y527.503
G01 X305.696 Y504.439
G01 X304.115 Y498.960
G01 X314.776 Y488.001
G01 X315.401 Y468.751
G01 X302.987 Y463.954
G01 X300.951 Y478.125
G01 X315.669 Y488.540
G01 X325.611 Y488.258
G01 X323.841 Y498.809
G01 X332.470 Y528.252
G01 X361.352 Y554.957
G01 X390.097 Y568.187
G01 X407.828 Y587.797
G01 X434.538 Y625.348
G01 X483.122 Y661.139
G01 X534.797 Y681.159
G01 X574.972 Y703.239
G01 X620.887 Y742.328
G01 X688.085 Y781.414
G01 X710.000 Y788.241
G01 X710.000 Y1600.000
G01 X5.000 Y1600.000
G01 X5.000 Y1212.889
G01 X21.469 Y1184.028
G01 X51.245 Y1116.567
G01 X88.223 Y1064.832
G01 X137.524 Y1006.564
G01 X176.329 Y935.319
G01 X196.515 Y873.353
G01 X219.348 Y829.592
G01 X254.123 Y783.152
G01 X279.955 Y723.977
G01 X285.607 Y672.744
G01 X291.083 Y641.908
G01 X309.623 Y612.461
G01 X322.870 Y570.898
G01 X316.753 Y535.580
G01 X309.342 Y521.985
G01 X317.312 Y513.376
G01 X325.199 Y493.044
G01 X316.303 Y476.372
G01 X306.019 Y481.306
G01 X313.737 Y493.775
G01 X327.081 Y494.294
G01 X326.943 Y494.803
G01 X325.340 Y515.215
G01 X343.566 Y544.592
G01 X372.446 Y561.325
G01 X390.791 Y573.694
G01 X406.689 Y603.168
G01 X442.542 Y642.442
G01 X492.493 Y668.606
G01 X533.761 Y686.261
G01 X570.177 Y718.027
G01 X624.554 Y760.654
G01 X694.495 Y790.794
G01 X710.000 Y795.464
G01 X710.000 Y1600.000
G01 X5.000 Y1600.000
G01 X5.000 Y1208.701
G01 X18.164 Y1180.802
G01 X50.220 Y1124.243
G01 X97.245 Y1071.974
G01 X145.537 Y1004.887
G01 X174.639 Y935.474
G01 X195.460 Y884.434
G01 X228.524 Y841.603
G01 X264.031 Y786.025
G01 X280.212 Y726.712
G01 X284.849 Y686.029
G01 X300.435 Y657.496
G01 X321.394 Y618.806
G01 X325.271 Y575.108
G01 X316.446 Y549.649
G01 X318.646 Y539.672
G01 X330.555 Y522.012
G01 X329.510 Y497.660
G01 X316.176 Y489.945
G01 X314.610 Y499.800
G01 X327.558 Y503.780
G01 X332.554 Y498.635
G01 X326.272 Y507.078
G01 X332.147 Y533.721
G01 X356.659 Y555.573
G01 X377.950 Y565.319
G01 X388.567 Y584.531
G01 X410.451 Y621.522
G01 X453.445 Y654.597
G01 X496.779 Y672.790
G01 X528.967 Y696.118
G01 X569.727 Y736.572
G01 X631.929 Y774.587
G01 X696.460 Y796.056
G01 X710.000 Y802.077
G01 X710.000 Y1600.000
G01 X5.000 Y1600.000
G01 X5.000 Y1202.377
G01 X13.998 Y1183.536
G01 X54.945 Y1133.078
G01 X107.485 Y1073.441
G01 X147.733 Y1001.752
G01 X171.034 Y941.359
G01 X199.821 Y897.634
G01 X239.807 Y848.238
G01 X268.402 Y786.494
G01 X277.565 Y734.793
G01 X289.028 Y702.347
G01 X312.735 Y668.172
G01 X328.082 Y621.879
G01 X323.876 Y584.134
G01 X320.470 Y567.584
G01 X331.670 Y553.060
G01 X339.329 Y526.609
G01 X329.260 Y506.430
G01 X319.666 Y508.109
G01 X327.601 Y514.732
G01 X337.665 Y509.093
G01 X332.843 Y506.341
G01 X328.405 Y524.530
G01 X343.914 Y549.496
G01 X366.909 Y561.331
G01 X377.798 Y571.779
G01 X388.258 Y600.964
G01 X419.589 Y638.037
G01 X462.454 Y661.132
G01 X495.096 Y678.449
G01 X525.135 Y711.810
G01 X574.905 Y754.203
G01 X638.403 Y782.643
G01 X692.303 Y801.740
G01 X710.000 Y813.927
G01 X710.000 Y1600.000
G01 X5.000 Y1600.000
G01 X5.000 Y1204.347
G01 X13.636 Y1190.887
G01 X64.276 Y1138.347
G01 X114.174 Y1070.174
G01 X144.850 Y1001.961
G01 X170.339 Y952.439
G01 X209.269 Y908.104
G01 X248.338 Y849.615
G01 X267.149 Y789.415
G01 X276.862 Y748.508
G01 X298.641 Y716.859
G01 X323.174 Y673.229
G01 X328.779 Y626.452
G01 X323.416 Y599.080
G01 X330.132 Y584.701
G01 X343.792 Y560.640
G01 X341.932 Y531.718
G01 X328.924 Y521.240
G01 X328.850 Y526.468
G01 X340.689 Y523.833
G01 X341.612 Y513.911
G01 X332.038 Y520.029
G01 X336.137 Y543.176
G01 X356.783 Y559.576
G01 X371.192 Y565.589
G01 X375.580 Y583.976
G01 X393.289 Y619.542
G01 X430.802 Y649.138
G01 X465.860 Y665.187
G01 X490.428 Y689.416
G01 X526.225 Y730.516
G01 X583.063 Y766.839
G01 X639.788 Y787.291
G01 X684.317 Y812.130
G01 X710.000 Y832.815
G01 X710.000 Y1600.000
G01 X5.000 Y1600.000
G01 X5.000 Y1214.245
G01 X19.183 Y1198.455
G01 X73.904 Y1137.760
G01 X114.840 Y1066.376
G01 X140.982 Y1008.159
G01 X175.375 Y964.732
G01 X219.946 Y912.856
G01 X250.968 Y849.459
G01 X263.862 Y798.087
G01 X281.555 Y764.406
G01 X310.389 Y725.967
G01 X328.016 Y675.807
G01 X326.463 Y636.385
G01 X327.877 Y617.131
G01 X342.790 Y596.894
G01 X350.800 Y564.873
G01 X340.646 Y541.646
G01 X332.906 Y539.990
G01 X341.819 Y540.527
G01 X349.306 Y528.817
G01 X340.919 Y522.867
G01 X334.835 Y538.374
G01 X348.342 Y558.264
G01 X365.960 Y564.875
G01 X370.224 Y573.173
G01 X376.149 Y601.398
G01 X403.356 Y635.389
G01 X439.210 Y654.917
G01 X463.551 Y671.639
G01 X487.647 Y706.007
G01 X532.762 Y747.379
G01 X589.374 Y773.745
G01 X635.150 Y793.319
G01 X677.252 Y828.362
G01 X710.000 Y852.018
G01 X710.000 Y1600.000
G01 X5.000 Y1600.000
G01 X5.000 Y1225.239
G01 X28.739 Y1201.724
G01 X79.237 Y1133.018
G01 X110.988 Y1066.705
G01 X140.846 Y1019.037
G01 X185.032 Y973.464
G01 X227.036 Y912.790
G01 X248.393 Y852.616
G01 X263.412 Y812.016
G01 X291.359 Y777.596
G01 X319.373 Y729.744
G01 X327.130 Y680.799
G01 X326.020 Y652.014
G01 X337.804 Y633.414
G01 X353.602 Y603.404
G01 X351.733 Y570.561
G01 X340.229 Y557.551
G01 X342.568 Y557.969
G01 X353.926 Y548.721
G01 X351.691 Y534.253
G01 X340.079 Y537.908
G01 X343.374 Y556.962
G01 X360.706 Y567.463
G01 X368.937 Y569.602
G01 X368.103 Y586.760
G01 X382.360 Y620.058
G01 X414.601 Y645.480
G01 X441.627 Y659.098
G01 X459.113 Y683.824
G01 X490.240 Y724.775
G01 X541.454 Y758.763
G01 X590.069 Y778.052
G01 X627.459 Y804.623
G01 X675.127 Y847.628
G01 X710.000 Y867.138
G01 X710.000 Y1600.000
G01 X5.000 Y1600.000
G01 X5.000 Y1235.089
G01 X37.648 Y1199.107
G01 X78.491 Y1128.704
G01 X107.121 Y1073.136
G01 X146.608 Y1030.177
G01 X194.990 Y976.281
G01 X228.005 Y912.119
G01 X244.717 Y861.791
G01 X268.680 Y827.216
G01 X302.413 Y785.025
G01 X322.383 Y731.912
G01 X324.100 Y691.566
G01 X330.963 Y669.894
G01 X349.908 Y644.267
G01 X358.771 Y607.360
G01 X349.557 Y581.622
G01 X344.727 Y576.633
G01 X355.285 Y571.011
G01 X360.901 Y553.488
G01 X350.105 Y544.507
G01 X343.554 Y556.956
G01 X355.771 Y571.245
G01 X368.606 Y572.458
G01 X367.203 Y578.442
G01 X369.577 Y605.059
G01 X393.124 Y635.153
G01 X422.180 Y650.692
G01 X438.729 Y666.552
G01 X457.446 Y701.270
G01 X497.947 Y740.803
G01 X547.378 Y764.714
G01 X584.989 Y784.677
G01 X621.625 Y821.567
G01 X678.520 Y865.037
G01 X710.000 Y878.082
G01 X710.000 Y1600.000
G01 X5.000 Y1600.000
G01 X5.000 Y1243.295
G01 X41.615 Y1193.037
G01 X73.914 Y1129.210
G01 X107.721 Y1083.604
G01 X156.395 Y1037.008
G01 X200.603 Y974.857
G01 X224.327 Y915.552
G01 X244.709 Y875.709
G01 X278.594 Y838.861
G01 X309.853 Y787.555
G01 X320.074 Y737.364
G01 X323.843 Y707.656
G01 X341.052 Y685.090
G01 X359.249 Y649.717
G01 X358.117 Y613.693
G01 X349.194 Y598.443
G01 X354.738 Y593.985
G01 X366.184 Y578.306
G01 X361.730 Y559.660
G01 X349.333 Y560.792
G01 X352.760 Y575.276
G01 X367.358 Y579.597
G01 X370.224 Y577.837
G01 X365.269 Y593.401
G01 X376.845 Y623.643
G01 X404.115 Y644.293
G01 X423.525 Y655.242
G01 X434.621 Y680.019
G01 X461.465 Y719.987
G01 X506.908 Y751.003
G01 X547.292 Y768.957
G01 X577.719 Y797.017
G01 X621.196 Y840.711
G01 X684.147 Y876.894
G01 X710.000 Y885.975
G01 X710.000 Y1600.000
G01 X5.000 Y1600.000
G01 X5.000 Y1247.941
G01 X39.602 Y1188.360
G01 X70.303 Y1135.775
G01 X114.232 Y1093.366
G01 X165.530 Y1037.884
G01 X200.028 Y973.790
G01 X220.521 Y925.124
G01 X250.593 Y889.938
G01 X288.822 Y844.537
G01 X311.086 Y789.408
G01 X316.556 Y748.866
G01 X329.301 Y725.077
G01 X352.425 Y694.488
G01 X362.555 Y653.486
G01 X355.223 Y625.826
G01 X354.220 Y617.585
G01 X366.979 Y605.884
G01 X371.409 Y582.969
G01 X359.364 Y571.217
G01 X353.480 Y580.322
G01 X365.093 Y588.644
G01 X373.806 Y584.439
G01 X367.796 Y588.025
G01 X367.651 Y612.429
G01 X388.052 Y637.906
G01 X410.657 Y649.131
G01 X420.091 Y663.869
G01 X434.104 Y698.243
G01 X470.122 Y735.122
G01 X512.233 Y756.213
G01 X541.825 Y776.408
G01 X573.201 Y814.644
G01 X625.961 Y857.094
G01 X687.047 Y883.198
G01 X710.000 Y893.461
G01 X710.000 Y1600.000
G01 X5.000 Y1600.000
G01 X5.000 Y1244.768
G01 X34.553 Y1189.086
G01 X71.789 Y1145.625
G01 X124.056 Y1098.174
G01 X169.659 Y1035.217
G01 X195.490 Y977.530
G01 X221.128 Y938.795
G01 X260.527 Y899.850
G01 X294.664 Y845.885
G01 X307.551 Y795.346
G01 X316.650 Y765.178
G01 X339.442 Y738.955
G01 X360.171 Y698.909
G01 X360.439 Y660.510
G01 X355.048 Y643.350
G01 X364.439 Y634.069
G01 X376.471 Y612.308
G01 X370.728 Y589.971
G01 X358.763 Y588.596
G01 X363.196 Y598.158
G01 X375.648 Y596.195
G01 X374.047 Y590.630
G01 X366.135 Y604.289
G01 X375.826 Y630.765
G01 X398.509 Y646.168
G01 X410.873 Y654.276
G01 X416.408 Y678.639
G01 X439.437 Y716.782
G01 X479.078 Y744.225
G01 X511.293 Y760.660
G01 X535.095 Y789.869
G01 X574.416 Y833.564
G01 X632.057 Y867.568
G01 X683.914 Y887.670
G01 X710.000 Y906.729
G01 X710.000 Y1600.000
G01 X5.000 Y1600.000
G01 X5.000 Y1236.106
G01 X31.442 Y1195.676
G01 X79.043 Y1153.807
G01 X132.274 Y1097.144
G01 X167.690 Y1033.880
G01 X191.813 Y987.372
G01 X227.647 Y951.797
G01 X269.812 Y903.739
G01 X294.218 Y847.522
G01 X303.785 Y807.460
G01 X322.640 Y781.852
G01 X349.921 Y746.813
G01 X361.634 Y702.582
G01 X357.017 Y673.619
G01 X360.597 Y662.268
G01 X375.987 Y644.720
G01 X379.880 Y616.978
G01 X367.720 Y602.796
G01 X363.562 Y608.364
G01 X375.209 Y610.516
G01 X380.507 Y601.034
G01 X371.018 Y602.211
G01 X369.406 Y623.863
G01 X387.207 Y644.127
G01 X403.830 Y650.825
G01 X406.975 Y664.208
G01 X417.049 Y697.528
G01 X448.796 Y730.977
G01 X483.602 Y748.917
G01 X505.509 Y769.136
G01 X531.951 Y808.120
G01 X580.352 Y848.874
G01 X634.549 Y872.930
G01 X675.339 Y895.273
G01 X710.000 Y928.845
G01 X710.000 Y1600.000
G01 X5.000 Y1600.000
G01 X5.000 Y1234.564
G01 X33.931 Y1204.702
G01 X88.798 Y1156.513
G01 X134.942 Y1093.376
G01 X162.553 Y1037.941
G01 X193.187 Y1000.558
G01 X237.503 Y959.824
G01 X274.036 Y903.995
G01 X289.686 Y853.955
G01 X304.384 Y823.739
G01 X332.716 Y794.206
G01 X355.984 Y750.259
G01 X358.219 Y710.322
G01 X357.162 Y691.607
G01 X370.877 Y677.657
G01 X383.908 Y650.316
G01 X377.777 Y624.874
G01 X367.390 Y621.079
G01 X373.615 Y625.501
G01 X384.500 Y617.324
G01 X379.390 Y608.167
G01 X369.713 Y619.670
G01 X378.312 Y641.773
G01 X396.859 Y651.595
G01 X402.889 Y656.766
G01 X403.802 Y680.254
G01 X423.548 Y715.753
G01 X457.469 Y739.087
G01 X481.761 Y753.825
G01 X499.429 Y783.765
G01 X534.713 Y826.707
G01 X586.661 Y858.064
G01 X630.745 Y877.417
G01 X665.443 Y908.874
G01 X710.000 Y950.306
G01 X710.000 Y1600.000
G01 X5.000 Y1600.000
G01 X5.000 Y1241.435
G01 X41.892 Y1211.131
G01 X96.017 Y1153.655
G01 X131.758 Y1091.895
G01 X159.256 Y1047.914
G01 X200.338 Y1012.102
G01 X245.744 Y961.935
G01 X272.051 Y905.519
G01 X285.916 Y866.534
G01 X310.906 Y839.391
G01 X342.156 Y800.475
G01 X355.672 Y753.929
G01 X354.480 Y724.280
G01 X363.219 Y710.013
G01 X381.532 Y686.980
G01 X385.483 Y655.097
G01 X374.283 Y638.890
G01 X372.805 Y640.821
G01 X385.056 Y636.767
G01 X387.671 Y622.301
G01 X375.870 Y621.141
G01 X373.830 Y639.581
G01 X389.591 Y654.173
G01 X400.804 Y656.261
G01 X398.610 Y668.091
G01 X405.579 Y699.665
G01 X433.339 Y728.971
G01 X461.012 Y743.488
G01 X475.740 Y763.489
G01 X497.680 Y802.553
G01 X541.589 Y840.915
G01 X588.559 Y862.723
G01 X622.033 Y885.870
G01 X659.128 Y927.288
G01 X710.000 Y964.800
G01 X710.000 Y1600.000
G01 X5.000 Y1600.000
G01 X5.000 Y1251.933
G01 X51.460 Y1211.699
G01 X97.274 Y1148.951
G01 X126.293 Y1096.278
G01 X161.525 Y1060.379
G01 X210.009 Y1018.133
G01 X248.367 Y961.215
G01 X266.773 Y912.439
G01 X287.160 Y882.520
G01 X320.797 Y850.048
G01 X346.491 Y803.024
G01 X351.159 Y762.386
G01 X355.069 Y742.473
G01 X373.408 Y724.100
G01 X387.756 Y691.809
G01 X382.084 Y663.926
G01 X374.321 Y657.855
G01 X383.009 Y657.050
G01 X392.881 Y642.902
G01 X385.251 Y630.474
G01 X374.995 Y639.638
G01 X383.270 Y656.883
G01 X398.184 Y660.944
G01 X398.710 Y663.169
G01 X396.021 Y685.342
G01 X413.063 Y717.432
G01 X441.456 Y736.210
G01 X458.246 Y749.095
G01 X470.406 Y779.291
G01 X501.856 Y820.694
G01 X547.847 Y848.945
G01 X584.054 Y867.496
G01 X612.976 Y900.477
G01 X658.776 Y946.048
G01 X710.000 Y973.891
G01 X710.000 Y1600.000
G01 X5.000 Y1600.000
G01 X5.000 Y1263.634
G01 X57.611 Y1207.128
G01 X93.080 Y1147.450
G01 X123.612 Y1106.227
G01 X169.279 Y1070.258
G01 X217.124 Y1018.512
G01 X245.018 Y962.727
G01 X263.244 Y925.319
G01 X294.196 Y896.892
G01 X329.075 Y854.716
G01 X344.517 Y806.780
G01 X347.319 Y777.038
G01 X361.602 Y760.084
G01 X382.987 Y732.044
G01 X387.527 Y696.800
G01 X378.277 Y679.017
G01 X380.298 Y677.297
G01 X393.639 Y667.165
G01 X394.311 Y648.150
G01 X381.367 Y644.796
G01 X379.896 Y659.655
G01 X394.169 Y668.275
G01 X400.633 Y665.800
G01 X394.146 Y675.928
G01 X398.884 Y705.101
G01 X423.003 Y729.650
G01 X443.861 Y740.546
G01 X452.077 Y760.070
G01 X470.042 Y798.501
G01 X509.414 Y833.786
G01 X548.986 Y853.148
G01 X575.305 Y876.980
G01 X608.259 Y919.273
G01 X662.627 Y960.385
G01 X710.000 Y980.408
G01 X710.000 Y1600.000
G01 X5.000 Y1600.000
G01 X5.000 Y1270.400
G01 X12.908 Y1263.520
G01 X57.536 Y1201.670
G01 X87.561 Y1152.136
G01 X126.872 Y1117.742
G01 X178.655 Y1074.226
G01 X218.197 Y1016.954
G01 X239.263 Y970.108
G01 X265.253 Y940.749
G01 X303.781 Y905.718
G01 X331.676 Y856.464
G01 X339.133 Y815.933
G01 X348.465 Y795.162
G01 X371.547 Y772.688
G01 X387.430 Y736.183
G01 X382.994 Y706.570
G01 X378.771 Y698.414
G01 X390.465 Y692.423
G01 X399.834 Y672.706
G01 X390.679 Y657.427
G01 X380.989 Y664.138
G01 X389.657 Y676.171
G01 X401.476 Y674.453
G01 X397.421 Y673.813
G01 X392.203 Y694.267
G01 X407.146 Y722.268
G01 X430.304 Y736.150
G01 X440.172 Y747.061
G01 X447.568 Y777.007
G01 X475.461 Y816.081
G01 X515.359 Y840.801
G01 X543.770 Y858.468
G01 X567.203 Y892.615
G01 X609.535 Y937.428
G01 X665.930 Y968.442
G01 X710.000 Y988.341
G01 X710.000 Y1600.000
G01 X5.000 Y1600.000
G01 X5.000 Y1271.648
G01 X17.939 Y1257.388
G01 X52.554 Y1200.266
G01 X85.710 Y1161.897
G01 X135.175 Y1125.784
G01 X184.582 Y1072.960
G01 X213.691 Y1018.552
G01 X236.211 Y983.108
G01 X272.767 Y953.608
G01 X310.799 Y908.808
G01 X328.196 Y860.391
G01 X335.415 Y831.098
G01 X355.429 Y811.707
G01 X379.894 Y779.232
G01 X385.475 Y741.472
G01 X379.057 Y722.585
G01 X385.243 Y717.280
G01 X400.062 Y701.349
G01 X399.514 Y678.344
G01 X386.569 Y673.007
G01 X386.588 Y684.013
G01 X399.905 Y686.525
G01 X402.347 Y679.667
G01 X392.679 Y687.999
G01 X396.073 Y714.181
G01 X416.945 Y733.476
G01 X431.442 Y740.642
G01 X433.950 Y759.427
G01 X448.544 Y796.500
G01 X483.425 Y828.062
G01 X515.590 Y844.802
G01 X535.088 Y869.129
G01 X564.094 Y911.692
G01 X614.284 Y950.482
G01 X664.126 Y972.544
G01 X699.592 Y998.440
G01 X710.000 Y1009.726
G01 X710.000 Y1600.000
G01 X5.000 Y1600.000
G01 X5.000 Y1267.884
G01 X16.635 Y1251.369
G01 X47.252 Y1205.218
G01 X90.024 Y1172.245
G01 X144.143 Y1127.666
G01 X184.189 Y1070.719
G01 X207.739 Y1026.350
G01 X239.080 Y997.724
G01 X281.925 Y960.508
G01 X311.702 Y909.872
G01 X322.193 Y870.196
G01 X337.216 Y848.875
G01 X364.980 Y822.679
G01 X382.516 Y782.771
G01 X380.003 Y752.162
G01 X380.087 Y742.144
G01 X395.182 Y731.129
G01 X404.503 Y706.387
G01 X394.797 Y688.755
G01 X386.744 Y692.966
G01 X396.448 Y699.575
G01 X405.728 Y692.221
G01 X398.082 Y688.886
G01 X391.428 Y707.269
G01 X404.884 Y730.603
G01 X423.186 Y739.379
G01 X426.856 Y748.243
G01 X430.329 Y777.419
G01 X455.002 Y813.405
G01 X488.799 Y834.224
G01 X509.675 Y850.907
G01 X528.038 Y885.776
G01 X566.845 Y929.140
G01 X617.482 Y957.352
G01 X655.922 Y977.662
G01 X688.227 Y1013.987
G01 X710.000 Y1034.380
G01 X710.000 Y1600.000
G01 X5.000 Y1600.000
G01 X5.000 Y1260.122
G01 X11.103 Y1250.165
G01 X46.418 Y1214.618
G01 X98.798 Y1178.313
G01 X148.842 Y1124.879
G01 X178.759 Y1072.492
G01 X205.383 Y1039.277
G01 X247.016 Y1008.869
G01 X287.612 Y962.082
G01 X306.909 Y914.046
G01 X318.817 Y885.675
G01 X344.552 Y864.103
G01 X371.966 Y827.835
G01 X378.958 Y788.439
G01 X376.126 Y768.920
G01 X386.973 Y760.163
G01 X403.550 Y738.851
G01 X402.471 Y712.521
G01 X390.609 Y705.462
G01 X392.941 Y712.444
G01 X405.789 Y708.878
G01 X404.982 Y697.947
G01 X393.276 Y704.446
G01 X396.201 Y727.125
G01 X414.253 Y740.806
G01 X422.962 Y744.234
G01 X420.682 Y762.032
G01 X432.565 Y797.034
G01 X463.082 Y824.296
G01 X487.999 Y838.275
G01 X501.168 Y862.850
G01 X526.508 Y905.014
G01 X572.232 Y940.930
G01 X614.969 Y961.085
G01 X644.191 Y988.081
G01 X681.877 Y1032.999
G01 X710.000 Y1052.883
G01 X710.000 Y1600.000
G01 X5.000 Y1600.000
G01 X5.000 Y1257.095
G01 X6.276 Y1255.329
G01 X51.811 Y1223.600
G01 X107.245 Y1178.132
G01 X147.100 Y1122.120
G01 X172.891 Y1080.644
G01 X209.182 Y1052.834
G01 X255.633 Y1013.792
G01 X286.893 Y962.593
G01 X300.554 Y924.438
G01 X321.352 Y902.825
G01 X353.565 Y873.328
G01 X372.774 Y830.879
G01 X372.769 Y799.998
G01 X377.757 Y788.356
G01 X396.496 Y772.584
G01 X406.158 Y743.486
G01 X396.827 Y724.058
G01 X391.381 Y725.785
G01 X402.672 Y726.896
G01 X409.969 Y714.210
G01 X399.761 Y708.433
G01 X392.750 Y724.452
G01 X405.315 Y742.666
G01 X419.217 Y746.261
G01 X417.533 Y753.061
G01 X417.990 Y780.959
G01 X439.829 Y813.155
G01 X467.642 Y829.780
G01 X481.418 Y845.373
G01 X495.244 Y880.456
G01 X530.544 Y921.662
G01 X575.084 Y946.791
G01 X606.258 Y966.834
G01 X634.064 Y1004.501
G01 X681.465 Y1050.378
G01 X710.000 Y1065.216
G01 X710.000 Y1600.000
G01 X5.000 Y1600.000
G01 X5.000 Y1265.622
G01 X6.609 Y1264.191
G01 X60.955 Y1227.596
G01 X110.697 Y1173.979
G01 X140.997 Y1124.148
G01 X171.430 Y1093.298
G01 X217.467 Y1062.097
G01 X259.944 Y1013.947
G01 X281.012 Y967.081
G01 X297.730 Y940.015
G01 X328.987 Y916.511
G01 X359.093 Y877.141
G01 X367.778 Y836.992
G01 X369.142 Y817.292
G01 X384.964 Y805.271
G01 X403.467 Y779.115
G01 X402.499 Y750.201
G01 X392.716 Y741.722
G01 X398.058 Y744.609
G01 X410.872 Y735.155
G01 X407.610 Y720.578
G01 X395.010 Y725.264
G01 X398.298 Y744.024
G01 X413.973 Y751.886
G01 X417.570 Y751.671
G01 X411.508 Y768.256
G01 X421.375 Y800.517
G01 X447.730 Y822.994
G01 X465.714 Y834.122
G01 X473.192 Y858.663
G01 X495.225 Y899.720
G01 X536.292 Y932.227
G01 X571.752 Y950.424
G01 X594.898 Y978.399
G01 X629.493 Y1023.539
G01 X683.782 Y1062.029
G01 X710.000 Y1073.587
G01 X710.000 Y1600.000
G01 X5.000 Y1600.000
G01 X5.000 Y1276.846
G01 X13.072 Y1271.627
G01 X68.771 Y1225.418
G01 X107.751 Y1170.877
G01 X135.489 Y1132.572
G01 X176.196 Y1105.566
G01 X225.432 Y1065.036
G01 X257.717 Y1014.046
G01 X274.583 Y977.973
G01 X301.059 Y956.268
G01 X337.327 Y923.918
G01 X358.139 Y879.806
G01 X361.114 Y849.343
G01 X371.426 Y836.316
G01 X393.892 Y816.146
G01 X404.211 Y783.453
G01 X396.112 Y762.823
G01 X394.114 Y762.134
G01 X407.434 Y757.814
G01 X413.290 Y740.243
G01 X401.555 Y732.352
G01 X395.222 Y745.781
G01 X407.460 Y758.559
G01 X417.474 Y757.045
G01 X411.375 Y761.823
G01 X409.764 Y787.960
G01 X429.190 Y815.751
G01 X451.253 Y827.985
G01 X458.519 Y842.390
G01 X468.443 Y877.137
G01 X500.324 Y915.480
G01 X538.564 Y937.275
G01 X562.583 Y957.032
G01 X586.105 Y995.650
G01 X630.574 Y1039.973
G01 X683.620 Y1067.632
G01 X710.000 Y1082.696
G01 X710.000 Y1600.000
G01 X5.000 Y1600.000
G01 X5.000 Y1285.180
G01 X22.464 Y1273.494
G01 X70.982 Y1220.083
G01 X101.240 Y1173.222
G01 X135.093 Y1144.748
G01 X184.739 Y1112.820
G01 X228.353 Y1063.901
G01 X251.001 Y1018.902
G01 X272.506 Y993.422
G01 X308.907 Y968.219
G01 X341.334 Y926.462
G01 X351.909 Y886.414
G01 X357.924 Y866.942
G01 X378.851 Y851.890
G01 X399.335 Y821.524
G01 X399.053 Y790.819
G01 X392.233 Y781.242
G01 X401.140 Y780.056
G01 X414.285 Y765.055
G01 X409.365 Y747.364
G01 X396.983 Y750.311
G01 X401.398 Y764.840
G01 X415.141 Y766.832
G01 X414.383 Y763.175
G01 X405.602 Y778.361
G01 X414.157 Y807.271
G01 X436.619 Y824.595
G01 X448.130 Y832.845
G01 X450.679 Y857.046
G01 X469.830 Y896.277
G01 X506.144 Y924.885
G01 X534.327 Y941.073
G01 X551.718 Y969.825
G01 X583.265 Y1014.587
G01 X633.458 Y1050.249
G01 X677.268 Y1070.881
G01 X707.461 Y1100.818
G01 X710.000 Y1103.788
G01 X710.000 Y1600.000
G01 X5.000 Y1600.000
G01 X5.000 Y1290.353
G01 X29.544 Y1269.427
G01 X67.001 Y1216.810
G01 X96.355 Y1181.820
G01 X140.833 Y1155.519
G01 X191.952 Y1113.813
G01 X224.767 Y1063.736
G01 X244.776 Y1030.188
G01 X276.662 Y1008.521
G01 X316.452 Y973.776
G01 X338.715 Y928.870
G01 X345.027 Y899.455
G01 X360.894 Y885.269
G01 X387.017 Y861.133
G01 X398.230 Y825.675
G01 X392.133 Y804.449
G01 X394.274 Y801.458
G01 X409.944 Y791.902
G01 X414.871 Y770.022
G01 X402.627 Y760.405
G01 X397.931 Y771.087
G01 X410.349 Y778.257
G01 X417.032 Y771.847
G01 X407.521 Y774.709
G01 X404.803 Y798.650
G01 X422.251 Y821.527
G01 X438.905 Y829.279
G01 X440.393 Y842.419
G01 X447.126 Y876.262
G01 X475.739 Y911.075
G01 X507.619 Y929.330
G01 X524.766 Y948.741
G01 X544.324 Y987.835
G01 X585.635 Y1030.001
G01 X632.913 Y1054.886
G01 X665.026 Y1077.022
G01 X695.359 Y1117.724
G01 X710.000 Y1131.278
G01 X710.000 Y1600.000
G01 X5.000 Y1600.000
G01 X5.000 Y1292.201
G01 X30.543 Y1263.114
G01 X60.354 Y1219.520
G01 X97.160 Y1193.312
G01 X149.527 Y1160.679
G01 X193.497 Y1111.545
G01 X217.488 Y1069.000
G01 X243.618 Y1045.277
G01 X284.627 Y1018.583
G01 X318.910 Y975.158
G01 X331.486 Y936.010
G01 X342.450 Y917.115
G01 X368.426 Y899.292
G01 X390.835 Y865.424
G01 X391.745 Y833.740
G01 X388.638 Y823.392
G01 X401.509 Y818.240
G01 X415.273 Y798.173
G01 X409.470 Y777.980
G01 X398.353 Y779.308
G01 X404.570 Y789.404
G01 X416.813 Y785.636
G01 X412.513 Y778.841
G01 X402.100 Y792.479
G01 X410.036 Y817.516
G01 X428.926 Y829.446
G01 X434.554 Y834.862
G01 X433.037 Y858.412
G01 X449.777 Y895.117
G01 X481.341 Y919.403
G01 X502.418 Y933.548
G01 X514.513 Y962.804
G01 X543.128 Y1006.536
G01 X588.815 Y1038.976
G01 X625.843 Y1058.155
G01 X651.036 Y1089.330
G01 X689.260 Y1136.336
G01 X710.000 Y1150.348
G01 X710.000 Y1600.000
G01 X5.000 Y1600.000
G01 X5.000 Y1289.336
G01 X25.716 Y1259.842
G01 X56.332 Y1228.176
G01 X103.847 Y1202.407
G01 X155.897 Y1159.808
G01 X188.733 Y1111.267
G01 X211.738 Y1080.554
G01 X248.610 Y1058.986
G01 X291.268 Y1022.301
G01 X314.762 Y977.435
G01 X324.651 Y949.614
G01 X346.120 Y934.466
G01 X375.681 Y906.855
G01 X387.948 Y869.502
G01 X384.515 Y848.271
G01 X391.321 Y843.122
G01 X409.534 Y828.645
G01 X414.004 Y803.139
G01 X402.221 Y792.227
G01 X400.018 Y800.074
G01 X413.055 Y801.612
G01 X416.986 Y790.656
G01 X405.108 Y791.767
G01 X402.220 Y813.134
G01 X418.129 Y830.715
G01 X429.809 Y834.012
G01 X426.365 Y845.836
G01 X430.671 Y878.212
G01 X456.224 Y908.892
G01 X481.820 Y923.463
G01 X492.542 Y942.440
G01 X508.554 Y981.468
G01 X546.551 Y1020.869
G01 X587.685 Y1042.869
G01 X613.392 Y1065.226
G01 X640.514 Y1106.880
G01 X688.466 Y1151.397
G01 X710.000 Y1162.331
G01 X710.000 Y1600.000
G01 X5.000 Y1600.000
G01 X5.000 Y1282.609
G01 X19.202 Y1262.940
G01 X58.438 Y1238.784
G01 X112.573 Y1205.430
G01 X156.110 Y1156.587
G01 X181.174 Y1116.961
G01 X211.645 Y1095.052
G01 X256.586 Y1067.045
G01 X292.186 Y1022.654
G01 X306.799 Y985.125
G01 X322.846 Y967.081
G01 X353.641 Y946.763
G01 X377.819 Y910.150
G01 X380.342 Y878.292
G01 X381.551 Y867.487
G01 X398.618 Y858.551
G01 X413.207 Y834.013
G01 X407.259 Y811.991
G01 X398.362 Y811.856
G01 X406.943 Y817.427
G01 X418.090 Y808.164
G01 X411.098 Y798.627
G01 X400.130 Y810.616
G01 X408.104 Y831.356
G01 X423.784 Y837.793
G01 X424.229 Y840.497
G01 X419.581 Y863.091
G01 X434.414 Y896.617
G01 X461.320 Y916.244
G01 X475.621 Y928.337
G01 X483.008 Y957.772
G01 X508.872 Y999.795
G01 X549.748 Y1028.642
G01 X579.853 Y1046.427
G01 X600.204 Y1078.690
G01 X636.252 Y1125.139
G01 X688.572 Y1159.928
G01 X710.000 Y1170.528
G01 X710.000 Y1600.000
G01 X5.000 Y1600.000
G01 X5.000 Y1281.689
G01 X16.258 Y1271.523
G01 X66.012 Y1246.050
G01 X118.022 Y1202.817
G01 X150.374 Y1156.343
G01 X176.155 Y1128.643
G01 X217.453 Y1107.162
G01 X262.233 Y1068.979
G01 X286.686 Y1024.927
G01 X300.274 Y999.144
G01 X327.212 Y983.198
G01 X359.854 Y952.639
G01 X373.260 Y914.268
G01 X373.040 Y893.586
G01 X384.859 Y886.443
G01 X405.678 Y867.462
G01 X410.108 Y839.095
G01 X399.688 Y827.344
G01 X400.708 Y832.332
G01 X414.718 Y828.358
G01 X416.486 Y813.333
G01 X403.288 Y812.910
G01 X401.122 Y831.393
G01 X415.914 Y843.433
G01 X423.134 Y842.425
G01 X415.693 Y852.917
G01 X418.368 Y883.288
G01 X441.109 Y909.319
G01 X460.631 Y920.140
G01 X465.525 Y938.579
G01 X478.486 Y976.959
G01 X513.085 Y1013.005
G01 X547.847 Y1032.028
G01 X567.290 Y1054.609
G01 X591.321 Y1096.786
G01 X636.709 Y1138.994
G01 X684.408 Y1163.247
G01 X710.000 Y1183.212
G01 X710.000 Y1600.000
G01 X5.000 Y1600.000
G01 X5.000 Y1289.085
G01 X19.725 Y1281.054
G01 X74.640 Y1246.941
G01 X116.975 Y1198.841
G01 X142.826 Y1162.469
G01 X177.297 Y1142.349
G01 X225.427 Y1113.193
G01 X261.788 Y1068.510
G01 X278.426 Y1033.215
G01 X299.551 Y1016.202
G01 X334.779 Y993.656
G01 X360.477 Y955.059
G01 X364.943 Y923.774
G01 X370.899 Y912.775
G01 X392.213 Y900.280
G01 X407.729 Y871.942
G01 X402.301 Y848.782
G01 X396.448 Y847.351
G01 X407.816 Y848.401
G01 X418.227 Y834.042
G01 X409.402 Y822.226
G01 X398.928 Y832.502
G01 X407.557 Y848.622
G01 X420.449 Y849.605
G01 X416.545 Y849.774
G01 X409.806 Y871.103
G01 X423.320 Y900.827
G01 X445.836 Y915.517
G01 X453.950 Y925.522
G01 X457.444 Y954.694
G01 X480.933 Y994.225
G01 X516.956 Y1019.033
G01 X540.339 Y1035.323
G01 X556.321 Y1068.263
G01 X590.279 Y1113.390
G01 X638.732 Y1144.805
G01 X675.456 Y1164.491
G01 X701.018 Y1198.297
G01 X710.000 Y1209.112
G01 X710.000 Y1600.000
G01 X5.000 Y1600.000
G01 X5.000 Y1310.079
G01 X37.857 Y1293.011
G01 X88.232 Y1248.589
G01 X118.986 Y1203.833
G01 X146.628 Y1178.419
G01 X191.045 Y1156.207
G01 X236.507 Y1116.241
G01 X260.989 Y1073.039
G01 X277.681 Y1049.015
G01 X309.193 Y1031.839
G01 X343.872 Y998.394
G01 X357.886 Y959.441
G01 X360.790 Y939.449
G01 X377.317 Y930.194
G01 X400.249 Y906.980
G01 X404.623 Y876.399
G01 X396.058 Y864.151
G01 X400.635 Y866.234
G01 X415.699 Y856.957
G01 X415.775 Y838.427
G01 X402.253 Y836.721
G01 X401.674 Y852.073
G01 X415.868 Y858.454
G01 X419.414 Y853.360
G01 X409.262 Y862.460
G01 X411.467 Y890.203
G01 X432.117 Y910.990
G01 X446.408 Y917.821
G01 X446.769 Y935.281
G01 X457.871 Y971.997
G01 X489.744 Y1003.642
G01 X518.795 Y1019.041
G01 X533.055 Y1041.109
G01 X555.017 Y1082.535
G01 X598.316 Y1121.091
G01 X641.222 Y1141.860
G01 X667.709 Y1165.533
G01 X697.468 Y1208.578
G01 X710.000 Y1219.367
G01 X710.000 Y1600.000
G01 X5.000 Y1600.000
G01 X5.000 Y1333.615
G01 X56.470 Y1298.359
G01 X95.541 Y1249.786
G01 X120.562 Y1215.278
G01 X157.123 Y1195.181
G01 X206.187 Y1163.473
G01 X241.348 Y1117.699
G01 X258.619 Y1083.838
G01 X283.406 Y1066.775
G01 X321.334 Y1041.236
G01 X347.098 Y1000.526
G01 X352.700 Y969.749
G01 X362.701 Y958.156
G01 X387.275 Y941.884
G01 X402.962 Y910.113
G01 X397.979 Y886.243
G01 X395.300 Y883.515
G01 X409.297 Y880.043
G01 X418.954 Y861.067
G01 X408.936 Y847.489
G01 X399.844 Y856.045
G01 X409.697 Y867.361
G01 X420.372 Y863.077
G01 X413.260 Y860.941
G01 X405.826 Y880.662
G01 X419.041 Y905.930
G01 X438.026 Y915.333
G01 X441.266 Y922.991
G01 X442.422 Y951.091
G01 X464.666 Y986.943
G01 X496.658 Y1006.805
G01 X514.478 Y1020.881
G01 X527.497 Y1053.319
G01 X560.342 Y1095.545
G01 X605.491 Y1122.297
G01 X637.284 Y1139.676
G01 X660.524 Y1173.203
G01 X700.614 Y1218.745
G01 X710.000 Y1224.281
G01 X710.000 Y1600.000
G01 X5.000 Y1600.000
G01 X5.000 Y1355.666
G01 X23.295 Y1345.290
G01 X70.350 Y1299.052
G01 X98.325 Y1255.499
G01 X126.776 Y1231.444
G01 X172.841 Y1207.541
G01 X217.452 Y1165.389
G01 X240.970 Y1122.881
G01 X260.028 Y1100.107
G01 X295.033 Y1081.109
G01 X330.572 Y1044.726
G01 X344.565 Y1005.463
G01 X350.333 Y986.099
G01 X371.028 Y974.488
G01 X395.389 Y947.260
G01 X399.544 Y915.028
G01 X393.109 Y902.508
G01 X401.286 Y901.605
G01 X417.228 Y887.293
G01 X415.880 Y865.866
G01 X402.773 Y863.147
G01 X404.308 Y875.216
G01 X418.114 Y876.018
G01 X418.521 Y867.268
G01 X406.654 Y875.093
G01 X409.184 Y899.832
G01 X428.113 Y915.143
G01 X437.727 Y918.132
G01 X434.544 Y934.521
G01 X444.579 Y968.967
G01 X474.007 Y995.688
G01 X497.678 Y1007.367
G01 X507.489 Y1028.698
G01 X527.958 Y1068.647
G01 X569.179 Y1102.862
G01 X607.248 Y1119.933
G01 X629.648 Y1142.931
G01 X658.692 Y1184.968
G01 X708.132 Y1223.903
G01 X710.000 Y1224.711
G01 X710.000 Y1600.000
G01 X5.000 Y1600.000
G01 X5.000 Y1377.794
G01 X42.645 Y1348.906
G01 X77.766 Y1300.237
G01 X101.655 Y1267.673
G01 X139.786 Y1247.345
G01 X188.891 Y1213.128
G01 X222.263 Y1166.737
G01 X240.041 Y1134.559
G01 X268.190 Y1117.296
G01 X308.143 Y1088.849
G01 X333.558 Y1046.587
G01 X340.405 Y1016.726
G01 X354.482 Y1004.509
G01 X381.952 Y984.577
G01 X397.636 Y949.970
G01 X393.472 Y925.897
G01 X394.334 Y921.891
G01 X410.906 Y913.960
G01 X419.843 Y890.897
G01 X409.197 Y876.056
G01 X402.101 Y882.875
G01 X413.332 Y889.312
G01 X421.912 Y880.142
G01 X412.202 Y876.118
G01 X404.768 Y894.143
G01 X417.887 Y914.727
G01 X433.386 Y919.064
G01 X432.217 Y924.726
G01 X431.623 Y951.638
G01 X452.701 Y983.497
G01 X480.466 Y998.540
G01 X492.882 Y1010.759
G01 X503.260 Y1042.643
G01 X534.820 Y1081.668
G01 X576.127 Y1103.868
G01 X602.745 Y1119.370
G01 X623.648 Y1152.690
G01 X663.509 Y1195.544
G01 X710.000 Y1220.005
G01 X710.000 Y1600.000
G01 X5.000 Y1600.000
G01 X5.000 Y1401.786
G01 X13.626 Y1396.356
G01 X56.557 Y1348.655
G01 X81.425 Y1306.642
G01 X110.368 Y1283.798
G01 X157.292 Y1258.035
G01 X200.235 Y1214.027
G01 X222.491 Y1172.634
G01 X243.756 Y1151.079
G01 X281.672 Y1130.141
G01 X317.419 Y1091.198
G01 X331.268 Y1052.179
G01 X340.019 Y1033.565
G01 X364.628 Y1019.547
G01 X390.025 Y988.707
G01 X394.071 Y955.463
G01 X390.195 Y942.891
G01 X402.059 Y938.952
G01 X418.744 Y919.941
G01 X416.275 Y896.236
G01 X404.248 Y892.726
G01 X408.242 Y901.379
G01 X421.686 Y896.784
G01 X419.327 Y884.889
G01 X406.496 Y891.607
G01 X409.800 Y913.095
G01 X427.040 Y922.936
G01 X432.246 Y922.477
G01 X426.168 Y937.926
G01 X435.513 Y969.789
G01 X462.368 Y991.476
G01 X480.658 Y999.775
G01 X486.402 Y1020.543
G01 X505.530 Y1058.735
G01 X544.271 Y1088.474
G01 X577.124 Y1102.208
G01 X595.452 Y1124.815
G01 X623.638 Y1165.665
G01 X671.876 Y1200.439
G01 X710.000 Y1215.208
G01 X710.000 Y1600.000
G01 X5.000 Y1600.000
G01 X5.000 Y1423.058
G01 X33.483 Y1398.247
G01 X64.136 Y1349.934
G01 X86.679 Y1319.387
G01 X125.810 Y1298.571
G01 X174.050 Y1261.941
G01 X205.079 Y1215.404
G01 X223.222 Y1185.089
G01 X254.337 Y1167.439
G01 X295.572 Y1136.204
G01 X320.217 Y1092.947
G01 X328.379 Y1064.340
G01 X346.443 Y1051.422
G01 X376.350 Y1027.981
G01 X391.834 Y991.154
G01 X388.823 Y967.329
G01 X393.479 Y962.033
G01 X412.474 Y949.755
G01 X420.709 Y923.181
G01 X409.987 Y907.546
G01 X405.416 Y912.593
G01 X418.104 Y914.136
G01 X424.722 Y900.525
G01 X413.054 Y895.022
G01 X406.278 Y911.240
G01 X419.466 Y926.967
G01 X431.573 Y926.524
G01 X426.546 Y930.530
G01 X424.809 Y956.097
G01 X444.807 Y983.678
G01 X468.235 Y994.082
G01 X475.536 Y1004.780
G01 X483.666 Y1035.994
G01 X513.806 Y1071.518
G01 X550.840 Y1089.325
G01 X572.199 Y1103.354
G01 X590.842 Y1136.473
G01 X630.059 Y1176.395
G01 X678.359 Y1198.981
G01 X710.000 Y1213.915
G01 X710.000 Y1600.000
G01 X5.000 Y1600.000
G01 X5.000 Y1448.919
G01 X9.235 Y1445.916
G01 X47.329 Y1397.166
G01 X68.836 Y1357.008
G01 X97.937 Y1335.196
G01 X144.896 Y1307.442
G01 X185.385 Y1261.947
G01 X206.106 Y1222.049
G01 X229.356 Y1201.619
G01 X269.515 Y1178.634
G01 X304.796 Y1137.537
G01 X318.373 Y1099.269
G01 X330.140 Y1081.455
G01 X358.288 Y1064.982
G01 X384.280 Y1030.971
G01 X388.312 Y997.326
G01 X387.340 Y984.860
G01 X402.853 Y977.848
G01 X420.091 Y954.534
G01 X416.806 Y929.172
G01 X406.466 Y925.052
G01 X413.162 Y930.179
G01 X426.237 Y920.448
G01 X421.516 Y905.945
G01 X408.463 Y911.690
G01 X412.929 Y929.694
G01 X428.513 Y934.151
G01 X429.658 Y930.667
G01 X421.383 Y945.267
G01 X430.400 Y974.228
G01 X454.596 Y990.831
G01 X467.623 Y996.110
G01 X469.780 Y1016.432
G01 X487.749 Y1052.553
G01 X523.669 Y1077.723
G01 X551.076 Y1088.493
G01 X565.477 Y1110.934
G01 X592.717 Y1150.373
G01 X639.107 Y1180.909
G01 X678.832 Y1194.799
G01 X702.766 Y1217.139
G01 X710.000 Y1226.187
G01 X710.000 Y1600.000
G01 X5.000 Y1600.000
G01 X5.000 Y1470.581
G01 X29.372 Y1446.113
G01 X55.144 Y1398.624
G01 X76.159 Y1370.128
G01 X115.682 Y1348.579
G01 X162.159 Y1309.691
G01 X190.345 Y1263.479
G01 X208.696 Y1235.139
G01 X242.298 Y1216.894
G01 X284.024 Y1183.029
G01 X307.487 Y1139.326
G01 X316.992 Y1112.233
G01 X338.839 Y1098.504
G01 X370.639 Y1071.741
G01 X385.711 Y1033.314
G01 X384.141 Y1010.128
G01 X392.724 Y1003.498
G01 X413.894 Y987.035
G01 X421.430 Y957.563
G01 X411.159 Y941.567
G01 X409.544 Y944.785
G01 X423.687 Y941.485
G01 X428.486 Y923.937
G01 X415.514 Y917.345
G01 X410.002 Y931.627
G01 X423.379 Y942.385
G01 X432.232 Y937.513
G01 X423.964 Y940.188
G01 X421.693 Y964.221
G01 X440.689 Y987.279
G01 X459.755 Y993.277
G01 X462.345 Y1002.764
G01 X468.670 Y1033.136
G01 X497.285 Y1064.874
G01 X529.723 Y1078.484
G01 X545.887 Y1091.416
G01 X562.434 Y1124.269
G01 X600.636 Y1161.013
G01 X645.269 Y1179.414
G01 X673.271 Y1193.408
G01 X697.291 Y1226.274
G01 X710.000 Y1237.886
G01 X710.000 Y1600.000
G01 X5.000 Y1600.000
G01 X5.000 Y1498.041
G01 X10.418 Y1493.645
G01 X43.075 Y1444.322
G01 X61.047 Y1406.306
G01 X89.960 Y1385.330
G01 X136.115 Y1355.509
G01 X173.416 Y1308.937
G01 X192.367 Y1270.866
G01 X217.323 Y1251.418
G01 X258.987 Y1226.303
G01 X293.128 Y1183.483
G01 X306.302 Y1146.420
G01 X321.033 Y1129.389
G01 X352.237 Y1110.426
G01 X378.345 Y1073.716
G01 X382.441 Y1040.241
G01 X384.624 Y1027.981
G01 X403.628 Y1017.873
G01 X421.186 Y990.710
G01 X417.377 Y964.298
G01 X409.262 Y959.707
G01 X418.797 Y961.223
G01 X431.460 Y946.692
G01 X424.805 Y930.132
G01 X412.242 Y935.005
G01 X418.188 Y949.321
G01 X432.146 Y948.557
G01 X429.639 Y942.497
G01 X419.890 Y956.298
G01 X428.917 Y982.046
G01 X450.400 Y993.580
G01 X458.391 Y996.215
G01 X457.520 Y1016.152
G01 X474.532 Y1049.866
G01 X507.355 Y1070.416
G01 X529.223 Y1078.606
G01 X539.959 Y1101.038
G01 X566.212 Y1138.800
G01 X610.178 Y1165.058
G01 X645.029 Y1176.182
G01 X665.797 Y1198.503
G01 X698.286 Y1237.755
G01 X710.000 Y1244.756
G01 X710.000 Y1600.000
G01 X5.000 Y1600.000
G01 X5.000 Y1522.407
G01 X30.614 Y1492.209
G01 X51.211 Y1446.022
G01 X70.548 Y1419.576
G01 X109.837 Y1397.076
G01 X153.686 Y1356.151
G01 X178.594 Y1310.728
G01 X196.991 Y1284.414
G01 X232.526 Y1265.360
G01 X273.925 Y1229.067
G01 X295.815 Y1185.451
G01 X306.649 Y1160.058
G01 X331.964 Y1145.380
G01 X365.047 Y1115.521
G01 X379.487 Y1076.112
G01 X379.593 Y1053.885
G01 X392.114 Y1045.853
G01 X415.126 Y1025.416
G01 X421.954 Y993.682
G01 X412.622 Y977.710
G01 X414.285 Y979.030
G01 X429.806 Y971.001
G01 X432.934 Y950.071
G01 X419.309 Y942.755
G01 X415.595 Y954.962
G01 X429.231 Y960.706
G01 X435.009 Y951.819
G01 X424.163 Y953.466
G01 X421.946 Y975.750
G01 X440.008 Y994.093
G01 X454.763 Y995.972
G01 X453.147 Y1004.528
G01 X458.140 Y1033.838
G01 X485.148 Y1061.526
G01 X512.776 Y1071.177
G01 X523.946 Y1083.349
G01 X538.628 Y1115.803
G01 X575.486 Y1149.128
G01 X615.897 Y1163.600
G01 X639.249 Y1176.701
G01 X661.933 Y1209.452
G01 X705.358 Y1246.036
G01 X710.000 Y1247.744
G01 X710.000 Y1600.000
G01 X5.000 Y1600.000
G01 X5.000 Y1550.859
G01 X17.368 Y1539.196
G01 X44.116 Y1489.826
G01 X58.466 Y1454.215
G01 X86.844 Y1433.872
G01 X131.366 Y1401.974
G01 X164.818 Y1354.773
G01 X181.805 Y1318.816
G01 X208.141 Y1300.166
G01 X250.520 Y1272.874
G01 X282.863 Y1228.789
G01 X295.508 Y1193.328
G01 X313.067 Y1177.003
G01 X346.747 Y1155.531
G01 X372.472 Y1116.623
G01 X376.694 Y1083.840
G01 X382.186 Y1071.823
G01 X404.407 Y1058.622
G01 X422.010 Y1028.108
G01 X417.960 Y1001.233
G01 X412.521 Y996.260
G01 X424.921 Y994.114
G01 X437.101 Y975.190
G01 X428.950 Y957.126
G01 X417.540 Y961.194
G01 X425.203 Y971.653
G01 X437.560 Y965.913
G01 X431.867 Y957.739
G01 X421.368 Y970.755
G01 X430.705 Y992.997
G01 X449.451 Y999.550
G01 X452.733 Y999.929
G01 X449.449 Y1019.487
G01 X465.710 Y1050.451
G01 X495.219 Y1066.380
G01 X511.591 Y1072.374
G01 X519.026 Y1094.885
G01 X544.284 Y1130.671
G01 X585.327 Y1152.648
G01 X614.983 Y1161.452
G01 X632.622 Y1183.979
G01 X664.887 Y1221.695
G01 X710.000 Y1245.555
G01 X710.000 Y1600.000
G01 X5.000 Y1600.000
G01 X5.000 Y1582.223
G01 X37.413 Y1536.207
G01 X52.666 Y1491.805
G01 X70.218 Y1467.381
G01 X108.642 Y1443.753
G01 X149.055 Y1401.079
G01 X170.329 Y1356.903
G01 X188.606 Y1332.611
G01 X225.463 Y1312.542
G01 X265.713 Y1274.069
G01 X285.673 Y1231.057
G01 X297.784 Y1207.473
G01 X326.151 Y1191.693
G01 X359.851 Y1159.004
G01 X373.442 Y1119.218
G01 X375.403 Y1098.198
G01 X391.750 Y1088.675
G01 X416.193 Y1064.528
G01 X422.296 Y1031.175
G01 X414.343 Y1015.561
G01 X419.491 Y1014.901
G01 X436.234 Y1002.325
G01 X437.844 Y978.605
G01 X424.202 Y970.895
G01 X422.734 Y980.884
G01 X436.645 Y981.644
G01 X439.561 Y969.208
G01 X426.831 Y970.105
G01 X425.215 Y990.412
G01 X442.393 Y1003.908
G01 X452.961 Y1002.009
G01 X447.723 Y1009.880
G01 X451.869 Y1037.868
G01 X477.205 Y1061.280
G01 X499.913 Y1067.248
G01 X506.416 Y1078.950
G01 X519.517 Y1110.809
G01 X554.742 Y1140.490
G01 X590.494 Y1151.321
G01 X609.176 Y1163.930
G01 X630.535 Y1196.502
G01 X673.378 Y1229.783
G01 X710.000 Y1241.075
G01 X710.000 Y1600.000
G01 X14.227 Y1600.000
G01 X30.167 Y1582.194
G01 X50.675 Y1533.348
G01 X61.407 Y1500.376
G01 X88.910 Y1480.472
G01 X131.001 Y1446.559
G01 X160.034 Y1399.212
G01 X174.913 Y1365.610
G01 X202.262 Y1347.552
G01 X244.538 Y1318.081
G01 X274.462 Y1273.210
G01 X286.463 Y1239.687
G01 X306.631 Y1223.940
G01 X342.130 Y1199.970
G01 X366.963 Y1159.388
G01 X371.359 Y1127.762
G01 X380.214 Y1115.969
G01 X405.269 Y1099.703
G01 X422.614 Y1066.376
G01 X418.587 Y1039.585
G01 X416.180 Y1034.276
G01 X431.364 Y1028.455
G01 X442.961 Y1005.607
G01 X433.757 Y986.584
G01 X424.099 Y989.879
G01 X433.627 Y996.353
G01 X444.403 Y985.962
G01 X436.028 Y976.144
G01 X425.486 Y988.354
G01 X435.383 Y1006.830
G01 X451.393 Y1008.562
G01 X450.380 Y1007.080
G01 X445.333 Y1026.215
G01 X461.040 Y1054.088
G01 X487.078 Y1065.453
G01 X498.126 Y1069.631
G01 X502.703 Y1092.238
G01 X526.984 Y1125.728
G01 X564.681 Y1143.461
G01 X588.970 Y1150.384
G01 X603.626 Y1173.270
G01 X635.445 Y1209.218
G01 X682.465 Y1231.043
G01 X710.000 Y1237.549
G01 X710.000 Y1600.000
G01 X37.316 Y1600.000
G01 X49.865 Y1577.755
G01 X59.738 Y1535.616
G01 X75.440 Y1513.164
G01 X112.383 Y1488.285
G01 X148.629 Y1444.221
G01 X166.007 Y1401.735
G01 X183.999 Y1379.414
G01 X221.525 Y1358.144
G01 X259.824 Y1317.792
G01 X277.538 Y1275.873
G01 X290.837 Y1254.142
G01 X321.750 Y1237.103
G01 X355.372 Y1201.892
G01 X367.902 Y1162.309
G01 X371.839 Y1142.672
G01 X391.782 Y1131.558
G01 X417.183 Y1104.011
G01 X422.539 Y1069.681
G01 X416.345 Y1054.698
G01 X425.066 Y1051.972
G01 X442.807 Y1035.095
G01 X443.053 Y1009.203
G01 X429.994 Y1001.390
G01 X431.125 Y1009.019
G01 X445.273 Y1004.899
G01 X445.570 Y989.428
G01 X431.659 Y989.823
G01 X431.136 Y1007.921
G01 X447.455 Y1016.509
G01 X454.027 Y1011.219
G01 X445.814 Y1018.615
G01 X449.589 Y1044.994
G01 X473.198 Y1063.951
G01 X490.980 Y1066.550
G01 X493.251 Y1078.022
G01 X505.088 Y1109.037
G01 X538.428 Y1134.868
G01 X569.210 Y1142.376
G01 X583.339 Y1154.841
G01 X603.445 Y1187.102
G01 X645.202 Y1216.917
G01 X686.855 Y1227.402
G01 X710.000 Y1239.109
G01 X710.000 Y1600.000
G01 X55.346 Y1600.000
G01 X62.866 Y1574.530
G01 X70.076 Y1544.402
G01 X96.382 Y1524.757
G01 X135.296 Y1488.971
G01 X159.449 Y1441.991
G01 X172.131 Y1410.942
G01 X200.098 Y1393.255
G01 X241.444 Y1361.661
G01 X268.383 Y1316.503
G01 X279.639 Y1285.192
G01 X302.125 Y1269.856
G01 X338.723 Y1243.436
G01 X362.166 Y1201.718
G01 X366.768 Y1171.649
G01 X378.938 Y1160.011
G01 X406.349 Y1140.741
G01 X423.115 Y1105.169
G01 X419.353 Y1078.963
G01 X420.233 Y1073.319
G01 X438.010 Y1063.850
G01 X448.902 Y1037.602
G01 X439.082 Y1018.142
G01 X431.694 Y1020.665
G01 X443.144 Y1023.077
G01 X452.352 Y1008.430
G01 X441.831 Y997.436
G01 X431.914 Y1008.790
G01 X442.561 Y1023.282
G01 X455.862 Y1020.428
G01 X451.039 Y1017.479
G01 X444.893 Y1036.104
G01 X460.224 Y1060.564
G01 X482.689 Y1067.482
G01 X488.698 Y1070.216
G01 X490.924 Y1092.871
G01 X514.263 Y1123.730
G01 X548.271 Y1137.299
G01 X567.163 Y1142.767
G01 X579.079 Y1166.088
G01 X610.264 Y1200.007
G01 X654.467 Y1217.738
G01 X684.464 Y1224.115
G01 X703.650 Y1246.252
G01 X710.000 Y1252.619
G01 X710.000 Y1600.000
G01 X69.871 Y1600.000
G01 X72.543 Y1577.071
G01 X86.375 Y1556.523
G01 X121.250 Y1530.330
G01 X152.699 Y1485.300
G01 X166.016 Y1444.929
G01 X183.568 Y1424.492
G01 X221.086 Y1401.871
G01 X256.671 Y1359.995
G01 X271.882 Y1319.629
G01 X286.248 Y1299.730
G01 X319.125 Y1281.285
G01 X351.959 Y1243.901
G01 X363.236 Y1205.070
G01 X369.209 Y1186.919
G01 X392.407 Y1174.111
G01 X418.244 Y1143.520
G01 X422.826 Y1108.840
G01 X418.706 Y1094.696
G01 X430.967 Y1089.820
G01 X449.419 Y1068.951
G01 X448.457 Y1041.516
G01 X436.536 Y1033.846
G01 X440.511 Y1038.979
G01 X454.806 Y1030.164
G01 X452.751 Y1012.206
G01 X438.353 Y1012.314
G01 X439.346 Y1027.973
G01 X454.805 Y1031.668
G01 X457.631 Y1023.417
G01 X447.131 Y1030.514
G01 X450.986 Y1054.980
G01 X472.821 Y1069.361
G01 X485.765 Y1068.938
G01 X484.328 Y1080.372
G01 X495.240 Y1110.246
G01 X526.477 Y1132.056
G01 X552.098 Y1136.582
G01 X561.915 Y1149.191
G01 X580.892 Y1180.945
G01 X621.106 Y1207.151
G01 X658.284 Y1214.445
G01 X677.846 Y1226.246
G01 X702.297 Y1257.833
G01 X710.000 Y1262.815
G01 X710.000 Y1600.000
G01 X82.543 Y1600.000
G01 X84.559 Y1585.878
G01 X109.372 Y1566.338
G01 X144.436 Y1528.902
G01 X163.372 Y1482.827
G01 X173.828 Y1454.484
G01 X201.998 Y1436.948
G01 X241.603 Y1403.349
G01 X265.066 Y1358.417
G01 X275.493 Y1329.532
G01 X299.943 Y1314.413
G01 X336.878 Y1285.634
G01 X358.456 Y1243.329
G01 X363.285 Y1215.149
G01 X378.625 Y1203.554
G01 X407.832 Y1181.378
G01 X423.688 Y1144.149
G01 X420.409 Y1118.975
G01 X424.722 Y1112.955
G01 X444.803 Y1099.909
G01 X454.851 Y1070.829
G01 X444.836 Y1051.423
G01 X440.144 Y1053.143
G01 X453.481 Y1051.470
G01 X461.129 Y1033.031
G01 X449.011 Y1021.317
G01 X440.334 Y1031.735
G01 X451.852 Y1042.078
G01 X462.493 Y1034.950
G01 X454.405 Y1030.922
G01 X447.817 Y1048.910
G01 X462.920 Y1069.669
G01 X481.764 Y1072.318
G01 X483.122 Y1073.965
G01 X483.546 Y1096.559
G01 X505.982 Y1124.456
G01 X536.036 Y1133.986
G01 X549.640 Y1138.402
G01 X559.137 Y1162.156
G01 X589.527 Y1193.765
G01 X630.365 Y1207.543
G01 X655.428 Y1212.598
G01 X672.507 Y1235.255
G01 X707.963 Y1268.577
G01 X710.000 Y1269.306
G01 X710.000 Y1600.000
G01 X101.164 Y1600.000
G01 X103.061 Y1597.035
G01 X135.328 Y1569.532
G01 X161.467 Y1524.023
G01 X170.668 Y1486.170
G01 X187.636 Y1467.498
G01 X224.464 Y1443.424
G01 X256.639 Y1400.428
G01 X269.152 Y1362.044
G01 X284.436 Y1343.901
G01 X318.636 Y1323.923
G01 X349.981 Y1284.757
G01 X359.838 Y1247.191
G01 X367.846 Y1230.560
G01 X393.858 Y1215.960
G01 X419.574 Y1182.725
G01 X423.358 Y1148.295
G01 X421.557 Y1135.135
G01 X437.205 Y1128.027
G01 X456.028 Y1103.534
G01 X454.013 Y1075.186
G01 X443.726 Y1067.854
G01 X450.679 Y1070.370
G01 X464.982 Y1057.119
G01 X460.860 Y1037.247
G01 X446.646 Y1037.246
G01 X449.492 Y1050.250
G01 X464.064 Y1049.150
G01 X463.446 Y1038.405
G01 X451.367 Y1045.339
G01 X455.713 Y1067.585
G01 X475.730 Y1077.335
G01 X484.013 Y1074.267
G01 X479.464 Y1085.803
G01 X489.789 Y1114.210
G01 X518.738 Y1131.867
G01 X539.125 Y1133.770
G01 X544.986 Y1146.748
G01 X562.990 Y1177.744
G01 X601.250 Y1200.219
G01 X633.560 Y1204.729
G01 X649.254 Y1216.820
G01 X673.211 Y1247.985
G01 X710.000 Y1269.158
G01 X710.000 Y1600.000
G01 X131.680 Y1600.000
G01 X158.510 Y1566.031
G01 X172.023 Y1521.413
G01 X180.285 Y1495.886
G01 X208.238 Y1478.296
G01 X245.332 Y1442.877
G01 X264.912 Y1398.693
G01 X274.453 Y1372.389
G01 X300.456 Y1357.278
G01 X336.949 Y1326.280
G01 X356.228 Y1283.941
G01 X361.292 Y1257.914
G01 X379.566 Y1246.218
G01 X409.941 Y1221.273
G01 X424.564 Y1182.989
G01 X421.956 Y1159.228
G01 X429.738 Y1152.755
G01 X451.744 Y1136.252
G01 X460.799 Y1104.943
G01 X450.987 Y1086.036
G01 X449.314 Y1086.895
G01 X464.412 Y1081.172
G01 X470.506 Y1059.463
G01 X457.343 Y1047.463
G01 X450.446 Y1056.846
G01 X462.890 Y1062.933
G01 X470.938 Y1051.911
G01 X460.173 Y1047.181
G01 X453.771 Y1064.374
G01 X468.756 Y1081.187
G01 X483.984 Y1079.810
G01 X481.168 Y1080.711
G01 X480.358 Y1103.080
G01 X501.928 Y1127.701
G01 X527.843 Y1133.365
G01 X536.392 Y1137.102
G01 X543.855 Y1161.212
G01 X573.312 Y1190.220
G01 X610.327 Y1200.225
G01 X630.368 Y1204.429
G01 X645.468 Y1227.677
G01 X680.768 Y1258.757
G01 X710.000 Y1267.221
G01 X710.000 Y1600.000
G01 X157.081 Y1600.000
G01 X175.042 Y1560.083
G01 X180.178 Y1525.118
G01 X196.438 Y1508.070
G01 X231.909 Y1482.497
G01 X260.061 Y1438.837
G01 X269.754 Y1402.823
G01 X285.784 Y1386.318
G01 X320.626 Y1364.713
G01 X349.811 Y1324.196
G01 X358.112 Y1288.362
G01 X368.097 Y1273.221
G01 X396.394 Y1256.748
G01 X421.419 Y1221.309
G01 X424.385 Y1187.694
G01 X425.071 Y1175.594
G01 X443.839 Y1166.190
G01 X462.654 Y1138.494
G01 X459.739 Y1109.847
G01 X451.510 Y1102.995
G01 X461.462 Y1102.794
G01 X475.592 Y1085.438
G01 X469.702 Y1064.238
G01 X456.298 Y1064.266
G01 X461.245 Y1074.421
G01 X474.875 Y1068.704
G01 X471.158 Y1055.958
G01 X458.211 Y1062.828
G01 X463.403 Y1082.557
G01 X481.558 Y1087.696
G01 X485.439 Y1082.388
G01 X478.426 Y1094.112
G01 X488.489 Y1120.706
G01 X514.992 Y1134.131
G01 X530.190 Y1133.788
G01 X532.542 Y1147.290
G01 X549.752 Y1177.229
G01 X585.695 Y1195.884
G01 X612.876 Y1198.026
G01 X624.866 Y1210.702
G01 X648.298 Y1241.264
G01 X691.460 Y1263.177
G01 X710.000 Y1265.013
G01 X710.000 Y1600.000
G01 X177.503 Y1600.000
G01 X185.525 Y1557.422
G01 X191.687 Y1534.779
G01 X219.008 Y1516.955
G01 X252.880 Y1479.971
G01 X268.274 Y1437.060
G01 X276.898 Y1413.435
G01 X304.005 Y1398.123
G01 X339.279 Y1365.102
G01 X355.878 Y1323.279
G01 X361.179 Y1299.598
G01 X382.065 Y1287.632
G01 X412.935 Y1260.104
G01 X426.016 Y1221.367
G01 X424.237 Y1199.332
G01 X435.415 Y1192.301
G01 X458.888 Y1172.509
G01 X466.796 Y1139.594
G01 X457.555 Y1121.583
G01 X459.118 Y1121.498
G01 X475.763 Y1111.820
G01 X480.306 Y1087.410
G01 X466.642 Y1075.528
G01 X461.980 Y1083.757
G01 X475.331 Y1085.550
G01 X480.874 Y1071.079
G01 X468.046 Y1066.005
G01 X462.416 Y1082.220
G01 X477.350 Y1094.899
G01 X489.013 Y1089.805
G01 X482.571 Y1090.276
G01 X481.099 Y1112.212
G01 X501.827 Y1133.272
G01 X523.495 Y1135.291
G01 X527.337 Y1138.691
G01 X533.192 Y1163.007
G01 X561.595 Y1189.127
G01 X594.426 Y1195.573
G01 X609.495 Y1199.362
G01 X622.817 Y1223.190
G01 X657.637 Y1251.806
G01 X699.515 Y1261.107
G01 X710.000 Y1262.486
G01 X710.000 Y1600.000
G01 X191.206 Y1600.000
G01 X193.424 Y1593.159
G01 X194.660 Y1561.418
G01 X210.110 Y1545.836
G01 X243.589 Y1518.783
G01 X267.207 Y1474.956
G01 X274.037 Y1441.661
G01 X290.627 Y1426.637
G01 X325.407 Y1403.356
G01 X351.812 Y1361.955
G01 X358.460 Y1328.273
G01 X370.311 Y1314.536
G01 X400.294 Y1296.135
G01 X424.056 Y1258.966
G01 X426.196 Y1226.685
G01 X429.457 Y1215.663
G01 X450.977 Y1203.915
G01 X469.374 Y1173.486
G01 X465.712 Y1145.128
G01 X459.886 Y1138.845
G01 X472.746 Y1135.850
G01 X486.482 Y1114.789
G01 X479.131 Y1092.844
G01 X467.107 Y1092.998
G01 X474.304 Y1100.141
G01 X486.913 Y1090.066
G01 X480.479 Y1075.832
G01 X467.356 Y1082.699
G01 X473.682 Y1099.633
G01 X489.931 Y1100.259
G01 X489.742 Y1093.135
G01 X480.940 Y1105.089
G01 X491.039 Y1129.520
G01 X514.968 Y1138.693
G01 X525.125 Y1136.489
G01 X524.492 Y1150.605
G01 X541.096 Y1179.154
G01 X574.407 Y1193.934
G01 X596.330 Y1194.131
G01 X604.888 Y1207.609
G01 X627.796 Y1237.334
G01 X669.082 Y1255.534
G01 X700.983 Y1256.784
G01 X710.000 Y1263.450
G01 X710.000 Y1600.000
G01 X203.270 Y1600.000
G01 X203.891 Y1590.517
G01 X208.108 Y1570.785
G01 X234.402 Y1552.576
G01 X264.423 Y1514.353
G01 X275.439 Y1473.233
G01 X283.147 Y1452.331
G01 X310.877 Y1436.621
G01 X344.183 Y1401.830
G01 X357.790 Y1361.063
G01 X363.325 Y1339.854
G01 X386.428 Y1327.440
G01 X417.092 Y1297.562
G01 X428.350 Y1258.969
G01 X427.527 Y1238.903
G01 X441.924 Y1231.185
G01 X466.342 Y1208.322
G01 X472.955 Y1174.436
G01 X464.614 Y1157.657
G01 X469.514 Y1156.527
G01 X487.415 Y1143.051
G01 X490.414 Y1116.544
G01 X476.769 Y1105.145
G01 X474.701 Y1112.089
G01 X488.869 Y1109.620
G01 X492.012 Y1092.201
G01 X477.749 Y1087.115
G01 X473.412 Y1102.156
G01 X488.313 Y1110.577
G01 X496.508 Y1102.133
G01 X487.045 Y1102.468
G01 X485.465 Y1123.728
G01 X505.360 Y1140.985
G01 X522.747 Y1139.630
G01 X522.326 Y1142.995
G01 X527.029 Y1167.309
G01 X554.264 Y1190.265
G01 X582.647 Y1193.404
G01 X592.924 Y1197.166
G01 X604.727 Y1221.487
G01 X638.768 Y1247.411
G01 X676.875 Y1253.239
G01 X696.410 Y1255.992
G01 X710.000 Y1274.477
G01 X710.000 Y1600.000
G01 X214.563 Y1600.000
G01 X214.113 Y1594.699
G01 X228.676 Y1580.420
G01 X259.578 Y1551.971
G01 X278.272 Y1508.512
G01 X282.280 Y1478.238
G01 X299.234 Y1464.514
G01 X333.248 Y1439.559
G01 X356.321 Y1397.775
G01 X361.267 Y1366.609
G01 X374.823 Y1354.146
G01 X405.839 Y1333.793
G01 X427.789 Y1295.403
G01 X429.105 Y1264.920
G01 X434.956 Y1254.935
G01 X458.764 Y1240.824
G01 X476.320 Y1208.172
G01 X472.061 Y1180.655
G01 X468.898 Y1174.974
G01 X484.464 Y1169.141
G01 X497.559 Y1144.835
G01 X489.056 Y1122.716
G01 X478.913 Y1123.052
G01 X488.406 Y1127.055
G01 X499.894 Y1112.960
G01 X491.150 Y1097.758
G01 X478.509 Y1104.647
G01 X486.181 Y1118.540
G01 X500.480 Y1114.830
G01 X496.613 Y1106.332
G01 X486.708 Y1118.510
G01 X497.101 Y1140.436
G01 X518.354 Y1145.403
G01 X523.719 Y1141.732
G01 X520.681 Y1156.487
G01 X536.861 Y1183.290
G01 X567.274 Y1194.188
G01 X583.936 Y1192.858
G01 X589.427 Y1207.276
G01 X611.833 Y1235.887
G01 X650.752 Y1250.383
G01 X677.770 Y1249.766
G01 X690.504 Y1262.176
G01 X710.000 Y1283.595
G01 X710.000 Y1600.000
G01 X234.189 Y1600.000
G01 X254.405 Y1584.812
G01 X280.046 Y1545.741
G01 X286.614 Y1506.915
G01 X293.440 Y1488.732
G01 X321.302 Y1472.447
G01 X351.937 Y1436.200
G01 X362.320 Y1397.014
G01 X368.084 Y1378.337
G01 X392.947 Y1365.297
G01 X422.699 Y1333.351
G01 X431.892 Y1295.484
G01 X432.123 Y1277.556
G01 X449.462 Y1269.013
G01 X474.257 Y1243.347
G01 X479.437 Y1209.124
G01 X472.283 Y1193.848
G01 X480.508 Y1191.560
G01 X499.306 Y1174.505
G01 X500.770 Y1146.529
G01 X487.632 Y1135.931
G01 X488.412 Y1141.452
G01 X503.239 Y1134.826
G01 X504.104 Y1115.006
G01 X489.030 Y1110.210
G01 X486.431 Y1123.870
G01 X501.270 Y1127.984
G01 X506.136 Y1116.614
G01 X494.294 Y1117.073
G01 X493.123 Y1137.391
G01 X512.172 Y1150.658
G01 X525.316 Y1146.251
G01 X521.161 Y1149.843
G01 X525.171 Y1173.894
G01 X551.134 Y1193.438
G01 X574.899 Y1193.555
G01 X580.683 Y1197.627
G01 X591.269 Y1222.277
G01 X624.255 Y1245.289
G01 X658.150 Y1247.959
G01 X673.242 Y1250.775
G01 X688.985 Y1274.104
G01 X710.000 Y1288.214
G01 X710.000 Y1600.000
G01 X262.766 Y1600.000
G01 X279.854 Y1581.754
G01 X293.367 Y1539.223
G01 X294.674 Y1512.222
G01 X311.796 Y1499.602
G01 X344.360 Y1473.033
G01 X363.637 Y1431.392
G01 X366.882 Y1403.053
G01 X381.941 Y1391.694
G01 X413.302 Y1369.412
G01 X432.929 Y1330.332
G01 X433.444 Y1302.055
G01 X441.820 Y1293.014
G01 X467.377 Y1276.554
G01 X483.668 Y1242.224
G01 X478.959 Y1216.050
G01 X478.631 Y1210.956
G01 X496.600 Y1202.275
G01 X508.788 Y1175.237
G01 X499.442 Y1153.490
G01 X491.597 Y1154.020
G01 X503.332 Y1154.798
G01 X513.579 Y1137.096
G01 X502.951 Y1121.441
G01 X491.397 Y1128.342
G01 X500.546 Y1138.990
G01 X512.851 Y1131.204
G01 X505.749 Y1121.776
G01 X495.418 Y1134.132
G01 X506.313 Y1153.237
G01 X524.810 Y1154.115
G01 X525.720 Y1149.372
G01 X520.892 Y1164.731
G01 X536.816 Y1189.428
G01 X564.113 Y1196.483
G01 X575.631 Y1194.038
G01 X578.495 Y1209.455
G01 X600.433 Y1236.639
G01 X636.555 Y1247.474
G01 X658.518 Y1245.478
G01 X668.522 Y1258.936
G01 X694.745 Y1286.660
G01 X710.000 Y1291.569
G01 X710.000 Y1600.000
G01 X285.932 Y1600.000
G01 X299.742 Y1573.853
G01 X301.917 Y1537.801
G01 X307.928 Y1522.284
G01 X335.429 Y1505.282
G01 X362.764 Y1467.949
G01 X369.780 Y1430.843
G01 X375.770 Y1414.699
G01 X401.889 Y1400.867
G01 X430.041 Y1367.188
G01 X436.977 Y1330.606
G01 X438.327 Y1314.915
G01 X458.246 Y1305.403
G01 X482.817 Y1277.254
G01 X486.447 Y1243.315
G01 X480.720 Y1229.747
G01 X492.148 Y1226.180
G01 X511.427 Y1205.826
G01 X511.373 Y1177.020
G01 X499.188 Y1167.487
G01 X502.959 Y1171.445
G01 X518.227 Y1160.843
G01 X516.948 Y1139.204
G01 X501.671 Y1134.961
G01 X501.166 Y1147.033
G01 X515.865 Y1146.869
G01 X517.579 Y1133.046
G01 X504.023 Y1133.859
G01 X503.725 Y1152.954
G01 X521.892 Y1162.111
G01 X530.899 Y1155.017
G01 X523.602 Y1159.056
G01 X527.370 Y1182.544
G01 X551.956 Y1198.469
G01 X571.027 Y1195.883
G01 X572.723 Y1200.547
G01 X582.417 Y1225.297
G01 X614.094 Y1245.189
G01 X643.447 Y1245.042
G01 X654.230 Y1248.329
G01 X669.097 Y1272.102
G01 X705.873 Y1294.266
G01 X710.000 Y1294.445
G01 X710.000 Y1600.000
G01 X305.858 Y1600.000
G01 X312.503 Y1566.806
G01 X311.316 Y1543.277
G01 X328.413 Y1531.555
G01 X358.885 Y1503.495
G01 X374.005 Y1462.543
G01 X375.604 Y1437.281
G01 X391.930 Y1426.832
G01 X422.937 Y1402.691
G01 X439.788 Y1363.473
G01 X439.541 Y1337.745
G01 X450.310 Y1329.513
G01 X477.016 Y1310.759
G01 X491.635 Y1275.322
G01 X486.621 Y1250.937
G01 X489.204 Y1246.367
G01 X509.184 Y1234.870
G01 X520.189 Y1205.657
G01 X510.301 Y1184.789
G01 X505.082 Y1185.488
G01 X518.906 Y1183.004
G01 X527.782 Y1162.170
G01 X515.707 Y1146.565
G01 X505.775 Y1153.433
G01 X516.445 Y1160.681
G01 X526.713 Y1149.157
G01 X516.862 Y1139.245
G01 X506.751 Y1151.695
G01 X518.297 Y1167.698
G01 X533.985 Y1164.678
G01 X530.855 Y1159.258
G01 X524.868 Y1175.130
G01 X540.677 Y1197.367
G01 X564.689 Y1200.678
G01 X571.291 Y1197.515
G01 X572.025 Y1213.914
G01 X593.531 Y1239.337
G01 X626.490 Y1246.594
G01 X643.357 Y1243.688
G01 X650.914 Y1258.322
G01 X677.018 Y1284.724
G01 X710.000 Y1292.918
G01 X710.000 Y1600.000
G01 X322.769 Y1600.000
G01 X323.403 Y1598.416
G01 X321.364 Y1565.579
G01 X326.663 Y1552.633
G01 X353.327 Y1534.812
G01 X376.821 Y1496.816
G01 X380.426 Y1462.259
G01 X386.643 Y1448.592
G01 X413.484 Y1433.827
G01 X439.384 Y1398.797
G01 X443.930 Y1364.027
G01 X446.437 Y1350.605
G01 X468.497 Y1339.990
G01 X492.236 Y1309.726
G01 X494.225 Y1276.669
G01 X490.114 Y1264.943
G01 X504.518 Y1259.981
G01 X523.819 Y1236.664
G01 X522.275 Y1207.663
G01 X511.438 Y1199.403
G01 X518.231 Y1201.665
G01 X533.665 Y1187.337
