; file trimmed by trimify2x.pl
; Created by Sandify
; 
;   https://jeffeb3.github.io/sandify/
; 
;   Sandify Version: 0.1.3
; 
;   Machine Type: Rectangular
;     MinX: 5 MaxX: 710 MinY: 5 MaxY: 1600
;   Content Type: Shapes
;     Starting Size: 331
;     Offset: X: 409 Y: 547
;     Selected Shape: None
;     Number of Loops: 229
;     Spin: true
;       Spin Value: 0.7
;       Spin Switchbacks: 7
;     Grow: true
;       Grow Value: -6
;     Track: true
;       Track Count: 7
;       Track Size: 799.65
;       Track Grow: true
;           Track Grow Value: 39
;   Path Reversed: false
; 
; filename: '110219_3.gcode'

; BEGIN PRE
G28 Y
G28 X
G01 F30000; END PRE
G01 X710.000 Y1452.938
G01 X710.000 Y1098.313
G01 X706.309 Y1098.193
G01 X703.322 Y1120.832
G01 X675.751 Y1133.802
G01 X671.444 Y1140.090
G01 X651.753 Y1167.613
G01 X629.077 Y1170.074
G01 X623.592 Y1190.955
G01 X592.467 Y1209.331
G01 X582.515 Y1214.012
G01 X565.139 Y1243.252
G01 X538.601 Y1249.197
G01 X535.137 Y1267.585
G01 X507.614 Y1291.159
G01 X497.521 Y1295.442
G01 X488.794 Y1325.559
G01 X465.564 Y1336.283
G01 X469.174 Y1352.295
G01 X452.286 Y1380.601
G01 X447.236 Y1385.492
G01 X451.873 Y1414.865
G01 X437.488 Y1430.093
G01 X450.787 Y1442.501
G01 X448.391 Y1472.728
G01 X450.519 Y1476.971
G01 X469.127 Y1501.620
G01 X465.176 Y1518.143
G01 X486.566 Y1523.500
G01 X497.781 Y1550.223
G01 X505.100 Y1550.391
G01 X533.604 Y1564.839
G01 X537.433 Y1577.828
G01 X561.473 Y1572.309
G01 X581.344 Y1589.970
G01 X588.875 Y1583.179
G01 X620.161 Y1583.680
G01 X626.701 Y1590.097
G01 X646.453 Y1572.962
G01 X668.490 Y1579.512
G01 X670.981 Y1566.734
G01 X697.943 Y1554.463
G01 X702.664 Y1555.866
G01 X710.000 Y1538.406
G01 X710.000 Y1118.759
G01 X704.698 Y1118.218
G01 X703.945 Y1138.744
G01 X676.590 Y1152.590
G01 X672.259 Y1156.048
G01 X655.174 Y1183.349
G01 X631.490 Y1185.157
G01 X628.118 Y1203.348
G01 X598.022 Y1222.531
G01 X587.722 Y1224.582
G01 X573.227 Y1252.940
G01 X545.917 Y1258.685
G01 X543.993 Y1274.020
G01 X517.933 Y1298.222
G01 X506.889 Y1300.263
G01 X500.742 Y1328.858
G01 X476.725 Y1339.796
G01 X480.843 Y1352.608
G01 X465.415 Y1381.255
G01 X458.610 Y1384.454
G01 X465.033 Y1411.776
G01 X449.689 Y1427.611
G01 X462.227 Y1436.977
G01 X461.013 Y1467.273
G01 X460.635 Y1470.598
G01 X480.023 Y1492.946
G01 X475.025 Y1510.537
G01 X494.500 Y1513.425
G01 X506.608 Y1540.096
G01 X511.039 Y1540.376
G01 X539.431 Y1552.658
G01 X542.446 Y1567.259
G01 X563.843 Y1560.239
G01 X584.524 Y1577.888
G01 X589.347 Y1572.366
G01 X619.951 Y1571.134
G01 X626.303 Y1579.631
G01 X643.234 Y1562.125
G01 X666.229 Y1568.683
G01 X666.719 Y1558.148
G01 X692.751 Y1544.608
G01 X698.153 Y1548.197
G01 X705.773 Y1524.547
G01 X710.000 Y1524.226
G01 X710.000 Y1139.451
G01 X702.677 Y1138.429
G01 X704.045 Y1156.592
G01 X677.202 Y1171.455
G01 X672.582 Y1172.185
G01 X658.299 Y1199.042
G01 X633.653 Y1200.519
G01 X632.211 Y1215.829
G01 X603.468 Y1235.881
G01 X592.593 Y1235.489
G01 X581.096 Y1262.705
G01 X553.153 Y1268.555
G01 X552.532 Y1280.715
G01 X528.257 Y1305.513
G01 X516.098 Y1305.561
G01 X512.561 Y1332.352
G01 X487.974 Y1343.754
G01 X492.335 Y1353.317
G01 X478.663 Y1382.176
G01 X470.014 Y1383.967
G01 X478.166 Y1408.954
G01 X462.141 Y1425.564
G01 X473.647 Y1431.913
G01 X473.853 Y1462.058
G01 X470.968 Y1464.753
G01 X490.992 Y1484.538
G01 X485.259 Y1503.265
G01 X502.562 Y1503.782
G01 X515.723 Y1530.113
G01 X517.344 Y1530.777
G01 X545.403 Y1540.679
G01 X547.915 Y1556.861
G01 X566.446 Y1548.507
G01 X587.997 Y1565.820
G01 X590.258 Y1561.804
G01 X619.900 Y1558.700
G01 X626.345 Y1569.158
G01 X640.285 Y1551.510
G01 X664.191 Y1557.751
G01 X662.885 Y1549.647
G01 X687.671 Y1534.794
G01 X693.985 Y1540.378
G01 X698.950 Y1517.569
G01 X710.000 Y1516.492
G01 X710.000 Y1160.302
G01 X700.269 Y1158.818
G01 X703.601 Y1174.386
G01 X677.590 Y1190.365
G01 X672.423 Y1188.515
G01 X661.101 Y1214.677
G01 X635.588 Y1216.148
G01 X635.856 Y1228.415
G01 X608.797 Y1249.349
G01 X597.142 Y1246.747
G01 X588.718 Y1272.542
G01 X560.322 Y1278.787
G01 X560.742 Y1287.691
G01 X538.570 Y1313.005
G01 X525.163 Y1311.346
G01 X524.220 Y1336.046
G01 X499.320 Y1348.137
G01 X503.644 Y1354.449
G01 X492.003 Y1383.347
G01 X481.466 Y1384.035
G01 X491.242 Y1406.412
G01 X474.845 Y1423.928
G01 X485.047 Y1427.334
G01 X486.884 Y1457.071
G01 X481.534 Y1459.436
G01 X502.010 Y1476.417
G01 X495.872 Y1496.307
G01 X510.761 Y1494.596
G01 X525.095 Y1520.273
G01 X524.031 Y1521.587
G01 X551.503 Y1528.928
G01 X553.830 Y1546.616
G01 X569.298 Y1537.133
G01 X591.734 Y1553.773
G01 X591.625 Y1551.480
G01 X620.000 Y1546.409
G01 X626.811 Y1558.662
G01 X637.626 Y1541.130
G01 X662.352 Y1546.731
G01 X659.490 Y1541.213
G01 X682.706 Y1525.051
G01 X690.140 Y1532.396
G01 X692.395 Y1510.720
G01 X710.000 Y1508.424
G01 X710.000 Y1504.939
G01 X707.257 Y1503.256
G01 X710.000 Y1499.150
G01 X710.000 Y1181.200
G01 X697.499 Y1179.372
G01 X702.596 Y1192.136
G01 X677.752 Y1209.289
G01 X671.796 Y1205.054
G01 X663.554 Y1230.241
G01 X637.315 Y1232.026
G01 X639.039 Y1241.123
G01 X614.000 Y1262.908
G01 X601.386 Y1258.365
G01 X596.062 Y1282.449
G01 X567.439 Y1289.362
G01 X568.615 Y1294.971
G01 X548.853 Y1320.676
G01 X534.103 Y1317.623
G01 X535.690 Y1339.949
G01 X510.767 Y1352.921
G01 X514.767 Y1356.028
G01 X505.410 Y1384.750
G01 X492.983 Y1384.660
G01 X504.234 Y1404.167
G01 X487.797 Y1422.681
G01 X496.432 Y1423.265
G01 X500.075 Y1452.307
G01 X492.351 Y1454.643
G01 X513.056 Y1468.608
G01 X506.854 Y1489.642
G01 X519.108 Y1485.889
G01 X534.692 Y1510.578
G01 X531.115 Y1512.798
G01 X557.719 Y1517.437
G01 X560.174 Y1536.506
G01 X572.418 Y1526.137
G01 X595.705 Y1541.759
G01 X593.458 Y1541.383
G01 X620.249 Y1534.291
G01 X627.683 Y1548.131
G01 X635.280 Y1530.995
G01 X660.687 Y1535.642
G01 X656.543 Y1532.830
G01 X677.863 Y1515.408
G01 X686.597 Y1524.242
G01 X686.136 Y1504.003
G01 X709.037 Y1500.024
G01 X701.422 Y1498.414
G01 X710.000 Y1483.047
G01 X710.000 Y1202.027
G01 X694.390 Y1200.077
G01 X701.014 Y1209.859
G01 X677.685 Y1228.194
G01 X670.717 Y1221.812
G01 X665.628 Y1245.727
G01 X638.852 Y1248.131
G01 X641.749 Y1253.975
G01 X619.061 Y1276.529
G01 X605.345 Y1270.350
G01 X603.098 Y1292.427
G01 X574.514 Y1300.254
G01 X576.146 Y1302.577
G01 X559.081 Y1328.503
G01 X542.936 Y1324.395
G01 X546.939 Y1344.071
G01 X522.318 Y1358.080
G01 X525.704 Y1358.078
G01 X518.853 Y1386.372
G01 X504.583 Y1385.838
G01 X517.117 Y1402.241
G01 X500.992 Y1421.798
G01 X507.808 Y1419.729
G01 X513.390 Y1447.762
G01 X503.435 Y1450.366
G01 X524.111 Y1461.138
G01 X518.193 Y1483.247
G01 X527.618 Y1477.681
G01 X544.482 Y1501.036
G01 X538.609 Y1504.397
G01 X564.041 Y1506.236
G01 X566.931 Y1526.515
G01 X575.824 Y1515.530
G01 X599.883 Y1529.793
G01 X595.769 Y1531.493
G01 X620.648 Y1522.379
G01 X628.938 Y1537.552
G01 X633.273 Y1521.113
G01 X659.173 Y1524.504
G01 X654.048 Y1524.476
G01 X673.154 Y1505.893
G01 X683.331 Y1515.911
G01 X680.195 Y1497.413
G01 X703.440 Y1492.137
G01 X695.948 Y1493.465
G01 X706.164 Y1470.624
G01 X710.000 Y1473.605
G01 X710.000 Y1469.943
G01 X705.561 Y1463.945
G01 X710.000 Y1461.789
G01 X710.000 Y1222.655
G01 X690.967 Y1220.911
G01 X698.845 Y1227.570
G01 X677.380 Y1247.047
G01 X669.208 Y1238.799
G01 X667.296 Y1261.132
G01 X640.215 Y1264.441
G01 X643.981 Y1266.990
G01 X623.963 Y1290.184
G01 X609.039 Y1282.706
G01 X609.797 Y1302.484
G01 X581.555 Y1311.436
G01 X583.335 Y1310.533
G01 X569.229 Y1336.466
G01 X551.683 Y1331.660
G01 X557.942 Y1348.429
G01 X533.970 Y1363.588
G01 X536.463 Y1360.622
G01 X532.300 Y1388.202
G01 X516.284 Y1387.562
G01 X529.867 Y1400.656
G01 X514.418 Y1421.254
G01 X519.188 Y1416.746
G01 X526.798 Y1443.434
G01 X514.800 Y1446.591
G01 X535.161 Y1454.037
G01 X529.869 Y1477.103
G01 X536.307 Y1469.989
G01 X554.433 Y1491.655
G01 X546.524 Y1496.368
G01 X570.464 Y1495.358
G01 X574.076 Y1516.627
G01 X579.540 Y1505.325
G01 X604.240 Y1517.893
G01 X598.563 Y1521.793
G01 X621.202 Y1510.705
G01 X630.550 Y1526.917
G01 X631.628 Y1511.485
G01 X657.792 Y1513.342
G01 X652.006 Y1516.130
G01 X668.593 Y1496.534
G01 X680.315 Y1507.401
G01 X674.599 Y1490.945
G01 X697.882 Y1484.180
G01 X690.829 Y1488.386
G01 X698.565 Y1465.244
G01 X710.000 Y1472.901
G01 X710.000 Y1472.684
G01 X698.233 Y1461.263
G01 X710.000 Y1454.361
G01 X710.000 Y1458.971
G01 X709.237 Y1459.959
G01 X708.260 Y1439.470
G01 X710.000 Y1440.652
G01 X710.000 Y1446.189
G01 X704.565 Y1445.222
G01 X710.000 Y1441.123
G01 X710.000 Y1444.300
G01 X706.830 Y1438.120
G01 X710.000 Y1440.274
G01 X710.000 Y1454.270
G01 X706.074 Y1456.182
G01 X710.000 Y1453.177
G01 X710.000 Y1230.588
G01 X709.695 Y1230.841
G01 X709.060 Y1220.683
G01 X709.506 Y1242.924
G01 X687.251 Y1241.852
G01 X696.081 Y1245.290
G01 X676.824 Y1265.816
G01 X667.292 Y1256.018
G01 X668.530 Y1276.456
G01 X641.420 Y1280.926
G01 X645.734 Y1280.192
G01 X628.684 Y1303.849
G01 X612.492 Y1295.433
G01 X616.131 Y1312.629
G01 X588.566 Y1322.879
G01 X590.186 Y1318.861
G01 X579.267 Y1344.550
G01 X560.365 Y1339.410
G01 X568.673 Y1353.040
G01 X545.718 Y1369.415
G01 X547.051 Y1363.680
G01 X545.717 Y1390.235
G01 X528.103 Y1389.819
G01 X542.466 Y1399.438
G01 X528.061 Y1421.024
G01 X530.585 Y1414.335
G01 X540.262 Y1439.330
G01 X526.458 Y1443.304
G01 X546.195 Y1447.334
G01 X541.862 Y1471.190
G01 X545.195 Y1462.825
G01 X564.511 Y1482.450
G01 X554.867 Y1488.692
G01 X576.988 Y1484.835
G01 X581.583 Y1506.831
G01 X583.588 Y1495.527
G01 X608.750 Y1506.083
G01 X601.841 Y1512.262
G01 X621.921 Y1499.298
G01 X632.492 Y1516.221
G01 X630.369 Y1502.110
G01 X656.524 Y1502.186
G01 X650.412 Y1507.770
G01 X664.198 Y1487.356
G01 X677.522 Y1498.714
G01 X669.368 Y1484.589
G01 X692.355 Y1476.183
G01 X686.056 Y1483.158
G01 X691.101 Y1459.989
G01 X705.151 Y1467.979
G01 X691.219 Y1458.592
G01 X708.906 Y1446.099
G01 X703.312 Y1457.585
G01 X699.867 Y1437.449
G01 X710.000 Y1442.648
G01 X710.000 Y1444.847
G01 X697.489 Y1444.543
G01 X710.000 Y1432.238
G01 X710.000 Y1432.853
G01 X707.812 Y1449.816
G01 X698.537 Y1436.736
G01 X710.000 Y1442.326
G01 X710.000 Y1447.867
G01 X699.201 Y1454.512
G01 X708.433 Y1443.836
G01 X710.000 Y1452.209
G01 X710.000 Y1464.761
G01 X701.185 Y1460.471
G01 X710.000 Y1463.407
G01 X710.000 Y1233.538
G01 X708.191 Y1232.876
G01 X710.000 Y1233.384
G01 X710.000 Y1249.029
G01 X705.148 Y1253.823
G01 X702.820 Y1241.930
G01 X706.232 Y1262.773
G01 X683.262 Y1262.872
G01 X692.719 Y1263.039
G01 X676.001 Y1284.471
G01 X664.994 Y1273.472
G01 X669.301 Y1291.703
G01 X642.476 Y1297.558
G01 X647.009 Y1293.601
G01 X633.199 Y1317.500
G01 X615.729 Y1308.526
G01 X622.074 Y1322.876
G01 X595.548 Y1334.553
G01 X596.706 Y1327.583
G01 X589.163 Y1352.740
G01 X569.002 Y1347.636
G01 X579.110 Y1357.927
G01 X557.551 Y1375.532
G01 X557.481 Y1367.272
G01 X559.068 Y1392.468
G01 X540.055 Y1392.595
G01 X554.898 Y1398.614
G01 X541.901 Y1421.083
G01 X542.017 Y1412.509
G01 X553.747 Y1435.456
G01 X538.420 Y1440.485
G01 X557.205 Y1441.062
G01 X554.145 Y1465.490
G01 X554.302 Y1456.198
G01 X574.686 Y1473.440
G01 X563.642 Y1481.347
G01 X583.615 Y1474.698
G01 X589.425 Y1497.116
G01 X587.990 Y1486.138
G01 X613.389 Y1494.388
G01 X605.602 Y1502.876
G01 X622.817 Y1488.187
G01 X634.734 Y1505.463
G01 X629.519 Y1492.981
G01 X655.357 Y1491.065
G01 X649.259 Y1499.375
G01 X659.990 Y1478.380
G01 X674.922 Y1489.855
G01 X664.524 Y1478.329
G01 X686.855 Y1468.180
G01 X681.614 Y1477.758
G01 X683.796 Y1454.871
G01 X699.639 Y1462.358
G01 X684.533 Y1455.909
G01 X701.256 Y1441.658
G01 X697.598 Y1454.970
G01 X691.623 Y1435.534
G01 X707.908 Y1441.558
G01 X690.703 Y1443.784
G01 X701.882 Y1429.437
G01 X701.979 Y1447.695
G01 X690.438 Y1435.437
G01 X707.982 Y1440.970
G01 X692.631 Y1452.702
G01 X699.774 Y1440.018
G01 X706.193 Y1461.536
G01 X692.670 Y1456.965
G01 X710.000 Y1459.973
G01 X710.000 Y1465.015
G01 X702.691 Y1479.001
G01 X707.390 Y1467.082
G01 X710.000 Y1470.837
G01 X710.000 Y1488.307
G01 X709.090 Y1488.368
G01 X710.000 Y1488.287
G01 X710.000 Y1241.423
G01 X708.905 Y1240.412
G01 X710.000 Y1240.655
G01 X710.000 Y1259.816
G01 X700.860 Y1257.359
G01 X710.000 Y1257.897
G01 X710.000 Y1264.931
G01 X700.263 Y1276.612
G01 X696.072 Y1263.304
G01 X702.418 Y1282.409
G01 X679.016 Y1283.942
G01 X688.760 Y1280.838
G01 X674.891 Y1302.986
G01 X662.340 Y1291.159
G01 X669.583 Y1306.882
G01 X643.390 Y1314.302
G01 X647.815 Y1307.240
G01 X637.480 Y1331.119
G01 X618.772 Y1321.975
G01 X627.603 Y1333.242
G01 X602.495 Y1346.425
G01 X602.907 Y1336.717
G01 X598.883 Y1361.027
G01 X577.614 Y1356.322
G01 X589.235 Y1363.113
G01 X569.455 Y1381.911
G01 X567.770 Y1371.412
G01 X572.317 Y1394.901
G01 X552.152 Y1395.869
G01 X567.152 Y1398.213
G01 X555.916 Y1421.408
G01 X553.503 Y1411.279
G01 X567.218 Y1431.825
G01 X550.690 Y1438.112
G01 X568.189 Y1435.250
G01 X566.690 Y1459.989
G01 X563.649 Y1450.113
G01 X584.930 Y1464.646
G01 X572.849 Y1474.311
G01 X590.353 Y1464.977
G01 X597.568 Y1487.477
G01 X592.769 Y1477.155
G01 X618.137 Y1482.838
G01 X609.840 Y1493.614
G01 X623.907 Y1477.397
G01 X637.245 Y1494.645
G01 X629.100 Y1484.089
G01 X654.280 Y1480.012
G01 X648.535 Y1490.922
G01 X655.994 Y1469.625
G01 X672.487 Y1480.835
G01 X660.084 Y1472.149
G01 X681.381 Y1460.201
G01 X677.484 Y1472.170
G01 X676.681 Y1449.899
G01 X694.162 Y1456.538
G01 X678.186 Y1453.191
G01 X693.575 Y1437.247
G01 X692.072 Y1452.099
G01 X683.558 Y1433.725
G01 X701.260 Y1437.983
G01 X684.209 Y1442.917
G01 X693.645 Y1426.791
G01 X696.255 Y1445.302
G01 X682.562 Y1434.214
G01 X700.866 Y1437.041
G01 X686.358 Y1450.728
G01 X691.170 Y1436.293
G01 X699.903 Y1456.779
G01 X684.479 Y1453.480
G01 X703.939 Y1453.664
G01 X695.372 Y1473.527
G01 X697.085 Y1460.326
G01 X710.000 Y1475.424
G01 X710.000 Y1479.397
G01 X698.753 Y1481.345
G01 X710.000 Y1478.553
G01 X710.000 Y1279.360
G01 X709.072 Y1276.753
G01 X710.000 Y1277.175
G01 X710.000 Y1282.134
G01 X703.078 Y1281.662
G01 X710.000 Y1272.327
G01 X710.000 Y1276.986
G01 X702.049 Y1264.523
G01 X710.000 Y1266.251
G01 X710.000 Y1272.223
G01 X702.667 Y1275.121
G01 X710.000 Y1260.595
G01 X710.000 Y1273.641
G01 X700.054 Y1266.657
G01 X710.000 Y1267.282
G01 X710.000 Y1275.507
G01 X703.203 Y1281.963
G01 X705.171 Y1266.140
G01 X710.000 Y1278.381
G01 X710.000 Y1284.755
G01 X693.181 Y1281.840
G01 X708.151 Y1279.543
G01 X695.026 Y1299.175
G01 X688.844 Y1284.807
G01 X698.037 Y1301.835
G01 X674.528 Y1305.027
G01 X684.209 Y1298.708
G01 X673.470 Y1321.333
G01 X659.359 Y1309.072
G01 X669.353 Y1322.005
G01 X644.167 Y1331.126
G01 X648.162 Y1321.128
G01 X641.497 Y1344.690
G01 X621.646 Y1335.768
G01 X632.698 Y1343.746
G01 X609.402 Y1358.462
G01 X608.806 Y1346.281
G01 X608.394 Y1369.405
G01 X586.217 Y1365.449
G01 X599.033 Y1368.624
G01 X581.411 Y1388.523
G01 X577.936 Y1376.114
G01 X585.429 Y1397.540
G01 X564.406 Y1399.618
G01 X579.221 Y1398.264
G01 X570.078 Y1421.978
G01 X565.063 Y1410.651
G01 X580.643 Y1428.453
G01 X563.272 Y1436.160
G01 X579.149 Y1429.930
G01 X579.465 Y1454.673
G01 X573.259 Y1444.568
G01 X595.214 Y1456.094
G01 X582.483 Y1467.558
G01 X597.212 Y1455.702
G01 X605.980 Y1477.910
G01 X597.946 Y1468.572
G01 X622.976 Y1471.464
G01 X614.543 Y1484.453
G01 X625.210 Y1466.953
G01 X639.991 Y1483.774
G01 X629.131 Y1475.419
G01 X653.285 Y1469.062
G01 X648.222 Y1482.393
G01 X652.235 Y1461.105
G01 X670.189 Y1471.668
G01 X656.064 Y1466.028
G01 X675.938 Y1452.281
G01 X673.646 Y1466.377
G01 X669.784 Y1445.080
G01 X688.696 Y1450.539
G01 X672.187 Y1450.413
G01 X685.876 Y1432.896
G01 X686.707 Y1448.964
G01 X675.700 Y1432.018
G01 X694.535 Y1434.259
G01 X678.007 Y1441.915
G01 X685.398 Y1424.234
G01 X690.612 Y1442.636
G01 X674.934 Y1433.055
G01 X693.666 Y1433.018
G01 X680.372 Y1448.564
G01 X682.647 Y1432.679
G01 X693.685 Y1451.756
G01 X676.631 Y1449.997
G01 X695.453 Y1446.882
G01 X688.380 Y1467.792
G01 X687.004 Y1453.653
G01 X704.427 Y1469.951
G01 X688.871 Y1474.211
G01 X707.248 Y1466.148
G01 X707.956 Y1488.313
G01 X703.708 Y1474.890
G01 X710.000 Y1477.604
G01 X710.000 Y1323.487
G01 X702.675 Y1321.670
G01 X710.000 Y1312.594
G01 X710.000 Y1317.089
G01 X708.314 Y1320.623
G01 X698.286 Y1299.795
G01 X710.000 Y1303.417
G01 X710.000 Y1305.060
G01 X694.500 Y1306.525
G01 X705.034 Y1288.756
G01 X705.576 Y1305.843
G01 X692.402 Y1290.297
G01 X710.000 Y1291.849
G01 X710.000 Y1292.622
G01 X694.823 Y1301.372
G01 X701.037 Y1283.297
G01 X707.540 Y1301.636
G01 X690.796 Y1292.896
G01 X709.194 Y1291.182
G01 X695.831 Y1307.243
G01 X695.436 Y1290.255
G01 X705.635 Y1307.872
G01 X685.174 Y1306.288
G01 X700.020 Y1300.813
G01 X689.418 Y1321.481
G01 X681.167 Y1306.433
G01 X693.064 Y1321.058
G01 X669.807 Y1326.091
G01 X679.076 Y1316.669
G01 X671.714 Y1339.492
G01 X656.079 Y1327.199
G01 X668.590 Y1337.088
G01 X644.804 Y1347.993
G01 X648.066 Y1335.283
G01 X645.218 Y1358.200
G01 X624.374 Y1349.886
G01 X637.342 Y1354.413
G01 X616.254 Y1370.631
G01 X614.421 Y1356.288
G01 X617.659 Y1377.875
G01 X594.827 Y1374.994
G01 X608.495 Y1374.488
G01 X593.397 Y1395.341
G01 X587.999 Y1381.384
G01 X598.368 Y1400.396
G01 X576.823 Y1403.816
G01 X591.101 Y1398.797
G01 X584.357 Y1422.774
G01 X576.719 Y1410.628
G01 X593.991 Y1425.361
G01 X576.163 Y1434.601
G01 X590.090 Y1425.130
G01 X592.435 Y1449.535
G01 X583.153 Y1439.561
G01 X605.517 Y1447.813
G01 X592.534 Y1461.064
G01 X604.208 Y1446.897
G01 X614.624 Y1468.419
G01 X603.542 Y1460.377
G01 X627.894 Y1460.299
G01 X619.697 Y1475.371
G01 X626.750 Y1456.873
G01 X642.942 Y1472.861
G01 X629.628 Y1466.954
G01 X652.371 Y1458.250
G01 X648.300 Y1473.770
G01 X648.741 Y1452.833
G01 X668.000 Y1462.374
G01 X652.472 Y1459.943
G01 X670.533 Y1444.453
G01 X670.073 Y1460.368
G01 X663.136 Y1440.413
G01 X683.222 Y1444.386
G01 X666.537 Y1447.548
G01 X678.177 Y1428.631
G01 X681.476 Y1445.557
G01 X668.077 Y1430.401
G01 X687.720 Y1430.412
G01 X672.091 Y1440.753
G01 X677.168 Y1421.787
G01 X685.022 Y1439.699
G01 X667.577 Y1431.941
G01 X686.378 Y1428.932
G01 X674.661 Y1446.187
G01 X674.233 Y1429.189
G01 X687.513 Y1446.480
G01 X669.143 Y1446.494
G01 X686.963 Y1440.078
G01 X681.695 Y1461.779
G01 X677.181 Y1447.067
G01 X695.984 Y1460.758
G01 X679.452 Y1466.942
G01 X695.651 Y1455.932
G01 X698.081 Y1478.306
G01 X690.435 Y1465.318
G01 X710.000 Y1471.266
G01 X710.000 Y1474.934
G01 X700.340 Y1482.317
G01 X710.000 Y1470.202
G01 X710.000 Y1361.403
G01 X706.656 Y1360.155
G01 X710.000 Y1356.887
G01 X710.000 Y1359.323
G01 X708.942 Y1360.609
G01 X700.302 Y1337.769
G01 X710.000 Y1343.061
G01 X710.000 Y1344.660
G01 X691.469 Y1342.985
G01 X703.260 Y1325.869
G01 X699.306 Y1342.134
G01 X687.090 Y1322.859
G01 X704.608 Y1326.093
G01 X685.600 Y1331.190
G01 X694.323 Y1312.057
G01 X697.659 Y1329.734
G01 X682.337 Y1316.081
G01 X701.819 Y1315.353
G01 X686.596 Y1327.375
G01 X690.376 Y1308.154
G01 X699.514 Y1325.823
G01 X681.156 Y1319.100
G01 X699.511 Y1314.455
G01 X688.056 Y1332.233
G01 X685.154 Y1314.439
G01 X697.926 Y1330.225
G01 X676.853 Y1330.666
G01 X691.206 Y1322.057
G01 X683.417 Y1343.502
G01 X673.072 Y1328.174
G01 X687.478 Y1340.090
G01 X664.859 Y1347.099
G01 X673.376 Y1334.741
G01 X669.593 Y1357.444
G01 X652.527 Y1345.524
G01 X667.275 Y1352.150
G01 X645.298 Y1364.868
G01 X647.545 Y1349.722
G01 X648.610 Y1371.642
G01 X626.978 Y1364.308
G01 X641.523 Y1365.265
G01 X623.036 Y1382.901
G01 X619.773 Y1366.748
G01 X626.644 Y1386.439
G01 X603.458 Y1384.930
G01 X617.613 Y1380.731
G01 X605.386 Y1402.341
G01 X597.983 Y1387.226
G01 X611.100 Y1403.483
G01 X589.405 Y1408.435
G01 X602.794 Y1399.841
G01 X598.719 Y1423.781
G01 X588.494 Y1411.206
G01 X607.232 Y1422.572
G01 X589.359 Y1433.409
G01 X601.023 Y1420.879
G01 X605.563 Y1444.570
G01 X593.351 Y1435.081
G01 X615.817 Y1439.833
G01 X602.991 Y1454.804
G01 X611.358 Y1438.586
G01 X623.466 Y1459.009
G01 X609.573 Y1452.556
G01 X632.880 Y1449.380
G01 X625.280 Y1466.346
G01 X628.551 Y1447.174
G01 X646.064 Y1461.923
G01 X630.603 Y1458.674
G01 X651.541 Y1447.610
G01 X648.744 Y1465.037
G01 X645.542 Y1444.813
G01 X665.895 Y1452.975
G01 X649.316 Y1453.869
G01 X665.181 Y1436.747
G01 X666.739 Y1454.132
G01 X656.764 Y1435.893
G01 X677.720 Y1438.108
G01 X661.236 Y1444.569
G01 X670.499 Y1424.478
G01 X676.350 Y1441.879
G01 X660.717 Y1428.863
G01 X680.806 Y1426.475
G01 X666.451 Y1439.403
G01 X668.980 Y1419.468
G01 X679.455 Y1436.499
G01 X660.513 Y1430.852
G01 X679.002 Y1424.816
G01 X669.206 Y1443.576
G01 X665.960 Y1425.833
G01 X681.360 Y1440.966
G01 X662.029 Y1442.946
G01 X678.477 Y1433.286
G01 X675.291 Y1455.476
G01 X667.646 Y1440.571
G01 X687.609 Y1451.331
G01 X670.503 Y1459.513
G01 X684.191 Y1445.713
G01 X688.519 Y1467.918
G01 X677.592 Y1455.722
G01 X700.615 Y1459.680
G01 X687.366 Y1471.936
G01 X696.985 Y1453.895
G01 X708.204 Y1472.920
G01 X694.547 Y1463.456
G01 X710.000 Y1460.742
G01 X710.000 Y1472.374
G01 X709.096 Y1473.846
G01 X710.000 Y1468.861
G01 X710.000 Y1393.146
G01 X706.777 Y1391.494
G01 X710.000 Y1389.469
G01 X710.000 Y1393.280
G01 X708.419 Y1394.753
G01 X702.785 Y1371.230
G01 X710.000 Y1377.858
G01 X710.000 Y1380.703
G01 X690.983 Y1376.598
G01 X704.499 Y1361.736
G01 X696.434 Y1377.835
G01 X685.832 Y1356.392
G01 X701.558 Y1362.432
G01 X680.041 Y1364.081
G01 X690.667 Y1345.597
G01 X689.854 Y1363.255
G01 X675.516 Y1345.928
G01 X694.444 Y1347.276
G01 X676.377 Y1355.618
G01 X682.976 Y1335.381
G01 X689.165 Y1353.262
G01 X671.882 Y1341.846
G01 X691.710 Y1338.595
G01 X677.977 Y1353.093
G01 X679.109 Y1333.060
G01 X690.835 Y1349.667
G01 X671.153 Y1345.233
G01 X689.076 Y1337.633
G01 X679.857 Y1356.901
G01 X674.355 Y1338.687
G01 X689.548 Y1352.289
G01 X668.232 Y1354.936
G01 X681.718 Y1343.296
G01 X676.998 Y1365.215
G01 X664.590 Y1350.018
G01 X681.257 Y1358.946
G01 X659.687 Y1368.011
G01 X667.127 Y1352.940
G01 X667.076 Y1375.175
G01 X648.731 Y1364.029
G01 X665.395 Y1367.213
G01 X645.637 Y1381.714
G01 X646.623 Y1364.455
G01 X651.639 Y1385.013
G01 X629.475 Y1379.007
G01 X645.234 Y1376.330
G01 X629.726 Y1395.242
G01 X624.887 Y1377.668
G01 X635.314 Y1395.104
G01 X612.117 Y1395.228
G01 X626.388 Y1387.383
G01 X617.347 Y1409.500
G01 X607.910 Y1393.640
G01 X623.595 Y1406.817
G01 X602.153 Y1413.444
G01 X614.308 Y1401.422
G01 X613.127 Y1424.988
G01 X600.408 Y1412.377
G01 X620.341 Y1420.113
G01 X602.849 Y1432.554
G01 X611.962 Y1417.199
G01 X618.811 Y1439.778
G01 X603.871 Y1431.116
G01 X626.098 Y1432.188
G01 X613.833 Y1448.752
G01 X618.684 Y1430.788
G01 X632.469 Y1449.692
G01 X616.054 Y1445.090
G01 X637.930 Y1438.743
G01 X631.270 Y1457.361
G01 X630.639 Y1437.867
G01 X649.328 Y1450.978
G01 X632.067 Y1450.555
G01 X650.800 Y1437.179
G01 X649.527 Y1456.182
G01 X642.666 Y1437.047
G01 X663.851 Y1443.498
G01 X646.598 Y1447.780
G01 X659.897 Y1429.193
G01 X663.614 Y1447.666
G01 X650.699 Y1431.513
G01 X672.178 Y1431.734
G01 X656.278 Y1441.448
G01 X662.866 Y1420.458
G01 X671.297 Y1437.931
G01 X653.642 Y1427.384
G01 X673.789 Y1422.480
G01 X661.072 Y1437.840
G01 X660.865 Y1417.289
G01 X673.882 Y1433.048
G01 X653.757 Y1429.765
G01 X671.543 Y1420.704
G01 X663.984 Y1440.711
G01 X657.859 Y1422.614
G01 X675.202 Y1435.237
G01 X655.298 Y1439.328
G01 X670.011 Y1426.537
G01 X669.144 Y1448.872
G01 X658.432 Y1434.163
G01 X679.285 Y1441.701
G01 X662.025 Y1451.897
G01 X672.889 Y1435.519
G01 X679.240 Y1457.151
G01 X665.207 Y1446.092
G01 X687.910 Y1446.812
G01 X674.906 Y1461.204
G01 X680.883 Y1441.745
G01 X693.714 Y1459.874
G01 X677.303 Y1452.698
G01 X699.415 Y1445.877
G01 X691.322 Y1462.669
G01 X691.266 Y1441.480
G01 X708.768 Y1454.232
G01 X690.712 Y1451.474
G01 X709.490 Y1437.720
G01 X706.260 Y1455.545
G01 X699.382 Y1434.747
G01 X710.000 Y1438.245
G01 X710.000 Y1442.421
G01 X700.434 Y1443.591
G01 X710.000 Y1429.690
G01 X710.000 Y1435.809
G01 X701.280 Y1424.219
G01 X710.000 Y1424.310
G01 X710.000 Y1429.175
G01 X703.157 Y1432.042
G01 X709.222 Y1409.828
G01 X710.000 Y1412.051
G01 X710.000 Y1422.749
G01 X695.926 Y1412.835
G01 X710.000 Y1408.370
G01 X710.000 Y1410.554
G01 X698.942 Y1419.360
G01 X697.820 Y1396.061
G01 X707.970 Y1409.757
G01 X685.743 Y1402.202
G01 X701.937 Y1390.639
G01 X690.980 Y1406.709
G01 X683.489 Y1384.291
G01 X697.891 Y1393.899
G01 X675.213 Y1392.757
G01 X688.246 Y1376.433
G01 X683.625 Y1394.593
G01 X671.063 Y1374.969
G01 X689.008 Y1379.562
G01 X668.392 Y1384.920
G01 X677.490 Y1365.293
G01 X679.929 Y1383.971
G01 X663.595 Y1368.979
G01 X683.565 Y1368.247
G01 X666.825 Y1379.771
G01 X671.023 Y1358.737
G01 X680.065 Y1376.420
G01 X661.062 Y1367.562
G01 X680.834 Y1361.699
G01 X668.949 Y1378.490
G01 X667.271 Y1358.015
G01 X681.474 Y1373.171
G01 X660.806 Y1371.257
G01 X677.898 Y1360.737
G01 X671.214 Y1381.215
G01 X663.076 Y1362.990
G01 X680.479 Y1374.073
G01 X659.319 Y1379.059
G01 X671.576 Y1364.548
G01 X670.134 Y1386.599
G01 X655.753 Y1371.947
G01 X674.386 Y1377.645
G01 X654.286 Y1388.789
G01 X660.353 Y1371.283
G01 X664.133 Y1392.675
G01 X644.715 Y1382.687
G01 X662.939 Y1382.302
G01 X645.809 Y1398.497
G01 X645.325 Y1379.492
G01 X654.272 Y1398.314
G01 X631.884 Y1393.955
G01 X648.470 Y1387.634
G01 X636.299 Y1407.625
G01 X629.789 Y1389.048
G01 X643.636 Y1403.883
G01 X620.811 Y1405.855
G01 X634.822 Y1394.470
G01 X629.247 Y1416.799
G01 X617.806 Y1400.620
G01 X635.821 Y1410.422
G01 X615.059 Y1418.810
G01 X625.651 Y1403.568
G01 X627.544 Y1426.385
G01 X612.482 Y1414.130
G01 X633.296 Y1418.014
G01 X616.616 Y1432.006
G01 X622.923 Y1414.113
G01 X632.139 Y1435.162
G01 X614.730 Y1427.646
G01 X636.349 Y1424.914
G01 X625.038 Y1442.886
G01 X626.209 Y1423.519
G01 X641.598 Y1440.481
G01 X622.995 Y1437.956
G01 X643.044 Y1428.424
G01 X637.638 Y1448.400
G01 X633.042 Y1428.959
G01 X652.704 Y1440.052
G01 X634.022 Y1442.571
G01 X650.159 Y1426.989
G01 X650.619 Y1447.197
G01 X640.142 Y1429.534
G01 X661.848 Y1433.974
G01 X644.315 Y1441.647
G01 X654.703 Y1421.819
G01 X660.665 Y1440.969
G01 X644.967 Y1427.260
G01 X666.586 Y1425.299
G01 X651.651 Y1438.160
G01 X655.307 Y1416.591
G01 X666.288 Y1433.722
G01 X646.876 Y1425.945
G01 X666.668 Y1418.462
G01 X655.936 Y1436.042
G01 X652.853 Y1415.260
G01 X668.275 Y1429.362
G01 X647.325 Y1428.652
G01 X664.009 Y1416.629
G01 X658.972 Y1437.577
G01 X649.962 Y1419.535
G01 X669.015 Y1429.317
G01 X648.955 Y1435.610
G01 X661.581 Y1419.863
G01 X663.224 Y1441.962
G01 X649.568 Y1427.835
G01 X671.000 Y1431.898
G01 X654.012 Y1444.069
G01 X661.772 Y1425.377
G01 X670.216 Y1446.009
G01 X653.310 Y1436.415
G01 X675.316 Y1433.743
G01 X662.951 Y1450.100
G01 X665.090 Y1429.554
G01 X679.468 Y1446.355
G01 X660.615 Y1441.708
G01 X680.963 Y1432.149
G01 X674.010 Y1450.941
G01 X669.949 Y1430.160
G01 X688.570 Y1441.491
G01 X669.004 Y1442.166
G01 X685.409 Y1426.587
G01 X684.026 Y1446.237
G01 X673.650 Y1427.234
G01 X694.408 Y1432.280
G01 X675.453 Y1438.474
G01 X686.055 Y1418.533
G01 X690.039 Y1437.578
G01 X673.981 Y1422.352
G01 X694.805 Y1420.940
G01 X678.003 Y1432.387
G01 X681.762 Y1410.109
G01 X690.756 Y1427.069
G01 X670.500 Y1417.175
G01 X689.659 Y1409.571
G01 X676.711 Y1425.369
G01 X673.532 Y1402.813
G01 X687.052 Y1416.206
G01 X664.753 Y1412.543
G01 X680.922 Y1399.391
G01 X673.408 Y1418.091
G01 X663.995 Y1397.211
G01 X681.277 Y1405.763
G01 X659.356 Y1408.597
G01 X671.500 Y1390.991
G01 X670.491 Y1410.867
G01 X656.027 Y1393.483
G01 X675.847 Y1396.387
G01 X656.524 Y1405.462
G01 X663.757 Y1384.971
G01 X669.502 Y1404.272
G01 X651.355 Y1391.984
G01 X671.967 Y1389.026
G01 X656.932 Y1403.609
G01 X658.494 Y1382.131
G01 X670.331 Y1399.205
G01 X649.898 Y1393.192
G01 X669.197 Y1384.686
G01 X659.495 Y1403.533
G01 X654.894 Y1383.015
G01 X671.409 Y1396.341
G01 X650.126 Y1397.134
G01 X665.990 Y1383.787
G01 X662.101 Y1405.152
G01 X651.348 Y1387.333
G01 X670.700 Y1395.593
G01 X650.116 Y1402.994
G01 X660.799 Y1385.830
G01 X662.794 Y1407.638
G01 X646.591 Y1393.938
G01 X666.853 Y1396.206
G01 X648.651 Y1409.394
G01 X653.079 Y1389.779
G01 X660.732 Y1409.940
G01 X640.504 Y1401.471
G01 X659.902 Y1397.440
G01 X645.793 Y1415.184
G01 X643.680 Y1394.838
G01 X656.476 Y1411.551
G01 X634.215 Y1409.117
G01 X651.234 Y1399.204
G01 X642.727 Y1420.026
G01 X634.506 Y1400.886
G01 X651.579 Y1412.792
G01 X629.540 Y1416.777
G01 X642.923 Y1402.018
G01 X641.050 Y1424.224
G01 X627.693 Y1408.156
G01 X647.754 Y1414.323
G01 X628.114 Y1424.501
G01 X636.839 Y1406.299
G01 X641.929 Y1427.971
G01 X624.735 Y1416.447
G01 X646.080 Y1416.307
G01 X630.642 Y1431.739
G01 X633.927 Y1411.639
G01 X645.509 Y1430.731
G01 X625.941 Y1424.652
G01 X646.562 Y1418.044
G01 X636.580 Y1437.185
G01 X633.957 Y1416.789
G01 X650.817 Y1431.397
G01 X630.404 Y1431.129
G01 X648.225 Y1418.458
G01 X644.353 Y1439.449
G01 X635.788 Y1420.452
G01 X656.167 Y1429.172
G01 X636.470 Y1434.697
G01 X649.636 Y1417.073
G01 X651.985 Y1438.078
G01 X637.999 Y1422.264
G01 X659.870 Y1424.435
G01 X642.460 Y1435.445
G01 X649.623 Y1414.650
G01 X657.861 Y1434.045
G01 X639.593 Y1423.116
G01 X660.937 Y1418.836
G01 X647.341 Y1434.678
G01 X647.852 Y1412.891
G01 X661.291 Y1429.264
G01 X640.436 Y1424.519
G01 X659.447 Y1414.454
G01 X651.020 Y1433.988
G01 X644.979 Y1413.386
G01 X662.610 Y1425.462
G01 X641.225 Y1427.485
G01 X656.414 Y1412.623
G01 X654.140 Y1434.163
G01 X642.302 Y1416.590
G01 X662.782 Y1423.236
G01 X642.998 Y1431.765
G01 X653.211 Y1413.291
G01 X657.499 Y1434.744
G01 X641.085 Y1421.575
G01 X662.743 Y1421.959
G01 X646.456 Y1436.003
G01 X650.869 Y1415.308
G01 X661.417 Y1434.502
G01 X641.924 Y1426.673
G01 X662.834 Y1420.512
G01 X651.484 Y1438.605
G01 X649.639 Y1417.337
G01 X665.439 Y1432.384
G01 X644.500 Y1430.464
G01 X662.668 Y1418.190
G01 X657.137 Y1438.650
G01 X649.035 Y1418.669
G01 X668.521 Y1428.209
G01 X647.837 Y1432.402
G01 X661.468 Y1415.148
G01 X662.100 Y1436.224
G01 X648.299 Y1419.408
G01 X669.597 Y1422.684
G01 X650.893 Y1432.744
G01 X658.657 Y1412.165
G01 X665.322 Y1432.098
G01 X646.984 Y1420.077
G01 X668.158 Y1416.899
G01 X653.097 Y1432.045
G01 X654.300 Y1410.068
G01 X666.451 Y1427.159
G01 X645.265 Y1421.084
G01 X664.501 Y1411.779
G01 X654.529 Y1430.706
G01 X649.162 Y1409.321
G01 X665.843 Y1422.051
G01 X643.823 Y1422.481
G01 X659.530 Y1407.866
G01 X655.682 Y1428.880
G01 X644.340 Y1409.983
G01 X664.192 Y1417.189
G01 X643.417 Y1424.079
G01 X654.286 Y1405.431
G01 X657.002 Y1426.643
G01 X640.759 Y1411.912
G01 X662.066 Y1412.929
G01 X644.430 Y1425.668
G01 X649.497 Y1404.640
G01 X658.545 Y1424.152
G01 X638.823 Y1414.911
G01 X659.649 Y1409.637
G01 X646.684 Y1427.096
G01 X645.423 Y1405.561
G01 X659.935 Y1421.621
G01 X638.409 Y1418.698
G01 X656.807 Y1407.578
G01 X649.591 Y1428.190
G01 X642.015 Y1408.048
G01 X660.616 Y1419.187
G01 X639.124 Y1422.821
G01 X653.370 Y1406.802
G01 X652.491 Y1428.688
G01 X639.206 Y1411.698
G01 X660.196 Y1416.866
G01 X640.623 Y1426.698
G01 X649.413 Y1407.157
G01 X654.949 Y1428.321
G01 X637.132 Y1415.966
G01 X658.649 Y1414.654
G01 X642.768 Y1429.787
G01 X645.334 Y1408.438
G01 X656.839 Y1426.969
G01 X636.115 Y1420.348
G01 X656.284 Y1412.655
G01 X645.567 Y1431.744
G01 X641.717 Y1410.492
G01 X658.220 Y1424.735
G01 X636.477 Y1424.458
G01 X653.531 Y1411.067
G01 X648.977 Y1432.422
G01 X639.066 Y1413.174
G01 X659.115 Y1421.852
G01 X638.300 Y1427.957
G01 X650.705 Y1410.052
G01 X652.717 Y1431.763
G01 X637.595 Y1416.232
G01 X659.372 Y1418.546
G01 X641.303 Y1430.483
G01 X647.890 Y1409.636
G01 X656.242 Y1429.745
G01 X637.185 Y1419.307
G01 X658.678 Y1415.024
G01 X644.902 Y1431.726
G01 X644.997 Y1409.789
G01 X658.881 Y1426.499
G01 X637.514 Y1422.107
G01 X656.734 Y1411.617
G01 X648.427 Y1431.630
G01 X641.956 Y1410.603
G01 X660.094 Y1422.465
G01 X638.284 Y1424.584
G01 X653.483 Y1408.881
G01 X651.381 Y1430.500
G01 X638.905 Y1412.343
G01 X659.692 Y1418.370
G01 X639.405 Y1426.904
G01 X649.247 Y1407.460
G01 X653.591 Y1428.825
G01 X636.263 Y1415.226
G01 X657.904 Y1414.917
G01 X641.020 Y1429.146
G01 X644.685 Y1407.705
G01 X655.168 Y1426.903
G01 X634.598 Y1419.060
G01 X655.230 Y1412.384
G01 X643.327 Y1430.980
G01 X640.533 Y1409.368
G01 X656.279 Y1424.575
G01 X634.336 Y1423.080
G01 X652.137 Y1410.491
G01 X646.298 Y1431.662
G01 X637.275 Y1411.666
G01 X656.862 Y1421.373
G01 X635.462 Y1426.233
G01 X648.778 Y1408.716
G01 X649.458 Y1430.460
G01 X634.909 Y1413.771
G01 X656.487 Y1417.024
G01 X637.424 Y1427.763
G01 X644.925 Y1406.847
G01 X651.938 Y1427.223
G01 X633.009 Y1415.368
G01 X654.508 Y1411.921
G01 X639.345 Y1427.675
G01 X640.213 Y1405.332
G01 X652.814 Y1422.647
G01 X631.071 Y1416.844
G01 X650.469 Y1407.157
G01 X640.486 Y1426.702
G01 X634.570 Y1405.104
G01 X651.605 Y1417.987
G01 X628.973 Y1418.941
G01 X644.546 Y1404.036
G01 X640.682 Y1425.787
G01 X628.562 Y1407.006
G01 X648.607 Y1414.417
G01 X627.217 Y1422.156
G01 X637.697 Y1403.433
G01 X640.459 Y1425.506
G01 X623.369 Y1411.257
G01 X644.810 Y1412.537
G01 X626.753 Y1426.372
G01 X631.375 Y1405.473
G01 X640.701 Y1425.858
G01 X620.324 Y1417.374
G01 X641.399 Y1412.340
G01 X628.429 Y1430.989
G01 X626.879 Y1409.716
G01 X642.035 Y1426.533
G01 X620.244 Y1424.531
G01 X639.099 Y1413.580
G01 X632.380 Y1435.351
G01 X624.750 Y1415.583
G01 X644.325 Y1427.310
G01 X622.967 Y1431.981
G01 X637.785 Y1416.089
G01 X637.776 Y1439.061
G01 X624.563 Y1422.590
G01 X646.622 Y1428.199
G01 X627.399 Y1439.166
G01 X636.634 Y1419.770
G01 X643.131 Y1441.913
G01 X625.289 Y1430.231
G01 X647.660 Y1429.214
G01 X632.100 Y1445.501
G01 X634.744 Y1424.309
G01 X647.028 Y1443.612
G01 X626.021 Y1437.726
G01 X646.616 Y1430.104
G01 X636.062 Y1450.199
G01 X631.847 Y1429.025
G01 X648.851 Y1443.676
G01 X626.608 Y1444.039
G01 X643.678 Y1430.398
G01 X639.213 Y1452.434
G01 X628.669 Y1433.101
G01 X649.076 Y1441.726
G01 X627.804 Y1448.275
G01 X640.061 Y1429.799
G01 X642.355 Y1451.806
G01 X626.684 Y1436.060
G01 X648.955 Y1437.914
G01 X630.834 Y1450.131
G01 X637.447 Y1428.538
G01 X646.566 Y1448.641
G01 X627.402 Y1437.999
G01 X649.772 Y1433.015
G01 X636.621 Y1449.935
G01 X637.152 Y1427.261
G01 X652.425 Y1443.767
G01 X631.566 Y1439.283
G01 X652.090 Y1427.973
G01 X645.106 Y1448.148
G01 X639.468 Y1426.450
G01 X659.474 Y1437.881
G01 X638.675 Y1439.942
G01 X655.373 Y1423.247
G01 X655.015 Y1444.795
G01 X643.495 Y1425.898
G01 X666.220 Y1431.086
G01 X647.084 Y1439.361
G01 X658.183 Y1418.592
G01 X664.209 Y1439.410
G01 X647.532 Y1424.827
G01 X670.657 Y1423.123
G01 X654.605 Y1436.725
G01 X658.824 Y1413.594
G01 X670.441 Y1431.715
G01 X649.843 Y1422.686
G01 X671.083 Y1414.201
G01 X659.366 Y1431.941
G01 X656.158 Y1408.573
G01 X672.219 Y1422.483
G01 X649.453 Y1419.984
G01 X666.869 Y1405.666
G01 X660.545 Y1426.207
G01 X650.232 Y1404.964
G01 X669.401 Y1413.711
G01 X646.630 Y1418.290
G01 X658.831 Y1399.725
G01 X658.686 Y1421.548
G01 X642.419 Y1404.624
G01 X663.261 Y1407.682
G01 X642.817 Y1419.164
G01 X649.019 Y1398.176
G01 X655.402 Y1419.445
G01 X634.957 Y1408.404
G01 X655.943 Y1405.458
G01 X639.977 Y1422.726
G01 X639.919 Y1401.002
G01 X652.554 Y1419.558
G01 X630.000 Y1415.067
G01 X649.470 Y1405.977
G01 X639.586 Y1427.045
G01 X633.384 Y1406.028
G01 X651.223 Y1419.676
G01 X628.585 Y1421.597
G01 X644.750 Y1406.605
G01 X641.740 Y1429.051
G01 X629.774 Y1410.095
G01 X651.011 Y1417.123
G01 X630.035 Y1424.865
G01 X641.121 Y1404.935
G01 X644.894 Y1426.465
G01 X627.814 Y1411.063
G01 X650.118 Y1410.716
G01 X632.221 Y1423.575
G01 X636.754 Y1400.551
G01 X646.508 Y1419.406
G01 X625.364 Y1409.193
G01 X646.294 Y1401.822
G01 X632.659 Y1419.063
G01 X629.838 Y1395.461
G01 X644.377 Y1410.463
G01 X620.768 Y1406.905
G01 X638.233 Y1393.719
G01 X629.933 Y1414.376
G01 X619.917 Y1392.860
G01 X637.946 Y1403.192
G01 X614.045 Y1407.113
G01 X626.620 Y1389.725
G01 X624.619 Y1412.347
G01 X608.568 Y1395.167
G01 X628.816 Y1400.153
G01 X607.147 Y1411.400
G01 X614.129 Y1391.471
G01 X619.077 Y1414.086
G01 X598.894 Y1402.766
G01 X620.045 Y1401.876
G01 X603.029 Y1419.334
G01 X604.249 Y1398.475
G01 X616.152 Y1418.869
G01 X594.028 Y1414.219
G01 X614.537 Y1407.300
G01 X603.987 Y1429.197
G01 X599.541 Y1409.059
G01 X617.488 Y1425.211
G01 X595.458 Y1427.486
G01 X613.473 Y1415.004
G01 X610.242 Y1439.284
G01 X600.338 Y1421.591
G01 X622.483 Y1432.009
G01 X602.192 Y1441.008
G01 X615.713 Y1424.085
G01 X619.665 Y1448.621
G01 X604.698 Y1435.014
G01 X628.560 Y1438.820
G01 X611.296 Y1453.819
G01 X618.576 Y1434.021
G01 X628.848 Y1456.674
G01 X609.646 Y1448.410
G01 X632.629 Y1445.268
G01 X619.520 Y1464.925
G01 X619.534 Y1443.979
G01 X634.923 Y1462.655
G01 X612.970 Y1460.391
G01 X632.877 Y1450.453
G01 X625.042 Y1472.886
G01 X617.803 Y1452.512
G01 X637.056 Y1465.380
G01 X614.507 Y1469.173
G01 X629.830 Y1453.166
G01 X628.332 Y1476.244
G01 X614.892 Y1458.154
G01 X636.773 Y1463.974
G01 X616.166 Y1473.452
G01 X626.091 Y1452.793
G01 X631.661 Y1474.494
G01 X613.810 Y1460.392
G01 X636.970 Y1458.759
G01 X620.738 Y1473.253
G01 X624.933 Y1449.982
G01 X637.616 Y1468.596
G01 X617.425 Y1460.002
G01 X640.224 Y1451.313
G01 X630.190 Y1469.802
G01 X628.565 Y1446.249
G01 X647.459 Y1460.343
G01 X626.869 Y1458.238
G01 X647.328 Y1443.420
G01 X644.378 Y1464.373
G01 X636.965 Y1442.702
G01 X660.213 Y1451.008
G01 X640.809 Y1455.528
G01 X656.776 Y1435.768
G01 X660.804 Y1457.133
G01 X647.820 Y1439.041
G01 X672.874 Y1440.520
G01 X655.877 Y1450.950
G01 X665.379 Y1427.656
G01 X675.484 Y1447.163
G01 X657.523 Y1433.918
G01 X681.596 Y1428.085
G01 X667.997 Y1443.197
G01 X669.667 Y1418.185
G01 X684.487 Y1433.890
G01 X662.720 Y1426.555
G01 X683.292 Y1413.873
G01 X674.002 Y1432.363
G01 X667.436 Y1407.994
G01 X685.487 Y1418.707
G01 X661.761 Y1418.253
G01 X676.973 Y1400.227
G01 X672.896 Y1420.904
G01 X658.812 Y1399.866
G01 X678.710 Y1405.168
G01 X655.438 Y1412.219
G01 X664.287 Y1391.021
G01 X666.227 Y1412.594
G01 X646.356 Y1397.284
G01 X666.859 Y1397.143
G01 X646.692 Y1411.452
G01 X648.975 Y1389.243
G01 X657.381 Y1409.946
G01 X634.102 Y1401.775
G01 X653.985 Y1396.097
G01 X639.311 Y1416.162
G01 X635.358 Y1394.552
G01 X649.987 Y1412.027
G01 X625.813 Y1411.111
G01 X643.664 Y1399.652
G01 X636.090 Y1422.857
G01 X626.440 Y1402.871
G01 X646.100 Y1414.592
G01 X623.188 Y1420.039
G01 X637.307 Y1402.828
G01 X637.315 Y1426.146
G01 X622.510 Y1408.664
G01 X645.042 Y1412.745
G01 X624.940 Y1423.350
G01 X633.471 Y1401.305
G01 X640.413 Y1422.182
G01 X621.044 Y1408.449
G01 X643.669 Y1404.350
G01 X627.375 Y1419.175
G01 X628.729 Y1394.422
G01 X641.178 Y1411.308
G01 X618.170 Y1403.027
G01 X638.106 Y1391.701
G01 X626.375 Y1410.148
G01 X619.779 Y1385.707
G01 X636.081 Y1397.974
G01 X611.027 Y1396.829
G01 X626.142 Y1380.235
G01 X619.799 Y1401.620
G01 X605.720 Y1380.606
G01 X624.442 Y1388.032
G01 X599.719 Y1394.952
G01 X608.917 Y1375.289
G01 X608.919 Y1398.331
G01 X589.089 Y1383.142
G01 X609.144 Y1385.453
G01 X587.624 Y1400.109
G01 X590.798 Y1379.287
G01 X597.927 Y1401.974
G01 X574.907 Y1393.917
G01 X595.309 Y1390.742
G01 X579.709 Y1411.606
G01 X577.322 Y1391.186
G01 X591.654 Y1411.149
G01 X568.123 Y1410.583
G01 X587.590 Y1401.813
G01 X579.752 Y1426.650
G01 X572.329 Y1408.096
G01 X592.795 Y1423.215
G01 X570.922 Y1429.915
G01 X587.650 Y1416.082
G01 X588.093 Y1442.494
G01 X575.966 Y1427.335
G01 X600.307 Y1436.173
G01 X581.502 Y1449.525
G01 X593.347 Y1431.874
G01 X601.321 Y1457.556
G01 X584.782 Y1447.230
G01 X610.003 Y1449.081
G01 X595.101 Y1468.003
G01 X600.147 Y1448.195
G01 X614.126 Y1470.927
G01 X593.856 Y1466.415
G01 X616.979 Y1461.118
G01 X606.671 Y1483.907
G01 X603.904 Y1463.648
G01 X622.204 Y1481.291
G01 X599.685 Y1482.865
G01 X618.446 Y1470.706
G01 X613.600 Y1495.132
G01 X603.327 Y1476.009
G01 X624.531 Y1486.750
G01 X602.109 Y1494.056
G01 X615.285 Y1475.900
G01 X616.917 Y1499.600
G01 X600.717 Y1483.182
G01 X623.695 Y1485.954
G01 X604.204 Y1498.311
G01 X611.489 Y1475.795
G01 X620.378 Y1496.744
G01 X600.615 Y1484.661
G01 X624.238 Y1479.428
G01 X610.320 Y1496.026
G01 X611.907 Y1471.492
G01 X628.067 Y1488.191
G01 X607.220 Y1481.938
G01 X630.010 Y1469.575
G01 X623.450 Y1489.358
G01 X619.610 Y1465.394
G01 X641.914 Y1476.711
G01 X622.031 Y1477.171
G01 X642.014 Y1459.021
G01 X643.351 Y1480.398
G01 X634.239 Y1459.233
G01 X660.414 Y1464.138
G01 X642.872 Y1471.177
G01 X657.760 Y1448.650
G01 X666.304 Y1469.425
G01 X652.066 Y1452.581
G01 X679.059 Y1450.184
G01 X664.662 Y1462.689
G01 X672.317 Y1437.258
G01 X686.502 Y1455.027
G01 X667.583 Y1443.476
G01 X692.181 Y1433.466
G01 X681.447 Y1449.869
G01 X680.444 Y1423.414
G01 X698.340 Y1436.287
G01 X675.822 Y1430.881
G01 X695.305 Y1414.072
G01 X688.772 Y1432.974
G01 X678.857 Y1408.051
G01 X698.652 Y1415.196
G01 X674.433 Y1416.882
G01 X687.057 Y1395.330
G01 X685.439 Y1415.715
G01 X667.721 Y1395.300
G01 X687.998 Y1396.870
G01 X664.693 Y1406.340
G01 X669.873 Y1382.794
G01 X673.967 Y1403.642
G01 X650.738 Y1390.303
G01 X670.475 Y1386.795
G01 X651.009 Y1403.741
G01 X649.147 Y1380.680
G01 X659.493 Y1400.344
G01 X633.716 Y1395.317
G01 X652.030 Y1386.872
G01 X638.994 Y1409.434
G01 X631.035 Y1388.363
G01 X647.440 Y1404.336
G01 X622.046 Y1407.160
G01 X637.828 Y1393.446
G01 X632.809 Y1418.403
G01 X619.735 Y1399.893
G01 X640.887 Y1409.355
G01 X618.145 Y1418.374
G01 X629.829 Y1399.189
G01 X632.988 Y1422.944
G01 X615.513 Y1407.357
G01 X638.941 Y1408.273
G01 X620.165 Y1421.656
G01 X625.858 Y1397.848
G01 X635.981 Y1417.615
G01 X614.623 Y1405.905
G01 X637.138 Y1397.962
G01 X622.867 Y1414.538
G01 X620.884 Y1388.472
G01 X635.917 Y1402.947
G01 X611.444 Y1396.842
G01 X629.953 Y1381.597
G01 X620.469 Y1400.914
G01 X610.074 Y1376.072
G01 X627.902 Y1385.210
G01 X601.857 Y1386.588
G01 X614.214 Y1366.742
G01 X610.053 Y1388.426
G01 X592.015 Y1368.336
G01 X611.082 Y1372.546
G01 X585.997 Y1382.431
G01 X591.468 Y1360.760
G01 X593.553 Y1383.744
G01 X570.161 Y1370.918
G01 X589.588 Y1370.358
G01 X568.640 Y1388.256
G01 X567.746 Y1366.902
G01 X576.984 Y1389.186
G01 X551.436 Y1384.686
G01 X570.612 Y1379.174
G01 X556.779 Y1403.166
G01 X550.637 Y1383.614
G01 X567.186 Y1402.720
G01 X542.629 Y1406.438
G01 X560.580 Y1395.916
G01 X555.704 Y1423.333
G01 X545.287 Y1406.825
G01 X567.939 Y1420.574
G01 X546.645 Y1431.783
G01 X561.660 Y1416.841
G01 X565.905 Y1444.972
G01 X551.674 Y1432.796
G01 X577.791 Y1439.833
G01 X560.894 Y1457.496
G01 X570.723 Y1439.473
G01 X582.715 Y1465.865
G01 X564.844 Y1459.211
G01 X590.952 Y1459.012
G01 X578.799 Y1481.682
G01 X581.387 Y1462.297
G01 X598.935 Y1484.680
G01 X577.939 Y1484.209
G01 X600.720 Y1476.793
G01 X593.530 Y1502.418
G01 X587.893 Y1483.309
G01 X608.848 Y1499.534
G01 X586.177 Y1505.105
G01 X603.344 Y1490.887
G01 X601.705 Y1516.912
G01 X588.457 Y1499.497
G01 X611.258 Y1507.806
G01 X589.415 Y1518.643
G01 X600.072 Y1498.614
G01 X604.938 Y1522.490
G01 X586.179 Y1508.156
G01 X609.836 Y1507.690
G01 X591.908 Y1522.808
G01 X596.290 Y1498.811
G01 X608.475 Y1518.553
G01 X587.124 Y1508.830
G01 X610.764 Y1499.946
G01 X599.560 Y1518.413
G01 X598.406 Y1493.064
G01 X617.891 Y1507.434
G01 X596.802 Y1503.766
G01 X619.145 Y1487.828
G01 X616.372 Y1508.577
G01 X610.321 Y1484.687
G01 X635.767 Y1492.891
G01 X617.055 Y1496.042
G01 X636.166 Y1474.797
G01 X641.990 Y1496.207
G01 X631.320 Y1476.023
G01 X660.059 Y1477.298
G01 X644.854 Y1486.850
G01 X658.349 Y1461.910
G01 X671.478 Y1481.669
G01 X656.254 Y1466.489
G01 X684.766 Y1460.107
G01 X673.415 Y1474.543
G01 X679.022 Y1447.408
G01 X697.222 Y1463.008
G01 X677.724 Y1453.468
G01 X702.410 Y1439.297
G01 X694.925 Y1456.716
G01 X691.182 Y1429.284
G01 X710.000 Y1438.014
G01 X710.000 Y1438.642
G01 X689.149 Y1435.632
G01 X707.129 Y1414.831
G01 X703.638 Y1433.759
G01 X690.448 Y1408.738
G01 X710.000 Y1411.723
G01 X710.000 Y1412.249
G01 X687.460 Y1415.837
G01 X697.138 Y1391.006
G01 X698.134 Y1410.638
G01 X676.982 Y1391.253
G01 X697.247 Y1388.855
G01 X674.378 Y1400.626
G01 X675.612 Y1375.068
G01 X681.865 Y1394.703
G01 X655.583 Y1383.663
G01 X674.104 Y1376.675
G01 X655.745 Y1396.008
G01 X649.564 Y1372.501
G01 X661.703 Y1390.659
G01 X633.811 Y1389.001
G01 X650.087 Y1377.823
G01 X638.998 Y1402.525
G01 X626.985 Y1382.437
G01 X644.884 Y1396.510
G01 X618.704 Y1403.185
G01 X631.978 Y1387.389
G01 X629.708 Y1413.674
G01 X613.302 Y1397.083
G01 X635.569 Y1403.998
G01 X613.451 Y1416.568
G01 X622.343 Y1395.713
G01 X628.726 Y1419.445
G01 X608.811 Y1406.154
G01 X632.703 Y1403.744
G01 X615.696 Y1419.755
G01 X618.314 Y1394.581
G01 X631.566 Y1412.779
G01 X608.573 Y1403.406
G01 X630.528 Y1391.592
G01 X618.672 Y1409.641
G01 X613.256 Y1382.708
G01 X630.694 Y1394.345
G01 X605.198 Y1390.610
G01 X621.849 Y1371.547
G01 X614.909 Y1391.349
G01 X600.758 Y1366.557
G01 X619.817 Y1372.204
G01 X593.259 Y1376.153
G01 X602.477 Y1353.274
G01 X600.664 Y1374.796
G01 X578.836 Y1356.042
G01 X597.854 Y1356.771
G01 X572.871 Y1369.523
G01 X574.308 Y1346.163
G01 X578.491 Y1368.596
G01 X551.813 Y1358.476
G01 X570.151 Y1354.911
G01 X550.182 Y1375.820
G01 X545.012 Y1354.333
G01 X556.222 Y1375.739
G01 X528.508 Y1375.049
G01 X545.970 Y1367.212
G01 X534.220 Y1393.997
G01 X524.240 Y1375.764
G01 X542.730 Y1393.608
G01 X517.562 Y1401.752
G01 X533.532 Y1389.643
G01 X531.819 Y1419.233
G01 X518.459 Y1405.235
G01 X542.912 Y1417.317
G01 X522.633 Y1433.055
G01 X535.536 Y1417.307
G01 X543.652 Y1446.713
G01 X527.499 Y1437.954
G01 X554.931 Y1443.022
G01 X540.362 Y1464.885
G01 X547.878 Y1446.896
G01 X563.820 Y1473.551
G01 X544.914 Y1470.924
G01 X571.415 Y1468.645
G01 X562.374 Y1494.826
G01 X562.336 Y1476.327
G01 X583.250 Y1497.943
G01 X561.914 Y1501.751
G01 X583.869 Y1492.319
G01 X580.071 Y1520.430
G01 X571.542 Y1502.949
G01 X594.833 Y1517.401
G01 X572.451 Y1527.068
G01 X587.595 Y1511.015
G01 X589.327 Y1538.210
G01 X573.228 Y1522.952
G01 X597.226 Y1528.570
G01 X576.420 Y1542.889
G01 X584.224 Y1521.322
G01 X592.363 Y1544.906
G01 X571.307 Y1533.044
G01 X595.195 Y1529.207
G01 X579.264 Y1546.903
G01 X580.532 Y1521.845
G01 X595.923 Y1539.925
G01 X573.358 Y1532.860
G01 X596.556 Y1520.339
G01 X588.436 Y1540.382
G01 X584.468 Y1514.692
G01 X607.062 Y1526.338
G01 X586.182 Y1525.443
G01 X607.644 Y1506.095
G01 X608.926 Y1527.436
G01 X600.736 Y1504.110
G01 X628.997 Y1508.902
G01 X611.940 Y1514.808
G01 X629.810 Y1490.770
G01 X640.258 Y1511.789
G01 X628.238 Y1493.047
G01 X659.134 Y1490.515
G01 X646.740 Y1502.507
G01 X658.570 Y1475.559
G01 X676.285 Y1493.864
G01 X660.404 Y1480.734
G01 X689.987 Y1470.324
G01 X682.108 Y1486.482
G01 X685.525 Y1458.110
G01 X707.607 Y1471.121
G01 X687.953 Y1463.860
G01 X710.000 Y1447.325
G01 X710.000 Y1456.233
G01 X708.391 Y1463.715
G01 X701.909 Y1435.790
G01 X710.000 Y1437.877
G01 X710.000 Y1441.112
G01 X702.697 Y1440.770
G01 X710.000 Y1429.602
G01 X710.000 Y1421.777
G01 X702.234 Y1410.041
G01 X710.000 Y1409.712
G01 X710.000 Y1412.771
G01 X700.827 Y1415.087
G01 X707.237 Y1387.280
G01 X710.000 Y1401.021
G01 X710.000 Y1404.984
G01 X686.618 Y1387.705
G01 X706.444 Y1381.162
G01 X684.471 Y1395.049
G01 X681.534 Y1367.862
G01 X689.881 Y1385.790
G01 X660.909 Y1377.336
G01 X677.744 Y1366.826
G01 X660.869 Y1388.232
G01 X650.261 Y1364.712
G01 X663.979 Y1380.916
G01 X634.395 Y1382.798
G01 X648.168 Y1368.986
G01 X639.289 Y1395.423
G01 X623.241 Y1376.769
G01 X642.296 Y1388.584
G01 X615.787 Y1399.151
G01 X626.139 Y1381.515
G01 X626.752 Y1408.667
G01 X607.173 Y1394.429
G01 X630.131 Y1398.555
G01 X609.095 Y1414.591
G01 X614.882 Y1392.422
G01 X624.492 Y1415.656
G01 X602.430 Y1405.032
G01 X626.324 Y1399.196
G01 X611.511 Y1417.620
G01 X610.875 Y1391.514
G01 X627.134 Y1407.689
G01 X602.909 Y1400.922
G01 X623.848 Y1385.277
G01 X614.762 Y1404.466
G01 X605.881 Y1377.135
G01 X625.484 Y1385.532
G01 X599.438 Y1384.299
G01 X613.813 Y1361.588
G01 X609.663 Y1381.446
G01 X591.868 Y1357.154
G01 X611.810 Y1358.992
G01 X585.232 Y1365.494
G01 X590.958 Y1339.863
G01 X591.599 Y1360.733
G01 X566.216 Y1343.709
G01 X584.753 Y1340.751
G01 X560.332 Y1356.202
G01 X557.474 Y1331.522
G01 X563.704 Y1352.904
G01 X534.074 Y1345.795
G01 X550.841 Y1339.155
G01 X532.233 Y1362.780
G01 X522.641 Y1341.591
G01 X535.619 Y1361.660
G01 X506.141 Y1364.976
G01 X521.404 Y1354.896
G01 X512.009 Y1384.085
G01 X498.174 Y1367.634
G01 X518.271 Y1383.844
G01 X492.932 Y1396.491
G01 X506.477 Y1383.026
G01 X508.071 Y1414.346
G01 X491.885 Y1403.314
G01 X517.708 Y1413.480
G01 X498.884 Y1433.698
G01 X509.316 Y1417.500
G01 X521.307 Y1447.721
G01 X503.475 Y1442.782
G01 X531.732 Y1445.775
G01 X519.894 Y1471.660
G01 X524.856 Y1454.152
G01 X544.607 Y1480.626
G01 X525.015 Y1482.335
G01 X551.403 Y1478.011
G01 X545.802 Y1507.406
G01 X543.035 Y1490.281
G01 X567.047 Y1510.735
G01 X545.793 Y1519.002
G01 X566.445 Y1507.722
G01 X566.264 Y1537.922
G01 X554.888 Y1522.552
G01 X580.144 Y1534.915
G01 X558.508 Y1548.708
G01 X571.228 Y1531.109
G01 X576.434 Y1559.013
G01 X557.676 Y1546.345
G01 X582.428 Y1549.068
G01 X563.115 Y1566.753
G01 X567.775 Y1544.031
G01 X579.158 Y1566.844
G01 X556.128 Y1557.807
G01 X579.774 Y1550.532
G01 X566.252 Y1570.560
G01 X564.254 Y1544.893
G01 X582.691 Y1560.867
G01 X559.334 Y1556.707
G01 X581.628 Y1540.634
G01 X576.918 Y1561.903
G01 X570.132 Y1536.365
G01 X595.557 Y1544.920
G01 X575.366 Y1546.925
G01 X595.531 Y1524.398
G01 X601.078 Y1545.917
G01 X590.887 Y1523.643
G01 X621.587 Y1524.772
G01 X606.677 Y1533.426
G01 X622.972 Y1506.955
G01 X638.118 Y1527.139
G01 X625.018 Y1510.276
G01 X657.630 Y1503.820
G01 X648.509 Y1518.112
G01 X658.455 Y1489.608
G01 X680.687 Y1506.019
G01 X664.530 Y1495.282
G01 X694.722 Y1480.864
G01 X690.710 Y1498.475
G01 X691.855 Y1469.363
G01 X710.000 Y1476.420
G01 X710.000 Y1477.504
G01 X698.274 Y1474.613
G01 X710.000 Y1463.567
G01 X710.000 Y1392.600
G01 X696.646 Y1384.632
G01 X710.000 Y1377.015
G01 X710.000 Y1378.091
G01 X694.943 Y1389.582
G01 X687.667 Y1361.188
G01 X697.978 Y1376.925
G01 X666.725 Y1371.296
G01 X681.401 Y1357.288
G01 X666.349 Y1380.397
G01 X651.270 Y1357.318
G01 X666.290 Y1371.145
G01 X635.471 Y1376.676
G01 X646.289 Y1360.399
G01 X639.830 Y1388.120
G01 X619.838 Y1371.353
G01 X639.658 Y1380.590
G01 X613.286 Y1395.027
G01 X620.337 Y1375.850
G01 X623.905 Y1403.383
G01 X601.376 Y1391.909
G01 X624.566 Y1393.067
G01 X605.060 Y1412.412
G01 X607.477 Y1389.334
G01 X620.251 Y1411.589
G01 X596.391 Y1403.964
G01 X619.807 Y1394.668
G01 X607.587 Y1415.225
G01 X603.577 Y1388.656
G01 X622.654 Y1402.369
G01 X597.643 Y1398.421
G01 X617.111 Y1379.055
G01 X611.105 Y1398.998
G01 X598.796 Y1371.749
G01 X620.263 Y1376.540
G01 X594.165 Y1377.877
G01 X605.868 Y1351.755
G01 X604.696 Y1371.202
G01 X583.437 Y1347.854
G01 X603.869 Y1345.615
G01 X577.766 Y1354.582
G01 X579.690 Y1326.535
G01 X582.823 Y1346.247
G01 X554.185 Y1331.318
G01 X571.780 Y1324.530
G01 X548.362 Y1342.445
G01 X541.005 Y1316.856
G01 X549.163 Y1336.688
G01 X516.967 Y1332.849
G01 X531.672 Y1323.132
G01 X514.772 Y1349.120
G01 X500.676 Y1328.683
G01 X515.153 Y1346.978
G01 X484.351 Y1354.437
G01 X496.939 Y1342.264
G01 X490.122 Y1373.422
G01 X472.484 Y1359.218
G01 X493.797 Y1373.464
G01 X468.746 Y1390.624
G01 X479.452 Y1376.094
G01 X484.432 Y1408.671
G01 X465.607 Y1401.043
G01 X492.324 Y1409.100
G01 X475.394 Y1433.678
G01 X483.043 Y1417.438
G01 X498.841 Y1448.003
G01 X479.634 Y1447.252
G01 X508.202 Y1448.126
G01 X499.474 Y1477.792
G01 X501.698 Y1461.244
G01 X525.052 Y1487.103
G01 X505.168 Y1493.405
G01 X530.934 Y1487.140
G01 X529.059 Y1519.396
G01 X523.527 Y1504.149
G01 X550.306 Y1523.076
G01 X529.583 Y1535.916
G01 X548.476 Y1523.026
G01 X552.080 Y1554.878
G01 X537.969 Y1542.094
G01 X564.768 Y1552.102
G01 X544.345 Y1569.981
G01 X554.277 Y1551.181
G01 X562.992 Y1579.312
G01 X541.831 Y1569.642
G01 X566.861 Y1569.328
G01 X549.484 Y1590.193
G01 X550.764 Y1566.744
G01 X565.294 Y1588.308
G01 X540.665 Y1582.403
G01 X563.582 Y1571.693
G01 X552.849 Y1593.742
G01 X547.496 Y1567.949
G01 X568.755 Y1581.391
G01 X545.066 Y1580.328
G01 X565.998 Y1560.856
G01 X564.978 Y1582.954
G01 X555.438 Y1558.064
G01 X583.357 Y1563.202
G01 X564.353 Y1568.167
G01 X582.833 Y1542.759
G01 X592.794 Y1564.008
G01 X580.810 Y1543.257
G01 X613.527 Y1540.528
G01 X601.254 Y1551.855
G01 X615.685 Y1523.364
G01 X635.533 Y1542.257
G01 X621.684 Y1527.676
G01 X655.545 Y1517.245
G01 X650.136 Y1533.629
G01 X658.036 Y1504.058
G01 X684.647 Y1518.145
G01 X668.643 Y1510.093
G01 X698.976 Y1491.760
G01 X699.185 Y1510.498
G01 X698.043 Y1481.162
G01 X710.000 Y1483.889
G01 X710.000 Y1485.838
G01 X708.683 Y1485.687
G01 X710.000 Y1484.161
G01 X710.000 Y1383.401
G01 X707.080 Y1382.008
G01 X710.000 Y1379.498
G01 X710.000 Y1380.324
G01 X705.763 Y1384.204
G01 X694.044 Y1355.055
G01 X706.119 Y1368.133
G01 X673.037 Y1365.511
G01 X685.085 Y1348.100
G01 X672.148 Y1372.490
G01 X652.624 Y1350.316
G01 X668.611 Y1361.379
G01 X637.037 Y1370.603
G01 X644.472 Y1352.093
G01 X640.583 Y1380.613
G01 X616.807 Y1366.173
G01 X636.954 Y1372.569
G01 X611.192 Y1390.780
G01 X614.603 Y1370.419
G01 X621.128 Y1397.830
G01 X595.939 Y1389.500
G01 X618.870 Y1387.572
G01 X601.327 Y1410.002
G01 X600.167 Y1386.461
G01 X615.969 Y1407.261
G01 X590.713 Y1402.918
G01 X613.161 Y1390.199
G01 X603.893 Y1412.550
G01 X596.458 Y1386.008
G01 X618.098 Y1396.844
G01 X592.783 Y1395.870
G01 X610.335 Y1372.963
G01 X607.667 Y1393.228
G01 X592.037 Y1366.542
G01 X615.012 Y1367.403
G01 X589.376 Y1371.313
G01 X598.043 Y1342.076
G01 X599.973 Y1360.619
G01 X575.496 Y1338.639
G01 X595.984 Y1332.114
G01 X570.848 Y1343.389
G01 X568.710 Y1313.314
G01 X574.304 Y1331.354
G01 X542.768 Y1318.846
G01 X558.938 Y1308.152
G01 X536.942 Y1328.232
G01 X524.945 Y1302.177
G01 X534.840 Y1319.974
G01 X500.510 Y1319.610
G01 X512.662 Y1306.887
G01 X497.772 Y1334.827
G01 X479.161 Y1315.611
G01 X494.808 Y1331.726
G01 X463.149 Y1343.402
G01 X472.607 Y1329.351
G01 X468.529 Y1362.004
G01 X447.212 Y1350.505
G01 X469.302 Y1362.506
G01 X445.002 Y1384.117
G01 X452.496 Y1368.872
G01 X460.874 Y1402.212
G01 X439.660 Y1398.397
G01 X466.766 Y1404.215
G01 X452.152 Y1432.965
G01 X456.760 Y1417.133
G01 X476.228 Y1447.572
G01 X456.003 Y1451.330
G01 X484.355 Y1450.112
G01 X479.080 Y1483.253
G01 X478.451 Y1468.172
G01 X505.132 Y1493.003
G01 X485.386 Y1504.094
G01 X510.030 Y1496.063
G01 X512.116 Y1530.778
G01 X503.852 Y1517.916
G01 X533.010 Y1534.991
G01 X513.287 Y1552.451
G01 X529.991 Y1538.251
G01 X537.484 Y1571.286
G01 X520.823 Y1561.548
G01 X548.697 Y1568.989
G01 X529.951 Y1590.846
G01 X536.778 Y1571.243
G01 X548.968 Y1599.106
G01 X525.721 Y1592.805
G01 X550.530 Y1589.378
G01 X543.822 Y1600.000
G01 X534.244 Y1600.000
G01 X533.233 Y1589.459
G01 X542.531 Y1600.000
G01 X535.405 Y1600.000
G01 X546.635 Y1592.715
G01 X544.297 Y1600.000
G01 X533.390 Y1600.000
G01 X530.301 Y1591.000
G01 X550.660 Y1600.000
G01 X533.664 Y1600.000
G01 X549.692 Y1581.025
G01 X552.131 Y1600.000
G01 X550.784 Y1600.000
G01 X540.424 Y1579.766
G01 X570.447 Y1581.209
G01 X553.140 Y1589.124
G01 X569.581 Y1561.191
G01 X584.036 Y1581.701
G01 X570.532 Y1562.923
G01 X604.810 Y1556.199
G01 X595.654 Y1570.054
G01 X607.983 Y1540.006
G01 X632.465 Y1557.146
G01 X618.255 Y1545.210
G01 X652.880 Y1530.821
G01 X651.591 Y1549.026
G01 X657.348 Y1518.909
G01 X688.129 Y1530.258
G01 X672.750 Y1525.126
G01 X702.759 Y1503.042
G01 X707.493 Y1522.529
G01 X704.120 Y1493.493
G01 X710.000 Y1494.032
G01 X710.000 Y1366.371
G01 X700.696 Y1349.465
G01 X710.000 Y1356.305
G01 X710.000 Y1359.506
G01 X679.848 Y1359.948
G01 X688.810 Y1339.300
G01 X678.226 Y1364.502
G01 X654.357 Y1343.698
G01 X670.920 Y1351.655
G01 X639.085 Y1364.545
G01 X642.745 Y1344.099
G01 X641.510 Y1372.904
G01 X614.177 Y1361.211
G01 X634.174 Y1364.561
G01 X609.487 Y1386.380
G01 X608.971 Y1365.239
G01 X618.387 Y1392.019
G01 X590.883 Y1387.174
G01 X613.045 Y1382.111
G01 X597.869 Y1407.336
G01 X592.988 Y1383.810
G01 X611.615 Y1402.694
G01 X585.407 Y1401.860
G01 X606.398 Y1385.826
G01 X600.398 Y1409.579
G01 X589.556 Y1383.566
G01 X613.442 Y1391.147
G01 X588.329 Y1393.232
G01 X603.545 Y1367.032
G01 X604.411 Y1387.149
G01 X585.637 Y1361.501
G01 X609.715 Y1358.161
G01 X585.061 Y1364.572
G01 X590.369 Y1332.580
G01 X595.455 Y1349.707
G01 X568.076 Y1329.489
G01 X588.153 Y1318.534
G01 X564.460 Y1331.890
G01 X558.055 Y1300.218
G01 X566.008 Y1316.076
G01 X531.987 Y1306.268
G01 X546.240 Y1291.662
G01 X526.046 Y1313.545
G01 X509.334 Y1287.493
G01 X520.711 Y1302.795
G01 X484.716 Y1306.049
G01 X493.835 Y1290.458
G01 X481.205 Y1319.893
G01 X458.141 Y1302.371
G01 X474.568 Y1315.944
G01 X442.537 Y1331.837
G01 X448.442 Y1316.191
G01 X447.203 Y1349.832
G01 X422.399 Y1341.478
G01 X444.784 Y1351.010
G01 X421.695 Y1376.939
G01 X425.651 Y1361.382
G01 X437.370 Y1394.980
G01 X414.078 Y1395.351
G01 X441.042 Y1398.865
G01 X429.141 Y1431.530
G01 X430.514 Y1416.594
G01 X453.442 Y1446.446
G01 X432.604 Y1454.979
G01 X460.209 Y1451.767
G01 X458.688 Y1488.021
G01 X455.158 Y1474.929
G01 X484.826 Y1498.351
G01 X465.681 Y1514.361
G01 X488.721 Y1504.808
G01 X494.942 Y1541.536
G01 X484.052 Y1531.562
G01 X515.148 Y1546.509
G01 X496.900 Y1568.564
G01 X511.026 Y1553.414
G01 X522.443 Y1587.141
G01 X503.482 Y1580.881
G01 X531.929 Y1585.606
G01 X522.605 Y1600.000
G01 X517.263 Y1600.000
G01 X518.771 Y1591.299
G01 X523.767 Y1600.000
G01 X543.622 Y1600.000
G01 X556.817 Y1598.970
G01 X555.375 Y1600.000
G01 X546.290 Y1600.000
G01 X555.811 Y1579.708
G01 X574.769 Y1598.994
G01 X560.083 Y1582.604
G01 X595.435 Y1571.819
G01 X589.853 Y1587.988
G01 X599.904 Y1556.882
G01 X628.879 Y1571.819
G01 X614.746 Y1562.836
G01 X649.643 Y1544.580
G01 X652.840 Y1564.276
G01 X656.427 Y1534.151
G01 X691.102 Y1542.379
G01 X676.850 Y1540.339
G01 X706.086 Y1514.739
G01 X710.000 Y1522.896
G01 X710.000 Y1347.737
G01 X707.655 Y1344.416
G01 X710.000 Y1345.446
G01 X710.000 Y1352.186
G01 X687.152 Y1354.573
G01 X692.597 Y1330.921
G01 X684.543 Y1356.431
G01 X656.499 Y1337.450
G01 X673.197 Y1342.014
G01 X641.601 Y1358.470
G01 X641.136 Y1336.443
G01 X642.570 Y1365.002
G01 X611.975 Y1356.444
G01 X631.314 Y1356.608
G01 X608.148 Y1381.797
G01 X603.479 Y1360.326
G01 X615.643 Y1385.970
G01 X586.227 Y1384.900
G01 X607.101 Y1376.724
G01 X594.657 Y1404.393
G01 X585.979 Y1381.384
G01 X607.159 Y1397.915
G01 X580.480 Y1400.755
G01 X599.539 Y1381.586
G01 X597.066 Y1406.299
G01 X582.908 Y1381.321
G01 X608.664 Y1385.313
G01 X584.278 Y1390.473
G01 X596.768 Y1361.293
G01 X601.298 Y1380.764
G01 X579.629 Y1356.607
G01 X604.363 Y1348.856
G01 X581.203 Y1357.625
G01 X582.882 Y1323.288
G01 X591.105 Y1338.479
G01 X561.199 Y1320.380
G01 X580.379 Y1304.919
G01 X558.577 Y1320.062
G01 X547.766 Y1287.261
G01 X557.904 Y1300.438
G01 X521.859 Y1293.554
G01 X533.700 Y1275.103
G01 X515.645 Y1298.370
G01 X494.216 Y1272.807
G01 X506.755 Y1285.186
G01 X469.594 Y1292.134
G01 X475.220 Y1273.886
G01 X465.040 Y1304.315
G01 X437.657 Y1288.952
G01 X454.425 Y1299.673
G01 X422.515 Y1319.713
G01 X424.483 Y1302.812
G01 X426.112 Y1336.914
G01 X398.083 Y1332.118
G01 X420.245 Y1339.020
G01 X398.815 Y1369.061
G01 X398.964 Y1353.639
G01 X413.890 Y1386.992
G01 X388.890 Y1391.872
G01 X415.166 Y1393.090
G01 X406.342 Y1429.348
G01 X404.351 Y1415.822
G01 X430.462 Y1444.649
G01 X409.454 Y1458.162
G01 X435.791 Y1453.127
G01 X438.271 Y1492.078
G01 X431.866 Y1481.502
G01 X464.119 Y1503.175
G01 X446.055 Y1524.163
G01 X467.038 Y1513.397
G01 X477.505 Y1551.661
G01 X464.166 Y1545.061
G01 X496.713 Y1557.661
G01 X480.415 Y1584.212
G01 X491.619 Y1568.529
G01 X505.822 Y1600.000
G01 X540.950 Y1600.000
G01 X541.560 Y1598.317
G01 X543.800 Y1600.000
G01 X554.956 Y1600.000
G01 X585.407 Y1587.418
G01 X584.313 Y1600.000
G01 X585.186 Y1600.000
G01 X591.486 Y1573.989
G01 X624.743 Y1586.290
G01 X611.167 Y1580.511
G01 X645.847 Y1558.551
G01 X653.847 Y1579.355
G01 X655.306 Y1549.773
G01 X693.538 Y1554.534
G01 X680.940 Y1555.688
G01 X708.978 Y1526.876
G01 X710.000 Y1528.266
G01 X710.000 Y1346.453
G01 X694.939 Y1349.352
G01 X696.469 Y1322.996
G01 X691.054 Y1348.278
G01 X659.077 Y1331.554
G01 X675.431 Y1332.498
G01 X644.566 Y1352.347
G01 X639.679 Y1329.146
G01 X643.723 Y1356.920
G01 X610.221 Y1351.844
G01 X628.374 Y1348.752
G01 X607.149 Y1377.007
G01 X598.163 Y1355.689
G01 X612.865 Y1379.704
G01 X581.984 Y1382.643
G01 X601.049 Y1371.452
G01 X591.656 Y1401.153
G01 X579.179 Y1379.178
G01 X602.575 Y1392.956
G01 X575.936 Y1399.565
G01 X592.608 Y1377.513
G01 X593.858 Y1402.704
G01 X576.550 Y1379.259
G01 X603.750 Y1379.379
G01 X580.618 Y1387.558
G01 X590.036 Y1355.773
G01 X598.290 Y1374.078
G01 X574.042 Y1351.838
G01 X598.951 Y1339.531
G01 X577.784 Y1350.443
G01 X575.619 Y1314.218
G01 X586.889 Y1326.955
G01 X554.888 Y1311.282
G01 X572.668 Y1291.314
G01 X553.171 Y1307.886
G01 X537.883 Y1274.449
G01 X549.963 Y1284.471
G01 X512.394 Y1280.673
G01 X521.340 Y1258.519
G01 X505.706 Y1282.701
G01 X479.633 Y1258.116
G01 X492.953 Y1267.188
G01 X455.145 Y1277.833
G01 X456.849 Y1257.205
G01 X449.244 Y1288.098
G01 X417.749 Y1275.341
G01 X434.374 Y1282.958
G01 X403.076 Y1306.998
G01 X400.774 Y1289.239
G01 X405.225 Y1323.263
G01 X374.297 Y1322.397
G01 X395.695 Y1326.580
G01 X376.344 Y1360.457
G01 X372.482 Y1345.657
G01 X390.410 Y1378.269
G01 X364.119 Y1387.928
G01 X389.161 Y1386.932
G01 X383.731 Y1426.400
G01 X378.321 Y1414.815
G01 X407.267 Y1442.209
G01 X386.565 Y1460.839
G01 X411.130 Y1454.223
G01 X417.797 Y1495.411
G01 X408.616 Y1487.875
G01 X442.999 Y1507.508
G01 X426.507 Y1533.458
G01 X445.019 Y1521.853
G01 X459.770 Y1561.149
G01 X444.229 Y1558.383
G01 X477.701 Y1568.480
G01 X463.817 Y1599.354
G01 X471.813 Y1583.602
G01 X481.127 Y1600.000
G01 X581.333 Y1600.000
G01 X582.770 Y1591.321
G01 X617.692 Y1600.000
G01 X616.992 Y1600.000
G01 X607.522 Y1598.189
G01 X641.512 Y1572.764
G01 X654.572 Y1594.244
G01 X654.021 Y1565.754
G01 X695.412 Y1566.752
G01 X685.009 Y1571.129
G01 X710.000 Y1541.222
G01 X710.000 Y1342.342
G01 X703.193 Y1344.251
G01 X700.456 Y1315.551
G01 X697.717 Y1340.052
G01 X662.118 Y1325.987
G01 X677.614 Y1323.151
G01 X647.956 Y1346.147
G01 X638.409 Y1322.224
G01 X644.930 Y1348.677
G01 X608.934 Y1347.381
G01 X625.362 Y1341.037
G01 X606.459 Y1371.987
G01 X593.064 Y1351.331
G01 X610.019 Y1373.252
G01 X578.160 Y1380.368
G01 X594.910 Y1366.331
G01 X588.830 Y1397.606
G01 X572.628 Y1377.184
G01 X597.841 Y1387.852
G01 X571.769 Y1398.254
G01 X585.632 Y1373.636
G01 X590.735 Y1398.792
G01 X570.514 Y1377.358
G01 X598.687 Y1373.388
G01 X577.336 Y1384.451
G01 X583.386 Y1350.492
G01 X595.347 Y1367.102
G01 X568.901 Y1347.165
G01 X593.480 Y1330.229
G01 X574.778 Y1343.000
G01 X568.620 Y1305.381
G01 X582.771 Y1315.158
G01 X549.156 Y1302.164
G01 X565.036 Y1277.764
G01 X548.211 Y1295.346
G01 X528.450 Y1261.785
G01 X542.161 Y1268.212
G01 X503.598 Y1267.592
G01 X509.185 Y1241.950
G01 X496.194 Y1266.534
G01 X465.626 Y1243.409
G01 X479.293 Y1248.842
G01 X441.365 Y1263.116
G01 X438.761 Y1240.449
G01 X433.784 Y1271.248
G01 X398.453 Y1261.518
G01 X414.415 Y1265.844
G01 X384.206 Y1293.665
G01 X377.359 Y1275.494
G01 X384.514 Y1308.898
G01 X351.071 Y1312.289
G01 X371.147 Y1313.735
G01 X354.263 Y1351.103
G01 X346.254 Y1337.440
G01 X366.907 Y1368.838
G01 X339.785 Y1383.481
G01 X363.051 Y1380.427
G01 X361.279 Y1422.670
G01 X352.470 Y1413.564
G01 X383.842 Y1439.159
G01 X363.943 Y1462.970
G01 X386.260 Y1455.083
G01 X397.235 Y1498.014
G01 X385.452 Y1494.024
G01 X421.461 Y1511.385
G01 X407.031 Y1542.206
G01 X422.705 Y1530.193
G01 X441.704 Y1570.002
G01 X424.273 Y1571.492
G01 X458.119 Y1579.003
G01 X451.492 Y1600.000
G01 X451.246 Y1600.000
G01 X451.651 Y1598.638
G01 X452.594 Y1600.000
G01 X622.238 Y1600.000
G01 X637.119 Y1587.085
G01 X648.144 Y1600.000
G01 X654.858 Y1600.000
G01 X653.354 Y1581.776
G01 X697.600 Y1578.693
G01 X690.073 Y1586.162
G01 X710.000 Y1558.557
G01 X710.000 Y1316.431
G01 X707.665 Y1306.533
G01 X707.652 Y1329.705
G01 X668.905 Y1318.675
G01 X683.115 Y1311.994
G01 X655.227 Y1337.841
G01 X640.978 Y1313.708
G01 X649.901 Y1338.340
G01 X612.014 Y1341.082
G01 X626.323 Y1331.584
G01 X610.227 Y1364.812
G01 X592.564 Y1345.348
G01 X611.578 Y1364.743
G01 X579.411 Y1376.128
G01 X593.511 Y1359.477
G01 X591.090 Y1391.801
G01 X571.449 Y1373.417
G01 X598.157 Y1380.639
G01 X573.304 Y1394.739
G01 X584.082 Y1367.893
G01 X593.185 Y1392.431
G01 X570.432 Y1373.407
G01 X599.131 Y1365.144
G01 X580.114 Y1378.837
G01 X582.588 Y1343.136
G01 X598.180 Y1357.485
G01 X569.975 Y1340.158
G01 X593.696 Y1318.575
G01 X577.874 Y1332.844
G01 X567.623 Y1294.361
G01 X584.385 Y1300.717
G01 X549.650 Y1290.626
G01 X563.106 Y1261.997
G01 X549.240 Y1280.192
G01 X525.070 Y1247.113
G01 X540.032 Y1249.657
G01 X501.035 Y1252.357
G01 X502.853 Y1223.649
G01 X492.698 Y1248.241
G01 X457.915 Y1227.209
G01 X471.528 Y1228.904
G01 X434.108 Y1246.837
G01 X426.983 Y1222.712
G01 X424.758 Y1253.033
G01 X386.108 Y1246.889
G01 X401.053 Y1247.981
G01 X372.602 Y1279.453
G01 X361.238 Y1261.503
G01 X371.160 Y1293.889
G01 X335.916 Y1301.919
G01 X354.406 Y1300.781
G01 X340.644 Y1341.305
G01 X328.756 Y1329.357
G01 X352.129 Y1359.119
G01 X325.026 Y1378.877
G01 X346.363 Y1373.963
G01 X348.832 Y1418.442
G01 X337.108 Y1412.271
G01 X370.837 Y1435.652
G01 X352.655 Y1464.512
G01 X372.701 Y1455.594
G01 X388.449 Y1499.598
G01 X374.731 Y1499.474
G01 X412.249 Y1514.230
G01 X400.787 Y1549.585
G01 X413.744 Y1537.474
G01 X437.309 Y1577.110
G01 X418.790 Y1583.071
G01 X452.863 Y1587.833
G01 X450.543 Y1600.000
G01 X646.657 Y1600.000
G01 X651.604 Y1594.963
G01 X657.312 Y1600.000
G01 X672.793 Y1600.000
G01 X671.327 Y1590.620
G01 X710.000 Y1584.185
G01 X710.000 Y1309.805
G01 X685.242 Y1305.425
G01 X697.545 Y1295.207
G01 X671.788 Y1323.829
G01 X652.715 Y1300.292
G01 X663.752 Y1322.878
G01 X624.481 Y1330.079
G01 X636.159 Y1317.813
G01 X623.165 Y1353.041
G01 X601.311 Y1335.477
G01 X621.983 Y1352.120
G01 X590.046 Y1367.930
G01 X601.030 Y1349.090
G01 X602.366 Y1382.020
G01 X579.458 Y1366.241
G01 X607.087 Y1369.837
G01 X583.884 Y1387.552
G01 X591.125 Y1358.955
G01 X604.054 Y1382.360
G01 X578.970 Y1366.184
G01 X607.463 Y1353.579
G01 X591.041 Y1369.655
G01 X589.533 Y1332.772
G01 X608.332 Y1344.393
G01 X578.594 Y1330.019
G01 X600.661 Y1303.945
G01 X587.830 Y1319.391
G01 X573.206 Y1280.694
G01 X591.999 Y1283.308
G01 X556.433 Y1276.380
G01 X566.740 Y1243.909
G01 X555.842 Y1262.377
G01 X527.199 Y1230.484
G01 X542.780 Y1229.006
G01 X503.728 Y1235.183
G01 X501.229 Y1203.982
G01 X493.853 Y1228.238
G01 X455.042 Y1209.964
G01 X467.993 Y1207.946
G01 X431.529 Y1229.537
G01 X419.563 Y1204.618
G01 X419.967 Y1234.096
G01 X378.398 Y1232.062
G01 X391.776 Y1230.058
G01 X365.526 Y1264.975
G01 X349.547 Y1247.900
G01 X362.017 Y1278.877
G01 X325.513 Y1291.847
G01 X341.927 Y1288.334
G01 X331.644 Y1331.602
G01 X315.967 Y1321.942
G01 X341.724 Y1349.679
G01 X315.231 Y1374.602
G01 X334.218 Y1368.103
G01 X341.133 Y1414.256
G01 X326.734 Y1411.482
G01 X362.367 Y1432.329
G01 X346.467 Y1466.071
G01 X363.909 Y1456.478
G01 X384.444 Y1500.933
G01 X369.145 Y1505.032
G01 X407.630 Y1517.006
G01 X399.613 Y1556.570
G01 X409.625 Y1544.809
G01 X437.571 Y1583.689
G01 X418.388 Y1594.380
G01 X452.097 Y1596.407
G01 X451.810 Y1600.000
G01 X689.926 Y1600.000
G01 X689.760 Y1599.280
G01 X710.000 Y1593.988
G01 X710.000 Y1292.549
G01 X701.544 Y1291.899
G01 X710.000 Y1280.197
G01 X710.000 Y1280.126
G01 X688.142 Y1309.264
G01 X664.241 Y1286.902
G01 X677.059 Y1307.025
G01 X636.963 Y1318.825
G01 X645.526 Y1304.060
G01 X635.872 Y1340.793
G01 X609.994 Y1325.677
G01 X631.879 Y1339.260
G01 X600.740 Y1359.458
G01 X608.218 Y1338.825
G01 X613.383 Y1371.811
G01 X587.519 Y1359.108
G01 X615.542 Y1358.911
G01 X594.507 Y1380.034
G01 X597.942 Y1350.175
G01 X614.589 Y1371.898
G01 X587.594 Y1358.927
G01 X615.313 Y1341.976
G01 X601.908 Y1360.083
G01 X596.291 Y1322.566
G01 X618.018 Y1330.970
G01 X587.244 Y1319.765
G01 X607.103 Y1289.368
G01 X597.552 Y1305.536
G01 X578.591 Y1267.190
G01 X598.998 Y1265.681
G01 X563.138 Y1261.984
G01 X569.813 Y1226.002
G01 X562.026 Y1244.227
G01 X529.112 Y1214.057
G01 X544.805 Y1208.321
G01 X506.236 Y1217.885
G01 X499.063 Y1184.653
G01 X494.457 Y1208.042
G01 X451.976 Y1192.982
G01 X463.719 Y1187.178
G01 X428.705 Y1212.184
G01 X411.703 Y1187.018
G01 X414.575 Y1215.147
G01 X370.573 Y1217.551
G01 X381.846 Y1212.539
G01 X358.205 Y1250.518
G01 X337.591 Y1234.894
G01 X352.310 Y1264.018
G01 X315.110 Y1282.089
G01 X328.965 Y1276.437
G01 X322.440 Y1321.955
G01 X303.128 Y1315.129
G01 X330.854 Y1340.497
G01 X305.562 Y1370.565
G01 X321.808 Y1362.843
G01 X333.292 Y1410.106
G01 X316.529 Y1411.201
G01 X353.572 Y1429.300
G01 X340.515 Y1467.726
G01 X355.088 Y1457.917
G01 X380.366 Y1502.247
G01 X363.928 Y1510.931
G01 X402.849 Y1520.067
G01 X398.761 Y1563.489
G01 X405.715 Y1552.602
G01 X437.834 Y1590.196
G01 X425.732 Y1600.000
G01 X710.000 Y1600.000
G01 X710.000 Y1284.862
G01 X704.244 Y1294.135
G01 X675.592 Y1273.532
G01 X689.796 Y1290.821
G01 X649.452 Y1307.283
G01 X654.451 Y1290.361
G01 X648.302 Y1328.066
G01 X618.645 Y1315.929
G01 X641.250 Y1326.209
G01 X611.474 Y1350.678
G01 X615.112 Y1328.705
G01 X624.097 Y1361.186
G01 X595.656 Y1351.987
G01 X623.519 Y1347.907
G01 X605.144 Y1372.153
G01 X604.573 Y1341.563
G01 X624.750 Y1361.068
G01 X596.320 Y1351.598
G01 X622.692 Y1330.378
G01 X612.677 Y1350.101
G01 X602.902 Y1312.517
G01 X627.207 Y1317.248
G01 X595.927 Y1309.360
G01 X613.044 Y1274.886
G01 X606.997 Y1291.271
G01 X583.815 Y1253.840
G01 X605.362 Y1247.880
G01 X569.754 Y1247.403
G01 X572.359 Y1208.308
G01 X567.750 Y1225.750
G01 X530.844 Y1197.810
G01 X546.101 Y1187.650
G01 X508.540 Y1200.434
G01 X496.397 Y1165.688
G01 X494.471 Y1187.674
G01 X448.744 Y1176.236
G01 X458.714 Y1166.651
G01 X425.610 Y1194.756
G01 X403.448 Y1169.925
G01 X408.553 Y1196.219
G01 X362.650 Y1203.321
G01 X371.285 Y1195.469
G01 X350.606 Y1236.069
G01 X325.415 Y1222.481
G01 X342.019 Y1249.352
G01 X304.714 Y1272.608
G01 X315.554 Y1265.128
G01 X312.997 Y1312.360
G01 X290.281 Y1308.903
G01 X319.511 Y1331.618
G01 X296.012 Y1366.728
G01 X309.175 Y1358.206
G01 X325.271 Y1405.999
G01 X306.527 Y1411.397
G01 X344.454 Y1426.611
G01 X334.779 Y1469.444
G01 X346.286 Y1459.920
G01 X376.181 Y1503.557
G01 X359.102 Y1517.129
G01 X397.921 Y1523.453
G01 X398.200 Y1570.315
G01 X402.062 Y1560.846
G01 X438.069 Y1596.658
G01 X435.030 Y1600.000
G01 X710.000 Y1600.000
G01 X710.000 Y1272.915
G01 X686.804 Y1260.171
G01 X701.938 Y1274.311
G01 X661.934 Y1295.414
G01 X662.965 Y1276.745
G01 X660.410 Y1314.868
G01 X627.294 Y1306.209
G01 X650.088 Y1313.014
G01 X622.225 Y1341.554
G01 X621.749 Y1318.748
G01 X634.466 Y1350.161
G01 X603.892 Y1344.846
G01 X631.022 Y1336.870
G01 X615.762 Y1363.885
G01 X611.060 Y1333.126
G01 X634.500 Y1349.899
G01 X605.155 Y1344.160
G01 X629.617 Y1318.828
G01 X623.306 Y1339.693
G01 X609.407 Y1302.619
G01 X635.870 Y1303.267
G01 X604.639 Y1298.764
G01 X618.511 Y1260.536
G01 X616.123 Y1276.597
G01 X588.914 Y1240.625
G01 X611.073 Y1229.954
G01 X576.267 Y1232.603
G01 X574.415 Y1190.858
G01 X572.970 Y1206.958
G01 X532.422 Y1181.719
G01 X546.667 Y1167.046
G01 X510.615 Y1182.804
G01 X493.275 Y1147.102
G01 X493.858 Y1167.162
G01 X445.367 Y1159.694
G01 X452.992 Y1146.414
G01 X422.212 Y1177.237
G01 X394.846 Y1153.342
G01 X401.873 Y1177.348
G01 X354.639 Y1189.337
G01 X360.123 Y1178.893
G01 X342.694 Y1221.621
G01 X313.068 Y1210.652
G01 X331.130 Y1234.922
G01 X294.325 Y1263.368
G01 X301.734 Y1254.440
G01 X303.277 Y1302.821
G01 X277.468 Y1303.240
G01 X307.694 Y1323.086
G01 X286.568 Y1363.055
G01 X296.366 Y1354.211
G01 X317.037 Y1401.947
G01 X296.760 Y1412.036
G01 X335.024 Y1424.303
G01 X329.236 Y1471.192
G01 X337.551 Y1462.493
G01 X371.858 Y1504.886
G01 X354.685 Y1523.583
G01 X392.867 Y1527.202
G01 X397.895 Y1577.023
G01 X398.710 Y1569.531
G01 X434.598 Y1600.000
G01 X710.000 Y1600.000
G01 X710.000 Y1251.741
G01 X697.910 Y1246.800
G01 X710.000 Y1255.145
G01 X710.000 Y1259.817
G01 X674.392 Y1283.183
G01 X671.103 Y1263.241
G01 X672.150 Y1301.209
G01 X635.967 Y1296.488
G01 X658.389 Y1299.722
G01 X632.964 Y1332.058
G01 X628.170 Y1308.969
G01 X644.448 Y1338.760
G01 X612.241 Y1337.647
G01 X638.061 Y1325.846
G01 X626.323 Y1355.207
G01 X617.443 Y1324.863
G01 X643.805 Y1338.424
G01 X614.104 Y1336.572
G01 X636.109 Y1307.366
G01 X633.752 Y1328.850
G01 X615.844 Y1292.860
G01 X643.985 Y1289.070
G01 X613.370 Y1287.940
G01 X623.537 Y1246.350
G01 X624.882 Y1261.518
G01 X593.921 Y1227.525
G01 X616.123 Y1211.950
G01 X582.655 Y1217.552
G01 X576.020 Y1173.674
G01 X577.644 Y1187.872
G01 X533.873 Y1165.755
G01 X546.507 Y1146.559
G01 X512.430 Y1164.970
G01 X489.741 Y1128.909
G01 X492.583 Y1146.538
G01 X441.859 Y1143.322
G01 X446.573 Y1126.516
G01 X418.476 Y1159.613
G01 X385.945 Y1137.268
G01 X394.512 Y1158.578
G01 X346.546 Y1175.562
G01 X348.394 Y1162.852
G01 X334.431 Y1207.172
G01 X300.595 Y1199.391
G01 X319.633 Y1220.775
G01 X283.934 Y1254.331
G01 X287.549 Y1244.401
G01 X293.244 Y1293.348
G01 X264.727 Y1298.111
G01 X295.406 Y1314.950
G01 X277.211 Y1359.513
G01 X283.431 Y1350.874
G01 X308.555 Y1397.972
G01 X287.254 Y1413.079
G01 X325.298 Y1422.422
G01 X323.854 Y1472.944
G01 X328.934 Y1465.633
G01 X367.368 Y1506.262
G01 X350.689 Y1530.248
G01 X387.712 Y1531.351
G01 X397.809 Y1583.595
G01 X395.706 Y1578.638
G01 X425.171 Y1600.000
G01 X710.000 Y1600.000
G01 X710.000 Y1233.700
G01 X708.940 Y1233.396
G01 X710.000 Y1233.887
G01 X710.000 Y1252.036
G01 X686.800 Y1270.556
G01 X678.904 Y1249.868
G01 X683.478 Y1287.109
G01 X644.686 Y1286.733
G01 X666.156 Y1286.380
G01 X643.656 Y1322.161
G01 X634.418 Y1299.373
G01 X654.005 Y1327.012
G01 X620.713 Y1330.350
G01 X644.653 Y1314.879
G01 X636.785 Y1346.102
G01 X623.765 Y1316.767
G01 X652.637 Y1326.682
G01 X623.162 Y1328.792
G01 X642.197 Y1296.031
G01 X643.969 Y1317.570
G01 X622.251 Y1283.221
G01 X651.534 Y1274.703
G01 X622.105 Y1276.849
G01 X628.158 Y1232.357
G01 X633.231 Y1246.046
G01 X598.864 Y1214.513
G01 X620.509 Y1193.920
G01 X588.890 Y1202.220
G01 X577.219 Y1156.775
G01 X581.732 Y1168.518
G01 X535.214 Y1149.886
G01 X545.634 Y1126.240
G01 X513.951 Y1146.915
G01 X485.843 Y1111.115
G01 X490.616 Y1125.841
G01 X438.229 Y1127.083
G01 X439.485 Y1107.003
G01 X414.364 Y1141.878
G01 X376.791 Y1121.696
G01 X386.453 Y1139.952
G01 X338.368 Y1161.959
G01 X336.136 Y1147.380
G01 X325.779 Y1192.727
G01 X288.036 Y1188.679
G01 X307.525 Y1206.961
G01 X273.529 Y1245.462
G01 X273.047 Y1235.034
G01 X282.862 Y1283.956
G01 X252.090 Y1293.483
G01 X282.656 Y1307.256
G01 X267.918 Y1356.072
G01 X270.420 Y1348.200
G01 X299.794 Y1394.097
G01 X278.029 Y1414.484
G01 X315.298 Y1421.007
G01 X318.603 Y1474.677
G01 X320.483 Y1469.331
G01 X362.688 Y1507.716
G01 X347.120 Y1537.077
G01 X382.489 Y1535.930
G01 X397.902 Y1590.019
G01 X393.092 Y1588.144
G01 X412.316 Y1600.000
G01 X710.000 Y1600.000
G01 X710.000 Y1247.073
G01 X699.128 Y1257.503
G01 X686.410 Y1236.643
G01 X694.349 Y1272.591
G01 X653.468 Y1276.906
G01 X673.398 Y1273.038
G01 X654.262 Y1311.841
G01 X640.536 Y1289.962
G01 X663.103 Y1314.951
G01 X629.312 Y1322.914
G01 X650.820 Y1304.010
G01 X647.103 Y1336.560
G01 X630.066 Y1308.825
G01 X660.972 Y1314.716
G01 X632.320 Y1320.781
G01 X647.912 Y1284.853
G01 X653.910 Y1305.854
G01 X628.661 Y1273.679
G01 X658.507 Y1260.215
G01 X630.821 Y1265.457
G01 X632.415 Y1218.580
G01 X641.123 Y1230.199
G01 X603.770 Y1201.556
G01 X624.234 Y1175.915
G01 X594.941 Y1186.582
G01 X578.054 Y1140.172
G01 X585.196 Y1148.929
G01 X536.461 Y1134.074
G01 X544.065 Y1106.139
G01 X515.140 Y1128.624
G01 X481.628 Y1093.718
G01 X487.931 Y1105.113
G01 X434.482 Y1110.940
G01 X431.760 Y1087.918
G01 X409.835 Y1124.030
G01 X367.429 Y1106.611
G01 X377.684 Y1121.522
G01 X330.097 Y1148.491
G01 X323.394 Y1132.511
G01 X316.700 Y1178.298
G01 X275.431 Y1178.487
G01 X294.807 Y1193.529
G01 X263.093 Y1236.728
G01 X258.279 Y1226.357
G01 X272.097 Y1274.666
G01 X239.585 Y1289.320
G01 X269.463 Y1300.052
G01 X258.661 Y1352.705
G01 X257.387 Y1346.190
G01 X290.727 Y1390.353
G01 X269.100 Y1416.206
G01 X305.052 Y1420.100
G01 X313.444 Y1476.374
G01 X312.247 Y1473.572
G01 X357.798 Y1509.286
G01 X343.977 Y1544.022
G01 X377.236 Y1540.969
G01 X398.132 Y1596.287
G01 X390.909 Y1598.018
G01 X394.719 Y1600.000
G01 X710.000 Y1600.000
G01 X710.000 Y1242.448
G01 X693.662 Y1223.573
G01 X704.723 Y1257.687
G01 X662.322 Y1266.969
G01 X680.133 Y1259.741
G01 X664.740 Y1301.081
G01 X646.567 Y1280.728
G01 X671.711 Y1302.618
G01 X638.036 Y1315.296
G01 X656.590 Y1293.276
G01 X657.231 Y1326.576
G01 X636.385 Y1301.017
G01 X668.792 Y1302.572
G01 X641.562 Y1312.497
G01 X653.292 Y1273.863
G01 X663.528 Y1293.713
G01 X635.103 Y1264.203
G01 X664.898 Y1245.656
G01 X639.489 Y1253.731
G01 X636.350 Y1205.036
G01 X648.516 Y1214.001
G01 X608.656 Y1188.620
G01 X627.306 Y1157.985
G01 X600.771 Y1170.616
G01 X578.574 Y1123.870
G01 X588.003 Y1129.141
G01 X537.621 Y1118.282
G01 X541.826 Y1086.304
G01 X515.956 Y1110.090
G01 X477.139 Y1076.711
G01 X484.507 Y1084.401
G01 X430.613 Y1094.856
G01 X423.435 Y1069.299
G01 X404.847 Y1106.075
G01 X357.901 Y1091.994
G01 X368.199 Y1103.338
G01 X321.720 Y1135.125
G01 X310.215 Y1118.271
G01 X307.154 Y1163.901
G01 X262.814 Y1168.784
G01 X281.490 Y1180.530
G01 X252.600 Y1228.101
G01 X243.298 Y1218.379
G01 X260.916 Y1265.507
G01 X227.236 Y1285.582
G01 X255.848 Y1293.384
G01 X249.406 Y1349.391
G01 X244.383 Y1344.840
G01 X281.329 Y1386.777
G01 X260.475 Y1418.201
G01 X294.595 Y1419.736
G01 X308.338 Y1478.024
G01 X304.273 Y1478.334
G01 X352.684 Y1511.013
G01 X341.251 Y1551.037
G01 X371.993 Y1546.493
G01 X397.320 Y1600.000
G01 X710.000 Y1600.000
G01 X710.000 Y1218.589
G01 X700.705 Y1210.661
G01 X710.000 Y1231.968
G01 X710.000 Y1243.955
G01 X671.252 Y1256.878
G01 X686.381 Y1246.533
G01 X675.044 Y1289.869
G01 X652.553 Y1271.660
G01 X679.804 Y1290.055
G01 X646.876 Y1307.454
G01 X661.997 Y1282.713
G01 X667.120 Y1316.151
G01 X642.757 Y1293.320
G01 X676.084 Y1290.298
G01 X650.865 Y1303.902
G01 X658.378 Y1263.082
G01 X672.776 Y1281.163
G01 X641.604 Y1254.761
G01 X670.710 Y1231.077
G01 X648.076 Y1241.641
G01 X640.009 Y1191.735
G01 X655.369 Y1197.483
G01 X613.536 Y1175.666
G01 X629.744 Y1140.182
G01 X606.338 Y1154.305
G01 X578.823 Y1107.869
G01 X590.122 Y1109.198
G01 X538.697 Y1102.471
G01 X538.946 Y1066.777
G01 X516.353 Y1091.311
G01 X472.422 Y1060.080
G01 X480.328 Y1063.757
G01 X426.612 Y1078.793
G01 X414.553 Y1051.182
G01 X399.359 Y1088.025
G01 X348.243 Y1077.818
G01 X357.998 Y1085.454
G01 X313.216 Y1121.827
G01 X296.650 Y1104.678
G01 X297.105 Y1149.561
G01 X250.212 Y1159.536
G01 X267.590 Y1168.017
G01 X242.021 Y1219.556
G01 X228.157 Y1211.106
G01 X249.291 Y1256.513
G01 X215.057 Y1282.225
G01 X241.843 Y1287.295
G01 X240.118 Y1346.116
G01 X231.460 Y1344.137
G01 X271.582 Y1383.407
G01 X252.154 Y1420.423
G01 X283.966 Y1419.949
G01 X303.245 Y1479.622
G01 X296.604 Y1483.590
G01 X347.339 Y1512.939
G01 X338.930 Y1558.077
G01 X366.806 Y1552.518
G01 X394.037 Y1600.000
G01 X710.000 Y1600.000
G01 X710.000 Y1199.444
G01 X707.582 Y1197.903
G01 X710.000 Y1202.210
G01 X710.000 Y1233.132
G01 X680.258 Y1246.591
G01 X692.172 Y1233.454
G01 X685.126 Y1278.201
G01 X658.534 Y1262.738
G01 X687.363 Y1277.309
G01 X655.815 Y1299.345
G01 X667.078 Y1272.350
G01 X676.721 Y1305.294
G01 X649.213 Y1285.701
G01 X682.842 Y1277.945
G01 X660.202 Y1294.962
G01 X663.214 Y1252.527
G01 X681.610 Y1268.226
G01 X648.184 Y1245.315
G01 X675.952 Y1216.529
G01 X656.545 Y1229.164
G01 X643.437 Y1178.683
G01 X661.646 Y1180.682
G01 X618.419 Y1162.653
G01 X631.569 Y1122.551
G01 X611.598 Y1137.641
G01 X578.846 Y1092.159
G01 X591.529 Y1089.147
G01 X539.682 Y1086.601
G01 X535.462 Y1047.600
G01 X516.288 Y1072.290
G01 X467.518 Y1043.806
G01 X475.384 Y1043.234
G01 X422.464 Y1062.716
G01 X405.159 Y1033.593
G01 X393.329 Y1069.898
G01 X338.491 Y1064.055
G01 X347.088 Y1067.925
G01 X304.560 Y1108.569
G01 X282.752 Y1091.748
G01 X286.520 Y1135.308
G01 X237.650 Y1150.703
G01 X253.130 Y1156.039
G01 X231.324 Y1211.072
G01 X212.911 Y1204.534
G01 X237.198 Y1247.721
G01 X203.060 Y1279.205
G01 X227.481 Y1281.826
G01 X230.757 Y1342.868
G01 X218.668 Y1344.060
G01 X261.473 Y1380.289
G01 X244.134 Y1422.824
G01 X273.209 Y1420.765
G01 X298.123 Y1481.171
G01 X289.282 Y1489.305
G01 X341.760 Y1515.109
G01 X336.992 Y1565.098
G01 X361.725 Y1559.059
G01 X389.570 Y1600.000
G01 X710.000 Y1600.000
G01 X710.000 Y1224.090
G01 X689.329 Y1236.066
G01 X697.539 Y1220.541
G01 X694.936 Y1266.078
G01 X664.546 Y1253.938
G01 X694.375 Y1264.432
G01 X664.832 Y1290.931
G01 X671.875 Y1262.209
G01 X685.988 Y1294.020
G01 X655.779 Y1278.126
G01 X689.069 Y1265.565
G01 X669.538 Y1285.644
G01 X667.845 Y1242.208
G01 X689.986 Y1254.932
G01 X654.855 Y1235.822
G01 X680.637 Y1202.061
G01 X664.851 Y1216.280
G01 X646.681 Y1165.876
G01 X667.315 Y1163.639
G01 X623.304 Y1149.540
G01 X632.811 Y1105.137
G01 X616.505 Y1120.617
G01 X578.687 Y1076.727
G01 X592.205 Y1069.038
G01 X540.565 Y1070.634
G01 X531.414 Y1028.807
G01 X515.714 Y1053.040
G01 X462.462 Y1027.862
G01 X469.674 Y1022.886
G01 X418.147 Y1046.592
G01 X395.305 Y1016.556
G01 X386.716 Y1051.719
G01 X328.672 Y1050.668
G01 X335.484 Y1050.805
G01 X295.721 Y1095.326
G01 X268.575 Y1079.486
G01 X275.366 Y1121.177
G01 X225.144 Y1142.243
G01 X238.138 Y1144.642
G01 X220.471 Y1202.635
G01 X197.613 Y1198.653
G01 X224.616 Y1239.175
G01 X191.247 Y1276.477
G01 X212.805 Y1277.013
G01 X221.283 Y1339.647
G01 X206.053 Y1344.587
G01 X250.993 Y1377.467
G01 X236.400 Y1425.363
G01 X262.372 Y1422.208
G01 X292.931 Y1482.679
G01 X282.340 Y1495.442
G01 X335.953 Y1517.570
G01 X335.412 Y1572.062
G01 X356.801 Y1566.121
G01 X383.750 Y1600.000
G01 X710.000 Y1600.000
G01 X710.000 Y1216.967
G01 X698.450 Y1225.260
G01 X702.520 Y1207.824
G01 X704.424 Y1253.509
G01 X670.622 Y1245.229
G01 X700.833 Y1251.474
G01 X673.897 Y1282.173
G01 X676.435 Y1252.308
G01 X694.873 Y1282.351
G01 X662.478 Y1270.555
G01 X694.771 Y1253.208
G01 X678.834 Y1275.920
G01 X672.320 Y1232.129
G01 X697.867 Y1241.315
G01 X661.627 Y1226.241
G01 X684.790 Y1187.720
G01 X672.948 Y1202.975
G01 X649.786 Y1153.305
G01 X672.347 Y1146.400
G01 X628.185 Y1136.283
G01 X633.504 Y1087.981
G01 X621.010 Y1103.238
G01 X578.387 Y1061.551
G01 X592.138 Y1048.926
G01 X541.328 Y1054.531
G01 X526.848 Y1010.428
G01 X514.586 Y1033.578
G01 X457.289 Y1012.220
G01 X463.201 Y1002.772
G01 X413.631 Y1030.393
G01 X385.042 Y1000.086
G01 X379.483 Y1033.519
G01 X318.809 Y1037.620
G01 X323.206 Y1034.146
G01 X286.663 Y1082.080
G01 X254.174 Y1067.894
G01 X263.617 Y1107.210
G01 X212.704 Y1134.113
G01 X222.651 Y1133.872
G01 X209.423 Y1194.238
G01 X182.315 Y1193.448
G01 X211.533 Y1230.921
G01 X179.613 Y1273.997
G01 X197.860 Y1272.889
G01 X211.654 Y1336.454
G01 X193.660 Y1345.683
G01 X240.143 Y1374.993
G01 X228.936 Y1427.995
G01 X251.509 Y1424.293
G01 X287.629 Y1484.161
G01 X275.811 Y1501.957
G01 X329.930 Y1520.368
G01 X334.156 Y1578.934
G01 X352.086 Y1573.703
G01 X376.338 Y1600.000
G01 X710.000 Y1600.000
G01 X710.000 Y1212.035
G01 X707.599 Y1214.133
G01 X707.158 Y1195.330
G01 X710.000 Y1215.447
G01 X710.000 Y1240.130
G01 X676.791 Y1236.575
G01 X706.738 Y1238.488
G01 X682.978 Y1273.040
G01 X680.802 Y1242.659
G01 X703.332 Y1270.315
G01 X669.325 Y1262.944
G01 X699.965 Y1240.923
G01 X688.045 Y1265.771
G01 X676.684 Y1222.286
G01 X705.218 Y1227.417
G01 X668.501 Y1216.525
G01 X688.437 Y1173.550
G01 X680.789 Y1189.244
G01 X652.796 Y1140.954
G01 X676.721 Y1129.015
G01 X633.051 Y1122.842
G01 X633.688 Y1071.118
G01 X625.063 Y1085.512
G01 X577.981 Y1046.605
G01 X591.321 Y1028.867
G01 X541.947 Y1038.259
G01 X521.811 Y992.486
G01 X512.859 Y1013.929
G01 X452.025 Y996.842
G01 X455.976 Y982.946
G01 X408.884 Y1014.093
G01 X374.423 Y984.192
G01 X371.595 Y1015.336
G01 X308.918 Y1024.869
G01 X310.283 Y1017.999
G01 X277.348 Y1068.816
G01 X239.604 Y1056.963
G01 X251.253 Y1093.452
G01 X200.334 Y1126.269
G01 X206.710 Y1123.769
G01 X198.137 Y1185.878
G01 X167.067 Y1188.894
G01 X197.939 Y1223.012
G01 X168.149 Y1271.721
G01 X182.698 Y1269.478
G01 X201.830 Y1333.300
G01 X181.527 Y1347.314
G01 X228.928 Y1372.914
G01 X221.717 Y1430.683
G01 X240.673 Y1427.030
G01 X282.177 Y1485.639
G01 X269.718 Y1508.802
G01 X323.709 Y1523.548
G01 X333.190 Y1585.682
G01 X347.633 Y1581.798
G01 X367.001 Y1600.000
G01 X710.000 Y1600.000
G01 X710.000 Y1227.361
G01 X683.074 Y1227.937
G01 X710.000 Y1225.702
G01 X710.000 Y1229.497
G01 X692.034 Y1263.501
G01 X685.027 Y1233.264
G01 X710.000 Y1256.702
G01 X710.000 Y1257.844
G01 X676.328 Y1255.250
G01 X704.672 Y1228.760
G01 X697.126 Y1255.178
G01 X680.985 Y1212.669
G01 X710.000 Y1213.242
G01 X710.000 Y1212.916
G01 X675.469 Y1206.629
G01 X691.614 Y1159.592
G01 X688.321 Y1175.085
G01 X655.751 Y1128.800
G01 X680.423 Y1111.539
G01 X637.880 Y1109.175
G01 X633.407 Y1054.576
G01 X628.617 Y1067.456
G01 X577.501 Y1031.856
G01 X589.756 Y1008.917
G01 X542.390 Y1021.787
G01 X516.356 Y974.998
G01 X510.493 Y994.126
G01 X446.693 Y981.691
G01 X448.019 Y963.464
G01 X403.867 Y997.672
G01 X363.504 Y968.876
G01 X363.024 Y997.214
G01 X299.008 Y1012.372
G01 X296.748 Y1002.413
G01 X267.733 Y1055.528
G01 X224.915 Y1046.679
G01 X238.256 Y1079.955
G01 X188.029 Y1118.667
G01 X190.362 Y1114.368
G01 X186.572 Y1177.561
G01 X151.913 Y1184.963
G01 X183.835 Y1215.497
G01 X156.836 Y1269.608
G01 X167.372 Y1266.801
G01 X191.769 Y1330.204
G01 X169.687 Y1349.437
G01 X217.362 Y1371.282
G01 X214.712 Y1433.393
G01 X229.921 Y1430.421
G01 X276.541 Y1487.142
G01 X264.080 Y1515.928
G01 X317.316 Y1527.154
G01 X332.472 Y1592.282
G01 X343.496 Y1590.391
G01 X355.272 Y1600.000
G01 X710.000 Y1600.000
G01 X710.000 Y1216.288
G01 X689.489 Y1219.271
G01 X710.000 Y1214.317
G01 X710.000 Y1230.449
G01 X701.021 Y1253.534
G01 X689.158 Y1224.121
G01 X710.000 Y1238.994
G01 X710.000 Y1245.820
G01 X683.489 Y1247.424
G01 X708.920 Y1216.761
G01 X706.026 Y1244.134
G01 X685.267 Y1203.260
G01 X710.000 Y1200.032
G01 X710.000 Y1198.395
G01 X682.519 Y1196.508
G01 X694.358 Y1145.880
G01 X695.494 Y1160.507
G01 X658.688 Y1116.814
G01 X683.443 Y1094.026
G01 X642.647 Y1095.245
G01 X632.709 Y1038.380
G01 X631.624 Y1049.093
G01 X576.976 Y1017.269
G01 X587.453 Y989.135
G01 X542.622 Y1005.087
G01 X510.534 Y957.975
G01 X507.450 Y974.205
G01 X441.306 Y966.725
G01 X439.355 Y944.380
G01 X398.539 Y981.117
G01 X352.337 Y954.132
G01 X353.744 Y979.199
G01 X289.082 Y1000.086
G01 X282.643 Y987.431
G01 X257.775 Y1042.214
G01 X210.159 Y1037.022
G01 X224.618 Y1066.770
G01 X175.780 Y1111.265
G01 X173.659 Y1105.700
G01 X174.685 Y1169.299
G01 X136.894 Y1181.620
G01 X169.227 Y1208.432
G01 X145.652 Y1267.621
G01 X151.939 Y1264.872
G01 X181.434 Y1327.189
G01 X158.169 Y1352.007
G01 X205.465 Y1370.146
G01 X207.886 Y1436.095
G01 X219.308 Y1434.461
G01 X270.691 Y1488.702
G01 X258.907 Y1523.283
G01 X310.785 Y1531.227
G01 X331.957 Y1598.717
G01 X339.726 Y1599.460
G01 X340.489 Y1600.000
G01 X710.000 Y1600.000
G01 X710.000 Y1206.772
G01 X696.046 Y1210.531
G01 X710.000 Y1204.636
G01 X710.000 Y1242.704
G01 X709.890 Y1243.122
G01 X693.243 Y1215.219
G01 X710.000 Y1224.058
G01 X710.000 Y1235.556
G01 X690.803 Y1239.418
G01 X710.000 Y1209.277
G01 X710.000 Y1225.426
G01 X689.572 Y1194.035
G01 X710.000 Y1188.351
G01 X710.000 Y1185.157
G01 X689.632 Y1186.119
G01 X696.716 Y1132.443
G01 X702.257 Y1145.523
G01 X661.640 Y1104.963
G01 X685.782 Y1076.534
G01 X647.320 Y1081.019
G01 X631.643 Y1022.546
G01 X634.038 Y1030.455
G01 X576.424 Y1002.803
G01 X584.426 Y969.575
G01 X542.602 Y988.138
G01 X504.398 Y941.417
G01 X503.695 Y954.211
G01 X435.874 Y951.899
G01 X430.016 Y925.743
G01 X392.854 Y964.420
G01 X340.974 Y939.948
G01 X343.736 Y961.346
G01 X279.136 Y987.967
G01 X268.014 Y973.092
G01 X247.429 Y1028.882
G01 X195.382 Y1027.964
G01 X210.336 Y1053.955
G01 X163.568 Y1104.021
G01 X156.655 Y1097.786
G01 X162.434 Y1161.111
G01 X122.047 Y1178.826
G01 X154.129 Y1201.871
G01 X134.567 Y1265.726
G01 X136.460 Y1263.694
G01 X170.790 Y1324.285
G01 X146.993 Y1354.974
G01 X193.265 Y1369.552
G01 X201.201 Y1438.765
G01 X208.892 Y1439.139
G01 X264.600 Y1490.361
G01 X254.203 Y1530.812
G01 X304.152 Y1535.802
G01 X329.626 Y1600.000
G01 X710.000 Y1600.000
G01 X710.000 Y1198.788
G01 X702.747 Y1201.668
G01 X710.000 Y1197.003
G01 X710.000 Y1221.865
G01 X697.328 Y1206.541
G01 X710.000 Y1211.172
G01 X710.000 Y1227.064
G01 X698.257 Y1231.186
G01 X710.000 Y1206.445
G01 X710.000 Y1204.660
G01 X693.939 Y1184.965
G01 X710.000 Y1178.061
G01 X710.000 Y1173.172
G01 X696.779 Y1175.422
G01 X698.733 Y1119.305
G01 X708.558 Y1130.154
G01 X664.633 Y1093.208
G01 X687.445 Y1059.119
G01 X651.861 Y1066.466
G01 X630.263 Y1007.084
G01 X635.818 Y1011.577
G01 X575.862 Y988.413
G01 X580.698 Y950.293
G01 X542.285 Y970.925
G01 X498.003 Y925.320
G01 X499.201 Y934.192
G01 X430.397 Y937.171
G01 X420.041 Y907.599
G01 X386.766 Y947.580
G01 X329.466 Y926.304
G01 X332.987 Y943.709
G01 X269.157 Y975.973
G01 X252.910 Y959.428
G01 X236.650 Y1015.545
G01 X180.624 Y1019.472
G01 X195.416 Y1041.566
G01 X151.370 Y1096.901
G01 X139.409 Y1090.645
G01 X149.781 Y1153.025
G01 X107.401 Y1176.535
G01 X138.561 Y1195.865
G01 X123.547 Y1263.894
G01 X120.992 Y1263.268
G01 X159.806 Y1321.530
G01 X136.173 Y1358.288
G01 X180.796 Y1369.546
G01 X194.611 Y1441.387
G01 X198.728 Y1444.436
G01 X258.248 Y1492.160
G01 X249.965 Y1538.463
G01 X297.463 Y1540.911
G01 X326.013 Y1600.000
G01 X710.000 Y1600.000
G01 X710.000 Y1192.416
G01 X709.588 Y1192.635
G01 X710.000 Y1192.249
G01 X710.000 Y1205.688
G01 X701.457 Y1198.062
G01 X710.000 Y1199.925
G01 X710.000 Y1220.524
G01 X705.832 Y1222.681
G01 X710.000 Y1210.116
G01 X710.000 Y1187.464
G01 X698.400 Y1176.012
G01 X710.000 Y1169.148
G01 X710.000 Y1162.519
G01 X703.929 Y1164.378
G01 X700.460 Y1106.482
G01 X710.000 Y1111.940
G01 X710.000 Y1111.360
G01 X667.689 Y1081.506
G01 X688.447 Y1041.838
G01 X656.225 Y1051.562
G01 X628.620 Y991.996
G01 X636.928 Y992.504
G01 X575.294 Y974.055
G01 X576.301 Y931.340
G01 X541.622 Y953.439
G01 X491.398 Y909.673
G01 X493.944 Y914.202
G01 X424.868 Y922.494
G01 X409.474 Y889.990
G01 X380.226 Y930.606
G01 X317.858 Y913.175
G01 X321.494 Y926.347
G01 X259.126 Y964.063
G01 X237.388 Y946.467
G01 X225.393 Y1002.224
G01 X165.924 Y1011.507
G01 X179.869 Y1029.662
G01 X139.156 Y1089.869
G01 X121.981 Y1084.284
G01 X136.689 Y1145.073
G01 X92.979 Y1174.700
G01 X122.551 Y1190.467
G01 X112.551 Y1262.103
G01 X105.595 Y1263.583
G01 X148.456 Y1318.965
G01 X125.716 Y1361.896
G01 X168.098 Y1370.167
G01 X188.073 Y1443.949
G01 X188.867 Y1450.323
G01 X251.620 Y1494.149
G01 X246.182 Y1546.184
G01 X290.765 Y1546.582
G01 X321.436 Y1600.000
G01 X710.000 Y1600.000
G01 X710.000 Y1192.588
G01 X705.670 Y1189.752
G01 X710.000 Y1190.092
G01 X710.000 Y1172.700
G01 X702.984 Y1167.137
G01 X710.000 Y1161.723
G01 X710.000 Y1146.201
G01 X701.951 Y1093.982
G01 X710.000 Y1095.992
G01 X710.000 Y1092.766
G01 X670.821 Y1069.810
G01 X688.809 Y1024.746
G01 X660.366 Y1036.290
G01 X626.768 Y977.275
G01 X637.334 Y973.283
G01 X574.722 Y959.682
G01 X571.270 Y912.762
G01 X540.562 Y935.678
G01 X484.633 Y894.456
G01 X487.909 Y894.299
G01 X419.275 Y907.826
G01 X398.364 Y872.952
G01 X373.185 Y913.509
G01 X306.191 Y900.527
G01 X309.257 Y909.320
G01 X249.019 Y952.201
G01 X221.504 Y934.228
G01 X213.617 Y988.947
G01 X151.310 Y1004.028
G01 X163.716 Y1018.297
G01 X126.891 Y1082.900
G01 X104.432 Y1078.706
G01 X123.126 Y1137.293
G01 X78.796 Y1173.272
G01 X106.135 Y1185.725
G01 X101.539 Y1260.336
G01 X90.327 Y1264.624
G01 X136.721 Y1316.637
G01 X115.620 Y1365.746
G01 X155.219 Y1371.450
G01 X181.540 Y1446.450
G01 X179.358 Y1456.769
G01 X244.711 Y1496.376
G01 X242.836 Y1553.923
G01 X284.113 Y1552.832
G01 X315.772 Y1600.000
G01 X710.000 Y1600.000
G01 X710.000 Y1159.730
G01 X707.712 Y1158.294
G01 X710.000 Y1156.051
G01 X710.000 Y1108.805
G01 X703.258 Y1081.807
G01 X710.000 Y1081.890
G01 X710.000 Y1075.260
G01 X674.035 Y1058.072
G01 X688.559 Y1007.893
G01 X664.233 Y1020.638
G01 X624.757 Y962.911
G01 X637.011 Y953.969
G01 X574.137 Y945.248
G01 X565.648 Y894.603
G01 X539.055 Y917.648
G01 X477.753 Y879.642
G01 X481.087 Y874.542
G01 X413.597 Y893.127
G01 X386.765 Y856.512
G01 X365.597 Y896.313
G01 X294.501 Y888.324
G01 X296.287 Y892.689
G01 X238.803 Y940.353
G01 X205.320 Y922.723
G01 X201.284 Y975.749
G01 X136.807 Y996.987
G01 X146.983 Y1007.529
G01 X114.535 Y1075.970
G01 X86.823 Y1073.905
G01 X109.065 Y1129.732
G01 X64.862 Y1172.199
G01 X89.354 Y1181.682
G01 X90.465 Y1258.585
G01 X75.244 Y1266.365
G01 X124.585 Y1314.596
G01 X105.878 Y1369.785
G01 X142.210 Y1373.427
G01 X174.963 Y1448.892
G01 X170.245 Y1463.733
G01 X237.519 Y1498.895
G01 X239.901 Y1561.634
G01 X277.563 Y1559.676
G01 X308.858 Y1600.000
G01 X710.000 Y1600.000
G01 X710.000 Y1085.921
G01 X704.434 Y1069.951
G01 X710.000 Y1068.913
G01 X710.000 Y1058.603
G01 X677.332 Y1046.243
G01 X687.732 Y991.327
G01 X667.772 Y1004.601
G01 X622.636 Y948.881
G01 X635.940 Y934.617
G01 X573.525 Y930.706
G01 X559.483 Y876.898
G01 X537.047 Y899.362
G01 X470.799 Y865.199
G01 X473.477 Y854.993
G01 X407.805 Y878.357
G01 X374.734 Y840.693
G01 X357.416 Y879.047
G01 X282.819 Y876.523
G01 X282.602 Y876.514
G01 X228.442 Y928.494
G01 X188.897 Y911.957
G01 X188.359 Y962.672
G01 X122.431 Y990.336
G01 X129.707 Y997.408
G01 X102.045 Y1069.066
G01 X69.214 Y1069.866
G01 X94.487 Y1122.438
G01 X51.176 Y1171.430
G01 X72.257 Y1178.379
G01 X79.281 Y1256.848
G01 X60.397 Y1268.777
G01 X112.044 Y1312.897
G01 X96.474 Y1373.965
G01 X129.127 Y1376.121
G01 X168.295 Y1451.289
G01 X161.569 Y1471.171
G01 X230.053 Y1501.758
G01 X237.346 Y1569.274
G01 X271.174 Y1567.120
G01 X300.470 Y1600.000
G01 X710.000 Y1600.000
G01 X710.000 Y1068.272
G01 X705.530 Y1058.399
G01 X710.000 Y1056.751
G01 X710.000 Y1042.620
G01 X680.702 Y1034.274
G01 X686.370 Y975.092
G01 X670.928 Y988.183
G01 X620.450 Y935.159
G01 X634.108 Y915.290
G01 X572.862 Y916.014
G01 X552.827 Y859.679
G01 X534.488 Y880.841
G01 X463.807 Y851.091
G01 X465.085 Y835.715
G01 X401.867 Y863.484
G01 X362.330 Y825.510
G01 X348.599 Y861.745
G01 X271.167 Y865.079
G01 X268.226 Y860.852
G01 X217.894 Y916.601
G01 X172.295 Y901.927
G01 X174.813 Y949.763
G01 X108.190 Y984.024
G01 X111.927 Y987.984
G01 X89.373 Y1062.178
G01 X51.663 Y1066.569
G01 X79.375 Y1115.465
G01 X37.732 Y1170.913
G01 X54.897 Y1175.850
G01 X67.940 Y1255.130
G01 X45.835 Y1271.821
G01 X99.098 Y1311.595
G01 X87.384 Y1378.238
G01 X116.030 Y1379.547
G01 X161.493 Y1453.660
G01 X153.360 Y1479.031
G01 X222.329 Y1505.017
G01 X235.133 Y1576.804
G01 X265.005 Y1575.159
G01 X290.309 Y1600.000
G01 X710.000 Y1600.000
G01 X710.000 Y1053.158
G01 X706.596 Y1047.130
G01 X710.000 Y1045.262
G01 X710.000 Y1027.174
G01 X684.130 Y1022.116
G01 X684.519 Y959.223
G01 X673.645 Y971.396
G01 X618.239 Y921.712
G01 X631.511 Y896.048
G01 X572.119 Y901.133
G01 X545.735 Y842.967
G01 X531.328 Y862.114
G01 X456.804 Y837.273
G01 X455.927 Y816.770
G01 X395.742 Y848.479
G01 X349.614 Y810.969
G01 X339.108 Y844.453
G01 X259.562 Y853.943
G01 X253.193 Y845.761
G01 X207.113 Y904.660
G01 X155.576 Y892.620
G01 X160.622 Y937.074
G01 X94.086 Y978.000
G01 X93.693 Y979.299
G01 X76.473 Y1055.306
G01 X34.223 Y1063.984
G01 X63.723 Y1108.871
G01 X24.516 Y1170.599
G01 X37.333 Y1174.121
G01 X56.396 Y1253.445
G01 X31.600 Y1275.454
G01 X85.756 Y1310.746
G01 X78.579 Y1382.562
G01 X102.981 Y1383.714
G01 X154.512 Y1456.031
G01 X145.646 Y1487.261
G01 X214.370 Y1508.725
G01 X233.220 Y1584.192
G01 X259.116 Y1583.785
G01 X277.969 Y1600.000
G01 X710.000 Y1600.000
G01 X710.000 Y1039.493
G01 X707.678 Y1036.116
G01 X710.000 Y1034.403
G01 X710.000 Y1012.155
G01 X687.592 Y1009.722
G01 X682.230 Y943.752
G01 X675.870 Y954.258
G01 X616.039 Y908.501
G01 X628.154 Y876.956
G01 X571.259 Y886.025
G01 X538.267 Y826.779
G01 X527.522 Y843.216
G01 X449.814 Y823.701
G01 X446.026 Y798.217
G01 X389.385 Y833.321
G01 X336.647 Y797.068
G01 X328.911 Y827.217
G01 X248.011 Y843.065
G01 X237.543 Y831.290
G01 X196.050 Y892.663
G01 X138.797 Y884.019
G01 X145.769 Y924.662
G01 X80.112 Y972.214
G01 X75.058 Y971.392
G01 X63.295 Y1048.458
G01 X16.944 Y1062.076
G01 X47.531 Y1102.714
G01 X11.505 Y1170.443
G01 X19.625 Y1173.213
G01 X44.603 Y1251.815
G01 X17.726 Y1279.627
G01 X72.035 Y1310.407
G01 X70.023 Y1386.900
G01 X90.043 Y1388.624
G01 X147.315 Y1458.436
G01 X138.443 Y1495.802
G01 X206.207 Y1512.930
G01 X231.558 Y1591.414
G01 X253.568 Y1592.979
G01 X262.891 Y1600.000
G01 X710.000 Y1600.000
G01 X710.000 Y1026.756
G01 X708.815 Y1025.321
G01 X710.000 Y1024.199
G01 X710.000 Y997.476
G01 X691.056 Y997.050
G01 X679.559 Y928.700
G01 X677.550 Y936.797
G01 X613.878 Y895.481
G01 X624.047 Y858.075
G01 X570.242 Y870.661
G01 X530.481 Y811.122
G01 X523.026 Y824.192
G01 X442.852 Y810.324
G01 X435.411 Y780.116
G01 X382.749 Y817.994
G01 X323.488 Y783.798
G01 X317.981 Y810.093
G01 X236.515 Y832.395
G01 X221.322 Y817.488
G01 X184.655 Y880.610
G01 X122.013 Y876.095
G01 X130.245 Y912.588
G01 X66.254 Y966.618
G01 X56.081 Y964.293
G01 X49.791 Y1041.648
G01 X5.000 Y1058.835
G01 X5.000 Y1066.814
G01 X30.809 Y1097.055
G01 X5.000 Y1155.956
G01 X5.000 Y1181.084
G01 X32.517 Y1250.267
G01 X5.000 Y1283.378
G01 X5.000 Y1284.658
G01 X57.959 Y1310.632
G01 X61.675 Y1391.218
G01 X77.281 Y1394.268
G01 X139.868 Y1460.916
G01 X131.764 Y1504.596
G01 X197.878 Y1517.676
G01 X230.099 Y1598.450
G01 X236.757 Y1600.000
G01 X710.000 Y1600.000
G01 X710.000 Y983.061
G01 X694.486 Y984.061
G01 X676.564 Y914.084
G01 X678.634 Y919.047
G01 X611.777 Y882.603
G01 X619.211 Y839.468
G01 X569.018 Y855.017
G01 X522.437 Y795.994
G01 X517.805 Y805.089
G01 X435.924 Y797.091
G01 X424.120 Y762.520
G01 X375.780 Y802.489
G01 X310.195 Y771.141
G01 X306.297 Y793.140
G01 X225.066 Y821.881
G01 X204.584 Y804.395
G01 X172.875 Y868.509
G01 X105.274 Y868.817
G01 X114.050 Y900.913
G01 X52.488 Y961.167
G01 X36.824 Y958.026
G01 X35.913 Y1034.900
G01 X5.000 Y1049.645
G01 X5.000 Y1083.016
G01 X13.572 Y1091.954
