; file trimmed by trimify2x.pl
; Created by Sandify
; 
;   https://jeffeb3.github.io/sandify/
; 
;   Sandify Version: 0.1.3
; 
;   Machine Type: Rectangular
;     MinX: 5 MaxX: 710 MinY: 5 MaxY: 1600
;   Content Type: Shapes
;     Starting Size: 341
;     Offset: X: 737 Y: -62
;     Selected Shape: Circle
;       Circle Lobes: 1
;     Number of Loops: 323
;     Spin: true
;       Spin Value: 0.4
;       Spin Switchbacks: 13
;     Grow: true
;       Grow Value: -4
;     Track: true
;       Track Count: 15
;       Track Size: 799.65
;       Track Grow: true
;           Track Grow Value: 66
;   Path Reversed: false
; 
; filename: '110219_5.gcode'

; BEGIN PRE
G28 Y
G28 X
G01 F30000; END PRE
G01 X710.000 Y740.500
G01 X710.000 Y752.469
G01 X706.742 Y749.834
G01 X710.000 Y749.042
G01 X710.000 Y826.965
G01 X708.284 Y825.179
G01 X710.000 Y825.040
G01 X710.000 Y773.378
G01 X690.916 Y761.507
G01 X710.000 Y754.026
G01 X710.000 Y700.677
G01 X699.740 Y697.715
G01 X710.000 Y690.184
G01 X710.000 Y855.245
G01 X690.934 Y839.678
G01 X710.000 Y835.338
G01 X710.000 Y788.921
G01 X676.249 Y773.383
G01 X710.000 Y754.690
G01 X710.000 Y709.467
G01 X688.697 Y706.303
G01 X710.000 Y686.149
G01 X710.000 Y876.927
G01 X674.638 Y854.571
G01 X710.000 Y841.124
G01 X710.000 Y835.310
G01 X706.517 Y747.722
G01 X710.000 Y751.042
G01 X710.000 Y800.135
G01 X662.806 Y785.293
G01 X710.000 Y750.501
G01 X710.000 Y738.474
G01 X690.213 Y667.509
G01 X710.000 Y676.273
G01 X710.000 Y714.889
G01 X678.934 Y714.559
G01 X710.000 Y676.948
G01 X710.000 Y613.280
G01 X699.533 Y594.778
G01 X710.000 Y596.019
G01 X710.000 Y947.414
G01 X696.509 Y936.433
G01 X710.000 Y933.703
G01 X710.000 Y893.600
G01 X659.485 Y869.701
G01 X710.000 Y842.121
G01 X710.000 Y894.699
G01 X707.192 Y898.533
G01 X684.141 Y754.692
G01 X710.000 Y772.576
G01 X710.000 Y807.607
G01 X650.625 Y797.062
G01 X710.000 Y740.375
G01 X710.000 Y770.984
G01 X669.819 Y673.599
G01 X710.000 Y684.817
G01 X710.000 Y717.148
G01 X670.437 Y722.301
G01 X710.000 Y660.480
G01 X710.000 Y636.728
G01 X682.580 Y599.774
G01 X710.000 Y599.356
G01 X710.000 Y973.239
G01 X680.388 Y954.503
G01 X710.000 Y943.874
G01 X710.000 Y992.649
G01 X708.395 Y994.115
G01 X701.322 Y847.296
G01 X710.000 Y856.574
G01 X710.000 Y906.172
G01 X645.543 Y884.898
G01 X710.000 Y837.600
G01 X710.000 Y890.825
G01 X702.633 Y905.012
G01 X662.110 Y762.716
G01 X710.000 Y785.930
G01 X710.000 Y811.621
G01 X639.721 Y808.508
G01 X710.000 Y722.278
G01 X710.000 Y787.260
G01 X650.167 Y680.580
G01 X710.000 Y688.463
G01 X710.000 Y716.220
G01 X663.165 Y729.355
G01 X710.000 Y632.270
G01 X710.000 Y650.654
G01 X666.700 Y605.414
G01 X710.000 Y599.066
G01 X710.000 Y994.111
G01 X665.395 Y972.856
G01 X710.000 Y949.283
G01 X710.000 Y997.589
G01 X703.670 Y1005.305
G01 X678.592 Y857.190
G01 X710.000 Y881.445
G01 X710.000 Y915.141
G01 X632.855 Y899.980
G01 X710.000 Y826.155
G01 X710.000 Y875.133
G01 X698.358 Y910.022
G01 X640.603 Y771.744
G01 X710.000 Y793.270
G01 X710.000 Y812.217
G01 X630.081 Y819.447
G01 X708.665 Y694.415
G01 X710.000 Y712.599
G01 X710.000 Y795.743
G01 X631.415 Y688.353
G01 X710.000 Y687.812
G01 X710.000 Y711.825
G01 X657.053 Y735.547
G01 X706.046 Y592.842
G01 X710.000 Y600.854
G01 X710.000 Y658.463
G01 X652.012 Y611.559
G01 X710.000 Y595.309
G01 X710.000 Y548.889
G01 X701.426 Y545.435
G01 X710.000 Y540.604
G01 X710.000 Y1010.961
G01 X651.600 Y991.319
G01 X710.000 Y949.247
G01 X710.000 Y997.366
G01 X699.391 Y1015.085
G01 X656.149 Y868.183
G01 X710.000 Y897.481
G01 X710.000 Y920.729
G01 X621.438 Y914.762
G01 X710.000 Y805.182
G01 X710.000 Y816.719
G01 X694.187 Y913.514
G01 X619.794 Y781.702
G01 X710.000 Y795.670
G01 X710.000 Y809.194
G01 X621.668 Y829.696
G01 X686.199 Y692.676
G01 X710.000 Y791.159
G01 X710.000 Y799.452
G01 X613.707 Y696.797
G01 X710.000 Y683.080
G01 X710.000 Y703.299
G01 X652.010 Y740.715
G01 X684.387 Y590.788
G01 X710.000 Y627.080
G01 X710.000 Y661.863
G01 X638.618 Y618.049
G01 X710.000 Y587.999
G01 X710.000 Y638.572
G01 X707.713 Y502.751
G01 X710.000 Y504.407
G01 X710.000 Y553.743
G01 X693.225 Y549.618
G01 X710.000 Y537.315
G01 X710.000 Y1083.275
G01 X696.233 Y1076.774
G01 X710.000 Y1069.906
G01 X710.000 Y1033.056
G01 X697.652 Y964.201
G01 X710.000 Y975.067
G01 X710.000 Y1024.319
G01 X639.051 Y1009.707
G01 X710.000 Y942.398
G01 X710.000 Y987.605
G01 X695.387 Y1023.376
G01 X634.179 Y880.228
G01 X710.000 Y907.179
G01 X710.000 Y922.933
G01 X611.284 Y929.054
G01 X689.833 Y802.225
G01 X689.937 Y915.459
G01 X599.847 Y792.489
G01 X710.000 Y793.598
G01 X710.000 Y802.045
G01 X614.417 Y839.077
G01 X663.254 Y692.019
G01 X708.183 Y798.176
G01 X597.168 Y705.770
G01 X710.000 Y674.178
G01 X710.000 Y689.297
G01 X647.923 Y744.710
G01 X662.691 Y589.914
G01 X710.000 Y638.940
G01 X710.000 Y661.763
G01 X626.598 Y624.714
G01 X710.000 Y576.792
G01 X710.000 Y649.901
G01 X709.329 Y651.309
G01 X688.859 Y501.996
G01 X710.000 Y513.195
G01 X710.000 Y555.847
G01 X686.476 Y553.600
G01 X710.000 Y531.628
G01 X710.000 Y1107.306
G01 X683.215 Y1098.341
G01 X710.000 Y1079.753
G01 X710.000 Y1091.042
G01 X675.455 Y978.088
G01 X710.000 Y999.639
G01 X710.000 Y1034.446
G01 X627.770 Y1027.827
G01 X710.000 Y926.160
G01 X710.000 Y951.770
G01 X691.476 Y1030.120
G01 X612.862 Y893.250
G01 X710.000 Y911.726
G01 X710.000 Y921.520
G01 X602.357 Y942.666
G01 X666.576 Y803.192
G01 X685.416 Y915.859
G01 X580.910 Y803.984
G01 X710.000 Y787.123
G01 X710.000 Y789.806
G01 X608.238 Y847.421
G01 X640.012 Y692.515
G01 X703.052 Y792.611
G01 X581.907 Y715.109
G01 X710.000 Y660.710
G01 X710.000 Y667.027
G01 X644.655 Y747.398
G01 X641.152 Y590.237
G01 X710.000 Y642.981
G01 X710.000 Y658.633
G01 X616.005 Y631.367
G01 X710.000 Y560.988
G01 X710.000 Y644.572
G01 X708.910 Y648.363
G01 X670.602 Y502.369
G01 X710.000 Y516.794
G01 X710.000 Y555.609
G01 X681.178 Y557.189
G01 X710.000 Y523.099
G01 X710.000 Y1127.870
G01 X671.439 Y1119.881
G01 X710.000 Y1084.179
G01 X710.000 Y1120.932
G01 X653.681 Y993.084
G01 X710.000 Y1016.594
G01 X710.000 Y1041.394
G01 X617.751 Y1045.485
G01 X695.991 Y918.276
G01 X687.469 Y1035.288
G01 X592.365 Y907.150
G01 X710.000 Y911.614
G01 X710.000 Y915.980
G01 X594.593 Y955.414
G01 X642.760 Y805.262
G01 X680.435 Y914.742
G01 X563.118 Y816.041
G01 X699.666 Y778.796
G01 X603.018 Y854.573
G01 X616.662 Y694.211
G01 X697.134 Y785.719
G01 X568.007 Y724.641
G01 X699.766 Y647.871
G01 X642.052 Y748.665
G01 X619.966 Y591.746
G01 X710.000 Y641.864
G01 X710.000 Y652.665
G01 X606.868 Y637.818
G01 X710.000 Y539.349
G01 X710.000 Y633.495
G01 X708.801 Y643.890
G01 X653.126 Y503.802
G01 X710.000 Y516.409
G01 X710.000 Y553.259
G01 X677.300 Y560.193
G01 X710.000 Y510.805
G01 X710.000 Y1145.361
G01 X660.930 Y1141.198
G01 X710.000 Y1081.404
G01 X710.000 Y1140.712
G01 X632.512 Y1009.115
G01 X710.000 Y1027.710
G01 X710.000 Y1045.016
G01 X608.959 Y1062.485
G01 X672.615 Y921.995
G01 X683.171 Y1038.874
G01 X572.846 Y921.804
G01 X706.193 Y907.305
G01 X587.904 Y967.125
G01 X618.568 Y808.510
G01 X674.806 Y912.163
G01 X546.582 Y828.498
G01 X681.794 Y771.440
G01 X598.619 Y860.392
G01 X593.403 Y697.128
G01 X690.267 Y777.609
G01 X555.528 Y734.175
G01 X680.519 Y638.928
G01 X639.941 Y748.419
G01 X599.327 Y594.403
G01 X710.000 Y636.813
G01 X710.000 Y643.830
G01 X599.188 Y643.870
G01 X702.936 Y518.238
G01 X708.809 Y637.852
G01 X636.605 Y506.202
G01 X710.000 Y512.706
G01 X710.000 Y548.882
G01 X674.785 Y562.427
G01 X710.000 Y492.772
G01 X710.000 Y443.964
G01 X703.494 Y437.386
G01 X710.000 Y436.370
G01 X710.000 Y1124.064
G01 X700.646 Y1103.486
G01 X710.000 Y1108.141
G01 X710.000 Y1159.974
G01 X651.684 Y1162.091
G01 X710.000 Y1067.821
G01 X710.000 Y1155.163
G01 X612.125 Y1026.082
G01 X710.000 Y1033.799
G01 X710.000 Y1044.935
G01 X601.334 Y1078.638
G01 X648.597 Y926.845
G01 X678.385 Y1040.905
G01 X554.442 Y937.066
G01 X689.405 Y902.506
G01 X582.176 Y977.635
G01 X594.194 Y812.987
G01 X668.350 Y908.205
G01 X531.391 Y841.174
G01 X662.591 Y764.443
G01 X594.884 Y864.759
G01 X570.436 Y701.258
G01 X682.304 Y768.414
G01 X544.502 Y743.516
G01 X660.207 Y630.723
G01 X638.136 Y746.591
G01 X579.426 Y598.141
G01 X710.000 Y628.395
G01 X710.000 Y631.878
G01 X592.938 Y649.327
G01 X682.960 Y509.826
G01 X708.737 Y630.241
G01 X621.201 Y509.452
G01 X710.000 Y506.029
G01 X710.000 Y542.397
G01 X673.547 Y563.712
G01 X710.000 Y464.266
G01 X710.000 Y452.518
G01 X693.684 Y440.016
G01 X710.000 Y435.417
G01 X710.000 Y1171.424
G01 X680.263 Y1122.328
G01 X710.000 Y1131.415
G01 X710.000 Y1171.733
G01 X643.670 Y1182.361
G01 X706.835 Y1042.410
G01 X708.808 Y1164.823
G01 X592.681 Y1043.861
G01 X710.000 Y1035.101
G01 X710.000 Y1040.451
G01 X594.788 Y1093.763
G01 X624.124 Y932.907
G01 X672.920 Y1041.433
G01 X537.271 Y952.771
G01 X671.153 Y897.853
G01 X577.270 Y986.798
G01 X569.842 Y818.718
G01 X660.900 Y902.976
G01 X517.611 Y853.879
G01 X642.132 Y757.994
G01 X591.640 Y867.574
G01 X547.961 Y706.563
G01 X673.116 Y758.288
G01 X534.934 Y752.461
G01 X638.959 Y623.412
G01 X636.442 Y743.141
G01 X560.443 Y602.869
G01 X708.653 Y616.693
G01 X588.061 Y653.994
G01 X662.449 Y502.571
G01 X708.386 Y621.075
G01 X607.060 Y513.409
G01 X710.000 Y496.494
G01 X710.000 Y533.483
G01 X673.476 Y563.879
G01 X710.000 Y410.868
G01 X710.000 Y456.876
G01 X685.367 Y443.005
G01 X710.000 Y432.792
G01 X710.000 Y1205.603
G01 X660.624 Y1142.173
G01 X710.000 Y1148.800
G01 X710.000 Y1180.493
G01 X636.829 Y1201.811
G01 X683.288 Y1049.949
G01 X704.886 Y1169.969
G01 X574.323 Y1062.303
G01 X707.388 Y1032.016
G01 X589.206 Y1107.691
G01 X599.394 Y940.236
G01 X666.589 Y1040.538
G01 X521.429 Y968.735
G01 X651.482 Y893.545
G01 X573.029 Y994.488
G01 X545.716 Y825.696
G01 X652.302 Y896.609
G01 X505.277 Y866.410
G01 X620.520 Y752.271
G01 X588.697 Y868.766
G01 X526.175 Y712.981
G01 X662.597 Y747.404
G01 X526.800 Y760.809
G01 X616.925 Y617.137
G01 X634.657 Y738.056
G01 X542.546 Y608.466
G01 X696.761 Y602.558
G01 X584.475 Y657.687
G01 X641.589 Y496.564
G01 X707.557 Y610.405
G01 X594.305 Y517.913
G01 X710.000 Y484.024
G01 X710.000 Y521.364
G01 X674.437 Y562.777
G01 X693.757 Y397.922
G01 X710.000 Y412.255
G01 X710.000 Y458.249
G01 X678.616 Y446.161
G01 X710.000 Y428.600
G01 X710.000 Y1294.410
G01 X706.890 Y1294.898
G01 X710.000 Y1288.105
G01 X710.000 Y1232.083
G01 X641.895 Y1162.897
G01 X710.000 Y1161.069
G01 X710.000 Y1185.894
G01 X631.074 Y1220.253
G01 X659.206 Y1058.742
G01 X700.256 Y1173.580
G01 X557.177 Y1081.242
G01 X689.439 Y1030.095
G01 X584.450 Y1120.269
G01 X574.613 Y948.860
G01 X659.220 Y1038.329
G01 X506.984 Y984.763
G01 X630.466 Y889.776
G01 X569.276 Y1000.599
G01 X522.024 Y833.890
G01 X642.421 Y889.259
G01 X494.399 Y878.560
G01 X597.883 Y747.437
G01 X585.856 Y868.287
G01 X505.263 Y720.418
G01 X650.665 Y735.953
G01 X520.046 Y768.360
G01 X594.276 Y612.017
G01 X632.576 Y731.352
G01 X525.888 Y614.792
G01 X683.448 Y588.315
G01 X582.070 Y660.233
G01 X620.578 Y491.870
G01 X706.060 Y598.306
G01 X583.041 Y522.782
G01 X710.000 Y468.348
G01 X710.000 Y504.162
G01 X676.274 Y560.274
G01 X675.950 Y394.248
G01 X710.000 Y416.872
G01 X710.000 Y457.372
G01 X673.473 Y449.284
G01 X710.000 Y422.857
G01 X710.000 Y1314.968
G01 X701.441 Y1317.395
G01 X710.000 Y1289.496
G01 X710.000 Y1253.389
G01 X624.227 Y1184.351
G01 X710.000 Y1168.434
G01 X710.000 Y1187.271
G01 X626.290 Y1237.512
G01 X634.792 Y1068.849
G01 X694.727 Y1175.735
G01 X541.341 Y1100.492
G01 X669.984 Y1028.512
G01 X580.360 Y1131.363
G01 X549.993 Y958.777
G01 X650.652 Y1034.938
G01 X493.978 Y1000.649
G01 X608.207 Y886.730
G01 X565.818 Y1005.055
G01 X498.966 Y843.234
G01 X631.147 Y881.101
G01 X484.955 Y890.122
G01 X574.374 Y743.639
G01 X582.910 Y866.120
G01 X485.402 Y728.756
G01 X637.263 Y724.134
G01 X514.592 Y774.923
G01 X571.201 Y608.147
G01 X629.997 Y723.074
G01 X510.599 Y621.682
G01 X668.722 Y574.173
G01 X580.712 Y661.473
G01 X599.624 Y488.525
G01 X703.715 Y584.882
G01 X573.342 Y527.822
G01 X710.000 Y448.947
G01 X710.000 Y476.509
G01 X678.812 Y556.260
G01 X658.679 Y391.897
G01 X710.000 Y416.910
G01 X710.000 Y454.716
G01 X669.955 Y452.166
G01 X710.000 Y415.461
G01 X710.000 Y1333.477
G01 X697.091 Y1338.915
G01 X710.000 Y1263.339
G01 X710.000 Y1270.810
G01 X607.750 Y1206.365
G01 X710.000 Y1170.641
G01 X710.000 Y1183.427
G01 X622.340 Y1253.428
G01 X610.257 Y1080.301
G01 X688.118 Y1176.541
G01 X526.891 Y1119.853
G01 X649.096 Y1027.467
G01 X576.757 Y1140.863
G01 X525.744 Y969.957
G01 X640.746 Y1030.520
G01 X482.424 Y1016.181
G01 X584.834 Y884.574
G01 X562.453 Y1007.801
G01 X476.736 Y853.639
G01 X618.390 Y872.327
G01 X476.896 Y900.890
G01 X550.165 Y741.001
G01 X579.649 Y862.278
G01 X466.748 Y737.852
G01 X622.365 Y712.159
G01 X510.328 Y780.317
G01 X547.902 Y605.598
G01 X626.722 Y713.295
G01 X496.787 Y628.953
G01 X652.616 Y560.344
G01 X580.243 Y661.268
G01 X578.941 Y486.537
G01 X700.354 Y570.264
G01 X565.259 Y532.829
G01 X707.706 Y426.657
G01 X681.856 Y550.648
G01 X642.150 Y390.815
G01 X710.000 Y413.593
G01 X710.000 Y450.588
G01 X668.046 Y454.597
G01 X710.000 Y406.144
G01 X710.000 Y1300.342
G01 X703.682 Y1295.404
G01 X710.000 Y1294.588
G01 X710.000 Y1349.884
G01 X693.725 Y1359.276
G01 X701.065 Y1191.034
G01 X710.000 Y1210.513
G01 X710.000 Y1285.037
G01 X592.568 Y1228.752
G01 X710.000 Y1166.944
G01 X710.000 Y1172.155
G01 X619.061 Y1267.862
G01 X585.816 Y1093.101
G01 X680.263 Y1176.128
G01 X513.873 Y1139.114
G01 X626.875 Y1027.148
G01 X573.446 Y1148.685
G01 X502.075 Y982.338
G01 X629.383 Y1025.252
G01 X472.304 Y1031.145
G01 X560.497 Y883.462
G01 X558.969 Y1008.818
G01 X455.515 Y864.986
G01 X604.090 Y863.141
G01 X470.141 Y910.667
G01 X525.447 Y739.624
G01 X575.866 Y856.801
G01 X449.439 Y747.540
G01 X605.972 Y700.242
G01 X507.120 Y784.378
G01 X524.590 Y604.411
G01 X622.565 Y702.120
G01 X484.535 Y636.408
G01 X635.198 Y547.032
G01 X580.485 Y659.501
G01 X558.743 Y485.885
G01 X695.830 Y554.605
G01 X558.811 Y537.589
G01 X690.477 Y413.328
G01 X685.204 Y543.382
G01 X626.562 Y390.916
G01 X710.000 Y407.598
G01 X710.000 Y445.193
G01 X667.703 Y456.369
G01 X710.000 Y394.331
G01 X710.000 Y1333.345
G01 X688.474 Y1320.195
G01 X710.000 Y1313.802
G01 X710.000 Y1364.002
G01 X691.205 Y1378.313
G01 X677.425 Y1205.105
G01 X710.000 Y1252.958
G01 X710.000 Y1296.427
G01 X578.763 Y1251.308
G01 X699.829 Y1163.306
G01 X616.273 Y1280.698
G01 X561.685 Y1107.220
G01 X671.016 Y1174.654
G01 X502.303 Y1158.059
G01 X603.449 Y1027.731
G01 X570.220 Y1154.771
G01 X479.184 Y995.830
G01 X616.469 Y1019.328
G01 X463.571 Y1045.330
G01 X535.373 Y883.524
G01 X555.152 Y1008.110
G01 X435.466 Y877.130
G01 X588.214 Y853.757
G01 X464.584 Y919.264
G01 X500.425 Y739.584
G01 X571.359 Y849.761
G01 X433.589 Y757.635
G01 X588.119 Y688.597
G01 X504.810 Y786.959
G01 X501.484 Y604.597
G01 X617.354 Y689.678
G01 X473.898 Y643.837
G01 X616.561 Y534.434
G01 X581.244 Y656.081
G01 X539.243 Y486.515
G01 X690.015 Y538.083
G01 X553.989 Y541.887
G01 X672.382 Y401.086
G01 X688.642 Y534.431
G01 X612.101 Y392.090
G01 X710.000 Y399.297
G01 X710.000 Y438.656
G01 X668.851 Y457.278
G01 X710.000 Y378.797
G01 X710.000 Y1361.847
G01 X674.552 Y1345.430
G01 X710.000 Y1328.526
G01 X710.000 Y1375.417
G01 X689.369 Y1395.878
G01 X653.816 Y1220.585
G01 X710.000 Y1278.808
G01 X710.000 Y1305.122
G01 X566.385 Y1273.818
G01 X678.330 Y1165.620
G01 X613.777 Y1291.843
G01 X538.078 Y1122.600
G01 X660.253 Y1172.296
G01 X492.169 Y1176.469
G01 X578.970 Y1029.372
G01 X566.864 Y1159.094
G01 X457.258 Y1010.315
G01 X601.938 Y1012.955
G01 X456.147 Y1058.531
G01 X509.654 Y884.867
G01 X550.789 Y1005.718
G01 X416.734 Y889.906
G01 X570.763 Y844.394
G01 X460.089 Y926.511
G01 X475.316 Y740.926
G01 X565.933 Y841.261
G01 X419.288 Y767.936
G01 X568.867 Y677.436
G01 X503.219 Y787.938
G01 X478.805 Y606.138
G01 X610.934 Y676.122
G01 X464.901 Y651.023
G01 X596.829 Y522.733
G01 X582.313 Y650.945
G01 X520.644 Y488.346
G01 X682.808 Y520.890
G01 X550.751 Y545.508
G01 X653.591 Y390.071
G01 X691.950 Y523.798
G01 X598.937 Y394.199
G01 X710.000 Y388.868
G01 X710.000 Y431.035
G01 X671.387 Y457.135
G01 X710.000 Y356.635
G01 X710.000 Y329.221
G01 X709.427 Y328.796
G01 X710.000 Y328.638
G01 X710.000 Y1381.842
G01 X666.744 Y1367.595
G01 X710.000 Y1338.240
G01 X710.000 Y1386.216
G01 X692.582 Y1408.872
G01 X634.892 Y1234.635
G01 X710.000 Y1289.829
G01 X710.000 Y1308.054
G01 X559.613 Y1293.554
G01 X659.537 Y1166.492
G01 X615.189 Y1299.014
G01 X518.841 Y1137.063
G01 X651.314 Y1167.286
G01 X486.655 Y1192.278
G01 X556.620 Y1030.470
G01 X565.929 Y1160.013
G01 X438.991 Y1024.091
G01 X588.018 Y1004.867
G01 X451.922 Y1069.132
G01 X485.265 Y886.197
G01 X547.100 Y1000.373
G01 X400.573 Y901.807
G01 X552.592 Y833.961
G01 X457.014 Y930.936
G01 X450.540 Y742.322
G01 X559.286 Y830.041
G01 X406.139 Y776.786
G01 X547.523 Y665.443
G01 X501.026 Y785.607
G01 X455.308 Y607.263
G01 X601.372 Y659.782
G01 X455.395 Y655.751
G01 X573.669 Y509.940
G01 X580.654 Y641.717
G01 X499.987 Y488.724
G01 X670.647 Y500.475
G01 X545.213 Y545.246
G01 X630.162 Y377.146
G01 X690.463 Y507.986
G01 X582.465 Y393.258
G01 X710.000 Y371.463
G01 X710.000 Y412.973
G01 X669.835 Y451.303
G01 X710.000 Y292.584
G01 X710.000 Y332.248
G01 X698.176 Y325.932
G01 X710.000 Y321.109
G01 X710.000 Y1397.251
G01 X663.698 Y1387.802
G01 X710.000 Y1345.252
G01 X710.000 Y1399.436
G01 X699.101 Y1418.562
G01 X619.276 Y1248.568
G01 X710.000 Y1294.192
G01 X710.000 Y1307.915
G01 X556.773 Y1311.652
G01 X641.925 Y1167.438
G01 X618.613 Y1303.515
G01 X502.504 Y1151.812
G01 X642.495 Y1161.134
G01 X484.094 Y1206.555
G01 X535.061 Y1032.395
G01 X565.733 Y1158.802
G01 X423.159 Y1038.210
G01 X573.430 Y996.494
G01 X449.605 Y1078.152
G01 X461.402 Y888.758
G01 X543.006 Y993.365
G01 X386.355 Y913.833
G01 X533.215 Y823.892
G01 X454.820 Y933.652
G01 X426.164 Y745.035
G01 X551.307 Y817.584
G01 X394.450 Y785.348
G01 X524.719 Y654.265
G01 X498.777 Y781.439
G01 X432.217 Y609.536
G01 X589.835 Y642.612
G01 X446.894 Y659.690
G01 X549.082 Y498.237
G01 X578.160 Y630.597
G01 X479.853 Y489.897
G01 X656.187 Y479.647
G01 X540.270 Y543.711
G01 X605.598 Y365.447
G01 X687.561 Y490.365
G01 X566.707 Y392.671
G01 X710.000 Y350.060
G01 X710.000 Y388.189
G01 X668.526 Y443.828
G01 X691.687 Y263.941
G01 X710.000 Y279.032
G01 X710.000 Y330.793
G01 X687.861 Y322.980
G01 X710.000 Y310.771
G01 X710.000 Y1412.026
G01 X662.418 Y1408.017
G01 X710.000 Y1349.697
G01 X710.000 Y1416.617
G01 X705.994 Y1426.737
G01 X604.619 Y1264.002
G01 X710.000 Y1296.501
G01 X710.000 Y1306.571
G01 X555.582 Y1329.320
G01 X623.584 Y1169.908
G01 X621.896 Y1306.537
G01 X487.472 Y1167.791
G01 X632.136 Y1155.055
G01 X482.918 Y1220.006
G01 X513.188 Y1036.060
G01 X564.894 Y1156.284
G01 X408.863 Y1053.181
G01 X557.313 Y988.703
G01 X448.285 Y1086.028
G01 X437.669 Y893.124
G01 X537.824 Y985.345
G01 X373.766 Y926.259
G01 X512.457 Y814.870
G01 X453.144 Y935.012
G01 X402.349 Y749.464
G01 X541.890 Y804.505
G01 X384.335 Y793.830
G01 X500.801 Y644.508
G01 X496.520 Y775.829
G01 X410.066 Y613.285
G01 X576.635 Y625.270
G01 X439.769 Y663.080
G01 X523.746 Y488.210
G01 X575.128 Y618.085
G01 X460.950 Y492.183
G01 X639.982 Y459.119
G01 X536.378 Y541.212
G01 X580.712 Y355.535
G01 X683.633 Y471.531
G01 X552.356 Y392.735
G01 X710.000 Y324.677
G01 X710.000 Y352.656
G01 X667.842 Y435.065
G01 X669.105 Y254.417
G01 X710.000 Y279.930
G01 X710.000 Y325.930
G01 X678.996 Y320.166
G01 X710.000 Y298.021
G01 X710.000 Y1426.419
G01 X662.897 Y1428.010
G01 X710.000 Y1350.260
G01 X710.000 Y1429.560
G01 X591.120 Y1280.823
G01 X710.000 Y1296.873
G01 X710.000 Y1303.737
G01 X555.965 Y1346.342
G01 X604.712 Y1174.020
G01 X624.813 Y1308.112
G01 X473.902 Y1184.830
G01 X620.226 Y1149.277
G01 X482.991 Y1232.446
G01 X491.226 Y1041.521
G01 X563.206 Y1152.558
G01 X396.203 Y1068.796
G01 X539.724 Y981.717
G01 X447.779 Y1092.623
G01 X414.297 Y899.285
G01 X531.385 Y976.467
G01 X362.841 Y938.859
G01 X490.436 Y807.089
G01 X451.772 Y934.939
G01 X379.311 Y755.529
G01 X530.920 Y791.000
G01 X375.761 Y802.006
G01 X475.943 Y636.326
G01 X494.028 Y768.770
G01 X389.039 Y618.373
G01 X561.720 Y607.981
G01 X433.921 Y665.716
G01 X497.871 Y479.956
G01 X571.338 Y604.241
G01 X443.412 Y495.395
G01 X622.051 Y439.122
G01 X533.382 Y537.583
G01 X555.732 Y347.439
G01 X678.487 Y451.606
G01 X539.486 Y393.236
G01 X708.634 Y295.258
G01 X667.585 Y424.903
G01 X646.878 Y246.597
G01 X710.000 Y275.478
G01 X710.000 Y318.198
G01 X671.587 Y317.263
G01 X710.000 Y282.445
G01 X710.000 Y1440.652
G01 X665.096 Y1447.550
G01 X710.000 Y1343.805
G01 X710.000 Y1428.529
G01 X578.962 Y1298.884
G01 X710.000 Y1295.205
G01 X710.000 Y1298.987
G01 X557.818 Y1362.508
G01 X585.522 Y1179.865
G01 X627.144 Y1308.302
G01 X461.927 Y1202.738
G01 X606.785 Y1144.027
G01 X484.156 Y1243.707
G01 X469.405 Y1048.802
G01 X560.478 Y1147.747
G01 X385.250 Y1084.832
G01 X520.752 Y975.749
G01 X447.887 Y1097.824
G01 X391.515 Y907.195
G01 X523.545 Y966.908
G01 X353.583 Y951.402
G01 X467.302 Y800.729
G01 X450.481 Y933.389
G01 X357.259 Y763.123
G01 X518.310 Y777.285
G01 X368.663 Y809.654
G01 X450.339 Y629.846
G01 X491.072 Y760.286
G01 X369.300 Y624.636
G01 X545.071 Y590.976
G01 X429.224 Y667.408
G01 X471.682 Y473.539
G01 X566.579 Y589.158
G01 X427.348 Y499.329
G01 X602.443 Y419.884
G01 X531.102 Y532.681
G01 X530.894 Y341.158
G01 X671.947 Y430.744
G01 X528.138 Y393.946
G01 X687.422 Y274.942
G01 X667.541 Y413.259
G01 X625.230 Y240.411
G01 X710.000 Y266.906
G01 X710.000 Y307.839
G01 X665.609 Y314.043
G01 X710.000 Y263.252
G01 X710.000 Y1454.956
G01 X668.944 Y1466.416
G01 X710.000 Y1321.177
G01 X710.000 Y1428.920
G01 X568.308 Y1318.017
G01 X710.000 Y1291.196
G01 X710.000 Y1291.661
G01 X561.009 Y1377.628
G01 X566.241 Y1187.505
G01 X628.675 Y1307.201
G01 X451.653 Y1221.304
G01 X591.869 Y1139.534
G01 X486.227 Y1253.646
G01 X447.962 Y1057.896
G01 X556.535 Y1142.007
G01 X376.043 Y1101.060
G01 X500.515 Y971.001
G01 X448.390 Y1101.551
G01 X369.546 Y916.780
G01 X514.182 Y956.869
G01 X345.961 Y963.655
G01 X443.229 Y795.949
G01 X449.037 Y930.348
G01 X336.381 Y772.106
G01 X504.004 Y763.586
G01 X362.944 Y816.563
G01 X424.202 Y625.171
G01 X487.428 Y750.433
G01 X350.992 Y631.886
G01 X526.702 Y574.488
G01 X425.520 Y667.981
G01 X445.412 Y468.995
G01 X560.651 Y572.956
G01 X412.839 Y503.765
G01 X581.239 Y401.626
G01 X529.338 Y526.388
G01 X506.430 Y336.658
G01 X663.858 Y409.119
G01 X518.325 Y394.633
G01 X664.876 Y255.985
G01 X667.483 Y400.078
G01 X604.371 Y235.758
G01 X710.000 Y254.871
G01 X710.000 Y294.844
G01 X661.001 Y310.279
G01 X710.000 Y238.933
G01 X710.000 Y1405.425
G01 X709.990 Y1405.415
G01 X710.000 Y1405.416
G01 X710.000 Y1469.593
G01 X674.339 Y1484.392
G01 X700.580 Y1305.275
G01 X710.000 Y1345.877
G01 X710.000 Y1430.101
G01 X559.296 Y1338.028
G01 X701.143 Y1287.471
G01 X565.377 Y1391.527
G01 X547.104 Y1196.967
G01 X629.209 Y1304.933
G01 X443.156 Y1240.304
G01 X575.562 Y1136.018
G01 X489.001 Y1262.145
G01 X427.132 Y1068.762
G01 X551.225 Y1135.514
G01 X368.592 Y1117.241
G01 X479.162 Y967.658
G01 X449.060 Y1103.752
G01 X348.603 Y927.930
G01 X503.204 Y946.564
G01 X339.914 Y975.390
G01 X418.412 Y792.883
G01 X447.207 Y925.836
G01 X316.851 Y782.315
G01 X487.978 Y750.139
G01 X358.477 Y822.535
G01 X397.761 Y622.371
G01 X482.877 Y739.300
G01 X334.230 Y639.917
G01 X506.659 Y558.753
G01 X422.631 Y667.286
G01 X419.300 Y466.327
G01 X553.374 Y555.785
G01 X399.933 Y508.473
G01 X558.552 Y384.559
G01 X527.874 Y518.615
G01 X482.568 Y333.870
G01 X654.092 Y386.930
G01 X510.024 Y395.063
G01 X641.167 Y238.557
G01 X667.177 Y385.342
G01 X584.499 Y232.507
G01 X710.000 Y239.679
G01 X710.000 Y278.915
G01 X657.672 Y305.757
G01 X710.000 Y206.416
G01 X710.000 Y1431.145
G01 X702.665 Y1425.665
G01 X710.000 Y1424.810
G01 X710.000 Y1484.905
G01 X681.148 Y1501.279
G01 X684.546 Y1314.187
G01 X710.000 Y1376.185
G01 X710.000 Y1431.690
G01 X552.040 Y1358.703
G01 X689.598 Y1284.670
G01 X570.737 Y1404.054
G01 X528.352 Y1208.250
G01 X628.564 Y1301.649
G01 X436.482 Y1259.501
G01 X557.981 Y1133.686
G01 X492.259 Y1269.115
G01 X407.142 Y1081.326
G01 X544.419 Y1128.469
G01 X362.868 Y1133.138
G01 X456.866 Y965.886
G01 X449.660 Y1104.407
G01 X328.883 Y940.508
G01 X490.548 Y936.224
G01 X335.346 Y986.390
G01 X393.068 Y791.640
G01 X444.761 Y919.904
G01 X298.816 Y793.561
G01 X470.240 Y737.182
G01 X355.106 Y827.389
G01 X371.252 Y621.487
G01 X477.214 Y727.007
G01 X319.100 Y648.506
G01 X485.020 Y543.996
G01 X420.355 Y665.197
G01 X393.585 Y465.503
G01 X544.586 Y537.824
G01 X388.647 Y513.214
G01 X534.525 Y368.876
G01 X526.479 Y509.301
G01 X459.527 Y332.695
G01 X642.545 Y364.394
G01 X503.181 Y395.003
G01 X616.487 Y222.803
G01 X666.385 Y369.062
G01 X565.795 Y230.499
G01 X710.000 Y221.389
G01 X710.000 Y259.335
G01 X655.502 Y300.272
G01 X710.000 Y158.533
G01 X710.000 Y166.870
G01 X706.503 Y164.376
G01 X710.000 Y163.383
G01 X710.000 Y1454.329
G01 X697.017 Y1446.795
G01 X710.000 Y1443.068
G01 X710.000 Y1501.384
G01 X689.211 Y1516.896
G01 X668.646 Y1324.915
G01 X710.000 Y1391.635
G01 X710.000 Y1433.428
G01 X546.621 Y1379.815
G01 X676.646 Y1282.791
G01 X576.883 Y1415.084
G01 X510.224 Y1221.314
G01 X626.579 Y1297.530
G01 X431.643 Y1278.654
G01 X539.274 Y1132.730
G01 X495.766 Y1274.499
G01 X388.213 Y1095.481
G01 X536.019 Y1121.091
G01 X358.814 Y1148.517
G01 X433.826 Y965.826
G01 X449.952 Y1103.530
G01 X310.565 Y954.351
G01 X476.184 Y926.088
G01 X332.132 Y996.448
G01 X367.427 Y792.295
G01 X441.473 Y912.638
G01 X282.399 Y805.634
G01 X450.833 Y724.954
G01 X352.651 Y830.968
G01 X344.920 Y622.526
G01 X470.251 Y713.702
G01 X305.658 Y657.416
G01 X461.897 Y530.434
G01 X418.472 Y661.618
G01 X368.501 Y466.458
G01 X534.150 Y519.269
G01 X378.964 Y517.748
G01 X509.327 Y354.753
G01 X524.915 Y498.421
G01 X437.512 Y333.004
G01 X629.146 Y341.742
G01 X497.706 Y394.232
G01 X591.050 Y208.839
G01 X664.871 Y351.284
G01 X548.414 Y229.551
G01 X710.000 Y199.850
G01 X710.000 Y234.579
G01 X654.339 Y293.638
G01 X703.020 Y101.625
G01 X710.000 Y108.688
G01 X710.000 Y169.175
G01 X694.949 Y161.576
G01 X710.000 Y155.350
G01 X710.000 Y1475.917
G01 X693.166 Y1468.592
G01 X710.000 Y1460.671
G01 X710.000 Y1519.821
G01 X698.341 Y1531.086
G01 X653.125 Y1337.461
G01 X710.000 Y1401.893
G01 X710.000 Y1435.120
G01 X543.090 Y1401.124
G01 X662.401 Y1282.048
G01 X583.592 Y1424.523
G01 X492.956 Y1236.090
G01 X623.121 Y1292.775
G01 X428.616 Y1297.518
G01 X519.614 Y1133.322
G01 X499.282 Y1278.270
G01 X370.548 Y1111.091
G01 X525.956 Y1113.611
G01 X356.336 Y1163.152
G01 X410.257 Y967.590
G01 X449.697 Y1101.171
G01 X293.804 Y969.266
G01 X460.117 Y916.399
G01 X330.117 Y1005.376
G01 X341.730 Y794.893
G01 X437.133 Y904.157
G01 X267.693 Y818.307
G01 X429.833 Y713.688
G01 X350.910 Y833.138
G01 X319.009 Y625.459
G01 X461.820 Y699.563
G01 X293.924 Y666.406
G01 X437.430 Y518.267
G01 X416.749 Y656.484
G01 X344.275 Y469.096
G01 X521.959 Y500.341
G01 X370.831 Y521.838
G01 X483.153 Y342.342
G01 X522.940 Y485.981
G01 X416.709 Y334.638
G01 X613.856 Y319.218
G01 X493.481 Y392.539
G01 X565.086 Y196.756
G01 X662.404 Y332.089
G01 X532.486 Y229.457
G01 X710.000 Y174.700
G01 X710.000 Y201.272
G01 X654.006 Y285.690
G01 X679.196 Y90.312
G01 X710.000 Y114.245
G01 X710.000 Y167.141
G01 X684.955 Y159.086
G01 X710.000 Y145.162
G01 X710.000 Y1496.543
G01 X691.199 Y1490.824
G01 X710.000 Y1478.068
G01 X710.000 Y1541.621
G01 X708.331 Y1543.716
G01 X638.228 Y1351.791
G01 X710.000 Y1409.486
G01 X710.000 Y1436.599
G01 X541.463 Y1422.382
G01 X647.010 Y1282.641
G01 X590.627 Y1432.305
G01 X476.771 Y1252.473
G01 X618.082 Y1287.606
G01 X427.345 Y1315.853
G01 X499.198 Y1135.609
G01 X502.563 Y1280.440
G01 X354.333 Y1127.992
G01 X514.194 Y1106.274
G01 X355.310 Y1176.829
G01 X386.394 Y971.262
G01 X448.667 Y1097.411
G01 X278.729 Y985.043
G01 X442.384 Y907.402
G01 X329.120 Y1013.011
G01 X316.226 Y799.448
G01 X431.544 Y894.606
G01 X254.758 Y831.341
G01 X407.348 Y703.606
G01 X349.660 Y833.797
G01 X293.760 Y630.226
G01 X451.778 Y684.787
G01 X283.886 Y675.229
G01 X411.791 Y507.678
G01 X414.945 Y649.761
G01 X321.117 Y473.288
G01 X507.934 Y481.273
G01 X364.164 Y525.254
G01 X456.219 Y331.767
G01 X520.312 Y472.025
G01 X397.283 Y337.412
G01 X596.669 Y297.069
G01 X490.356 Y389.729
G01 X538.837 Y186.608
G01 X658.766 Y311.588
G01 X518.115 Y229.992
G01 X710.000 Y145.312
G01 X710.000 Y150.633
G01 X654.302 Y276.288
G01 X655.582 Y80.866
G01 X710.000 Y112.939
G01 X710.000 Y161.734
G01 X676.549 Y156.663
G01 X710.000 Y132.658
G01 X710.000 Y1516.678
G01 X691.173 Y1513.246
G01 X710.000 Y1495.764
G01 X710.000 Y1537.028
G01 X624.195 Y1367.837
G01 X710.000 Y1415.317
G01 X710.000 Y1437.701
G01 X541.723 Y1443.340
G01 X630.645 Y1284.747
G01 X597.743 Y1438.399
G01 X461.882 Y1270.328
G01 X611.389 Y1282.256
G01 X427.742 Y1333.427
G01 X478.247 Y1139.710
G01 X505.364 Y1281.051
G01 X339.729 Y1145.991
G01 X500.732 Y1099.326
G01 X355.584 Y1189.356
G01 X362.483 Y976.892
G01 X446.641 Y1092.366
G01 X265.439 Y1001.452
G01 X423.059 Y899.333
G01 X328.938 Y1019.210
G01 X291.166 Y805.934
G01 X424.533 Y884.162
G01 X243.621 Y844.489
G01 X383.518 Y694.915
G01 X348.665 Y832.872
G01 X269.404 Y636.731
G01 X440.010 Y669.597
G01 X275.498 Y683.642
G01 X385.174 Y498.825
G01 X412.811 Y641.451
G01 X299.221 Y478.874
G01 X492.031 Y462.311
G01 X358.846 Y527.779
G01 X428.757 Y323.122
G01 X516.795 Y456.627
G01 X379.372 Y341.118
G01 X577.614 Y275.543
G01 X488.154 Y385.631
G01 X512.553 Y178.418
G01 X653.753 Y289.925
G01 X505.369 Y230.919
G01 X692.010 Y121.262
G01 X655.006 Y265.320
G01 X632.424 Y73.237
G01 X710.000 Y106.697
G01 X710.000 Y153.485
G01 X669.728 Y154.059
G01 X710.000 Y117.465
G01 X710.000 Y1536.709
G01 X693.108 Y1535.606
G01 X710.000 Y1514.477
G01 X710.000 Y1533.904
G01 X611.259 Y1385.498
G01 X710.000 Y1419.726
G01 X710.000 Y1438.245
G01 X543.818 Y1463.752
G01 X613.504 Y1288.521
G01 X604.688 Y1442.811
G01 X448.480 Y1289.489
G01 X602.999 Y1276.974
G01 X429.682 Y1350.019
G01 X456.996 Y1145.716
G01 X507.450 Y1280.182
G01 X326.872 Y1164.876
G01 X485.604 Y1093.016
G01 X356.974 Y1200.557
G01 X338.775 Y984.497
G01 X443.418 Y1086.180
G01 X254.001 Y1018.250
G01 X402.246 Y892.422
G01 X329.346 Y1023.865
G01 X266.794 Y814.293
G01 X415.948 Y873.025
G01 X234.274 Y857.498
G01 X358.513 Y687.803
G01 X347.680 Y830.324
G01 X246.161 Y644.847
G01 X426.431 Y654.228
G01 X268.676 Y691.407
G01 X357.795 Y491.837
G01 X410.101 Y631.593
G01 X278.759 Y485.670
G01 X474.239 Y443.707
G01 X354.728 Y529.210
G01 X401.013 Y316.468
G01 X512.164 Y439.897
G01 X363.083 Y345.530
G01 X556.756 Y254.887
G01 X486.673 Y380.096
G01 X486.487 Y172.174
G01 X647.182 Y267.272
G01 X494.284 Y231.989
G01 X669.526 Y99.814
G01 X655.882 Y252.706
G01 X609.959 Y67.337
G01 X710.000 Y96.553
G01 X710.000 Y142.626
G01 X664.453 Y151.029
G01 X710.000 Y98.862
G01 X710.000 Y1556.995
G01 X696.991 Y1557.651
G01 X710.000 Y1535.477
G01 X710.000 Y1534.700
G01 X599.635 Y1404.639
G01 X710.000 Y1422.796
G01 X710.000 Y1438.007
G01 X547.658 Y1483.377
G01 X595.808 Y1294.087
G01 X611.215 Y1445.578
G01 X436.733 Y1309.765
G01 X592.905 Y1272.011
G01 X433.014 Y1365.428
G01 X435.694 Y1153.681
G01 X508.594 Y1277.945
G01 X315.868 Y1184.412
G01 X468.877 Y1087.589
G01 X359.276 Y1210.286
G01 X315.526 Y994.057
G01 X438.815 Y1079.028
G01 X244.447 Y1035.183
G01 X380.084 Y886.883
G01 X330.104 Y1026.895
G01 X243.351 Y824.433
G01 X405.667 Y861.416
G01 X226.675 Y870.119
G01 X332.529 Y682.436
G01 X346.451 Y826.150
G01 X224.231 Y654.415
G01 X410.992 Y638.929
G01 X263.307 Y698.301
G01 X329.892 Y486.816
G01 X406.573 Y620.257
G01 X259.876 Y493.466
G01 X454.582 Y425.716
G01 X351.634 Y529.369
G01 X373.243 Y311.834
G01 X506.208 Y421.977
G01 X348.493 Y350.405
G01 X534.193 Y235.337
G01 X485.691 Y373.007
G01 X460.892 Y167.827
G01 X638.892 Y243.827
G01 X484.862 Y232.950
G01 X645.642 Y79.872
G01 X656.680 Y238.399
G01 X588.411 Y63.048
G01 X710.000 Y83.056
G01 X710.000 Y129.131
G01 X660.648 Y147.330
G01 X710.000 Y75.462
G01 X710.000 Y1577.911
G01 X702.774 Y1579.126
G01 X710.000 Y1561.582
G01 X710.000 Y1537.671
G01 X589.522 Y1425.097
G01 X710.000 Y1424.445
G01 X710.000 Y1436.684
G01 X553.126 Y1501.988
G01 X577.796 Y1301.543
G01 X617.080 Y1446.776
G01 X426.784 Y1330.941
G01 X581.135 Y1267.620
G01 X437.554 Y1379.472
G01 X414.598 Y1163.627
G01 X508.587 Y1274.484
G01 X306.789 Y1204.355
G01 X450.656 Y1083.279
G01 X362.263 Y1218.425
G01 X292.988 Y1005.517
G01 X432.675 Y1071.111
G01 X236.775 Y1051.995
G01 X356.742 Y882.910
G01 X330.963 Y1028.255
G01 X221.061 Y836.228
G01 X393.601 Y849.575
G01 X220.745 Y882.109
G01 X305.783 Y678.949
G01 X344.726 Y820.381
G01 X203.793 Y665.250
G01 X393.675 Y623.957
G01 X259.243 Y704.113
G01 X301.714 Y483.828
G01 X401.994 Y607.549
G01 X242.687 Y502.032
G01 X433.122 Y408.589
G01 X349.361 Y528.099
G01 X345.705 Y309.211
G01 X498.737 Y403.037
G01 X335.645 Y355.492
G01 X510.057 Y217.115
G01 X484.969 Y364.275
G01 X436.009 Y165.294
G01 X628.753 Y219.812
G01 X477.068 Y233.549
G01 X620.551 Y61.612
G01 X657.147 Y222.388
G01 X567.990 Y60.219
G01 X710.000 Y66.443
G01 X710.000 Y112.675
G01 X658.205 Y142.732
G01 X710.000 Y44.435
G01 X710.000 Y1541.968
G01 X581.097 Y1446.678
G01 X710.000 Y1424.444
G01 X710.000 Y1433.835
G01 X560.067 Y1519.377
G01 X559.718 Y1310.950
G01 X622.049 Y1446.514
G01 X418.745 Y1352.781
G01 X567.754 Y1264.052
G01 X443.098 Y1391.996
G01 X393.967 Y1175.540
G01 X507.239 Y1269.972
G01 X299.673 Y1224.445
G01 X431.076 Y1080.305
G01 X365.693 Y1224.887
G01 X271.407 Y1018.787
G01 X424.869 Y1062.652
G01 X230.945 Y1068.430
G01 X332.416 Y880.674
G01 X331.664 Y1027.935
G01 X200.132 Y849.520
G01 X379.692 Y837.752
G01 X216.371 Y893.234
G01 X278.515 Y677.450
G01 X342.258 Y813.086
G01 X184.999 Y677.140
G01 X374.500 Y609.571
G01 X256.309 Y708.656
G01 X273.520 Y482.908
G01 X396.148 Y593.610
G01 X227.276 Y511.124
G01 X409.954 Y392.567
G01 X347.687 Y525.274
G01 X318.656 Y308.554
G01 X489.584 Y383.276
G01 X324.545 Y360.532
G01 X484.510 Y200.427
G01 X484.254 Y353.848
G01 X412.073 Y164.457
G01 X616.661 Y195.465
G01 X470.832 Y233.538
G01 X594.466 Y45.180
G01 X657.024 Y204.695
G01 X548.880 Y58.669
G01 X710.000 Y46.727
G01 X710.000 Y92.471
G01 X656.982 Y137.020
G01 X707.750 Y5.000
G01 X710.000 Y5.000
G01 X710.000 Y1547.130
G01 X574.508 Y1469.167
G01 X710.000 Y1422.385
G01 X710.000 Y1428.776
G01 X568.300 Y1535.355
G01 X541.837 Y1322.334
G01 X625.905 Y1444.933
G01 X412.695 Y1375.034
G01 X552.863 Y1261.548
G01 X449.416 Y1402.876
G01 X374.060 Y1189.368
G01 X504.385 Y1264.610
G01 X294.523 Y1244.421
G01 X410.304 Y1078.870
G01 X369.311 Y1229.621
G01 X251.013 Y1033.744
G01 X415.299 Y1053.891
G01 X226.883 Y1084.237
G01 X307.325 Y880.319
G01 X331.951 Y1025.963
G01 X180.751 Y864.123
G01 X363.917 Y826.210
G01 X213.409 Y903.278
G01 X250.977 Y678.013
G01 X338.806 Y804.366
G01 X167.971 Y689.854
G01 X353.525 Y596.026
G01 X254.301 Y711.768
G01 X245.573 Y484.050
G01 X388.837 Y578.608
G01 X213.691 Y520.484
G01 X385.207 Y377.879
G01 X346.368 Y520.801
G01 X292.346 Y309.785
G01 X478.611 Y362.916
G01 X315.163 Y365.266
G01 X457.744 Y185.453
G01 X483.288 Y341.707
G01 X389.298 Y165.168
G01 X602.551 Y171.042
G01 X466.047 Y232.680
G01 X567.625 Y30.697
G01 X656.058 Y185.383
G01 X531.245 Y58.194
G01 X710.000 Y23.720
G01 X710.000 Y66.804
G01 X656.809 Y130.000
G01 X688.452 Y5.000
G01 X710.000 Y5.000
G01 X710.000 Y1552.893
G01 X569.873 Y1492.325
G01 X710.000 Y1417.600
G01 X710.000 Y1420.348
G01 X577.617 Y1549.758
G01 X524.416 Y1335.686
G01 X628.451 Y1442.206
G01 X408.678 Y1397.439
G01 X536.593 Y1260.333
G01 X456.262 Y1412.016
G01 X355.128 Y1205.025
G01 X499.888 Y1258.621
G01 X291.305 Y1264.020
G01 X388.537 Y1079.152
G01 X372.856 Y1232.609
G01 X232.023 Y1050.230
G01 X403.900 Y1045.083
G01 X224.480 Y1099.176
G01 X281.709 Y881.959
G01 X331.568 Y1022.401
G01 X163.076 Y879.825
G01 X346.293 Y815.210
G01 X211.683 Y912.046
G01 X223.432 Y680.675
G01 X334.149 Y794.358
G01 X152.801 Y703.143
G01 X330.842 Y583.571
G01 X252.995 Y713.314
G01 X218.136 Y487.216
G01 X379.887 Y562.742
G01 X201.944 Y529.849
G01 X359.043 Y364.739
G01 X345.151 Y514.618
G01 X267.016 Y312.787
G01 X465.709 Y342.197
G01 X307.435 Y369.441
G01 X429.974 Y172.350
G01 X481.808 Y327.871
G01 X367.879 Y167.246
G01 X586.390 Y146.805
G01 X462.576 Y230.752
G01 X540.280 Y18.246
G01 X654.003 Y164.547
G01 X515.215 Y58.565
G01 X684.746 Y5.000
G01 X710.000 Y5.000
G01 X710.000 Y31.703
G01 X657.485 Y121.500
G01 X672.376 Y5.000
G01 X710.000 Y5.000
G01 X710.000 Y1559.092
G01 X567.278 Y1515.899
G01 X705.125 Y1412.640
G01 X587.789 Y1562.455
G01 X507.720 Y1350.960
G01 X629.514 Y1438.533
G01 X406.701 Y1419.728
G01 X519.111 Y1260.617
G01 X463.378 Y1419.359
G01 X337.409 Y1222.388
G01 X493.643 Y1252.248
G01 X289.947 Y1282.985
G01 X365.994 Y1081.301
G01 X376.063 Y1233.875
G01 X214.628 Y1068.060
G01 X390.646 Y1036.492
G01 X223.590 Y1113.023
G01 X255.825 Y885.673
G01 X330.271 Y1017.347
G01 X147.238 Y896.391
G01 X326.870 Y805.015
G01 X210.990 Y919.366
G01 X196.150 Y685.439
G01 X328.079 Y783.230
G01 X139.542 Y716.746
G01 X306.577 Y572.443
G01 X252.147 Y713.193
G01 X191.468 Y492.328
G01 X369.152 Y546.233
G01 X192.012 Y538.955
G01 X331.653 Y353.333
G01 X343.770 Y506.701
G01 X242.888 Y317.412
G01 X450.804 Y321.378
G01 X301.256 Y372.810
G01 X401.440 Y161.243
G01 X479.555 Y312.395
G01 X347.984 Y170.485
G01 X568.182 Y123.023
G01 X460.247 Y227.552
G01 X512.694 Y7.879
G01 X650.628 Y142.319
G01 X500.890 Y59.535
G01 X622.762 Y5.000
G01 X699.021 Y5.000
G01 X658.788 Y111.379
G01 X659.255 Y5.000
G01 X710.000 Y5.000
G01 X710.000 Y1495.398
G01 X700.783 Y1460.489
G01 X710.000 Y1472.068
G01 X710.000 Y1565.627
G01 X566.773 Y1539.623
G01 X692.657 Y1412.212
G01 X598.565 Y1573.343
G01 X492.004 Y1368.071
G01 X628.950 Y1434.137
G01 X406.734 Y1441.633
G01 X500.612 Y1262.584
G01 X470.497 Y1424.883
G01 X321.125 Y1241.303
G01 X485.580 Y1245.750
G01 X290.342 Y1301.069
G01 X342.917 Y1085.438
G01 X378.672 Y1233.475
G01 X198.996 Y1087.020
G01 X375.545 Y1028.388
G01 X224.041 Y1125.576
G01 X229.939 Y891.505
G01 X327.827 Y1010.936
G01 X133.332 Y913.570
G01 X305.737 Y795.879
G01 X211.103 Y925.098
G01 X169.398 Y692.268
G01 X320.417 Y771.180
G01 X128.214 Y730.393
G01 X280.890 Y562.858
G01 X251.497 Y711.335
G01 X165.814 Y499.274
G01 X356.518 Y529.325
G01 X183.832 Y547.539
G01 X303.255 Y343.825
G01 X341.960 Y497.064
G01 X220.163 Y323.482
G01 X433.859 Y300.724
G01 X296.492 Y375.146
G01 X372.396 Y152.223
G01 X476.277 Y295.373
G01 X329.754 Y174.655
G01 X547.970 Y99.964
G01 X458.862 Y222.902
G01 X484.503 Y5.000
G01 X492.398 Y5.000
G01 X645.718 Y118.861
G01 X488.335 Y60.845
G01 X582.584 Y5.000
G01 X679.402 Y5.000
G01 X660.473 Y99.524
G01 X649.014 Y5.000
G01 X710.000 Y5.000
G01 X710.000 Y1532.220
G01 X687.615 Y1476.159
G01 X710.000 Y1496.105
G01 X710.000 Y1572.435
G01 X568.371 Y1563.224
G01 X678.944 Y1413.233
G01 X609.685 Y1582.358
G01 X477.514 Y1386.901
G01 X626.647 Y1429.265
G01 X408.711 Y1462.891
G01 X481.316 Y1266.393
G01 X477.350 Y1428.602
G01 X306.476 Y1261.584
G01 X475.663 Y1239.393
G01 X292.349 Y1318.041
G01 X319.564 Y1091.648
G01 X380.430 Y1231.505
G01 X185.264 Y1106.874
G01 X358.645 Y1021.035
G01 X225.629 Y1136.654
G01 X204.326 Y899.463
G01 X324.025 Y1003.334
G01 X121.422 Y931.096
G01 X283.018 Y788.044
G01 X211.777 Y929.131
G01 X143.441 Y701.089
G01 X311.008 Y758.430
G01 X118.796 Y743.816
G01 X253.972 Y555.014
G01 X250.778 Y707.712
G01 X141.404 Y507.906
G01 X341.903 Y512.277
G01 X177.306 Y555.352
G01 X274.088 Y336.346
G01 X339.455 Y485.756
G01 X199.020 Y330.788
G01 X414.872 Y280.510
G01 X292.972 Y376.236
G01 X343.111 Y145.347
G01 X471.735 Y276.932
G01 X313.295 Y179.506
G01 X525.833 Y77.889
G01 X458.197 Y216.650
G01 X457.901 Y5.000
G01 X478.686 Y5.000
G01 X639.082 Y94.368
G01 X477.578 Y62.225
G01 X553.056 Y5.000
G01 X665.349 Y5.000
G01 X662.282 Y85.860
G01 X641.780 Y5.000
G01 X710.000 Y5.000
G01 X710.000 Y1557.015
G01 X675.420 Y1493.670
G01 X710.000 Y1515.087
G01 X710.000 Y1579.476
G01 X572.046 Y1586.428
G01 X664.180 Y1415.894
G01 X620.875 Y1589.471
G01 X464.480 Y1407.295
G01 X622.525 Y1424.177
G01 X412.527 Y1483.246
G01 X461.467 Y1272.171
G01 X483.670 Y1430.570
G01 X293.637 Y1283.016
G01 X463.897 Y1233.451
G01 X295.794 Y1333.688
G01 X296.208 Y1099.982
G01 X381.099 Y1228.095
G01 X173.536 Y1127.368
G01 X340.028 Y1014.696
G01 X228.126 Y1146.108
G01 X179.258 Y909.514
G01 X318.675 Y994.738
G01 X111.531 Y948.696
G01 X258.872 Y781.736
G01 X212.748 Y931.390
G01 X118.531 Y711.792
G01 X299.731 Y745.224
G01 X111.232 Y756.745
G01 X226.041 Y549.078
G01 X249.718 Y702.328
G01 X118.449 Y518.047
G01 X325.263 Y495.360
G01 X172.300 Y562.153
G01 X244.410 Y330.995
G01 X335.997 Y472.865
G01 X179.605 Y339.099
G01 X393.881 Y261.007
G01 X290.500 Y375.894
G01 X313.860 Y140.633
G01 X465.708 Y257.233
G01 X298.680 Y184.775
G01 X501.886 Y57.050
G01 X458.007 Y208.678
G01 X433.130 Y5.000
G01 X470.602 Y5.000
G01 X630.556 Y69.060
G01 X468.610 Y63.402
G01 X529.765 Y5.000
G01 X656.245 Y5.000
G01 X663.944 Y70.347
G01 X637.917 Y5.000
G01 X710.000 Y5.000
G01 X710.000 Y1577.010
G01 X664.449 Y1512.906
G01 X710.000 Y1531.082
G01 X710.000 Y1586.734
G01 X631.077 Y1600.000
G01 X581.103 Y1600.000
G01 X648.586 Y1420.362
G01 X631.862 Y1594.690
G01 X453.107 Y1429.070
G01 X616.543 Y1419.144
G01 X418.042 Y1502.459
G01 X441.326 Y1280.010
G01 X489.197 Y1430.878
G01 X282.751 Y1305.362
G01 X450.322 Y1228.196
G01 X300.473 Y1347.824
G01 X273.124 Y1110.452
G01 X380.460 Y1223.409
G01 X163.879 Y1148.230
G01 X319.817 Y1009.618
G01 X231.282 Y1153.820
G01 X155.005 Y921.590
G01 X311.617 Y985.368
G01 X103.645 Y966.093
G01 X233.487 Y777.157
G01 X213.746 Y931.837
G01 X94.906 Y724.233
G01 X286.497 Y731.824
G01 X105.427 Y768.922
G01 X197.339 Y545.191
G01 X248.046 Y695.230
G01 X97.132 Y529.488
G01 X306.591 Y478.851
G01 X168.648 Y567.726
G01 X214.494 Y327.834
G01 X331.340 Y458.517
G01 X162.032 Y348.163
G01 X370.962 Y242.484
G01 X288.850 Y373.963
G01 X284.921 Y138.062
G01 X457.998 Y236.470
G01 X285.943 Y190.188
G01 X476.282 Y37.682
G01 X458.030 Y198.902
G01 X409.839 Y5.000
G01 X474.277 Y5.000
G01 X620.008 Y43.181
G01 X461.381 Y64.107
G01 X510.630 Y5.000
G01 X652.017 Y5.000
G01 X665.184 Y52.982
G01 X638.143 Y5.000
G01 X710.000 Y5.000
G01 X710.000 Y1600.000
G01 X706.322 Y1600.000
G01 X649.110 Y1536.531
G01 X710.000 Y1549.055
G01 X710.000 Y1594.968
G01 X692.685 Y1600.000
G01 X587.220 Y1600.000
G01 X626.786 Y1428.778
G01 X636.859 Y1599.802
G01 X438.195 Y1453.476
G01 X603.465 Y1415.644
G01 X420.018 Y1521.249
G01 X416.290 Y1290.644
G01 X489.019 Y1430.077
G01 X269.491 Y1328.543
G01 X430.829 Y1223.835
G01 X302.237 Y1360.004
G01 X246.959 Y1122.527
G01 X374.985 Y1216.932
G01 X153.319 Y1168.280
G01 X295.505 Y1004.950
G01 X232.530 Y1158.459
G01 X129.899 Y934.186
G01 X301.181 Y973.943
G01 X96.578 Y981.370
G01 X206.369 Y772.745
G01 X214.211 Y928.659
G01 X72.946 Y736.365
G01 X271.874 Y716.605
G01 X102.334 Y778.191
G01 X169.683 Y541.559
G01 X247.539 Y684.639
G01 X80.138 Y540.194
G01 X288.944 Y461.310
G01 X169.673 Y570.269
G01 X188.642 Y325.417
G01 X329.781 Y441.560
G01 X151.410 Y356.591
G01 X351.755 Y224.292
G01 X293.804 Y369.649
G01 X263.091 Y137.178
G01 X455.444 Y214.758
G01 X282.571 Y195.683
G01 X457.167 Y20.561
G01 X466.419 Y188.213
G01 X396.067 Y5.000
G01 X515.801 Y5.000
G01 X616.654 Y18.752
G01 X465.547 Y66.282
G01 X505.966 Y5.000
G01 X662.191 Y5.000
G01 X676.267 Y36.979
G01 X651.889 Y5.000
G01 X710.000 Y5.000
G01 X710.000 Y1600.000
G01 X670.674 Y1600.000
G01 X629.940 Y1563.965
G01 X710.000 Y1565.977
G01 X710.000 Y1600.000
G01 X583.938 Y1600.000
G01 X599.816 Y1440.723
G01 X635.522 Y1600.000
G01 X628.948 Y1600.000
G01 X420.908 Y1479.757
G01 X584.438 Y1413.455
G01 X419.450 Y1538.954
G01 X387.905 Y1303.673
G01 X484.220 Y1427.966
G01 X255.277 Y1351.987
G01 X406.894 Y1220.399
G01 X302.186 Y1369.958
G01 X219.314 Y1136.081
G01 X365.785 Y1208.915
G01 X143.059 Y1187.356
G01 X268.399 Y1001.116
G01 X232.601 Y1160.287
G01 X105.059 Y947.556
G01 X287.993 Y961.210
G01 X90.785 Y994.827
G01 X178.106 Y769.289
G01 X213.995 Y922.606
G01 X52.733 Y748.748
G01 X255.478 Y700.660
G01 X101.137 Y785.172
G01 X142.402 Y539.119
G01 X246.677 Y671.548
G01 X65.989 Y550.772
G01 X270.439 Y443.844
G01 X172.831 Y570.396
G01 X164.438 Y324.442
G01 X328.020 Y422.808
G01 X144.277 Y364.611
G01 X332.491 Y207.039
G01 X300.749 Y363.067
G01 X243.855 Y137.901
G01 X452.683 Y192.145
G01 X282.854 Y200.545
G01 X438.638 Y5.168
G01 X476.327 Y175.595
G01 X384.663 Y5.000
G01 X592.657 Y5.000
G01 X473.077 Y67.609
G01 X504.939 Y5.000
G01 X679.144 Y5.000
G01 X688.146 Y19.493
G01 X673.370 Y5.000
G01 X710.000 Y5.000
G01 X710.000 Y1600.000
G01 X623.061 Y1600.000
G01 X612.282 Y1592.427
G01 X710.000 Y1577.706
G01 X710.000 Y1600.000
G01 X576.088 Y1600.000
G01 X572.474 Y1454.575
G01 X631.933 Y1600.000
G01 X618.680 Y1600.000
G01 X405.428 Y1506.477
G01 X563.366 Y1411.907
G01 X419.693 Y1554.682
G01 X359.799 Y1318.547
G01 X477.695 Y1424.396
G01 X242.998 Y1375.237
G01 X381.274 Y1218.105
G01 X302.410 Y1377.710
G01 X192.567 Y1151.251
G01 X354.593 Y1199.951
G01 X134.682 Y1205.616
G01 X240.114 Y998.817
G01 X232.380 Y1159.882
G01 X81.653 Y962.160
G01 X272.721 Y948.122
G01 X86.651 Y1006.914
G01 X149.272 Y767.620
G01 X212.942 Y914.481
G01 X34.357 Y761.868
G01 X237.087 Y684.978
G01 X101.225 Y790.347
G01 X115.206 Y538.553
G01 X244.505 Y656.726
G01 X53.916 Y561.517
G01 X250.208 Y427.231
G01 X176.782 Y568.434
G01 X140.968 Y325.255
G01 X324.592 Y402.815
G01 X139.272 Y372.211
G01 X311.920 Y191.151
G01 X307.924 Y354.295
G01 X225.935 Y140.162
G01 X448.046 Y168.890
G01 X285.127 Y204.431
G01 X410.845 Y5.000
G01 X424.636 Y5.000
G01 X485.882 Y160.880
G01 X373.818 Y5.000
G01 X562.451 Y5.000
G01 X482.283 Y67.488
G01 X505.617 Y5.000
G01 X710.000 Y5.000
G01 X710.000 Y1600.000
G01 X661.755 Y1600.000
G01 X710.000 Y1584.024
G01 X710.000 Y1600.000
G01 X564.106 Y1600.000
G01 X545.048 Y1470.360
G01 X626.511 Y1600.000
G01 X605.588 Y1600.000
G01 X391.837 Y1533.359
G01 X540.362 Y1411.262
G01 X420.496 Y1568.298
G01 X332.254 Y1335.207
G01 X469.266 Y1419.588
G01 X232.652 Y1398.006
G01 X354.157 Y1217.169
G01 X302.630 Y1383.208
G01 X166.972 Y1167.894
G01 X341.306 Y1190.305
G01 X128.101 Y1222.788
G01 X210.895 Y998.207
G01 X231.586 Y1157.276
G01 X59.882 Y977.789
G01 X255.345 Y934.964
G01 X84.013 Y1017.398
G01 X120.146 Y767.814
G01 X210.794 Y904.400
G01 X17.950 Y775.468
G01 X216.770 Y669.840
G01 X102.372 Y793.539
G01 X88.384 Y539.852
G01 X240.811 Y640.363
G01 X43.968 Y572.149
G01 X228.395 Y411.721
G01 X181.259 Y564.283
G01 X118.504 Y327.763
G01 X319.350 Y381.828
G01 X136.357 Y379.107
G01 X290.256 Y176.821
G01 X315.044 Y343.319
G01 X209.565 Y143.794
G01 X441.464 Y145.273
G01 X289.271 Y207.081
G01 X387.289 Y5.000
G01 X414.170 Y5.000
G01 X494.806 Y144.138
G01 X363.109 Y5.000
G01 X547.142 Y5.000
G01 X492.972 Y65.707
G01 X507.997 Y5.000
G01 X710.000 Y5.000
G01 X710.000 Y1600.000
G01 X679.806 Y1600.000
G01 X710.000 Y1584.099
G01 X710.000 Y1596.336
G01 X706.189 Y1600.000
G01 X548.134 Y1600.000
G01 X517.826 Y1488.061
G01 X619.669 Y1600.000
G01 X586.975 Y1600.000
G01 X380.180 Y1560.116
G01 X515.576 Y1411.766
G01 X421.588 Y1579.705
G01 X305.544 Y1353.552
G01 X458.787 Y1413.790
G01 X224.195 Y1420.005
G01 X325.760 Y1217.785
G01 X302.559 Y1386.440
G01 X142.761 Y1185.836
G01 X325.859 Y1180.258
G01 X123.193 Y1238.610
G01 X181.006 Y999.405
G01 X229.941 Y1152.543
G01 X39.916 Y994.209
G01 X235.887 Y922.025
G01 X82.677 Y1026.065
G01 X91.017 Y769.908
G01 X207.307 Y892.518
G01 X5.000 Y789.980
G01 X5.000 Y788.297
G01 X194.629 Y655.515
G01 X104.328 Y794.606
G01 X62.224 Y542.967
G01 X235.407 Y622.678
G01 X36.153 Y582.377
G01 X205.182 Y397.541
G01 X185.980 Y557.882
G01 X97.307 Y331.837
G01 X312.178 Y360.113
G01 X135.455 Y385.022
G01 X267.737 Y164.217
G01 X321.821 Y330.164
G01 X194.953 Y148.595
G01 X432.907 Y121.582
G01 X295.128 Y208.256
G01 X367.089 Y5.000
G01 X407.303 Y5.000
G01 X502.832 Y125.479
G01 X351.786 Y5.000
G01 X539.910 Y5.000
G01 X504.925 Y62.083
G01 X512.159 Y5.000
G01 X710.000 Y5.000
G01 X710.000 Y1600.000
G01 X678.359 Y1600.000
G01 X710.000 Y1576.253
G01 X710.000 Y1579.611
G01 X693.630 Y1600.000
G01 X528.058 Y1600.000
G01 X491.096 Y1507.623
G01 X611.965 Y1600.000
G01 X543.985 Y1600.000
G01 X370.460 Y1586.456
G01 X489.195 Y1413.643
G01 X422.685 Y1588.843
G01 X279.927 Y1373.444
G01 X446.149 Y1407.270
G01 X217.546 Y1440.956
G01 X296.326 Y1220.111
G01 X301.908 Y1387.432
G01 X120.141 Y1204.869
G01 X308.225 Y1170.099
G01 X119.796 Y1252.840
G01 X150.728 Y1002.495
G01 X227.178 Y1145.797
G01 X21.893 Y1011.161
G01 X214.406 Y909.589
G01 X82.415 Y1032.734
G01 X62.178 Y773.900
G01 X202.260 Y879.021
G01 X5.000 Y807.909
G01 X5.000 Y790.796
G01 X170.809 Y642.260
G01 X106.826 Y793.440
G01 X37.005 Y547.810
G01 X228.137 Y603.917
G01 X30.439 Y591.913
G01 X180.780 Y384.896
G01 X190.658 Y549.209
G01 X77.617 Y337.309
G01 X303.000 Y337.952
G01 X136.451 Y389.689
G01 X244.627 Y153.469
G01 X327.973 Y314.894
G01 X182.281 Y154.336
G01 X422.383 Y98.111
G01 X302.509 Y207.734
G01 X349.576 Y5.000
G01 X404.569 Y5.000
G01 X509.706 Y105.048
G01 X345.165 Y9.032
G01 X353.811 Y5.000
G01 X538.104 Y5.000
G01 X517.891 Y56.463
G01 X518.268 Y5.000
G01 X710.000 Y5.000
G01 X710.000 Y1600.000
G01 X668.344 Y1600.000
G01 X693.544 Y1574.212
G01 X677.957 Y1600.000
G01 X503.485 Y1600.000
G01 X465.139 Y1528.949
G01 X604.497 Y1600.000
G01 X368.762 Y1600.000
G01 X461.434 Y1417.093
G01 X423.496 Y1595.692
G01 X255.644 Y1394.711
G01 X431.278 Y1400.310
G01 X212.582 Y1460.589
G01 X266.123 Y1224.276
G01 X300.393 Y1386.255
G01 X99.291 Y1224.757
G01 X288.420 Y1160.122
G01 X117.715 Y1265.259
G01 X120.354 Y1007.520
G01 X223.046 Y1137.187
G01 X5.914 Y1028.367
G01 X191.005 Y897.933
G01 X82.979 Y1037.254
G01 X33.923 Y779.744
G01 X195.457 Y864.128
G01 X5.000 Y821.639
G01 X5.000 Y789.478
G01 X145.489 Y630.308
G01 X109.580 Y789.973
G01 X12.995 Y554.253
G01 X218.879 Y584.348
G01 X26.754 Y600.473
G01 X155.429 Y373.957
G01 X194.999 Y538.281
G01 X59.652 Y343.980
G01 X291.779 Y315.638
G01 X139.189 Y392.860
G01 X221.205 Y144.675
G01 X333.225 Y297.615
G01 X171.697 Y160.763
G01 X409.943 Y75.151
G01 X311.191 Y205.326
G01 X334.297 Y5.000
G01 X407.218 Y5.000
G01 X515.199 Y83.030
G01 X342.729 Y14.703
G01 X358.660 Y5.000
G01 X540.613 Y5.000
G01 X531.604 Y48.731
G01 X526.594 Y5.000
G01 X710.000 Y5.000
G01 X710.000 Y1600.000
G01 X653.162 Y1600.000
G01 X668.615 Y1578.656
G01 X659.438 Y1600.000
G01 X473.666 Y1600.000
G01 X440.220 Y1551.905
G01 X599.421 Y1599.628
G01 X596.987 Y1600.000
G01 X369.635 Y1600.000
G01 X432.537 Y1422.284
G01 X423.739 Y1600.000
G01 X423.441 Y1600.000
G01 X232.910 Y1417.144
G01 X414.141 Y1393.205
G01 X209.147 Y1478.654
G01 X235.434 Y1230.368
G01 X297.741 Y1383.014
G01 X80.357 Y1245.241
G01 X266.499 Y1150.616
G01 X116.726 Y1275.675
G01 X90.183 Y1014.483
G01 X217.317 Y1126.898
G01 X5.000 Y1050.218
G01 X5.000 Y1033.740
G01 X165.824 Y887.320
G01 X84.096 Y1039.508
G01 X6.537 Y787.356
G01 X186.735 Y848.085
G01 X5.000 Y831.859
G01 X5.000 Y783.479
G01 X118.878 Y619.872
G01 X112.297 Y784.174
G01 X5.000 Y588.661
G01 X5.000 Y562.274
G01 X207.550 Y564.254
G01 X24.986 Y607.782
G01 X129.394 Y364.866
G01 X198.715 Y525.160
G01 X43.601 Y351.621
G01 X278.518 Y293.467
G01 X143.482 Y394.307
G01 X197.765 Y137.891
G01 X337.319 Y278.471
G01 X163.313 Y167.602
G01 X395.677 Y52.987
G01 X320.928 Y200.869
G01 X320.935 Y5.000
G01 X417.979 Y5.000
G01 X519.104 Y59.637
G01 X342.584 Y20.186
G01 X362.264 Y5.000
G01 X547.047 Y5.000
G01 X545.779 Y38.806
G01 X537.556 Y5.000
G01 X710.000 Y5.000
G01 X710.000 Y1600.000
G01 X634.148 Y1600.000
G01 X642.212 Y1584.702
G01 X638.092 Y1600.000
G01 X437.321 Y1600.000
G01 X416.586 Y1576.319
G01 X585.873 Y1595.639
G01 X570.069 Y1600.000
G01 X365.475 Y1600.000
G01 X402.773 Y1429.350
G01 X422.774 Y1600.000
G01 X419.633 Y1600.000
G01 X211.911 Y1440.509
G01 X394.747 Y1386.250
G01 X207.046 Y1494.924
G01 X204.555 Y1238.439
G01 X293.694 Y1377.858
G01 X63.448 Y1266.039
G01 X242.559 Y1141.865
G01 X116.578 Y1283.928
G01 X60.513 Y1023.344
G01 X209.786 Y1115.148
G01 X5.000 Y1068.054
G01 X5.000 Y1033.681
G01 X139.037 Y877.993
G01 X85.481 Y1039.419
G01 X5.000 Y853.642
G01 X5.000 Y800.975
G01 X175.964 Y831.160
G01 X5.000 Y839.016
G01 X5.000 Y770.951
G01 X91.218 Y611.132
G01 X114.681 Y776.056
G01 X5.000 Y621.253
G01 X5.000 Y566.938
G01 X194.105 Y543.933
G01 X24.984 Y613.583
G01 X102.957 Y357.726
G01 X201.525 Y509.944
G01 X29.620 Y359.976
G01 X263.262 Y271.738
G01 X149.110 Y393.830
G01 X174.607 Y133.132
G01 X340.014 Y257.641
G01 X157.201 Y174.563
G01 X379.716 Y31.891
G01 X331.450 Y194.239
G01 X309.274 Y5.000
G01 X443.361 Y5.000
G01 X521.244 Y35.114
G01 X344.714 Y25.186
G01 X365.649 Y5.000
G01 X557.460 Y5.000
G01 X560.118 Y26.649
G01 X551.801 Y5.000
G01 X710.000 Y5.000
G01 X710.000 Y1600.000
G01 X611.860 Y1600.000
G01 X614.578 Y1592.524
G01 X613.721 Y1600.000
G01 X427.640 Y1600.000
G01 X569.985 Y1591.478
G01 X549.213 Y1600.000
G01 X357.276 Y1600.000
G01 X372.428 Y1438.390
G01 X420.422 Y1600.000
G01 X416.461 Y1600.000
G01 X192.801 Y1464.542
G01 X373.145 Y1379.744
G01 X206.056 Y1509.198
G01 X173.790 Y1248.498
G01 X288.013 Y1370.968
G01 X48.633 Y1286.858
G01 X216.736 Y1134.138
G01 X116.997 Y1289.893
G01 X31.638 Y1034.025
G01 X200.283 Y1102.183
G01 X5.000 Y1082.103
G01 X5.000 Y1027.529
G01 X110.856 Y870.169
G01 X86.834 Y1036.950
G01 X5.000 Y893.939
G01 X5.000 Y808.854
G01 X163.053 Y813.641
G01 X5.000 Y843.382
G01 X5.000 Y747.729
G01 X62.774 Y604.237
G01 X116.436 Y765.673
G01 X5.000 Y641.845
G01 X5.000 Y567.600
G01 X178.540 Y523.686
G01 X26.562 Y617.642
G01 X76.415 Y352.599
G01 X203.162 Y492.775
G01 X17.829 Y368.768
G01 X246.097 Y250.742
G01 X155.825 Y391.259
G01 X152.034 Y130.373
G01 X341.098 Y235.338
G01 X153.397 Y181.347
G01 X362.228 Y12.115
G01 X342.468 Y185.347
G01 X299.163 Y5.000
G01 X502.654 Y5.000
G01 X521.479 Y9.727
G01 X349.062 Y29.406
G01 X369.351 Y5.000
G01 X572.267 Y5.000
G01 X574.321 Y12.262
G01 X570.361 Y5.000
G01 X710.000 Y5.000
G01 X710.000 Y1600.000
G01 X497.634 Y1600.000
G01 X551.759 Y1587.445
G01 X529.441 Y1600.000
G01 X345.621 Y1600.000
G01 X341.801 Y1449.459
G01 X417.456 Y1600.000
G01 X415.400 Y1600.000
G01 X175.696 Y1488.963
G01 X349.427 Y1373.975
G01 X205.923 Y1521.308
G01 X143.444 Y1260.511
G01 X280.488 Y1362.561
G01 X35.941 Y1307.393
G01 X189.203 Y1127.686
G01 X117.693 Y1293.486
G01 X5.000 Y1048.924
G01 X5.000 Y1046.667
G01 X188.668 Y1088.272
G01 X5.000 Y1092.802
G01 X5.000 Y1012.499
G01 X81.520 Y864.038
G01 X87.855 Y1032.106
G01 X5.000 Y918.838
G01 X5.000 Y811.434
G01 X147.949 Y795.828
G01 X5.000 Y845.069
G01 X5.000 Y702.715
G01 X33.831 Y599.295
G01 X117.275 Y753.119
G01 X5.000 Y654.765
G01 X5.000 Y564.477
G01 X160.896 Y503.817
G01 X29.502 Y619.749
G01 X50.074 Y349.509
G01 X203.380 Y473.828
G01 X8.311 Y377.704
G01 X227.150 Y230.756
G01 X163.356 Y386.461
G01 X130.344 Y129.545
G01 X340.387 Y211.806
G01 X151.889 Y187.650
G01 X332.432 Y5.000
G01 X344.047 Y5.000
G01 X353.684 Y174.148
G01 X290.509 Y5.000
G01 X448.258 Y5.000
G01 X355.527 Y32.561
G01 X373.706 Y5.000
G01 X710.000 Y5.000
G01 X710.000 Y1600.000
G01 X491.942 Y1600.000
G01 X531.237 Y1583.843
G01 X509.493 Y1600.000
G01 X330.817 Y1600.000
G01 X311.200 Y1462.575
G01 X413.205 Y1597.779
G01 X160.676 Y1513.471
G01 X323.726 Y1369.219
G01 X206.374 Y1531.120
G01 X113.815 Y1274.402
G01 X270.938 Y1352.882
G01 X25.360 Y1327.338
G01 X160.169 Y1122.735
G01 X118.364 Y1294.661
G01 X5.000 Y1106.232
G01 X5.000 Y1062.194
G01 X174.844 Y1073.704
G01 X5.000 Y1100.402
G01 X5.000 Y982.138
G01 X51.296 Y859.756
G01 X88.241 Y1024.935
G01 X5.000 Y934.600
G01 X5.000 Y809.145
G01 X130.643 Y778.026
G01 X5.000 Y844.019
G01 X5.000 Y596.772
G01 X116.924 Y738.530
G01 X5.000 Y662.278
G01 X5.000 Y557.511
G01 X141.253 Y484.622
G01 X33.555 Y619.726
G01 X24.242 Y348.435
G01 X201.958 Y453.316
G01 X5.000 Y387.777
G01 X5.000 Y383.175
G01 X206.585 Y212.042
G01 X171.412 Y379.339
G01 X109.824 Y130.540
G01 X337.731 Y187.312
G01 X152.627 Y193.173
G01 X301.663 Y5.000
G01 X329.725 Y5.000
G01 X364.792 Y160.635
G01 X283.266 Y5.000
G01 X422.034 Y5.000
G01 X363.972 Y34.379
G01 X378.967 Y5.000
G01 X710.000 Y5.000
G01 X710.000 Y1600.000
G01 X477.184 Y1600.000
G01 X508.508 Y1580.967
G01 X488.868 Y1600.000
G01 X312.965 Y1600.000
G01 X280.935 Y1477.708
G01 X406.447 Y1592.752
G01 X147.774 Y1537.759
G01 X296.211 Y1365.735
G01 X207.115 Y1538.540
G01 X85.192 Y1290.057
G01 X259.218 Y1342.201
G01 X16.833 Y1346.388
G01 X129.874 Y1119.480
G01 X118.704 Y1293.417
G01 X5.000 Y1144.390
G01 X5.000 Y1071.306
G01 X158.750 Y1058.781
G01 X5.000 Y1104.978
G01 X5.000 Y918.278
G01 X20.472 Y857.440
G01 X87.700 Y1015.527
G01 X5.000 Y944.203
G01 X5.000 Y802.013
G01 X111.169 Y760.543
G01 X5.000 Y839.925
G01 X5.000 Y622.142
G01 X115.129 Y722.080
G01 X5.000 Y665.657
G01 X5.000 Y546.356
G01 X119.734 Y466.386
G01 X38.450 Y617.430
G01 X5.000 Y388.796
G01 X5.000 Y351.694
G01 X198.704 Y431.479
G01 X5.000 Y396.383
G01 X5.000 Y385.461
G01 X184.605 Y194.837
G01 X179.691 Y369.840
G01 X90.747 Y133.208
G01 X333.017 Y162.146
G01 X155.517 Y197.621
G01 X276.346 Y5.000
G01 X319.613 Y5.000
G01 X375.484 Y144.847
G01 X277.443 Y5.000
G01 X413.117 Y5.000
G01 X374.219 Y34.607
G01 X385.356 Y5.000
G01 X710.000 Y5.000
G01 X710.000 Y1600.000
G01 X458.667 Y1600.000
G01 X483.697 Y1579.102
G01 X467.283 Y1600.000
G01 X291.980 Y1600.000
G01 X251.312 Y1494.790
G01 X397.617 Y1586.404
G01 X136.985 Y1561.514
G01 X267.089 Y1363.755
G01 X207.840 Y1543.518
G01 X57.847 Y1307.317
G01 X245.218 Y1330.809
G01 X10.261 Y1364.246
G01 X98.584 Y1118.087
G01 X118.405 Y1289.795
G01 X5.000 Y1171.078
G01 X5.000 Y1074.710
G01 X140.369 Y1043.816
G01 X5.000 Y1106.420
G01 X5.000 Y880.957
G01 X85.950 Y1004.013
G01 X5.000 Y949.206
G01 X5.000 Y789.681
G01 X89.601 Y743.683
G01 X5.000 Y832.014
G01 X5.000 Y634.461
G01 X111.661 Y703.979
G01 X5.000 Y665.635
G01 X5.000 Y530.274
G01 X96.501 Y449.378
G01 X43.893 Y612.757
G01 X5.000 Y464.898
G01 X5.000 Y359.738
G01 X193.459 Y408.588
G01 X5.000 Y402.682
G01 X5.000 Y387.155
G01 X161.442 Y179.351
G01 X187.883 Y357.950
G01 X73.364 Y137.363
G01 X326.175 Y136.612
G01 X160.423 Y200.715
G01 X255.077 Y5.000
G01 X313.684 Y5.000
G01 X385.461 Y126.864
G01 X273.115 Y5.000
G01 X411.502 Y5.000
G01 X386.056 Y33.019
G01 X393.098 Y5.000
G01 X710.000 Y5.000
G01 X710.000 Y1600.000
G01 X437.689 Y1600.000
G01 X456.972 Y1578.511
G01 X444.520 Y1600.000
G01 X267.573 Y1600.000
G01 X222.625 Y1513.708
G01 X386.559 Y1579.008
G01 X128.257 Y1584.425
G01 X236.599 Y1363.485
G01 X208.238 Y1546.042
G01 X32.030 Y1325.989
G01 X228.873 Y1319.012
G01 X5.505 Y1380.633
G01 X66.590 Y1118.680
G01 X117.168 Y1283.879
G01 X5.000 Y1190.059
G01 X5.000 Y1072.573
G01 X119.729 Y1029.120
G01 X5.000 Y1104.343
G01 X5.000 Y908.398
G01 X82.729 Y990.562
G01 X5.000 Y950.467
G01 X5.000 Y771.343
G01 X66.060 Y727.738
G01 X5.000 Y818.414
G01 X5.000 Y638.657
G01 X106.319 Y684.467
G01 X5.000 Y662.620
G01 X5.000 Y507.918
G01 X71.753 Y433.843
G01 X49.580 Y605.645
G01 X5.000 Y490.877
G01 X5.000 Y362.843
G01 X186.104 Y384.934
G01 X5.000 Y407.315
G01 X5.000 Y388.776
G01 X137.360 Y165.760
G01 X195.676 Y343.701
G01 X57.899 Y142.784
G01 X317.174 Y111.025
G01 X167.173 Y202.194
G01 X236.977 Y5.000
G01 X312.373 Y5.000
G01 X394.434 Y106.810
G01 X270.484 Y5.000
G01 X414.403 Y5.000
G01 X399.239 Y29.419
G01 X402.455 Y5.000
G01 X710.000 Y5.000
G01 X710.000 Y1600.000
G01 X414.677 Y1600.000
G01 X428.537 Y1579.437
G01 X420.354 Y1600.000
G01 X239.191 Y1600.000
G01 X195.154 Y1534.308
G01 X373.158 Y1570.856
G01 X165.582 Y1600.000
G01 X123.641 Y1600.000
G01 X205.008 Y1365.097
G01 X207.995 Y1546.147
G01 X7.964 Y1345.845
G01 X210.158 Y1307.125
G01 X5.000 Y1394.178
G01 X5.000 Y1372.777
G01 X34.197 Y1121.346
G01 X114.703 Y1275.794
G01 X5.000 Y1203.362
G01 X5.000 Y1064.588
G01 X96.900 Y1015.002
G01 X5.000 Y1097.889
G01 X5.000 Y920.888
G01 X77.800 Y975.382
G01 X5.000 Y948.441
G01 X5.000 Y745.538
G01 X40.702 Y712.983
G01 X5.000 Y793.811
G01 X5.000 Y637.025
G01 X98.936 Y663.813
G01 X5.000 Y656.786
G01 X5.000 Y476.851
G01 X45.724 Y419.999
G01 X55.194 Y596.073
G01 X5.000 Y500.936
G01 X5.000 Y361.946
G01 X176.558 Y360.822
G01 X5.000 Y410.877
G01 X5.000 Y391.238
G01 X112.645 Y154.204
G01 X202.763 Y327.168
G01 X44.544 Y149.218
G01 X306.028 Y85.703
G01 X175.555 Y201.824
G01 X221.473 Y5.000
G01 X316.760 Y5.000
G01 X402.130 Y84.847
G01 X270.017 Y5.000
G01 X420.885 Y5.000
G01 X413.497 Y23.645
G01 X413.748 Y5.000
G01 X710.000 Y5.000
G01 X710.000 Y1600.000
G01 X389.763 Y1600.000
G01 X398.631 Y1582.093
G01 X394.514 Y1600.000
G01 X205.895 Y1600.000
G01 X169.158 Y1556.400
G01 X357.338 Y1562.255
G01 X215.921 Y1600.000
G01 X122.334 Y1600.000
G01 X172.607 Y1368.724
G01 X206.805 Y1543.911
G01 X5.000 Y1382.000
G01 X5.000 Y1359.917
G01 X189.093 Y1295.466
G01 X5.000 Y1405.398
G01 X5.000 Y1130.322
G01 X110.740 Y1265.708
G01 X5.000 Y1212.146
G01 X5.000 Y1049.910
G01 X71.995 Y1001.762
G01 X5.000 Y1085.165
G01 X5.000 Y924.538
G01 X70.953 Y958.713
G01 X5.000 Y943.321
G01 X5.000 Y709.724
G01 X13.726 Y699.672
G01 X5.000 Y736.120
G01 X5.000 Y630.698
G01 X89.386 Y642.311
G01 X5.000 Y648.109
G01 X5.000 Y432.429
G01 X18.677 Y408.030
G01 X60.421 Y584.066
G01 X5.000 Y503.506
G01 X5.000 Y357.573
G01 X164.786 Y336.573
G01 X5.000 Y414.037
G01 X5.000 Y396.575
G01 X87.603 Y144.783
G01 X208.848 Y308.469
G01 X33.456 Y156.388
G01 X292.797 Y60.962
G01 X185.328 Y199.398
G01 X208.188 Y5.000
G01 X329.076 Y5.000
G01 X408.301 Y61.177
G01 X272.970 Y5.000
G01 X430.719 Y5.000
G01 X428.537 Y15.573
G01 X427.406 Y5.000
G01 X710.000 Y5.000
G01 X710.000 Y1600.000
G01 X362.934 Y1600.000
G01 X367.519 Y1586.658
G01 X366.631 Y1600.000
G01 X166.107 Y1600.000
G01 X144.866 Y1579.755
G01 X339.067 Y1553.525
G01 X224.538 Y1600.000
G01 X117.704 Y1600.000
G01 X139.707 Y1374.460
G01 X204.371 Y1539.456
G01 X5.000 Y1412.923
G01 X5.000 Y1367.720
G01 X165.742 Y1284.348
G01 X5.000 Y1414.571
G01 X5.000 Y1164.668
G01 X105.034 Y1253.825
G01 X5.000 Y1217.069
G01 X5.000 Y1026.927
G01 X45.169 Y989.682
G01 X5.000 Y1061.517
G01 X5.000 Y921.928
G01 X62.014 Y940.824
G01 X5.000 Y935.095
G01 X5.000 Y620.196
G01 X77.580 Y620.269
G01 X5.000 Y636.349
G01 X5.000 Y430.764
G01 X64.945 Y569.692
G01 X5.000 Y501.656
G01 X5.000 Y349.968
G01 X150.795 Y312.508
G01 X5.000 Y417.718
G01 X5.000 Y410.970
G01 X62.553 Y137.554
G01 X213.652 Y287.762
G01 X24.755 Y163.996
G01 X277.583 Y37.109
G01 X196.221 Y194.748
G01 X196.873 Y5.000
G01 X354.021 Y5.000
G01 X412.726 Y36.035
G01 X284.074 Y5.000
G01 X444.053 Y5.000
G01 X444.049 Y5.120
G01 X444.021 Y5.000
G01 X710.000 Y5.000
G01 X710.000 Y1600.000
G01 X334.089 Y1600.000
G01 X335.496 Y1593.275
G01 X336.168 Y1600.000
G01 X136.110 Y1600.000
G01 X318.360 Y1544.988
G01 X220.938 Y1600.000
G01 X110.402 Y1600.000
G01 X106.627 Y1382.355
G01 X200.416 Y1532.944
G01 X5.000 Y1437.619
G01 X5.000 Y1369.550
G01 X140.214 Y1274.079
G01 X5.000 Y1421.793
G01 X5.000 Y1183.415
G01 X97.367 Y1240.382
G01 X5.000 Y1218.477
G01 X5.000 Y992.759
G01 X16.618 Y979.023
G01 X5.000 Y1012.209
G01 X5.000 Y914.213
G01 X50.846 Y922.008
G01 X5.000 Y923.545
G01 X5.000 Y605.652
G01 X63.473 Y598.009
G01 X5.000 Y620.959
G01 X5.000 Y455.379
G01 X68.466 Y553.064
G01 X5.000 Y496.747
G01 X5.000 Y339.152
G01 X134.638 Y288.949
G01 X9.889 Y418.424
G01 X37.819 Y132.531
G01 X216.919 Y265.247
G01 X18.514 Y171.724
G01 X260.530 Y14.436
G01 X207.938 Y187.738
G01 X187.378 Y5.000
G01 X402.768 Y5.000
G01 X415.219 Y9.686
G01 X351.303 Y5.000
G01 X5.000 Y5.000
G01 X5.000 Y1600.000
G01 X163.286 Y1600.000
G01 X295.272 Y1536.965
G01 X211.850 Y1600.000
G01 X100.861 Y1600.000
G01 X73.698 Y1392.416
G01 X194.684 Y1524.576
G01 X5.000 Y1457.310
G01 X5.000 Y1364.493
G01 X112.660 Y1264.947
G01 X5.000 Y1427.130
G01 X5.000 Y1192.392
G01 X87.555 Y1225.650
G01 X5.000 Y1216.483
G01 X5.000 Y901.833
G01 X37.354 Y902.577
G01 X5.000 Y908.210
G01 X5.000 Y586.902
G01 X47.067 Y575.859
G01 X5.000 Y600.893
G01 X5.000 Y462.188
G01 X70.695 Y534.336
G01 X5.000 Y489.445
G01 X5.000 Y324.927
G01 X116.412 Y266.210
G01 X17.610 Y415.651
G01 X13.731 Y129.680
G01 X218.418 Y241.156
G01 X14.766 Y179.250
G01 X227.440 Y5.000
G01 X240.444 Y5.000
G01 X220.167 Y178.279
G01 X179.632 Y5.000
G01 X5.000 Y5.000
G01 X5.000 Y1600.000
G01 X165.401 Y1600.000
G01 X269.908 Y1529.768
G01 X199.654 Y1600.000
G01 X89.357 Y1600.000
G01 X41.247 Y1404.602
G01 X186.951 Y1514.589
G01 X5.000 Y1472.762
G01 X5.000 Y1350.645
G01 X83.271 Y1257.223
G01 X5.000 Y1430.628
G01 X5.000 Y1194.193
G01 X75.453 Y1209.922
G01 X5.000 Y1210.994
G01 X5.000 Y884.788
G01 X21.485 Y882.856
G01 X5.000 Y888.264
G01 X5.000 Y563.489
G01 X28.409 Y554.146
G01 X5.000 Y574.115
G01 X5.000 Y460.440
G01 X71.367 Y513.705
G01 X5.000 Y480.082
G01 X5.000 Y306.832
G01 X96.256 Y244.590
G01 X26.191 Y410.466
G01 X5.000 Y242.797
G01 X5.000 Y134.422
G01 X217.956 Y215.755
G01 X13.497 Y186.245
G01 X191.022 Y5.000
G01 X223.456 Y5.000
G01 X232.583 Y166.324
G01 X173.640 Y5.000
G01 X5.000 Y5.000
G01 X5.000 Y1600.000
G01 X157.492 Y1600.000
G01 X242.413 Y1523.695
G01 X185.403 Y1600.000
G01 X76.054 Y1600.000
G01 X9.599 Y1418.829
G01 X177.022 Y1503.250
G01 X5.000 Y1484.436
G01 X5.000 Y1324.258
G01 X52.275 Y1251.147
G01 X5.000 Y1432.345
G01 X5.000 Y1189.985
G01 X60.957 Y1193.511
G01 X5.000 Y1201.690
G01 X5.000 Y534.603
G01 X7.588 Y533.190
G01 X5.000 Y536.333
G01 X5.000 Y453.442
G01 X70.247 Y491.400
G01 X5.000 Y468.788
G01 X5.000 Y284.040
G01 X74.354 Y224.371
G01 X35.318 Y402.770
G01 X5.000 Y278.583
G01 X5.000 Y138.842
G01 X215.372 Y189.336
G01 X14.647 Y192.384
G01 X161.927 Y5.000
G01 X211.486 Y5.000
G01 X244.856 Y151.871
G01 X169.496 Y5.000
G01 X248.763 Y5.000
G01 X245.620 Y6.534
G01 X246.403 Y5.000
G01 X5.000 Y5.000
G01 X5.000 Y1600.000
G01 X144.240 Y1600.000
G01 X212.975 Y1519.021
G01 X169.631 Y1600.000
G01 X61.015 Y1600.000
G01 X5.000 Y1487.199
G01 X5.000 Y1442.773
G01 X164.744 Y1490.855
G01 X5.000 Y1492.567
G01 X5.000 Y1277.540
G01 X19.933 Y1246.929
G01 X5.000 Y1432.795
G01 X5.000 Y1180.158
G01 X44.006 Y1176.746
G01 X5.000 Y1187.954
G01 X5.000 Y442.612
G01 X67.129 Y467.687
G01 X5.000 Y455.555
G01 X5.000 Y255.130
G01 X50.926 Y205.806
G01 X44.661 Y392.507
G01 X5.000 Y285.562
G01 X5.000 Y139.435
G01 X210.548 Y162.214
G01 X18.111 Y197.351
G01 X138.008 Y5.000
G01 X204.182 Y5.000
G01 X256.653 Y134.964
G01 X167.422 Y5.000
G01 X259.652 Y5.000
G01 X256.874 Y7.060
G01 X257.652 Y5.000
G01 X5.000 Y5.000
G01 X5.000 Y1600.000
G01 X134.543 Y1600.000
G01 X187.732 Y1517.647
G01 X159.042 Y1600.000
G01 X48.403 Y1600.000
G01 X5.000 Y1532.435
G01 X5.000 Y1461.321
G01 X155.065 Y1480.211
G01 X5.000 Y1500.493
G01 X5.000 Y1390.991
G01 X9.081 Y1432.508
G01 X5.000 Y1428.251
G01 X5.000 Y1168.951
G01 X27.789 Y1163.594
G01 X5.000 Y1173.766
G01 X5.000 Y433.486
G01 X58.294 Y446.865
G01 X5.000 Y444.376
G01 X5.000 Y215.019
G01 X21.513 Y192.756
G01 X48.593 Y383.074
G01 X5.000 Y298.239
G01 X5.000 Y139.943
G01 X196.967 Y137.564
G01 X16.725 Y203.362
G01 X111.653 Y5.000
G01 X192.706 Y5.000
G01 X259.526 Y117.460
G01 X158.035 Y5.000
G01 X261.068 Y5.000
G01 X260.119 Y6.015
G01 X260.375 Y5.000
G01 X5.000 Y5.000
G01 X5.000 Y1600.000
G01 X128.619 Y1600.000
G01 X166.889 Y1519.949
G01 X152.772 Y1600.000
G01 X36.589 Y1600.000
G01 X5.000 Y1561.128
G01 X5.000 Y1476.591
G01 X147.429 Y1471.590
G01 X5.000 Y1509.707
G01 X5.000 Y1394.469
G01 X15.525 Y1431.473
G01 X5.000 Y1422.728
G01 X5.000 Y1156.323
G01 X11.609 Y1153.762
G01 X5.000 Y1157.946
G01 X5.000 Y422.928
G01 X45.338 Y427.479
G01 X5.000 Y431.705
G01 X5.000 Y233.961
G01 X49.619 Y372.861
G01 X5.000 Y307.199
G01 X5.000 Y137.509
G01 X178.267 Y114.293
G01 X14.399 Y208.856
G01 X85.227 Y5.000
G01 X181.973 Y5.000
G01 X258.159 Y98.603
G01 X147.071 Y5.000
G01 X5.000 Y5.000
G01 X5.000 Y1600.000
G01 X120.004 Y1600.000
G01 X145.117 Y1524.599
G01 X144.494 Y1600.000
G01 X20.449 Y1600.000
G01 X5.000 Y1584.808
G01 X5.000 Y1488.686
G01 X137.429 Y1463.228
G01 X5.000 Y1517.985
G01 X5.000 Y1396.463
G01 X20.774 Y1428.469
G01 X5.000 Y1418.153
G01 X5.000 Y408.417
G01 X29.875 Y407.981
G01 X5.000 Y414.627
G01 X5.000 Y273.690
G01 X49.676 Y360.527
G01 X5.000 Y309.766
G01 X5.000 Y130.757
G01 X157.029 Y91.645
G01 X13.587 Y212.649
G01 X60.432 Y5.000
G01 X176.095 Y5.000
G01 X255.131 Y77.977
G01 X138.519 Y5.000
G01 X5.000 Y5.000
G01 X5.000 Y1600.000
G01 X108.911 Y1600.000
G01 X122.730 Y1531.739
G01 X133.976 Y1600.000
G01 X5.000 Y1600.000
G01 X5.000 Y1497.857
G01 X125.091 Y1455.468
G01 X5.000 Y1525.275
G01 X5.000 Y1397.369
G01 X24.537 Y1423.678
G01 X5.000 Y1413.906
G01 X5.000 Y389.712
G01 X11.870 Y388.715
G01 X5.000 Y391.812
G01 X5.000 Y287.115
G01 X48.447 Y346.201
G01 X5.000 Y308.012
G01 X5.000 Y119.515
G01 X133.323 Y69.960
G01 X14.025 Y214.522
G01 X36.865 Y5.000
G01 X177.197 Y5.000
G01 X250.178 Y55.802
G01 X134.295 Y5.000
G01 X5.000 Y5.000
G01 X5.000 Y1600.000
G01 X95.350 Y1600.000
G01 X100.063 Y1541.466
G01 X120.723 Y1600.000
G01 X5.000 Y1600.000
G01 X5.000 Y1504.044
G01 X110.486 Y1448.648
G01 X5.000 Y1531.432
G01 X5.000 Y1397.134
G01 X26.551 Y1417.323
G01 X5.000 Y1409.533
G01 X5.000 Y289.585
G01 X45.632 Y330.058
G01 X5.000 Y302.881
G01 X5.000 Y103.283
G01 X107.260 Y49.566
G01 X15.419 Y214.293
G01 X14.212 Y5.000
G01 X189.893 Y5.000
G01 X243.066 Y32.334
G01 X141.017 Y5.000
G01 X5.000 Y5.000
G01 X5.000 Y1600.000
G01 X79.173 Y1600.000
G01 X77.462 Y1553.830
G01 X103.820 Y1600.000
G01 X5.000 Y1600.000
G01 X5.000 Y1506.846
G01 X93.736 Y1443.096
G01 X5.000 Y1536.141
G01 X5.000 Y1395.627
G01 X26.583 Y1409.663
G01 X5.000 Y1404.652
G01 X5.000 Y285.791
G01 X40.958 Y312.314
G01 X5.000 Y294.770
G01 X5.000 Y81.134
G01 X79.001 Y30.778
G01 X17.450 Y211.823
G01 X5.000 Y109.801
G01 X5.000 Y5.000
G01 X225.642 Y5.000
G01 X233.594 Y7.861
G01 X206.328 Y5.000
G01 X5.000 Y5.000
G01 X5.000 Y1600.000
G01 X60.078 Y1600.000
G01 X55.281 Y1568.833
G01 X81.538 Y1600.000
G01 X5.000 Y1600.000
G01 X5.000 Y1505.391
G01 X75.004 Y1439.122
G01 X5.000 Y1538.708
G01 X5.000 Y1392.664
G01 X24.439 Y1400.989
G01 X5.000 Y1398.898
G01 X5.000 Y277.556
G01 X34.181 Y293.222
G01 X5.000 Y283.753
G01 X5.000 Y51.510
G01 X48.750 Y13.886
G01 X19.782 Y207.017
G01 X5.000 Y146.276
G01 X5.000 Y1600.000
G01 X37.583 Y1600.000
G01 X33.872 Y1586.430
G01 X50.347 Y1600.000
G01 X5.000 Y1600.000
G01 X5.000 Y1498.003
G01 X54.498 Y1437.014
G01 X5.000 Y1537.409
G01 X5.000 Y1387.993
G01 X19.964 Y1391.619
G01 X5.000 Y1391.863
G01 X5.000 Y265.630
G01 X25.094 Y273.071
G01 X5.000 Y269.650
G01 X5.000 Y11.797
G01 X11.314 Y5.000
G01 X16.903 Y5.000
G01 X22.064 Y199.826
G01 X5.000 Y154.208
G01 X5.000 Y1481.401
G01 X32.467 Y1437.029
G01 X5.000 Y1526.593
G01 X5.000 Y1381.274
G01 X13.048 Y1381.890
G01 X5.000 Y1383.047
G01 X5.000 Y250.259
G01 X13.529 Y252.174
G01 X5.000 Y252.021
G01 X5.000 Y95.495
G01 X23.941 Y190.253
G01 X5.000 Y153.823
G01 X5.000 Y5.000
G01 X16.651 Y5.000
G01 X6.981 Y9.098
G01 X8.947 Y5.000
G01 X5.000 Y5.000
G01 X5.000 Y1448.533
G01 X9.193 Y1439.390
G01 X5.000 Y1471.151
G01 X5.000 Y125.508
G01 X25.059 Y178.348
G01 X5.000 Y149.259
G01 X5.000 Y5.000
G01 X18.979 Y5.000
G01 X5.172 Y14.025
G01 X8.316 Y5.000
G01 X5.000 Y5.000
G01 X5.000 Y129.375
G01 X25.069 Y164.211
G01 X5.000 Y141.831
G01 X5.000 Y5.000
G01 X17.618 Y5.000
G01 X5.000 Y16.994
G01 X5.000 Y16.648
G01 X7.635 Y5.000
G01 X5.000 Y5.000
G01 X5.000 Y124.789
G01 X23.640 Y147.993
G01 X5.000 Y132.006
G01 X5.000 Y5.000
G01 X15.371 Y5.000
G01 X5.881 Y18.064
G01 X7.306 Y5.000
G01 X5.000 Y5.000
G01 X5.000 Y115.611
G01 X20.463 Y129.887
G01 X5.000 Y119.889
G01 X5.000 Y5.000
G01 X13.424 Y5.000
G01 X7.796 Y16.771
G01 X7.720 Y5.000
G01 X5.000 Y5.000
G01 X5.000 Y103.083
G01 X15.253 Y110.131
G01 X5.000 Y105.373
G01 X5.000 Y5.000
G01 X12.501 Y5.000
G01 X10.304 Y13.072
G01 X9.304 Y5.000
G01 X5.000 Y5.000
G01 X5.000 Y87.620
G01 X7.762 Y89.001
G01 X5.000 Y88.177
G01 X5.000 Y5.000
G01 X13.212 Y5.000
G01 X13.044 Y6.878
G01 X12.581 Y5.000
G01 X5.000 Y5.000
G01 X5.000 Y1595.433
G01 X16.230 Y1594.757
G01 X5.000 Y1597.914
G01 X5.000 Y1586.381
G01 X6.734 Y1585.997
G01 X5.000 Y1586.736
G01 X5.000 Y848.546

; BEGIN POST
G04 S60
; 110219_5.gcode; END POST
; file trimmed by trimify2x.pl
; QQQQQQQ

