; file trimmed by trimify2x.pl
; Created by Sandify
; 
;   https://jeffeb3.github.io/sandify/
; 
;   Sandify Version: 0.1.3
; 
;   Machine Type: Rectangular
;     MinX: 5 MaxX: 710 MinY: 5 MaxY: 1600
;   Content Type: Shapes
;     Starting Size: -163
;     Offset: X: 366 Y: -788
;     Selected Shape: Star
;       Star Points: 8
;       Star Ratio: 0.35
;     Number of Loops: 1045
;     Spin: true
;       Spin Value: -0.3
;       Spin Switchbacks: 65
;     Grow: true
;       Grow Value: -1.5
;     Track: true
;       Track Count: 185
;       Track Size: 784
;       Track Grow: true
;           Track Grow Value: 11
;   Path Reversed: false
; 
; filename: '110219_6.gcode'

; BEGIN PRE
G28 Y
G28 X
G01 F30000; END PRE
G01 X710.000 Y14.500
G01 X710.000 Y37.960
G01 X630.632 Y104.945
G01 X699.415 Y22.490
G01 X592.040 Y13.396
G01 X683.481 Y5.000
G01 X710.000 Y5.000
G01 X710.000 Y70.495
G01 X706.391 Y37.344
G01 X624.247 Y104.887
G01 X690.820 Y21.544
G01 X585.012 Y11.212
G01 X639.822 Y5.000
G01 X710.000 Y5.000
G01 X710.000 Y117.567
G01 X699.784 Y39.305
G01 X617.857 Y104.858
G01 X682.221 Y20.644
G01 X577.972 Y9.058
G01 X608.005 Y5.000
G01 X710.000 Y5.000
G01 X710.000 Y138.571
G01 X709.115 Y145.739
G01 X693.189 Y41.300
G01 X611.463 Y104.858
G01 X673.618 Y19.792
G01 X570.922 Y6.935
G01 X583.231 Y5.000
G01 X710.000 Y5.000
G01 X710.000 Y108.318
G01 X704.687 Y146.800
G01 X686.607 Y43.331
G01 X605.064 Y104.887
G01 X665.011 Y18.986
G01 X564.987 Y5.000
G01 X710.000 Y5.000
G01 X710.000 Y84.321
G01 X700.259 Y147.884
G01 X680.038 Y45.396
G01 X598.661 Y104.945
G01 X656.402 Y18.228
G01 X571.098 Y5.000
G01 X710.000 Y5.000
G01 X710.000 Y65.179
G01 X695.830 Y148.992
G01 X673.482 Y47.496
G01 X592.255 Y105.032
G01 X647.790 Y17.516
G01 X574.567 Y5.000
G01 X710.000 Y5.000
G01 X710.000 Y53.970
G01 X709.318 Y53.551
G01 X691.401 Y150.122
G01 X666.939 Y49.632
G01 X585.845 Y105.149
G01 X639.175 Y16.851
G01 X575.951 Y5.000
G01 X710.000 Y5.000
G01 X710.000 Y58.418
G01 X706.238 Y56.218
G01 X686.971 Y151.275
G01 X660.410 Y51.801
G01 X579.431 Y105.294
G01 X630.559 Y16.233
G01 X575.666 Y5.000
G01 X710.000 Y5.000
G01 X710.000 Y62.691
G01 X703.173 Y58.900
G01 X682.542 Y152.452
G01 X653.894 Y54.005
G01 X573.014 Y105.469
G01 X621.941 Y15.662
G01 X574.029 Y5.000
G01 X710.000 Y5.000
G01 X710.000 Y66.796
G01 X700.124 Y61.597
G01 X678.112 Y153.651
G01 X647.392 Y56.244
G01 X566.593 Y105.672
G01 X613.321 Y15.138
G01 X571.285 Y5.000
G01 X710.000 Y5.000
G01 X710.000 Y70.740
G01 X697.091 Y64.309
G01 X673.683 Y154.873
G01 X640.904 Y58.516
G01 X560.170 Y105.905
G01 X604.700 Y14.661
G01 X567.625 Y5.000
G01 X710.000 Y5.000
G01 X710.000 Y74.528
G01 X694.074 Y67.034
G01 X669.254 Y156.118
G01 X634.431 Y60.823
G01 X553.743 Y106.167
G01 X596.078 Y14.230
G01 X563.204 Y5.000
G01 X710.000 Y5.000
G01 X710.000 Y78.166
G01 X691.072 Y69.774
G01 X664.826 Y157.386
G01 X627.971 Y63.164
G01 X547.314 Y106.457
G01 X587.456 Y13.847
G01 X558.143 Y5.000
G01 X710.000 Y5.000
G01 X710.000 Y81.659
G01 X688.087 Y72.528
G01 X660.398 Y158.677
G01 X621.527 Y65.538
G01 X540.882 Y106.777
G01 X578.833 Y13.510
G01 X552.544 Y5.000
G01 X710.000 Y5.000
G01 X710.000 Y85.012
G01 X685.118 Y75.296
G01 X655.970 Y159.991
G01 X615.097 Y67.946
G01 X534.448 Y107.126
G01 X570.211 Y13.219
G01 X546.489 Y5.000
G01 X710.000 Y5.000
G01 X710.000 Y87.939
G01 X685.597 Y78.979
G01 X655.290 Y162.619
G01 X613.363 Y72.079
G01 X532.825 Y109.361
G01 X567.105 Y15.561
G01 X538.826 Y5.000
G01 X710.000 Y5.000
G01 X710.000 Y90.474
G01 X692.319 Y84.334
G01 X659.843 Y167.078
G01 X616.696 Y78.071
G01 X535.261 Y113.186
G01 X567.594 Y19.608
G01 X531.429 Y5.000
G01 X710.000 Y5.000
G01 X710.000 Y93.321
G01 X699.011 Y89.726
G01 X664.378 Y171.562
G01 X619.996 Y84.081
G01 X537.681 Y117.029
G01 X568.061 Y23.655
G01 X525.171 Y5.000
G01 X710.000 Y5.000
G01 X710.000 Y96.482
G01 X705.674 Y95.155
G01 X668.896 Y176.069
G01 X623.261 Y90.108
G01 X540.085 Y120.889
G01 X568.504 Y27.702
G01 X519.849 Y5.000
G01 X710.000 Y5.000
G01 X710.000 Y105.360
G01 X673.397 Y180.601
G01 X626.493 Y96.153
G01 X542.472 Y124.766
G01 X568.925 Y31.751
G01 X515.305 Y5.000
G01 X710.000 Y5.000
G01 X710.000 Y123.281
G01 X677.880 Y185.156
G01 X629.691 Y102.213
G01 X544.844 Y128.661
G01 X569.323 Y35.800
G01 X511.418 Y5.000
G01 X710.000 Y5.000
G01 X710.000 Y139.677
G01 X682.345 Y189.734
G01 X632.855 Y108.291
G01 X547.200 Y132.572
G01 X569.699 Y39.849
G01 X508.088 Y5.000
G01 X710.000 Y5.000
G01 X710.000 Y154.772
G01 X686.792 Y194.337
G01 X635.984 Y114.384
G01 X549.539 Y136.500
G01 X570.052 Y43.898
G01 X505.235 Y5.000
G01 X710.000 Y5.000
G01 X710.000 Y168.747
G01 X691.222 Y198.963
G01 X639.080 Y120.494
G01 X551.862 Y140.444
G01 X570.382 Y47.948
G01 X502.796 Y5.000
G01 X710.000 Y5.000
G01 X710.000 Y181.751
G01 X695.633 Y203.612
G01 X642.141 Y126.619
G01 X554.168 Y144.406
G01 X570.690 Y51.997
G01 X500.717 Y5.000
G01 X710.000 Y5.000
G01 X710.000 Y193.909
G01 X700.026 Y208.284
G01 X645.168 Y132.760
G01 X556.458 Y148.384
G01 X570.976 Y56.046
G01 X498.953 Y5.000
G01 X710.000 Y5.000
G01 X710.000 Y205.324
G01 X704.401 Y212.979
G01 X648.161 Y138.916
G01 X558.731 Y152.378
G01 X571.239 Y60.095
G01 X498.769 Y5.972
G01 X500.038 Y5.000
G01 X710.000 Y5.000
G01 X710.000 Y216.084
G01 X708.757 Y217.698
G01 X651.119 Y145.087
G01 X560.987 Y156.388
G01 X571.480 Y64.143
G01 X500.044 Y7.999
G01 X503.790 Y5.000
G01 X710.000 Y5.000
G01 X710.000 Y218.709
G01 X654.044 Y151.273
G01 X563.227 Y160.415
G01 X571.699 Y68.190
G01 X501.308 Y10.038
G01 X507.330 Y5.000
G01 X710.000 Y5.000
G01 X710.000 Y218.656
G01 X656.933 Y157.474
G01 X565.450 Y164.458
G01 X571.896 Y72.237
G01 X502.561 Y12.090
G01 X510.670 Y5.000
G01 X710.000 Y5.000
G01 X710.000 Y219.070
G01 X659.788 Y163.689
G01 X567.657 Y168.516
G01 X572.070 Y76.282
G01 X503.804 Y14.155
G01 X513.823 Y5.000
G01 X710.000 Y5.000
G01 X710.000 Y223.032
G01 X656.754 Y167.225
G01 X563.847 Y169.722
G01 X565.603 Y76.748
G01 X498.159 Y12.783
G01 X506.194 Y5.000
G01 X710.000 Y5.000
G01 X710.000 Y228.839
G01 X650.515 Y169.314
G01 X557.561 Y169.773
G01 X557.164 Y76.191
G01 X491.128 Y10.751
G01 X496.796 Y5.000
G01 X710.000 Y5.000
G01 X710.000 Y234.257
G01 X644.288 Y171.437
G01 X551.271 Y169.853
G01 X548.723 Y75.680
G01 X484.086 Y8.749
G01 X487.616 Y5.000
G01 X710.000 Y5.000
G01 X710.000 Y235.909
G01 X708.147 Y237.626
G01 X638.075 Y173.593
G01 X544.977 Y169.962
G01 X540.280 Y75.215
G01 X477.034 Y6.778
G01 X478.635 Y5.000
G01 X710.000 Y5.000
G01 X710.000 Y233.247
G01 X703.861 Y238.692
G01 X631.875 Y175.782
G01 X538.680 Y170.099
G01 X531.836 Y74.796
G01 X470.116 Y5.000
G01 X710.000 Y5.000
G01 X710.000 Y230.934
G01 X699.574 Y239.780
G01 X625.689 Y178.005
G01 X532.379 Y170.264
G01 X523.392 Y74.423
G01 X464.653 Y5.000
G01 X710.000 Y5.000
G01 X710.000 Y228.948
G01 X695.287 Y240.890
G01 X619.516 Y180.260
G01 X526.074 Y170.458
G01 X514.946 Y74.096
G01 X459.016 Y5.000
G01 X710.000 Y5.000
G01 X710.000 Y227.272
G01 X691.000 Y242.023
G01 X613.358 Y182.547
G01 X519.767 Y170.680
G01 X506.500 Y73.815
G01 X453.216 Y5.000
G01 X710.000 Y5.000
G01 X710.000 Y225.888
G01 X686.712 Y243.178
G01 X607.214 Y184.867
G01 X513.457 Y170.931
G01 X498.054 Y73.580
G01 X447.265 Y5.000
G01 X710.000 Y5.000
G01 X710.000 Y224.778
G01 X682.425 Y244.355
G01 X601.084 Y187.220
G01 X507.143 Y171.211
G01 X489.609 Y73.392
G01 X441.174 Y5.000
G01 X710.000 Y5.000
G01 X710.000 Y223.928
G01 X678.137 Y245.555
G01 X594.969 Y189.605
G01 X500.827 Y171.519
G01 X481.163 Y73.249
G01 X434.950 Y5.000
G01 X710.000 Y5.000
G01 X710.000 Y223.323
G01 X673.849 Y246.776
G01 X588.869 Y192.022
G01 X494.509 Y171.856
G01 X472.719 Y73.152
G01 X428.605 Y5.000
G01 X710.000 Y5.000
G01 X710.000 Y222.949
G01 X669.562 Y248.020
G01 X582.784 Y194.471
G01 X488.188 Y172.221
G01 X464.276 Y73.101
G01 X422.147 Y5.000
G01 X710.000 Y5.000
G01 X710.000 Y222.793
G01 X665.275 Y249.286
G01 X576.714 Y196.952
G01 X481.865 Y172.614
G01 X455.834 Y73.095
G01 X415.582 Y5.000
G01 X710.000 Y5.000
G01 X710.000 Y222.844
G01 X660.989 Y250.574
G01 X570.659 Y199.464
G01 X475.540 Y173.037
G01 X447.395 Y73.136
G01 X408.920 Y5.000
G01 X710.000 Y5.000
G01 X710.000 Y223.089
G01 X656.703 Y251.885
G01 X564.620 Y202.009
G01 X469.213 Y173.487
G01 X438.957 Y73.222
G01 X458.239 Y14.500
G01 X456.918 Y5.000
G01 X710.000 Y5.000
G01 X710.000 Y228.925
G01 X658.947 Y255.559
G01 X565.900 Y207.249
G01 X470.468 Y176.803
G01 X438.729 Y76.683
G01 X402.114 Y5.000
G01 X710.000 Y5.000
G01 X710.000 Y236.775
G01 X663.353 Y260.037
G01 X568.836 Y213.121
G01 X472.791 Y180.542
G01 X439.028 Y80.368
G01 X402.236 Y5.000
G01 X710.000 Y5.000
G01 X710.000 Y244.399
G01 X667.741 Y264.538
G01 X571.740 Y219.008
G01 X475.098 Y184.298
G01 X439.305 Y84.053
G01 X402.435 Y5.000
G01 X710.000 Y5.000
G01 X710.000 Y251.812
G01 X672.112 Y269.063
G01 X574.610 Y224.911
G01 X477.390 Y188.070
G01 X439.562 Y87.737
G01 X402.705 Y5.000
G01 X710.000 Y5.000
G01 X710.000 Y259.029
G01 X676.465 Y273.611
G01 X577.447 Y230.828
G01 X479.666 Y191.859
G01 X439.799 Y91.421
G01 X403.042 Y5.000
G01 X710.000 Y5.000
G01 X710.000 Y266.061
G01 X680.800 Y278.182
G01 X580.251 Y236.761
G01 X481.927 Y195.664
G01 X440.014 Y95.104
G01 X403.442 Y5.000
G01 X710.000 Y5.000
G01 X710.000 Y272.921
G01 X685.118 Y282.776
G01 X583.022 Y242.707
G01 X484.172 Y199.485
G01 X440.209 Y98.787
G01 X403.902 Y5.000
G01 X710.000 Y5.000
G01 X710.000 Y279.619
G01 X689.417 Y287.392
G01 X585.759 Y248.668
G01 X486.401 Y203.323
G01 X440.383 Y102.469
G01 X404.419 Y5.000
G01 X710.000 Y5.000
G01 X710.000 Y286.165
G01 X693.699 Y292.032
G01 X588.463 Y254.642
G01 X488.614 Y207.177
G01 X440.536 Y106.150
G01 X404.989 Y5.000
G01 X710.000 Y5.000
G01 X710.000 Y292.569
G01 X697.962 Y296.693
G01 X591.133 Y260.631
G01 X490.811 Y211.047
G01 X440.669 Y109.830
G01 X405.611 Y5.000
G01 X710.000 Y5.000
G01 X710.000 Y298.838
G01 X702.208 Y301.377
G01 X593.770 Y266.632
G01 X492.992 Y214.933
G01 X440.781 Y113.509
G01 X406.382 Y5.314
G01 X406.482 Y5.000
G01 X710.000 Y5.000
G01 X710.000 Y304.979
G01 X706.434 Y306.084
G01 X596.373 Y272.647
G01 X495.157 Y218.835
G01 X440.874 Y117.187
G01 X407.660 Y7.190
G01 X408.323 Y5.000
G01 X710.000 Y5.000
G01 X710.000 Y310.628
G01 X598.943 Y278.675
G01 X497.306 Y222.752
G01 X440.945 Y120.863
G01 X408.929 Y9.079
G01 X410.099 Y5.000
G01 X710.000 Y5.000
G01 X710.000 Y314.248
G01 X601.479 Y284.716
G01 X499.439 Y226.685
G01 X440.997 Y124.538
G01 X410.188 Y10.981
G01 X411.810 Y5.000
G01 X710.000 Y5.000
G01 X710.000 Y318.022
G01 X603.981 Y290.769
G01 X501.555 Y230.634
G01 X441.028 Y128.210
G01 X411.436 Y12.895
G01 X413.460 Y5.000
G01 X710.000 Y5.000
G01 X710.000 Y321.941
G01 X606.450 Y296.834
G01 X503.310 Y234.437
G01 X440.177 Y131.474
G01 X411.300 Y14.179
G01 X413.475 Y5.000
G01 X710.000 Y5.000
G01 X710.000 Y324.206
G01 X600.750 Y299.136
G01 X497.128 Y234.569
G01 X431.895 Y131.260
G01 X404.276 Y12.268
G01 X405.898 Y5.000
G01 X710.000 Y5.000
G01 X710.000 Y326.238
G01 X594.891 Y301.389
G01 X490.942 Y234.730
G01 X423.614 Y131.092
G01 X397.243 Y10.387
G01 X398.372 Y5.000
G01 X710.000 Y5.000
G01 X710.000 Y328.178
G01 X589.045 Y303.673
G01 X484.752 Y234.918
G01 X415.332 Y130.968
G01 X390.200 Y8.538
G01 X390.895 Y5.000
G01 X710.000 Y5.000
G01 X710.000 Y328.989
G01 X707.274 Y329.513
G01 X583.213 Y305.989
G01 X478.559 Y235.134
G01 X407.051 Y130.890
G01 X383.147 Y6.719
G01 X383.463 Y5.000
G01 X710.000 Y5.000
G01 X710.000 Y329.347
G01 X703.130 Y330.583
G01 X577.396 Y308.335
G01 X472.363 Y235.378
G01 X398.771 Y130.857
G01 X376.098 Y5.000
G01 X710.000 Y5.000
G01 X710.000 Y329.824
G01 X698.985 Y331.675
G01 X571.593 Y310.713
G01 X466.164 Y235.651
G01 X390.492 Y130.869
G01 X369.322 Y5.000
G01 X710.000 Y5.000
G01 X710.000 Y330.417
G01 X694.839 Y332.788
G01 X565.805 Y313.121
G01 X459.963 Y235.951
G01 X382.214 Y130.927
G01 X362.491 Y5.000
G01 X710.000 Y5.000
G01 X710.000 Y331.119
G01 X690.694 Y333.923
G01 X560.032 Y315.560
G01 X453.759 Y236.279
G01 X373.938 Y131.030
G01 X355.609 Y5.000
G01 X710.000 Y5.000
G01 X710.000 Y331.928
G01 X686.548 Y335.079
G01 X554.274 Y318.029
G01 X447.552 Y236.636
G01 X365.664 Y131.177
G01 X348.679 Y5.000
G01 X710.000 Y5.000
G01 X710.000 Y332.839
G01 X682.402 Y336.256
G01 X548.531 Y320.529
G01 X441.343 Y237.020
G01 X357.393 Y131.370
G01 X341.703 Y5.000
G01 X710.000 Y5.000
G01 X710.000 Y333.846
G01 X678.256 Y337.456
G01 X542.803 Y323.059
G01 X435.132 Y237.432
G01 X349.124 Y131.608
G01 X334.686 Y5.000
G01 X710.000 Y5.000
G01 X710.000 Y334.948
G01 X674.110 Y338.676
G01 X537.091 Y325.619
G01 X428.919 Y237.872
G01 X340.857 Y131.891
G01 X327.628 Y5.000
G01 X710.000 Y5.000
G01 X710.000 Y336.139
G01 X669.964 Y339.918
G01 X531.394 Y328.209
G01 X422.704 Y238.340
G01 X332.594 Y132.218
G01 X320.533 Y5.000
G01 X710.000 Y5.000
G01 X710.000 Y337.416
G01 X665.819 Y341.182
G01 X525.714 Y330.829
G01 X416.487 Y238.837
G01 X324.334 Y132.591
G01 X313.404 Y5.000
G01 X710.000 Y5.000
G01 X710.000 Y338.775
G01 X661.675 Y342.466
G01 X520.050 Y333.478
G01 X410.269 Y239.361
G01 X316.078 Y133.008
G01 X306.242 Y5.000
G01 X710.000 Y5.000
G01 X710.000 Y340.441
G01 X658.233 Y344.035
G01 X515.602 Y336.600
G01 X405.811 Y240.551
G01 X310.099 Y134.241
G01 X301.761 Y5.000
G01 X710.000 Y5.000
G01 X710.000 Y345.651
G01 X662.508 Y348.509
G01 X518.175 Y342.337
G01 X408.037 Y244.186
G01 X310.228 Y137.564
G01 X302.891 Y5.000
G01 X710.000 Y5.000
G01 X710.000 Y350.796
G01 X666.767 Y353.005
G01 X520.716 Y348.087
G01 X410.247 Y247.838
G01 X310.337 Y140.887
G01 X304.042 Y5.000
G01 X710.000 Y5.000
G01 X710.000 Y355.881
G01 X671.007 Y357.524
G01 X523.224 Y353.851
G01 X412.442 Y251.506
G01 X310.428 Y144.208
G01 X305.215 Y5.000
G01 X710.000 Y5.000
G01 X710.000 Y360.907
G01 X675.231 Y362.066
G01 X525.700 Y359.628
G01 X414.623 Y255.190
G01 X310.500 Y147.529
G01 X306.409 Y5.000
G01 X710.000 Y5.000
G01 X710.000 Y365.876
G01 X679.436 Y366.630
G01 X528.143 Y365.417
G01 X416.788 Y258.890
G01 X310.552 Y150.847
G01 X307.623 Y5.000
G01 X710.000 Y5.000
G01 X710.000 Y370.791
G01 X683.624 Y371.216
G01 X530.553 Y371.219
G01 X418.938 Y262.606
G01 X310.586 Y154.165
G01 X308.858 Y5.000
G01 X710.000 Y5.000
G01 X710.000 Y375.654
G01 X687.794 Y375.824
G01 X532.931 Y377.033
G01 X421.072 Y266.337
G01 X310.601 Y157.481
G01 X310.112 Y5.000
G01 X710.000 Y5.000
G01 X710.000 Y380.466
G01 X691.946 Y380.454
G01 X535.277 Y382.860
G01 X423.192 Y270.084
G01 X310.597 Y160.795
G01 X311.386 Y5.000
G01 X710.000 Y5.000
G01 X710.000 Y385.230
G01 X696.080 Y385.106
G01 X537.589 Y388.698
G01 X425.295 Y273.847
G01 X310.575 Y164.107
G01 X312.679 Y5.000
G01 X710.000 Y5.000
G01 X710.000 Y389.947
G01 X700.195 Y389.780
G01 X539.869 Y394.548
G01 X427.384 Y277.625
G01 X310.534 Y167.417
G01 X313.991 Y5.000
G01 X710.000 Y5.000
G01 X710.000 Y394.619
G01 X704.292 Y394.476
G01 X542.116 Y400.409
G01 X429.457 Y281.419
G01 X310.475 Y170.726
G01 X315.276 Y6.576
G01 X315.219 Y5.000
G01 X710.000 Y5.000
G01 X710.000 Y399.246
G01 X708.371 Y399.193
G01 X544.330 Y406.282
G01 X431.514 Y285.228
G01 X310.397 Y174.032
G01 X316.548 Y8.315
G01 X316.408 Y5.000
G01 X710.000 Y5.000
G01 X710.000 Y404.052
G01 X546.512 Y412.165
G01 X433.555 Y289.052
G01 X310.301 Y177.335
G01 X317.812 Y10.066
G01 X317.564 Y5.000
G01 X710.000 Y5.000
G01 X710.000 Y409.052
G01 X548.660 Y418.059
G01 X435.581 Y292.891
G01 X310.187 Y180.636
G01 X319.065 Y11.830
G01 X318.689 Y5.000
G01 X710.000 Y5.000
G01 X710.000 Y414.121
G01 X550.776 Y423.963
G01 X437.591 Y296.745
G01 X310.054 Y183.935
G01 X320.310 Y13.607
G01 X319.785 Y5.000
G01 X710.000 Y5.000
G01 X710.000 Y418.148
G01 X550.491 Y428.768
G01 X436.559 Y299.244
G01 X306.416 Y185.852
G01 X317.419 Y13.609
G01 X316.811 Y5.000
G01 X710.000 Y5.000
G01 X710.000 Y418.935
G01 X544.998 Y431.153
G01 X430.476 Y299.486
G01 X298.292 Y186.027
G01 X310.393 Y11.850
G01 X309.858 Y5.000
G01 X710.000 Y5.000
G01 X710.000 Y419.683
G01 X539.519 Y433.568
G01 X424.390 Y299.755
G01 X290.169 Y186.246
G01 X303.358 Y10.122
G01 X302.920 Y5.000
G01 X710.000 Y5.000
G01 X710.000 Y420.393
G01 X534.055 Y436.012
G01 X418.301 Y300.051
G01 X282.049 Y186.510
G01 X296.314 Y8.425
G01 X295.996 Y5.000
G01 X710.000 Y5.000
G01 X710.000 Y421.702
G01 X706.496 Y421.401
G01 X528.605 Y438.486
G01 X412.209 Y300.375
G01 X273.931 Y186.818
G01 X289.261 Y6.758
G01 X289.086 Y5.000
G01 X710.000 Y5.000
G01 X710.000 Y423.156
G01 X702.493 Y422.475
G01 X523.171 Y440.988
G01 X406.115 Y300.727
G01 X265.816 Y187.171
G01 X282.200 Y5.122
G01 X282.187 Y5.000
G01 X710.000 Y5.000
G01 X710.000 Y424.668
G01 X698.490 Y423.569
G01 X517.752 Y443.520
G01 X400.019 Y301.105
G01 X257.704 Y187.567
G01 X274.990 Y5.000
G01 X710.000 Y5.000
G01 X710.000 Y426.236
G01 X694.486 Y424.685
G01 X512.349 Y446.080
G01 X393.920 Y301.512
G01 X249.596 Y188.009
G01 X267.750 Y5.000
G01 X710.000 Y5.000
G01 X710.000 Y427.858
G01 X690.482 Y425.821
G01 X506.961 Y448.669
G01 X387.819 Y301.945
G01 X241.491 Y188.494
G01 X260.491 Y5.000
G01 X710.000 Y5.000
G01 X710.000 Y429.531
G01 X686.478 Y426.978
G01 X501.589 Y451.286
G01 X381.717 Y302.407
G01 X233.390 Y189.024
G01 X253.215 Y5.000
G01 X710.000 Y5.000
G01 X710.000 Y431.255
G01 X682.473 Y428.155
G01 X496.233 Y453.931
G01 X375.613 Y302.895
G01 X225.294 Y189.597
G01 X245.924 Y5.000
G01 X710.000 Y5.000
G01 X710.000 Y433.026
G01 X678.469 Y429.353
G01 X490.894 Y456.605
G01 X369.507 Y303.411
G01 X217.202 Y190.215
G01 X238.618 Y5.000
G01 X710.000 Y5.000
G01 X710.000 Y434.844
G01 X674.465 Y430.572
G01 X485.570 Y459.307
G01 X363.399 Y303.955
G01 X209.115 Y190.877
G01 X231.299 Y5.000
G01 X710.000 Y5.000
G01 X710.000 Y436.707
G01 X670.461 Y431.812
G01 X480.263 Y462.037
G01 X357.291 Y304.525
G01 X201.033 Y191.583
G01 X223.968 Y5.000
G01 X710.000 Y5.000
G01 X710.000 Y438.613
G01 X666.458 Y433.072
G01 X474.973 Y464.794
G01 X351.181 Y305.124
G01 X192.956 Y192.333
G01 X216.626 Y5.000
G01 X710.000 Y5.000
G01 X710.000 Y440.560
G01 X662.455 Y434.353
G01 X469.699 Y467.579
G01 X345.071 Y305.749
G01 X184.885 Y193.126
G01 X209.274 Y5.000
G01 X710.000 Y5.000
G01 X710.000 Y443.431
G01 X661.845 Y436.976
G01 X468.014 Y471.727
G01 X343.420 Y307.961
G01 X181.664 Y195.243
G01 X207.766 Y5.000
G01 X710.000 Y5.000
G01 X710.000 Y447.630
G01 X665.973 Y441.468
G01 X470.191 Y477.343
G01 X345.533 Y311.510
G01 X181.603 Y198.204
G01 X209.249 Y5.000
G01 X710.000 Y5.000
G01 X710.000 Y451.804
G01 X670.084 Y445.983
G01 X472.336 Y482.970
G01 X347.631 Y315.074
G01 X181.524 Y201.164
G01 X210.743 Y5.000
G01 X710.000 Y5.000
G01 X710.000 Y455.952
G01 X674.178 Y450.519
G01 X474.449 Y488.609
G01 X349.714 Y318.654
G01 X181.429 Y204.122
G01 X212.249 Y5.000
G01 X710.000 Y5.000
G01 X710.000 Y460.077
G01 X678.253 Y455.077
G01 X476.530 Y494.258
G01 X351.783 Y322.249
G01 X181.316 Y207.077
G01 X213.767 Y5.000
G01 X710.000 Y5.000
G01 X710.000 Y464.177
G01 X682.311 Y459.656
G01 X478.580 Y499.918
G01 X353.837 Y325.860
G01 X181.187 Y210.030
G01 X215.296 Y5.000
G01 X710.000 Y5.000
G01 X710.000 Y468.255
G01 X686.352 Y464.257
G01 X480.597 Y505.588
G01 X355.877 Y329.486
G01 X181.040 Y212.981
G01 X216.837 Y5.000
G01 X710.000 Y5.000
G01 X710.000 Y472.310
G01 X690.374 Y468.879
G01 X482.583 Y511.269
G01 X357.901 Y333.127
G01 X180.877 Y215.929
G01 X218.389 Y5.000
G01 X710.000 Y5.000
G01 X710.000 Y476.343
G01 X694.378 Y473.523
G01 X484.537 Y516.960
G01 X359.911 Y336.783
G01 X180.697 Y218.875
G01 X219.954 Y5.000
G01 X710.000 Y5.000
G01 X710.000 Y480.354
G01 X698.364 Y478.187
G01 X486.459 Y522.660
G01 X361.906 Y340.454
G01 X180.500 Y221.818
G01 X221.530 Y5.000
G01 X710.000 Y5.000
G01 X710.000 Y484.344
G01 X702.331 Y482.873
G01 X488.348 Y528.371
G01 X363.886 Y344.141
G01 X180.287 Y224.758
G01 X222.892 Y6.158
G01 X222.648 Y5.000
G01 X710.000 Y5.000
G01 X710.000 Y488.314
G01 X706.281 Y487.579
G01 X490.206 Y534.090
G01 X365.851 Y347.841
G01 X180.057 Y227.694
G01 X224.167 Y7.746
G01 X223.580 Y5.000
G01 X710.000 Y5.000
G01 X710.000 Y492.352
G01 X492.032 Y539.818
G01 X367.800 Y351.557
G01 X179.811 Y230.628
G01 X225.434 Y9.346
G01 X224.493 Y5.000
G01 X710.000 Y5.000
G01 X710.000 Y497.962
G01 X493.825 Y545.556
G01 X369.735 Y355.287
G01 X179.548 Y233.559
G01 X226.692 Y10.960
G01 X225.387 Y5.000
G01 X710.000 Y5.000
G01 X710.000 Y503.605
G01 X495.587 Y551.302
G01 X371.654 Y359.032
G01 X179.269 Y236.486
G01 X227.941 Y12.586
G01 X226.263 Y5.000
G01 X710.000 Y5.000
G01 X710.000 Y509.282
G01 X497.316 Y557.056
G01 X373.558 Y362.791
G01 X178.974 Y239.410
G01 X229.182 Y14.226
G01 X227.122 Y5.000
G01 X710.000 Y5.000
G01 X710.000 Y511.742
G01 X494.610 Y560.727
G01 X369.874 Y364.122
G01 X172.761 Y240.483
G01 X223.538 Y13.138
G01 X221.661 Y5.000
G01 X710.000 Y5.000
G01 X710.000 Y511.902
G01 X489.497 Y563.275
G01 X363.891 Y364.472
G01 X164.794 Y241.047
G01 X216.510 Y11.531
G01 X214.968 Y5.000
G01 X710.000 Y5.000
G01 X710.000 Y512.039
G01 X484.399 Y565.851
G01 X357.905 Y364.849
G01 X156.832 Y241.654
G01 X209.474 Y9.955
G01 X208.276 Y5.000
G01 X710.000 Y5.000
G01 X710.000 Y512.308
G01 X709.673 Y512.233
G01 X479.317 Y568.454
G01 X351.917 Y365.253
G01 X148.874 Y242.304
G01 X202.429 Y8.409
G01 X201.586 Y5.000
G01 X710.000 Y5.000
G01 X710.000 Y514.260
G01 X705.812 Y513.289
G01 X474.251 Y571.084
G01 X345.928 Y365.685
G01 X140.920 Y242.998
G01 X195.377 Y6.895
G01 X194.898 Y5.000
G01 X710.000 Y5.000
G01 X710.000 Y516.244
G01 X701.951 Y514.366
G01 X469.200 Y573.741
G01 X339.936 Y366.143
G01 X132.972 Y243.735
G01 X188.317 Y5.411
G01 X188.211 Y5.000
G01 X710.000 Y5.000
G01 X710.000 Y518.259
G01 X698.089 Y515.463
G01 X464.166 Y576.425
G01 X333.942 Y366.628
G01 X125.028 Y244.516
G01 X181.006 Y5.000
G01 X710.000 Y5.000
G01 X710.000 Y520.305
G01 X694.227 Y516.580
G01 X459.148 Y579.136
G01 X327.947 Y367.140
G01 X117.090 Y245.341
G01 X173.595 Y5.000
G01 X710.000 Y5.000
G01 X710.000 Y522.380
G01 X690.365 Y517.717
G01 X454.146 Y581.873
G01 X321.950 Y367.678
G01 X109.158 Y246.208
G01 X166.180 Y5.000
G01 X710.000 Y5.000
G01 X710.000 Y524.482
G01 X686.502 Y518.874
G01 X449.161 Y584.637
G01 X315.952 Y368.244
G01 X101.232 Y247.119
G01 X158.763 Y5.000
G01 X710.000 Y5.000
G01 X710.000 Y526.612
G01 X682.640 Y520.051
G01 X444.193 Y587.427
G01 X309.953 Y368.837
G01 X93.312 Y248.073
G01 X151.344 Y5.000
G01 X710.000 Y5.000
G01 X710.000 Y528.768
G01 X678.777 Y521.248
G01 X439.241 Y590.243
G01 X303.952 Y369.456
G01 X85.398 Y249.070
G01 X143.923 Y5.000
G01 X710.000 Y5.000
G01 X710.000 Y530.949
G01 X674.915 Y522.465
G01 X434.307 Y593.085
G01 X297.951 Y370.102
G01 X77.492 Y250.111
G01 X136.501 Y5.000
G01 X710.000 Y5.000
G01 X710.000 Y533.154
G01 X671.052 Y523.702
G01 X429.390 Y595.953
G01 X291.949 Y370.776
G01 X69.593 Y251.194
G01 X129.079 Y5.000
G01 X710.000 Y5.000
G01 X710.000 Y535.382
G01 X667.191 Y524.959
G01 X424.490 Y598.847
G01 X285.947 Y371.475
G01 X61.701 Y252.320
G01 X121.658 Y5.000
G01 X710.000 Y5.000
G01 X710.000 Y537.633
G01 X663.329 Y526.235
G01 X419.608 Y601.766
G01 X279.944 Y372.202
G01 X53.816 Y253.489
G01 X183.618 Y14.500
G01 X178.545 Y5.000
G01 X710.000 Y5.000
G01 X710.000 Y540.973
G01 X665.361 Y529.927
G01 X420.165 Y606.772
G01 X280.955 Y375.311
G01 X53.104 Y256.003
G01 X115.828 Y5.000
G01 X710.000 Y5.000
G01 X710.000 Y544.695
G01 X669.342 Y534.437
G01 X421.945 Y612.266
G01 X282.955 Y378.773
G01 X52.854 Y258.603
G01 X117.453 Y5.000
G01 X710.000 Y5.000
G01 X710.000 Y548.404
G01 X673.306 Y538.969
G01 X423.695 Y617.768
G01 X284.941 Y382.249
G01 X52.589 Y261.199
G01 X119.087 Y5.000
G01 X710.000 Y5.000
G01 X710.000 Y552.100
G01 X677.252 Y543.522
G01 X425.414 Y623.280
G01 X286.913 Y385.741
G01 X52.308 Y263.792
G01 X120.729 Y5.000
G01 X710.000 Y5.000
G01 X710.000 Y555.784
G01 X681.180 Y548.096
G01 X427.102 Y628.801
G01 X288.871 Y389.247
G01 X52.013 Y266.382
G01 X122.381 Y5.000
G01 X710.000 Y5.000
G01 X710.000 Y559.456
G01 X685.090 Y552.690
G01 X428.758 Y634.330
G01 X290.815 Y392.768
G01 X51.702 Y268.969
G01 X124.043 Y5.000
G01 X710.000 Y5.000
G01 X710.000 Y563.115
G01 X688.983 Y557.305
G01 X430.383 Y639.868
G01 X292.744 Y396.304
G01 X51.377 Y271.553
G01 X125.713 Y5.000
G01 X710.000 Y5.000
G01 X710.000 Y566.763
G01 X692.857 Y561.941
G01 X431.977 Y645.414
G01 X294.659 Y399.855
G01 X51.037 Y274.133
G01 X127.394 Y5.000
G01 X710.000 Y5.000
G01 X710.000 Y570.399
G01 X696.713 Y566.597
G01 X433.540 Y650.967
G01 X296.560 Y403.419
G01 X50.682 Y276.709
G01 X129.084 Y5.000
G01 X710.000 Y5.000
G01 X710.000 Y574.023
G01 X700.551 Y571.273
G01 X435.071 Y656.529
G01 X298.446 Y406.999
G01 X50.312 Y279.282
G01 X130.510 Y5.934
G01 X130.211 Y5.000
G01 X710.000 Y5.000
G01 X710.000 Y577.635
G01 X704.371 Y575.970
G01 X436.572 Y662.098
G01 X300.317 Y410.592
G01 X49.927 Y281.851
G01 X131.786 Y7.371
G01 X131.027 Y5.000
G01 X710.000 Y5.000
G01 X710.000 Y581.236
G01 X708.172 Y580.687
G01 X438.041 Y667.674
G01 X302.174 Y414.200
G01 X49.528 Y284.416
G01 X133.055 Y8.822
G01 X131.830 Y5.000
G01 X710.000 Y5.000
G01 X710.000 Y586.053
G01 X439.478 Y673.257
G01 X304.017 Y417.822
G01 X49.115 Y286.977
G01 X134.317 Y10.285
G01 X132.621 Y5.000
G01 X710.000 Y5.000
G01 X710.000 Y592.025
G01 X440.885 Y678.847
G01 X305.845 Y421.458
G01 X48.687 Y289.533
G01 X135.570 Y11.761
G01 X133.399 Y5.000
G01 X710.000 Y5.000
G01 X710.000 Y598.011
G01 X442.260 Y684.444
G01 X307.658 Y425.108
G01 X48.244 Y292.086
G01 X136.816 Y13.250
G01 X134.165 Y5.000
G01 X710.000 Y5.000
G01 X710.000 Y604.012
G01 X443.603 Y690.047
G01 X309.136 Y428.636
G01 X47.022 Y294.461
G01 X136.678 Y14.249
G01 X133.680 Y5.000
G01 X710.000 Y5.000
G01 X710.000 Y604.348
G01 X438.981 Y692.792
G01 X303.256 Y429.068
G01 X39.209 Y295.369
G01 X129.656 Y12.764
G01 X127.102 Y5.000
G01 X710.000 Y5.000
G01 X710.000 Y604.168
G01 X434.249 Y695.502
G01 X297.373 Y429.527
G01 X31.403 Y296.320
G01 X122.627 Y11.310
G01 X120.520 Y5.000
G01 X710.000 Y5.000
G01 X710.000 Y603.971
G01 X429.533 Y698.237
G01 X291.488 Y430.013
G01 X23.602 Y297.314
G01 X115.590 Y9.886
G01 X113.934 Y5.000
G01 X710.000 Y5.000
G01 X710.000 Y604.457
G01 X708.941 Y604.117
G01 X424.833 Y700.997
G01 X285.602 Y430.524
G01 X15.808 Y298.351
G01 X108.545 Y8.492
G01 X107.345 Y5.000
G01 X710.000 Y5.000
G01 X710.000 Y606.711
G01 X705.223 Y605.178
G01 X420.150 Y703.783
G01 X279.714 Y431.062
G01 X8.020 Y299.430
G01 X101.494 Y7.130
G01 X100.751 Y5.000
G01 X710.000 Y5.000
G01 X710.000 Y608.982
G01 X701.503 Y606.257
G01 X415.484 Y706.593
G01 X273.825 Y431.627
G01 X5.000 Y302.833
G01 X5.000 Y285.654
G01 X94.436 Y5.798
G01 X94.153 Y5.000
G01 X710.000 Y5.000
G01 X710.000 Y611.271
G01 X697.783 Y607.356
G01 X410.835 Y709.428
G01 X267.934 Y432.217
G01 X5.000 Y307.654
G01 X5.000 Y262.461
G01 X87.210 Y5.000
G01 X710.000 Y5.000
G01 X710.000 Y613.576
G01 X694.063 Y608.474
G01 X406.202 Y712.288
G01 X262.043 Y432.835
G01 X5.000 Y312.432
G01 X5.000 Y239.281
G01 X79.733 Y5.000
G01 X710.000 Y5.000
G01 X710.000 Y615.898
G01 X690.342 Y609.611
G01 X401.587 Y715.173
G01 X256.150 Y433.478
G01 X5.000 Y317.167
G01 X5.000 Y216.105
G01 X72.261 Y5.000
G01 X710.000 Y5.000
G01 X710.000 Y618.234
G01 X686.621 Y610.768
G01 X396.989 Y718.082
G01 X250.257 Y434.148
G01 X5.000 Y321.859
G01 X5.000 Y192.920
G01 X64.793 Y5.000
G01 X710.000 Y5.000
G01 X710.000 Y620.585
G01 X682.900 Y611.944
G01 X392.409 Y721.015
G01 X244.363 Y434.844
G01 X5.000 Y326.509
G01 X5.000 Y169.715
G01 X57.331 Y5.000
G01 X710.000 Y5.000
G01 X710.000 Y622.951
G01 X679.179 Y613.139
G01 X387.847 Y723.972
G01 X238.468 Y435.567
G01 X5.000 Y331.118
G01 X5.000 Y146.479
G01 X49.874 Y5.000
G01 X710.000 Y5.000
G01 X710.000 Y625.329
G01 X675.458 Y614.354
G01 X383.302 Y726.953
G01 X232.574 Y436.315
G01 X5.000 Y335.685
G01 X5.000 Y123.203
G01 X42.423 Y5.000
G01 X710.000 Y5.000
G01 X710.000 Y627.721
G01 X671.738 Y615.587
G01 X378.775 Y729.958
G01 X226.679 Y437.090
G01 X5.000 Y340.212
G01 X5.000 Y99.875
G01 X34.978 Y5.000
G01 X710.000 Y5.000
G01 X710.000 Y630.125
G01 X668.018 Y616.840
G01 X374.266 Y732.986
G01 X220.784 Y437.892
G01 X5.000 Y344.699
G01 X5.000 Y76.485
G01 X27.539 Y5.000
G01 X710.000 Y5.000
G01 X710.000 Y632.608
G01 X664.930 Y618.380
G01 X370.639 Y736.373
G01 X216.515 Y439.243
G01 X5.000 Y348.624
G01 X5.000 Y62.031
G01 X23.123 Y5.000
G01 X710.000 Y5.000
G01 X710.000 Y636.082
G01 X668.781 Y622.887
G01 X372.055 Y741.735
G01 X218.416 Y442.602
G01 X5.000 Y351.080
G01 X5.000 Y66.428
G01 X24.792 Y5.000
G01 X710.000 Y5.000
G01 X710.000 Y639.550
G01 X672.614 Y627.416
G01 X373.440 Y747.105
G01 X220.304 Y445.976
G01 X5.000 Y353.542
G01 X5.000 Y70.729
G01 X26.470 Y5.000
G01 X710.000 Y5.000
G01 X710.000 Y643.009
G01 X676.431 Y631.964
G01 X374.795 Y752.481
G01 X222.179 Y449.364
G01 X5.000 Y356.011
G01 X5.000 Y74.936
G01 X28.156 Y5.000
G01 X710.000 Y5.000
G01 X710.000 Y646.461
G01 X680.229 Y636.533
G01 X376.120 Y757.865
G01 X224.040 Y452.767
G01 X5.000 Y358.486
G01 X5.000 Y79.055
G01 X29.850 Y5.000
G01 X710.000 Y5.000
G01 X710.000 Y649.905
G01 X684.010 Y641.122
G01 X377.414 Y763.256
G01 X225.887 Y456.184
G01 X5.000 Y360.968
G01 X5.000 Y83.089
G01 X31.553 Y5.000
G01 X710.000 Y5.000
G01 X710.000 Y653.342
G01 X687.772 Y645.731
G01 X378.678 Y768.653
G01 X227.720 Y459.615
G01 X5.000 Y363.456
G01 X5.000 Y87.041
G01 X33.265 Y5.000
G01 X710.000 Y5.000
G01 X710.000 Y656.772
G01 X691.517 Y650.360
G01 X379.911 Y774.056
G01 X229.540 Y463.060
G01 X5.000 Y365.950
G01 X5.000 Y90.914
G01 X34.985 Y5.000
G01 X710.000 Y5.000
G01 X710.000 Y660.194
G01 X695.244 Y655.009
G01 X381.114 Y779.466
G01 X231.345 Y466.520
G01 X5.000 Y368.450
G01 X5.000 Y94.711
G01 X36.715 Y5.000
G01 X710.000 Y5.000
G01 X710.000 Y663.609
G01 X698.952 Y659.677
G01 X382.286 Y784.881
G01 X233.137 Y469.993
G01 X5.000 Y370.956
G01 X5.000 Y98.435
G01 X38.130 Y5.904
G01 X37.774 Y5.000
G01 X710.000 Y5.000
G01 X710.000 Y667.017
G01 X702.642 Y664.365
G01 X383.428 Y790.303
G01 X234.915 Y473.480
G01 X5.000 Y373.469
G01 X5.000 Y102.090
G01 X39.407 Y7.192
G01 X38.546 Y5.000
G01 X710.000 Y5.000
G01 X710.000 Y670.417
G01 X706.314 Y669.072
G01 X384.539 Y795.729
G01 X236.679 Y476.981
G01 X5.000 Y375.987
G01 X5.000 Y105.676
G01 X40.677 Y8.492
G01 X39.309 Y5.000
G01 X710.000 Y5.000
G01 X710.000 Y673.811
G01 X709.967 Y673.798
G01 X385.620 Y801.161
G01 X238.429 Y480.495
G01 X5.000 Y378.510
G01 X5.000 Y109.198
G01 X41.941 Y9.805
G01 X40.062 Y5.000
G01 X710.000 Y5.000
G01 X710.000 Y679.955
G01 X386.670 Y806.597
G01 X240.164 Y484.023
G01 X5.000 Y381.040
G01 X5.000 Y112.657
G01 X43.197 Y11.130
G01 X40.806 Y5.000
G01 X710.000 Y5.000
G01 X710.000 Y686.128
G01 X387.689 Y812.039
G01 X241.886 Y487.564
G01 X5.000 Y383.575
G01 X5.000 Y116.056
G01 X44.447 Y12.469
G01 X41.541 Y5.000
G01 X710.000 Y5.000
G01 X710.000 Y692.306
G01 X388.679 Y817.485
G01 X243.593 Y491.119
G01 X5.000 Y386.115
G01 X5.000 Y119.396
G01 X45.689 Y13.820
G01 X42.267 Y5.000
G01 X710.000 Y5.000
G01 X710.000 Y696.841
G01 X387.972 Y822.116
G01 X242.485 Y493.544
G01 X5.000 Y389.382
G01 X5.000 Y111.806
G01 X42.798 Y13.822
G01 X39.345 Y5.000
G01 X710.000 Y5.000
G01 X710.000 Y696.481
G01 X383.604 Y824.962
G01 X236.705 Y494.085
G01 X5.000 Y393.562
G01 X5.000 Y92.501
G01 X35.775 Y12.489
G01 X32.808 Y5.000
G01 X710.000 Y5.000
G01 X710.000 Y696.106
G01 X379.253 Y827.832
G01 X230.923 Y494.652
G01 X5.000 Y397.710
G01 X5.000 Y73.108
G01 X28.744 Y11.186
G01 X26.265 Y5.000
G01 X710.000 Y5.000
G01 X710.000 Y695.716
G01 X374.920 Y830.725
G01 X225.139 Y495.245
G01 X5.000 Y401.826
G01 X5.000 Y53.622
G01 X21.707 Y9.914
G01 X19.714 Y5.000
G01 X710.000 Y5.000
G01 X710.000 Y696.650
G01 X708.305 Y696.002
G01 X370.603 Y833.641
G01 X219.355 Y495.863
G01 X5.000 Y405.909
G01 X5.000 Y34.036
G01 X14.663 Y8.673
G01 X13.157 Y5.000
G01 X710.000 Y5.000
G01 X710.000 Y699.074
G01 X704.728 Y697.065
G01 X366.304 Y836.581
G01 X213.569 Y496.508
G01 X5.000 Y409.962
G01 X5.000 Y14.344
G01 X7.613 Y7.463
G01 X6.591 Y5.000
G01 X710.000 Y5.000
G01 X710.000 Y701.507
G01 X701.150 Y698.147
G01 X362.022 Y839.543
G01 X207.783 Y497.178
G01 X5.000 Y413.983
G01 X5.000 Y5.000
G01 X710.000 Y5.000
G01 X710.000 Y703.949
G01 X697.571 Y699.247
G01 X357.758 Y842.528
G01 X201.996 Y497.875
G01 X5.000 Y417.972
G01 X5.000 Y5.000
G01 X710.000 Y5.000
G01 X710.000 Y706.399
G01 X693.993 Y700.366
G01 X353.512 Y845.536
G01 X196.208 Y498.597
G01 X5.000 Y421.931
G01 X5.000 Y5.000
G01 X710.000 Y5.000
G01 X710.000 Y708.857
G01 X690.414 Y701.503
G01 X349.284 Y848.566
G01 X190.420 Y499.345
G01 X5.000 Y425.859
G01 X5.000 Y5.000
G01 X710.000 Y5.000
G01 X710.000 Y711.323
G01 X686.834 Y702.659
G01 X345.074 Y851.619
G01 X184.632 Y500.118
G01 X5.000 Y429.757
G01 X5.000 Y5.000
G01 X710.000 Y5.000
G01 X710.000 Y713.796
G01 X683.255 Y703.834
G01 X340.883 Y854.694
G01 X178.844 Y500.918
G01 X5.000 Y433.625
G01 X5.000 Y5.000
G01 X710.000 Y5.000
G01 X710.000 Y716.276
G01 X679.676 Y705.027
G01 X336.710 Y857.791
G01 X173.056 Y501.743
G01 X5.000 Y437.462
G01 X5.000 Y5.000
G01 X710.000 Y5.000
G01 X710.000 Y718.763
G01 X676.097 Y706.238
G01 X332.555 Y860.909
G01 X167.268 Y502.594
G01 X5.000 Y441.270
G01 X5.000 Y5.000
G01 X710.000 Y5.000
G01 X710.000 Y721.256
G01 X672.518 Y707.468
G01 X328.419 Y864.050
G01 X161.480 Y503.470
G01 X5.000 Y445.049
G01 X5.000 Y5.000
G01 X710.000 Y5.000
G01 X710.000 Y723.754
G01 X668.939 Y708.716
G01 X324.302 Y867.212
G01 X155.693 Y504.372
G01 X5.000 Y448.798
G01 X5.000 Y5.000
G01 X710.000 Y5.000
G01 X710.000 Y726.583
G01 X668.400 Y711.332
G01 X322.664 Y871.376
G01 X154.015 Y506.561
G01 X5.000 Y451.736
G01 X5.000 Y5.000
G01 X710.000 Y5.000
G01 X710.000 Y729.914
G01 X672.104 Y715.858
G01 X323.685 Y876.615
G01 X155.805 Y509.833
G01 X5.000 Y454.136
G01 X5.000 Y5.000
G01 X710.000 Y5.000
G01 X710.000 Y733.239
G01 X675.791 Y720.403
G01 X324.675 Y881.859
G01 X157.581 Y513.119
G01 X5.000 Y456.544
G01 X5.000 Y5.000
G01 X710.000 Y5.000
G01 X710.000 Y736.559
G01 X679.459 Y724.968
G01 X325.636 Y887.109
G01 X159.344 Y516.419
G01 X5.000 Y458.960
G01 X5.000 Y5.000
G01 X710.000 Y5.000
G01 X710.000 Y739.875
G01 X683.110 Y729.553
G01 X326.567 Y892.363
G01 X161.094 Y519.732
G01 X5.000 Y461.385
G01 X5.000 Y5.000
G01 X710.000 Y5.000
G01 X710.000 Y743.185
G01 X686.743 Y734.156
G01 X327.469 Y897.622
G01 X162.830 Y523.059
G01 X5.000 Y463.817
G01 X5.000 Y5.000
G01 X710.000 Y5.000
G01 X710.000 Y746.490
G01 X690.358 Y738.779
G01 X328.340 Y902.886
G01 X164.554 Y526.400
G01 X5.000 Y466.258
G01 X5.000 Y5.000
G01 X710.000 Y5.000
G01 X710.000 Y749.790
G01 X693.955 Y743.421
G01 X329.182 Y908.154
G01 X166.264 Y529.754
G01 X5.000 Y468.706
G01 X5.000 Y5.000
G01 X710.000 Y5.000
G01 X710.000 Y753.086
G01 X697.534 Y748.083
G01 X329.994 Y913.426
G01 X167.961 Y533.122
G01 X5.000 Y471.163
G01 X5.000 Y5.000
G01 X710.000 Y5.000
G01 X710.000 Y756.376
G01 X701.095 Y752.762
G01 X330.776 Y918.702
G01 X169.644 Y536.503
G01 X5.000 Y473.627
G01 X5.000 Y5.000
G01 X710.000 Y5.000
G01 X710.000 Y759.661
G01 X704.637 Y757.461
G01 X331.528 Y923.981
G01 X171.314 Y539.898
G01 X5.000 Y476.099
G01 X5.000 Y5.000
G01 X710.000 Y5.000
G01 X710.000 Y762.941
G01 X708.161 Y762.178
G01 X332.251 Y929.264
G01 X172.970 Y543.305
G01 X5.000 Y478.578
G01 X5.000 Y5.000
G01 X710.000 Y5.000
G01 X710.000 Y767.652
G01 X332.944 Y934.549
G01 X174.613 Y546.726
G01 X5.000 Y481.065
G01 X5.000 Y5.000
G01 X710.000 Y5.000
G01 X710.000 Y773.939
G01 X333.607 Y939.838
G01 X176.242 Y550.159
G01 X5.000 Y483.559
G01 X5.000 Y5.000
G01 X710.000 Y5.000
G01 X710.000 Y780.224
G01 X334.240 Y945.130
G01 X177.857 Y553.606
G01 X5.000 Y486.060
G01 X5.000 Y5.000
G01 X710.000 Y5.000
G01 X710.000 Y786.505
G01 X334.844 Y950.424
G01 X179.459 Y557.065
G01 X5.000 Y488.569
G01 X5.000 Y5.000
G01 X710.000 Y5.000
G01 X710.000 Y788.841
G01 X332.467 Y954.230
G01 X175.901 Y558.521
G01 X5.000 Y491.926
G01 X5.000 Y5.000
G01 X710.000 Y5.000
G01 X710.000 Y788.368
G01 X328.480 Y957.237
G01 X170.221 Y559.170
G01 X5.000 Y495.512
G01 X5.000 Y5.000
G01 X710.000 Y5.000
G01 X710.000 Y787.881
G01 X324.511 Y960.265
G01 X164.540 Y559.845
G01 X5.000 Y499.072
G01 X5.000 Y5.000
G01 X710.000 Y5.000
G01 X710.000 Y787.381
G01 X320.560 Y963.315
G01 X158.858 Y560.545
G01 X5.000 Y502.607
G01 X5.000 Y5.000
G01 X710.000 Y5.000
G01 X710.000 Y788.840
G01 X707.763 Y787.887
G01 X316.627 Y966.386
G01 X153.176 Y561.271
G01 X5.000 Y506.116
G01 X5.000 Y5.000
G01 X710.000 Y5.000
G01 X710.000 Y791.357
G01 X704.327 Y788.953
G01 X312.712 Y969.478
G01 X147.493 Y562.021
G01 X5.000 Y509.600
G01 X5.000 Y5.000
G01 X710.000 Y5.000
G01 X710.000 Y793.878
G01 X700.891 Y790.036
G01 X308.816 Y972.591
G01 X141.810 Y562.798
G01 X5.000 Y513.059
G01 X5.000 Y5.000
G01 X710.000 Y5.000
G01 X710.000 Y796.402
G01 X697.454 Y791.137
G01 X304.938 Y975.725
G01 X136.127 Y563.599
G01 X5.000 Y516.492
G01 X5.000 Y5.000
G01 X710.000 Y5.000
G01 X710.000 Y798.929
G01 X694.017 Y792.256
G01 X301.078 Y978.879
G01 X130.443 Y564.425
G01 X5.000 Y519.901
G01 X5.000 Y5.000
G01 X710.000 Y5.000
G01 X710.000 Y801.460
G01 X690.580 Y793.393
G01 X297.238 Y982.054
G01 X124.760 Y565.277
G01 X5.000 Y523.284
G01 X5.000 Y5.000
G01 X710.000 Y5.000
G01 X710.000 Y803.993
G01 X687.142 Y794.548
G01 X293.416 Y985.249
G01 X119.078 Y566.154
G01 X5.000 Y526.643
G01 X5.000 Y5.000
G01 X710.000 Y5.000
G01 X710.000 Y806.529
G01 X683.705 Y795.720
G01 X289.614 Y988.464
G01 X113.396 Y567.057
G01 X5.000 Y529.978
G01 X5.000 Y5.000
G01 X710.000 Y5.000
G01 X710.000 Y809.067
G01 X680.267 Y796.910
G01 X285.830 Y991.699
G01 X107.714 Y567.984
G01 X5.000 Y533.288
G01 X5.000 Y5.000
G01 X710.000 Y5.000
G01 X710.000 Y811.607
G01 X676.829 Y798.118
G01 X282.066 Y994.954
G01 X102.033 Y568.937
G01 X5.000 Y536.573
G01 X5.000 Y5.000
G01 X710.000 Y5.000
G01 X710.000 Y814.149
G01 X673.392 Y799.343
G01 X278.321 Y998.229
G01 X96.353 Y569.914
G01 X5.000 Y539.834
G01 X5.000 Y5.000
G01 X710.000 Y5.000
G01 X710.000 Y816.692
G01 X669.955 Y800.586
G01 X274.596 Y1001.523
G01 X90.674 Y570.917
G01 X5.000 Y543.071
G01 X5.000 Y5.000
G01 X710.000 Y5.000
G01 X710.000 Y819.751
G01 X671.775 Y804.294
G01 X274.429 Y1006.296
G01 X91.442 Y573.819
G01 X5.000 Y545.581
G01 X5.000 Y5.000
G01 X710.000 Y5.000
G01 X710.000 Y823.003
G01 X675.331 Y808.838
G01 X275.055 Y1011.410
G01 X93.120 Y577.004
G01 X5.000 Y548.040
G01 X5.000 Y5.000
G01 X710.000 Y5.000
G01 X710.000 Y826.252
G01 X678.870 Y813.400
G01 X275.651 Y1016.528
G01 X94.784 Y580.201
G01 X5.000 Y550.506
G01 X5.000 Y5.000
G01 X710.000 Y5.000
G01 X710.000 Y829.498
G01 X682.392 Y817.980
G01 X276.218 Y1021.649
G01 X96.436 Y583.412
G01 X5.000 Y552.982
G01 X5.000 Y5.000
G01 X710.000 Y5.000
G01 X710.000 Y832.740
G01 X685.895 Y822.580
G01 X276.756 Y1026.773
G01 X98.076 Y586.636
G01 X5.000 Y555.466
G01 X5.000 Y5.000
G01 X710.000 Y5.000
G01 X710.000 Y835.978
G01 X689.380 Y827.198
G01 X277.265 Y1031.900
G01 X99.702 Y589.873
G01 X5.000 Y557.958
G01 X5.000 Y5.000
G01 X710.000 Y5.000
G01 X710.000 Y839.212
G01 X692.848 Y831.834
G01 X277.744 Y1037.028
G01 X101.316 Y593.123
G01 X5.000 Y560.458
G01 X5.000 Y5.000
G01 X710.000 Y5.000
G01 X710.000 Y842.443
G01 X696.297 Y836.489
G01 X278.195 Y1042.159
G01 X102.917 Y596.386
G01 X5.000 Y562.967
G01 X5.000 Y5.000
G01 X710.000 Y5.000
G01 X710.000 Y845.670
G01 X699.728 Y841.162
G01 X278.617 Y1047.292
G01 X104.505 Y599.662
G01 X5.000 Y565.484
G01 X5.000 Y5.000
G01 X710.000 Y5.000
G01 X710.000 Y848.894
G01 X703.140 Y845.853
G01 X279.009 Y1052.427
G01 X106.080 Y602.950
G01 X5.000 Y568.009
G01 X5.000 Y5.000
G01 X710.000 Y5.000
G01 X710.000 Y852.114
G01 X706.535 Y850.562
G01 X279.373 Y1057.563
G01 X107.642 Y606.252
G01 X5.000 Y570.542
G01 X5.000 Y5.000
G01 X710.000 Y5.000
G01 X710.000 Y855.330
G01 X709.910 Y855.289
G01 X279.708 Y1062.701
G01 X109.192 Y609.566
G01 X5.000 Y573.083
G01 X5.000 Y5.000
G01 X710.000 Y5.000
G01 X710.000 Y861.601
G01 X280.013 Y1067.839
G01 X110.728 Y612.892
G01 X5.000 Y575.632
G01 X5.000 Y5.000
G01 X710.000 Y5.000
G01 X710.000 Y867.948
G01 X280.290 Y1072.979
G01 X112.251 Y616.231
G01 X5.000 Y578.188
G01 X5.000 Y5.000
G01 X710.000 Y5.000
G01 X710.000 Y874.286
G01 X280.538 Y1078.119
G01 X113.760 Y619.582
G01 X5.000 Y580.753
G01 X5.000 Y5.000
G01 X710.000 Y5.000
G01 X710.000 Y880.617
G01 X280.757 Y1083.260
G01 X114.962 Y622.835
G01 X5.000 Y583.393
G01 X5.000 Y5.000
G01 X710.000 Y5.000
G01 X710.000 Y880.659
G01 X277.213 Y1086.448
G01 X109.384 Y623.568
G01 X5.000 Y586.563
G01 X5.000 Y5.000
G01 X710.000 Y5.000
G01 X710.000 Y880.126
G01 X273.608 Y1089.615
G01 X103.804 Y624.325
G01 X5.000 Y589.709
G01 X5.000 Y5.000
G01 X710.000 Y5.000
G01 X710.000 Y879.579
G01 X270.021 Y1092.800
G01 X98.225 Y625.107
G01 X5.000 Y592.834
G01 X5.000 Y5.000
G01 X710.000 Y5.000
G01 X710.000 Y879.019
G01 X266.453 Y1096.006
G01 X92.645 Y625.914
G01 X5.000 Y595.936
G01 X5.000 Y5.000
G01 X710.000 Y5.000
G01 X710.000 Y881.002
G01 X707.315 Y879.772
G01 X262.904 Y1099.230
G01 X87.065 Y626.746
G01 X5.000 Y599.016
G01 X5.000 Y5.000
G01 X710.000 Y5.000
G01 X710.000 Y883.564
G01 X704.021 Y880.839
G01 X259.375 Y1102.473
G01 X81.485 Y627.603
G01 X5.000 Y602.075
G01 X5.000 Y5.000
G01 X710.000 Y5.000
G01 X710.000 Y886.126
G01 X700.726 Y881.924
G01 X255.864 Y1105.736
G01 X75.906 Y628.484
G01 X5.000 Y605.111
G01 X5.000 Y5.000
G01 X710.000 Y5.000
G01 X710.000 Y888.688
G01 X697.431 Y883.025
G01 X252.373 Y1109.017
G01 X70.327 Y629.390
G01 X5.000 Y608.125
G01 X5.000 Y5.000
G01 X710.000 Y5.000
G01 X710.000 Y891.250
G01 X694.136 Y884.144
G01 X248.901 Y1112.316
G01 X64.748 Y630.321
G01 X5.000 Y611.118
G01 X5.000 Y5.000
G01 X710.000 Y5.000
G01 X710.000 Y893.811
G01 X690.840 Y885.280
G01 X245.448 Y1115.634
G01 X59.171 Y631.276
G01 X5.000 Y614.089
G01 X5.000 Y5.000
G01 X710.000 Y5.000
G01 X710.000 Y896.372
G01 X687.544 Y886.432
G01 X242.015 Y1118.970
G01 X53.594 Y632.256
G01 X5.000 Y617.038
G01 X5.000 Y5.000
G01 X710.000 Y5.000
G01 X710.000 Y898.932
G01 X684.248 Y887.602
G01 X238.602 Y1122.325
G01 X48.018 Y633.261
G01 X5.000 Y619.965
G01 X5.000 Y5.000
G01 X710.000 Y5.000
G01 X710.000 Y901.491
G01 X680.952 Y888.789
G01 X235.209 Y1125.697
G01 X42.444 Y634.290
G01 X5.000 Y622.871
G01 X5.000 Y5.000
G01 X710.000 Y5.000
G01 X710.000 Y904.049
G01 X677.657 Y889.993
G01 X231.836 Y1129.087
G01 X36.870 Y635.344
G01 X5.000 Y625.755
G01 X5.000 Y5.000
G01 X710.000 Y5.000
G01 X710.000 Y906.606
G01 X674.361 Y891.213
G01 X228.483 Y1132.494
G01 X31.298 Y636.423
G01 X5.000 Y628.617
G01 X5.000 Y5.000
G01 X710.000 Y5.000
G01 X710.000 Y909.199
G01 X671.626 Y892.725
G01 X225.675 Y1136.145
G01 X27.218 Y637.935
G01 X5.000 Y631.391
G01 X5.000 Y5.000
G01 X710.000 Y5.000
G01 X710.000 Y912.418
G01 X675.053 Y897.266
G01 X225.934 Y1141.133
G01 X28.796 Y641.018
G01 X5.000 Y633.953
G01 X5.000 Y5.000
G01 X710.000 Y5.000
G01 X710.000 Y915.635
G01 X678.462 Y901.826
G01 X226.165 Y1146.122
G01 X30.362 Y644.114
G01 X5.000 Y636.523
G01 X5.000 Y5.000
G01 X710.000 Y5.000
G01 X710.000 Y918.849
G01 X681.854 Y906.405
G01 X226.367 Y1151.112
G01 X31.915 Y647.223
G01 X5.000 Y639.101
G01 X5.000 Y5.000
G01 X710.000 Y5.000
G01 X710.000 Y922.060
G01 X685.227 Y911.001
G01 X226.540 Y1156.103
G01 X33.456 Y650.344
G01 X5.000 Y641.688
G01 X5.000 Y5.000
G01 X710.000 Y5.000
G01 X710.000 Y925.269
G01 X688.583 Y915.615
G01 X226.686 Y1161.095
G01 X34.985 Y653.478
G01 X5.000 Y644.283
G01 X5.000 Y5.000
G01 X710.000 Y5.000
G01 X710.000 Y928.475
G01 X691.921 Y920.247
G01 X226.803 Y1166.087
G01 X36.502 Y656.625
G01 X5.000 Y646.886
G01 X5.000 Y5.000
G01 X710.000 Y5.000
G01 X710.000 Y931.678
G01 X695.241 Y924.896
G01 X226.891 Y1171.080
G01 X38.007 Y659.784
G01 X5.000 Y649.497
G01 X5.000 Y5.000
G01 X710.000 Y5.000
G01 X710.000 Y934.878
G01 X698.542 Y929.563
G01 X226.951 Y1176.072
G01 X39.499 Y662.955
G01 X5.000 Y652.117
G01 X5.000 Y5.000
G01 X710.000 Y5.000
G01 X710.000 Y938.076
G01 X701.825 Y934.247
G01 X226.983 Y1181.065
G01 X40.979 Y666.138
G01 X5.000 Y654.745
G01 X5.000 Y5.000
G01 X710.000 Y5.000
G01 X710.000 Y941.270
G01 X705.090 Y938.949
G01 X226.987 Y1186.057
G01 X42.446 Y669.334
G01 X5.000 Y657.380
G01 X5.000 Y5.000
G01 X710.000 Y5.000
G01 X710.000 Y944.462
G01 X708.336 Y943.668
G01 X226.962 Y1191.049
G01 X43.901 Y672.542
G01 X5.000 Y660.024
G01 X5.000 Y1600.000
G01 X710.000 Y1600.000
G01 X710.000 Y949.203
G01 X226.909 Y1196.040
G01 X45.343 Y675.762
G01 X5.000 Y662.676
G01 X5.000 Y1600.000
G01 X710.000 Y1600.000
G01 X710.000 Y955.581
G01 X226.828 Y1201.030
G01 X46.773 Y678.994
G01 X5.000 Y665.335
G01 X5.000 Y1600.000
G01 X710.000 Y1600.000
G01 X710.000 Y961.948
G01 X226.719 Y1206.019
G01 X48.190 Y682.238
G01 X5.000 Y668.003
G01 X5.000 Y1600.000
G01 X710.000 Y1600.000
G01 X710.000 Y968.303
G01 X226.582 Y1211.007
G01 X49.595 Y685.493
G01 X5.000 Y670.678
G01 X5.000 Y1600.000
G01 X710.000 Y1600.000
G01 X710.000 Y972.921
G01 X225.454 Y1215.464
G01 X48.412 Y687.843
G01 X5.000 Y673.432
G01 X5.000 Y1600.000
G01 X710.000 Y1600.000
G01 X710.000 Y972.376
G01 X222.211 Y1218.771
G01 X42.933 Y688.684
G01 X5.000 Y676.245
G01 X5.000 Y1600.000
G01 X710.000 Y1600.000
G01 X710.000 Y971.818
G01 X218.988 Y1222.096
G01 X37.455 Y689.549
G01 X5.000 Y679.037
G01 X5.000 Y1600.000
G01 X710.000 Y1600.000
G01 X710.000 Y971.247
G01 X215.785 Y1225.437
G01 X31.977 Y690.438
G01 X5.000 Y681.810
G01 X5.000 Y1600.000
G01 X710.000 Y1600.000
G01 X710.000 Y970.663
G01 X212.601 Y1228.797
G01 X26.500 Y691.352
G01 X5.000 Y684.562
G01 X5.000 Y1600.000
G01 X710.000 Y1600.000
G01 X710.000 Y973.124
G01 X706.962 Y971.656
G01 X209.437 Y1232.173
G01 X21.023 Y692.289
G01 X5.000 Y687.294
G01 X5.000 Y1600.000
G01 X710.000 Y1600.000
G01 X710.000 Y975.699
G01 X703.810 Y972.725
G01 X206.292 Y1235.566
G01 X15.547 Y693.251
G01 X5.000 Y690.005
G01 X5.000 Y1600.000
G01 X710.000 Y1600.000
G01 X710.000 Y978.270
G01 X700.657 Y973.810
G01 X203.168 Y1238.977
G01 X10.071 Y694.238
G01 X5.000 Y692.697
G01 X5.000 Y1600.000
G01 X710.000 Y1600.000
G01 X710.000 Y980.840
G01 X697.503 Y974.911
G01 X200.064 Y1242.404
G01 X5.000 Y696.376
G01 X5.000 Y1600.000
G01 X710.000 Y1600.000
G01 X710.000 Y983.406
G01 X694.349 Y976.029
G01 X196.979 Y1245.847
G01 X5.000 Y712.605
G01 X5.000 Y1600.000
G01 X710.000 Y1600.000
G01 X710.000 Y985.970
G01 X691.195 Y977.163
G01 X193.916 Y1249.307
G01 X5.000 Y728.620
G01 X5.000 Y1600.000
G01 X710.000 Y1600.000
G01 X710.000 Y988.532
G01 X688.041 Y978.314
G01 X190.872 Y1252.783
G01 X5.000 Y744.424
G01 X5.000 Y1600.000
G01 X710.000 Y1600.000
G01 X710.000 Y991.090
G01 X684.887 Y979.481
G01 X187.849 Y1256.275
G01 X5.000 Y760.021
G01 X5.000 Y1600.000
G01 X710.000 Y1600.000
G01 X710.000 Y993.645
G01 X681.732 Y980.664
G01 X184.847 Y1259.782
G01 X5.000 Y775.414
G01 X5.000 Y1600.000
G01 X710.000 Y1600.000
G01 X710.000 Y996.198
G01 X678.578 Y981.863
G01 X181.865 Y1263.306
G01 X5.000 Y790.605
G01 X5.000 Y1600.000
G01 X710.000 Y1600.000
G01 X710.000 Y998.747
G01 X675.424 Y983.078
G01 X178.904 Y1266.845
G01 X5.000 Y805.599
G01 X5.000 Y1600.000
G01 X710.000 Y1600.000
G01 X710.000 Y1001.552
G01 X674.956 Y985.689
G01 X177.315 Y1271.024
G01 X5.000 Y812.610
G01 X5.000 Y1600.000
G01 X710.000 Y1600.000
G01 X710.000 Y1004.763
G01 X678.235 Y990.248
G01 X177.179 Y1275.886
G01 X5.000 Y812.835
G01 X5.000 Y1600.000
G01 X710.000 Y1600.000
G01 X710.000 Y1007.972
G01 X681.497 Y994.824
G01 X177.015 Y1280.748
G01 X5.000 Y813.042
G01 X5.000 Y1600.000
G01 X710.000 Y1600.000
G01 X710.000 Y1011.179
G01 X684.741 Y999.418
G01 X176.824 Y1285.609
G01 X5.000 Y813.228
G01 X5.000 Y1600.000
G01 X710.000 Y1600.000
G01 X710.000 Y1014.384
G01 X687.967 Y1004.029
G01 X176.604 Y1290.468
G01 X5.000 Y813.394
G01 X5.000 Y1600.000
G01 X710.000 Y1600.000
G01 X710.000 Y1017.586
G01 X691.175 Y1008.657
G01 X176.357 Y1295.327
G01 X5.000 Y813.538
G01 X5.000 Y1600.000
G01 X710.000 Y1600.000
G01 X710.000 Y1020.787
G01 X694.365 Y1013.302
G01 X176.083 Y1300.184
G01 X5.000 Y813.659
G01 X5.000 Y1600.000
G01 X710.000 Y1600.000
G01 X710.000 Y1023.985
G01 X697.537 Y1017.964
G01 X175.781 Y1305.039
G01 X5.000 Y813.757
G01 X5.000 Y1600.000
G01 X710.000 Y1600.000
G01 X710.000 Y1027.182
G01 X700.690 Y1022.643
G01 X175.451 Y1309.892
G01 X5.000 Y813.830
G01 X5.000 Y1600.000
G01 X710.000 Y1600.000
G01 X710.000 Y1030.376
G01 X703.826 Y1027.338
G01 X175.093 Y1314.743
G01 X5.000 Y813.877
G01 X5.000 Y1600.000
G01 X710.000 Y1600.000
G01 X710.000 Y1033.568
G01 X706.942 Y1032.050
G01 X174.708 Y1319.591
G01 X5.000 Y813.898
G01 X5.000 Y1600.000
G01 X710.000 Y1600.000
G01 X710.000 Y1036.800
G01 X174.296 Y1324.437
G01 X5.000 Y813.891
G01 X5.000 Y1600.000
G01 X710.000 Y1600.000
G01 X710.000 Y1043.187
G01 X173.856 Y1329.281
G01 X5.000 Y813.854
G01 X5.000 Y1600.000
G01 X710.000 Y1600.000
G01 X710.000 Y1049.561
G01 X173.389 Y1334.121
G01 X5.000 Y813.787
G01 X5.000 Y1600.000
G01 X710.000 Y1600.000
G01 X710.000 Y1055.920
G01 X172.894 Y1338.958
G01 X5.000 Y813.689
G01 X5.000 Y1600.000
G01 X710.000 Y1600.000
G01 X710.000 Y1062.265
G01 X172.372 Y1343.791
G01 X5.000 Y813.557
G01 X5.000 Y1600.000
G01 X710.000 Y1600.000
G01 X710.000 Y1064.588
G01 X170.323 Y1347.732
G01 X5.000 Y825.765
G01 X5.000 Y1600.000
G01 X710.000 Y1600.000
G01 X710.000 Y1064.042
G01 X167.462 Y1351.198
G01 X5.000 Y842.882
G01 X5.000 Y1600.000
G01 X710.000 Y1600.000
G01 X710.000 Y1063.484
G01 X164.622 Y1354.679
G01 X5.000 Y859.728
G01 X5.000 Y1600.000
G01 X710.000 Y1600.000
G01 X710.000 Y1062.913
G01 X161.802 Y1358.175
G01 X5.000 Y876.308
G01 X5.000 Y1600.000
G01 X710.000 Y1600.000
G01 X710.000 Y1062.630
G01 X709.714 Y1062.485
G01 X159.002 Y1361.687
G01 X5.000 Y892.628
G01 X5.000 Y1600.000
G01 X710.000 Y1600.000
G01 X710.000 Y1065.198
G01 X706.703 Y1063.539
G01 X156.223 Y1365.215
G01 X5.000 Y908.693
G01 X5.000 Y1600.000
G01 X710.000 Y1600.000
G01 X710.000 Y1067.762
G01 X703.693 Y1064.609
G01 X153.465 Y1368.757
G01 X5.000 Y924.508
G01 X5.000 Y1600.000
G01 X710.000 Y1600.000
G01 X710.000 Y1070.321
G01 X700.681 Y1065.694
G01 X150.727 Y1372.313
G01 X5.000 Y940.079
G01 X5.000 Y1600.000
G01 X710.000 Y1600.000
G01 X710.000 Y1072.877
G01 X697.669 Y1066.795
G01 X148.011 Y1375.885
G01 X5.000 Y955.409
G01 X5.000 Y1600.000
G01 X710.000 Y1600.000
G01 X710.000 Y1075.428
G01 X694.657 Y1067.912
G01 X145.315 Y1379.471
G01 X5.000 Y970.505
G01 X5.000 Y1600.000
G01 X710.000 Y1600.000
G01 X710.000 Y1077.975
G01 X691.645 Y1069.044
G01 X142.640 Y1383.071
G01 X5.000 Y985.371
G01 X5.000 Y1600.000
G01 X710.000 Y1600.000
G01 X710.000 Y1080.518
G01 X688.632 Y1070.192
G01 X139.986 Y1386.685
G01 X5.000 Y1000.011
G01 X5.000 Y1600.000
G01 X710.000 Y1600.000
G01 X710.000 Y1083.056
G01 X685.619 Y1071.355
G01 X137.354 Y1390.313
G01 X5.000 Y1014.430
G01 X5.000 Y1600.000
G01 X710.000 Y1600.000
G01 X710.000 Y1085.590
G01 X682.607 Y1072.533
G01 X134.743 Y1393.955
G01 X5.000 Y1028.633
G01 X5.000 Y1600.000
G01 X710.000 Y1600.000
G01 X710.000 Y1088.119
G01 X679.594 Y1073.727
G01 X132.153 Y1397.611
G01 X5.000 Y1042.623
G01 X5.000 Y1600.000
G01 X710.000 Y1600.000
G01 X710.000 Y1090.644
G01 X676.581 Y1074.937
G01 X129.584 Y1401.280
G01 X5.000 Y1056.405
G01 X5.000 Y1600.000
G01 X710.000 Y1600.000
G01 X710.000 Y1093.674
G01 X678.189 Y1078.662
G01 X128.694 Y1405.819
G01 X5.000 Y1060.266
G01 X5.000 Y1600.000
G01 X710.000 Y1600.000
G01 X710.000 Y1096.896
G01 X681.321 Y1083.238
G01 X128.164 Y1410.555
G01 X5.000 Y1062.598
G01 X5.000 Y1600.000
G01 X710.000 Y1600.000
G01 X710.000 Y1100.117
G01 X684.435 Y1087.830
G01 X127.606 Y1415.288
G01 X5.000 Y1064.956
G01 X5.000 Y1600.000
G01 X710.000 Y1600.000
G01 X710.000 Y1103.336
G01 X687.532 Y1092.439
G01 X127.022 Y1420.019
G01 X5.000 Y1067.340
G01 X5.000 Y1600.000
G01 X710.000 Y1600.000
G01 X710.000 Y1106.554
G01 X690.610 Y1097.064
G01 X126.410 Y1424.746
G01 X5.000 Y1069.751
G01 X5.000 Y1600.000
G01 X710.000 Y1600.000
G01 X710.000 Y1109.770
G01 X693.670 Y1101.706
G01 X125.771 Y1429.469
G01 X5.000 Y1072.189
G01 X5.000 Y1600.000
G01 X710.000 Y1600.000
G01 X710.000 Y1112.984
G01 X696.713 Y1106.364
G01 X125.106 Y1434.189
G01 X5.000 Y1074.656
G01 X5.000 Y1600.000
G01 X710.000 Y1600.000
G01 X710.000 Y1116.197
G01 X699.737 Y1111.038
G01 X124.413 Y1438.905
G01 X5.000 Y1077.153
G01 X5.000 Y1600.000
G01 X710.000 Y1600.000
G01 X710.000 Y1119.409
G01 X702.742 Y1115.728
G01 X123.694 Y1443.617
G01 X5.000 Y1079.679
G01 X5.000 Y1600.000
G01 X710.000 Y1600.000
G01 X710.000 Y1122.619
G01 X705.729 Y1120.433
G01 X122.948 Y1448.325
G01 X5.000 Y1082.236
G01 X5.000 Y1600.000
G01 X710.000 Y1600.000
G01 X710.000 Y1125.827
G01 X708.698 Y1125.155
G01 X122.175 Y1453.029
G01 X5.000 Y1084.825
G01 X5.000 Y1600.000
G01 X710.000 Y1600.000
G01 X710.000 Y1130.807
G01 X121.375 Y1457.728
G01 X5.000 Y1087.447
G01 X5.000 Y1600.000
G01 X710.000 Y1600.000
G01 X710.000 Y1137.172
G01 X120.549 Y1462.422
G01 X5.000 Y1090.102
G01 X5.000 Y1600.000
G01 X710.000 Y1600.000
G01 X710.000 Y1143.520
G01 X119.696 Y1467.111
G01 X5.000 Y1092.793
G01 X5.000 Y1600.000
G01 X710.000 Y1600.000
G01 X710.000 Y1149.852
G01 X118.816 Y1471.794
G01 X5.000 Y1095.519
G01 X5.000 Y1600.000
G01 X710.000 Y1600.000
G01 X710.000 Y1156.168
G01 X117.910 Y1476.473
G01 X5.000 Y1098.751
G01 X5.000 Y1600.000
G01 X710.000 Y1600.000
G01 X710.000 Y1156.218
G01 X115.444 Y1480.104
G01 X5.000 Y1114.391
G01 X5.000 Y1600.000
G01 X710.000 Y1600.000
G01 X710.000 Y1155.690
G01 X112.966 Y1483.727
G01 X5.000 Y1129.786
G01 X5.000 Y1600.000
G01 X710.000 Y1600.000
G01 X710.000 Y1155.150
G01 X110.509 Y1487.364
G01 X5.000 Y1144.906
G01 X5.000 Y1600.000
G01 X710.000 Y1600.000
G01 X710.000 Y1154.598
G01 X108.073 Y1491.014
G01 X5.000 Y1159.758
G01 X5.000 Y1600.000
G01 X710.000 Y1600.000
G01 X710.000 Y1154.676
G01 X709.408 Y1154.366
G01 X105.659 Y1494.677
G01 X5.000 Y1174.347
G01 X5.000 Y1600.000
G01 X710.000 Y1600.000
G01 X710.000 Y1157.218
G01 X706.539 Y1155.421
G01 X103.265 Y1498.354
G01 X5.000 Y1188.681
G01 X5.000 Y1600.000
G01 X710.000 Y1600.000
G01 X710.000 Y1159.755
G01 X703.670 Y1156.492
G01 X100.893 Y1502.043
G01 X5.000 Y1202.766
G01 X5.000 Y1600.000
G01 X710.000 Y1600.000
G01 X710.000 Y1162.286
G01 X700.800 Y1157.577
G01 X98.543 Y1505.745
G01 X5.000 Y1216.608
G01 X5.000 Y1600.000
G01 X710.000 Y1600.000
G01 X710.000 Y1164.812
G01 X697.930 Y1158.677
G01 X96.214 Y1509.460
G01 X5.000 Y1230.212
G01 X5.000 Y1600.000
G01 X710.000 Y1600.000
G01 X710.000 Y1167.333
G01 X695.060 Y1159.791
G01 X93.907 Y1513.187
G01 X5.000 Y1243.585
G01 X5.000 Y1600.000
G01 X710.000 Y1600.000
G01 X710.000 Y1169.849
G01 X692.189 Y1160.921
G01 X91.622 Y1516.926
G01 X5.000 Y1256.732
G01 X5.000 Y1600.000
G01 X710.000 Y1600.000
G01 X710.000 Y1172.359
G01 X689.318 Y1162.065
G01 X89.358 Y1520.677
G01 X5.000 Y1269.658
G01 X5.000 Y1600.000
G01 X710.000 Y1600.000
G01 X710.000 Y1174.864
G01 X686.446 Y1163.224
G01 X87.117 Y1524.441
G01 X5.000 Y1282.369
G01 X5.000 Y1600.000
G01 X710.000 Y1600.000
G01 X710.000 Y1177.363
G01 X683.575 Y1164.398
G01 X84.897 Y1528.215
G01 X5.000 Y1294.869
G01 X5.000 Y1600.000
G01 X710.000 Y1600.000
G01 X710.000 Y1179.857
G01 X680.704 Y1165.587
G01 X82.700 Y1532.002
G01 X5.000 Y1307.164
G01 X5.000 Y1600.000
G01 X710.000 Y1600.000
G01 X710.000 Y1182.392
G01 X678.323 Y1167.070
G01 X80.712 Y1535.918
G01 X5.000 Y1317.851
G01 X5.000 Y1600.000
G01 X710.000 Y1600.000
G01 X710.000 Y1185.641
G01 X681.325 Y1171.645
G01 X79.814 Y1540.531
G01 X5.000 Y1322.562
G01 X5.000 Y1600.000
G01 X710.000 Y1600.000
G01 X710.000 Y1188.889
G01 X684.310 Y1176.237
G01 X78.889 Y1545.139
G01 X5.000 Y1327.352
G01 X5.000 Y1600.000
G01 X710.000 Y1600.000
G01 X710.000 Y1192.136
G01 X687.277 Y1180.845
G01 X77.938 Y1549.742
G01 X5.000 Y1332.224
G01 X5.000 Y1600.000
G01 X710.000 Y1600.000
G01 X710.000 Y1195.381
G01 X690.226 Y1185.468
G01 X76.961 Y1554.340
G01 X5.000 Y1337.180
G01 X5.000 Y1600.000
G01 X710.000 Y1600.000
G01 X710.000 Y1198.626
G01 X693.157 Y1190.107
G01 X75.957 Y1558.933
G01 X5.000 Y1342.224
G01 X5.000 Y1600.000
G01 X710.000 Y1600.000
G01 X710.000 Y1201.870
G01 X696.069 Y1194.762
G01 X74.927 Y1563.521
G01 X5.000 Y1347.357
G01 X5.000 Y1600.000
G01 X710.000 Y1600.000
G01 X710.000 Y1205.113
G01 X698.964 Y1199.432
G01 X73.871 Y1568.103
G01 X5.000 Y1352.584
G01 X5.000 Y1600.000
G01 X710.000 Y1600.000
G01 X710.000 Y1208.355
G01 X701.840 Y1204.117
G01 X72.789 Y1572.678
G01 X5.000 Y1357.906
G01 X5.000 Y1600.000
G01 X710.000 Y1600.000
G01 X710.000 Y1211.595
G01 X704.698 Y1208.818
G01 X71.680 Y1577.248
G01 X5.000 Y1363.329
G01 X5.000 Y1600.000
G01 X710.000 Y1600.000
G01 X710.000 Y1214.835
G01 X707.537 Y1213.534
G01 X70.546 Y1581.812
G01 X5.000 Y1368.855
G01 X5.000 Y1600.000
G01 X710.000 Y1600.000
G01 X710.000 Y1218.469
G01 X69.385 Y1586.369
G01 X5.000 Y1374.487
G01 X5.000 Y1600.000
G01 X710.000 Y1600.000
G01 X710.000 Y1224.812
G01 X68.199 Y1590.919
G01 X5.000 Y1380.231
G01 X5.000 Y1600.000
G01 X710.000 Y1600.000
G01 X710.000 Y1231.137
G01 X66.987 Y1595.463
G01 X5.000 Y1386.089
G01 X5.000 Y1600.000
G01 X710.000 Y1600.000
G01 X710.000 Y1237.445
G01 X65.748 Y1599.999
G01 X5.000 Y1392.067
G01 X5.000 Y1600.000
G01 X710.000 Y1600.000
G01 X710.000 Y1243.735
G01 X72.587 Y1600.000
G01 X63.179 Y1600.000
G01 X5.000 Y1398.168
G01 X5.000 Y1600.000
G01 X710.000 Y1600.000
G01 X710.000 Y1248.321
G01 X78.753 Y1600.000
G01 X60.405 Y1600.000
G01 X5.000 Y1406.990
G01 X5.000 Y1600.000
G01 X710.000 Y1600.000
G01 X710.000 Y1247.837
G01 X83.208 Y1600.000
G01 X57.167 Y1600.000
G01 X5.000 Y1420.249
G01 X5.000 Y1600.000
G01 X710.000 Y1600.000
G01 X710.000 Y1247.341
G01 X87.595 Y1600.000
G01 X53.923 Y1600.000
G01 X5.000 Y1433.247
G01 X5.000 Y1600.000
G01 X710.000 Y1600.000
G01 X710.000 Y1246.833
G01 X91.914 Y1600.000
G01 X50.674 Y1600.000
G01 X5.000 Y1445.991
G01 X5.000 Y1600.000
G01 X710.000 Y1600.000
G01 X710.000 Y1246.312
G01 X96.168 Y1600.000
G01 X47.419 Y1600.000
G01 X5.000 Y1458.489
G01 X5.000 Y1600.000
G01 X710.000 Y1600.000
G01 X710.000 Y1246.677
G01 X709.196 Y1246.246
G01 X100.356 Y1600.000
G01 X44.158 Y1600.000
G01 X5.000 Y1470.746
G01 X5.000 Y1600.000
G01 X710.000 Y1600.000
G01 X710.000 Y1249.181
G01 X706.470 Y1247.302
G01 X104.480 Y1600.000
G01 X40.891 Y1600.000
G01 X5.000 Y1482.771
G01 X5.000 Y1600.000
G01 X710.000 Y1600.000
G01 X710.000 Y1251.678
G01 X703.742 Y1248.373
G01 X108.541 Y1600.000
G01 X37.618 Y1600.000
G01 X5.000 Y1494.569
G01 X5.000 Y1600.000
G01 X710.000 Y1600.000
G01 X710.000 Y1254.170
G01 X701.014 Y1249.457
G01 X112.541 Y1600.000
G01 X34.339 Y1600.000
G01 X5.000 Y1506.147
G01 X5.000 Y1600.000
G01 X710.000 Y1600.000
G01 X710.000 Y1256.655
G01 X698.285 Y1250.555
G01 X116.479 Y1600.000
G01 X31.053 Y1600.000
G01 X5.000 Y1517.510
G01 X5.000 Y1600.000
G01 X710.000 Y1600.000
G01 X710.000 Y1259.135
G01 X695.556 Y1251.668
G01 X120.358 Y1600.000
G01 X27.762 Y1600.000
G01 X5.000 Y1528.665
G01 X5.000 Y1600.000
G01 X710.000 Y1600.000
G01 X710.000 Y1261.608
G01 X692.827 Y1252.794
G01 X124.178 Y1600.000
G01 X24.464 Y1600.000
G01 X5.000 Y1539.616
G01 X5.000 Y1600.000
G01 X710.000 Y1600.000
G01 X710.000 Y1264.075
G01 X690.098 Y1253.935
G01 X127.940 Y1600.000
G01 X21.159 Y1600.000
G01 X5.000 Y1550.370
G01 X5.000 Y1600.000
G01 X710.000 Y1600.000
G01 X710.000 Y1266.537
G01 X687.368 Y1255.089
G01 X131.644 Y1600.000
G01 X17.848 Y1600.000
G01 X5.000 Y1560.932
G01 X5.000 Y1600.000
G01 X710.000 Y1600.000
G01 X710.000 Y1268.992
G01 X684.638 Y1256.258
G01 X135.293 Y1600.000
G01 X14.531 Y1600.000
G01 X5.000 Y1571.305
G01 X5.000 Y1600.000
G01 X710.000 Y1600.000
G01 X710.000 Y1271.441
G01 X681.908 Y1257.440
G01 X138.886 Y1600.000
G01 X11.207 Y1600.000
G01 X5.000 Y1581.497
G01 X5.000 Y1600.000
G01 X710.000 Y1600.000
G01 X710.000 Y1274.219
G01 X681.511 Y1260.045
G01 X143.758 Y1600.000
G01 X8.305 Y1600.000
G01 X5.000 Y1590.129
G01 X5.000 Y1600.000
G01 X710.000 Y1600.000
G01 X710.000 Y1277.504
G01 X684.366 Y1264.637
G01 X150.351 Y1600.000
G01 X5.806 Y1600.000
G01 X5.000 Y1597.563
G01 X5.000 Y1600.000
G01 X710.000 Y1600.000
G01 X710.000 Y1280.789
G01 X687.203 Y1269.245
G01 X157.011 Y1600.000
G01 X710.000 Y1600.000
G01 X710.000 Y1284.073
G01 X690.023 Y1273.867
G01 X163.739 Y1600.000
G01 X710.000 Y1600.000
G01 X710.000 Y1287.356
G01 X692.824 Y1278.505
G01 X170.535 Y1600.000
G01 X710.000 Y1600.000
G01 X710.000 Y1290.640
G01 X695.607 Y1283.157
G01 X177.402 Y1600.000
G01 X710.000 Y1600.000
G01 X710.000 Y1293.922
G01 X698.372 Y1287.824
G01 X184.339 Y1600.000
G01 X710.000 Y1600.000
G01 X710.000 Y1297.204
G01 X701.118 Y1292.506
G01 X191.350 Y1600.000
G01 X710.000 Y1600.000
G01 X710.000 Y1300.486
G01 X703.847 Y1297.202
G01 X198.434 Y1600.000
G01 X710.000 Y1600.000
G01 X710.000 Y1303.766
G01 X706.556 Y1301.913
G01 X205.594 Y1600.000
G01 X710.000 Y1600.000
G01 X710.000 Y1307.047
G01 X709.248 Y1306.638
G01 X212.829 Y1600.000
G01 X710.000 Y1600.000
G01 X710.000 Y1312.504
G01 X220.143 Y1600.000
G01 X710.000 Y1600.000
G01 X710.000 Y1318.797
G01 X227.536 Y1600.000
G01 X710.000 Y1600.000
G01 X710.000 Y1325.071
G01 X235.010 Y1600.000
G01 X710.000 Y1600.000
G01 X710.000 Y1331.327
G01 X242.566 Y1600.000
G01 X710.000 Y1600.000
G01 X710.000 Y1337.564
G01 X250.206 Y1600.000
G01 X710.000 Y1600.000
G01 X710.000 Y1339.905
G01 X255.162 Y1600.000
G01 X710.000 Y1600.000
G01 X710.000 Y1339.463
G01 X258.178 Y1600.000
G01 X710.000 Y1600.000
G01 X710.000 Y1339.010
G01 X261.145 Y1600.000
G01 X710.000 Y1600.000
G01 X710.000 Y1338.544
G01 X264.062 Y1600.000
G01 X710.000 Y1600.000
G01 X710.000 Y1338.067
G01 X266.931 Y1600.000
G01 X710.000 Y1600.000
G01 X710.000 Y1338.629
G01 X709.080 Y1338.126
G01 X269.752 Y1600.000
G01 X710.000 Y1600.000
G01 X710.000 Y1341.085
G01 X706.494 Y1339.182
G01 X272.525 Y1600.000
G01 X710.000 Y1600.000
G01 X710.000 Y1343.534
G01 X703.908 Y1340.252
G01 X275.252 Y1600.000
G01 X710.000 Y1600.000
G01 X710.000 Y1345.976
G01 X701.322 Y1341.335
G01 X277.933 Y1600.000
G01 X710.000 Y1600.000
G01 X710.000 Y1348.412
G01 X698.735 Y1342.431
G01 X280.570 Y1600.000
G01 X710.000 Y1600.000
G01 X710.000 Y1350.841
G01 X696.148 Y1343.540
G01 X283.162 Y1600.000
G01 X710.000 Y1600.000
G01 X710.000 Y1353.264
G01 X693.560 Y1344.663
G01 X285.710 Y1600.000
G01 X710.000 Y1600.000
G01 X710.000 Y1355.681
G01 X690.972 Y1345.800
G01 X288.215 Y1600.000
G01 X710.000 Y1600.000
G01 X710.000 Y1358.091
G01 X688.384 Y1346.949
G01 X290.678 Y1600.000
G01 X710.000 Y1600.000
G01 X710.000 Y1360.494
G01 X685.795 Y1348.112
G01 X293.099 Y1600.000
G01 X710.000 Y1600.000
G01 X710.000 Y1362.891
G01 X683.207 Y1349.288
G01 X295.478 Y1600.000
G01 X710.000 Y1600.000
G01 X710.000 Y1365.971
G01 X684.602 Y1353.030
G01 X301.494 Y1600.000
G01 X710.000 Y1600.000
G01 X710.000 Y1369.301
G01 X687.310 Y1357.638
G01 X308.786 Y1600.000
G01 X710.000 Y1600.000
G01 X710.000 Y1372.631
G01 X690.000 Y1362.261
G01 X316.154 Y1600.000
G01 X710.000 Y1600.000
G01 X710.000 Y1375.961
G01 X692.672 Y1366.898
G01 X323.600 Y1600.000
G01 X710.000 Y1600.000
G01 X710.000 Y1379.291
G01 X695.325 Y1371.549
G01 X331.125 Y1600.000
G01 X710.000 Y1600.000
G01 X710.000 Y1382.620
G01 X697.961 Y1376.214
G01 X338.730 Y1600.000
G01 X710.000 Y1600.000
G01 X710.000 Y1385.950
G01 X700.578 Y1380.893
G01 X346.417 Y1600.000
G01 X710.000 Y1600.000
G01 X710.000 Y1389.280
G01 X703.176 Y1385.586
G01 X354.187 Y1600.000
G01 X710.000 Y1600.000
G01 X710.000 Y1392.610
G01 X705.757 Y1390.293
G01 X362.042 Y1600.000
G01 X710.000 Y1600.000
G01 X710.000 Y1395.939
G01 X708.319 Y1395.013
G01 X369.983 Y1600.000
G01 X710.000 Y1600.000
G01 X710.000 Y1400.266
G01 X378.011 Y1600.000
G01 X710.000 Y1600.000
G01 X710.000 Y1406.518
G01 X386.129 Y1600.000
G01 X710.000 Y1600.000
G01 X710.000 Y1412.750
G01 X394.337 Y1600.000
G01 X710.000 Y1600.000
G01 X710.000 Y1418.964
G01 X402.638 Y1600.000
G01 X710.000 Y1600.000
G01 X710.000 Y1425.159
G01 X411.032 Y1600.000
G01 X710.000 Y1600.000
G01 X710.000 Y1431.336
G01 X419.523 Y1600.000
G01 X710.000 Y1600.000
G01 X710.000 Y1431.501
G01 X421.844 Y1600.000
G01 X710.000 Y1600.000
G01 X710.000 Y1431.110
G01 X423.554 Y1600.000
G01 X710.000 Y1600.000
G01 X710.000 Y1430.707
G01 X425.231 Y1600.000
G01 X710.000 Y1600.000
G01 X710.000 Y1430.293
G01 X426.873 Y1600.000
G01 X710.000 Y1600.000
G01 X710.000 Y1429.867
G01 X428.481 Y1600.000
G01 X710.000 Y1600.000
G01 X710.000 Y1430.528
G01 X709.057 Y1430.004
G01 X430.057 Y1600.000
G01 X710.000 Y1600.000
G01 X710.000 Y1432.928
G01 X706.614 Y1431.060
G01 X431.600 Y1600.000
G01 X710.000 Y1600.000
G01 X710.000 Y1435.321
G01 X704.169 Y1432.128
G01 X433.110 Y1600.000
G01 X710.000 Y1600.000
G01 X710.000 Y1437.707
G01 X701.724 Y1433.209
G01 X434.589 Y1600.000
G01 X710.000 Y1600.000
G01 X710.000 Y1440.087
G01 X699.279 Y1434.303
G01 X436.037 Y1600.000
G01 X710.000 Y1600.000
G01 X710.000 Y1442.460
G01 X696.833 Y1435.409
G01 X437.453 Y1600.000
G01 X710.000 Y1600.000
G01 X710.000 Y1444.826
G01 X694.387 Y1436.528
G01 X438.839 Y1600.000
G01 X710.000 Y1600.000
G01 X710.000 Y1447.185
G01 X691.940 Y1437.660
G01 X440.195 Y1600.000
G01 X710.000 Y1600.000
G01 X710.000 Y1449.538
G01 X689.494 Y1438.804
G01 X441.521 Y1600.000
G01 X710.000 Y1600.000
G01 X710.000 Y1451.883
G01 X687.047 Y1439.960
G01 X442.818 Y1600.000
G01 X710.000 Y1600.000
G01 X710.000 Y1454.295
G01 X685.020 Y1441.415
G01 X444.620 Y1600.000
G01 X710.000 Y1600.000
G01 X710.000 Y1457.676
G01 X687.598 Y1446.024
G01 X452.566 Y1600.000
G01 X710.000 Y1600.000
G01 X710.000 Y1461.058
G01 X690.158 Y1450.648
G01 X460.597 Y1600.000
G01 X710.000 Y1600.000
G01 X710.000 Y1464.440
G01 X692.700 Y1455.285
G01 X468.713 Y1600.000
G01 X710.000 Y1600.000
G01 X710.000 Y1467.822
G01 X695.224 Y1459.936
G01 X476.917 Y1600.000
G01 X710.000 Y1600.000
G01 X710.000 Y1471.205
G01 X697.730 Y1464.600
G01 X485.209 Y1600.000
G01 X710.000 Y1600.000
G01 X710.000 Y1474.589
G01 X700.218 Y1469.277
G01 X493.592 Y1600.000
G01 X710.000 Y1600.000
G01 X710.000 Y1477.973
G01 X702.687 Y1473.968
G01 X502.066 Y1600.000
G01 X710.000 Y1600.000
G01 X710.000 Y1481.357
G01 X705.138 Y1478.672
G01 X510.634 Y1600.000
G01 X710.000 Y1600.000
G01 X710.000 Y1484.742
G01 X707.570 Y1483.388
G01 X519.296 Y1600.000
G01 X710.000 Y1600.000
G01 X710.000 Y1488.127
G01 X709.984 Y1488.118
G01 X528.056 Y1600.000
G01 X710.000 Y1600.000
G01 X710.000 Y1494.313
G01 X536.913 Y1600.000
G01 X710.000 Y1600.000
G01 X710.000 Y1500.498
G01 X545.870 Y1600.000
G01 X710.000 Y1600.000
G01 X710.000 Y1506.664
G01 X554.929 Y1600.000
G01 X710.000 Y1600.000
G01 X710.000 Y1512.811
G01 X564.091 Y1600.000
G01 X710.000 Y1600.000
G01 X710.000 Y1518.938
G01 X573.359 Y1600.000
G01 X710.000 Y1600.000
G01 X710.000 Y1523.443
G01 X580.531 Y1600.000
G01 X710.000 Y1600.000
G01 X710.000 Y1523.121
G01 X581.052 Y1600.000
G01 X710.000 Y1600.000
G01 X710.000 Y1522.787
G01 X581.551 Y1600.000
G01 X710.000 Y1600.000
G01 X710.000 Y1522.442
G01 X582.031 Y1600.000
G01 X710.000 Y1600.000
G01 X710.000 Y1522.086
G01 X582.489 Y1600.000
G01 X710.000 Y1600.000
G01 X710.000 Y1521.719
G01 X582.928 Y1600.000
G01 X710.000 Y1600.000
G01 X710.000 Y1522.371
G01 X709.129 Y1521.880
G01 X583.346 Y1600.000
G01 X710.000 Y1600.000
G01 X710.000 Y1524.709
G01 X706.827 Y1522.935
G01 X583.745 Y1600.000
G01 X710.000 Y1600.000
G01 X710.000 Y1527.041
G01 X704.525 Y1524.002
G01 X584.124 Y1600.000
G01 X710.000 Y1600.000
G01 X710.000 Y1529.366
G01 X702.221 Y1525.081
G01 X584.484 Y1600.000
G01 X710.000 Y1600.000
G01 X710.000 Y1531.684
G01 X699.917 Y1526.172
G01 X584.825 Y1600.000
G01 X710.000 Y1600.000
G01 X710.000 Y1533.995
G01 X697.613 Y1527.274
G01 X585.146 Y1600.000
G01 X710.000 Y1600.000
G01 X710.000 Y1536.299
G01 X695.308 Y1528.389
G01 X585.449 Y1600.000
G01 X710.000 Y1600.000
G01 X710.000 Y1538.596
G01 X693.003 Y1529.515
G01 X585.733 Y1600.000
G01 X710.000 Y1600.000
G01 X710.000 Y1540.886
G01 X690.698 Y1530.653
G01 X585.999 Y1600.000
G01 X710.000 Y1600.000
G01 X710.000 Y1543.170
G01 X688.393 Y1531.802
G01 X586.247 Y1600.000
G01 X710.000 Y1600.000
G01 X710.000 Y1545.917
G01 X688.066 Y1534.402
G01 X589.966 Y1600.000
G01 X710.000 Y1600.000
G01 X710.000 Y1549.355
G01 X690.497 Y1539.027
G01 X598.670 Y1600.000
G01 X710.000 Y1600.000
G01 X710.000 Y1552.794
G01 X692.910 Y1543.665
G01 X607.468 Y1600.000
G01 X710.000 Y1600.000
G01 X710.000 Y1556.234
G01 X695.304 Y1548.317
G01 X616.361 Y1600.000
G01 X710.000 Y1600.000
G01 X710.000 Y1559.675
G01 X697.681 Y1552.981
G01 X625.350 Y1600.000
G01 X710.000 Y1600.000
G01 X710.000 Y1563.116
G01 X700.039 Y1557.657
G01 X634.437 Y1600.000
G01 X710.000 Y1600.000
G01 X710.000 Y1566.559
G01 X702.379 Y1562.347
G01 X643.624 Y1600.000
G01 X710.000 Y1600.000
G01 X710.000 Y1570.003
G01 X704.700 Y1567.048
G01 X652.913 Y1600.000
G01 X710.000 Y1600.000
G01 X710.000 Y1573.447
G01 X707.003 Y1571.762
G01 X662.304 Y1600.000
G01 X710.000 Y1600.000
G01 X710.000 Y1576.893
G01 X709.287 Y1576.489
G01 X671.801 Y1600.000
G01 X710.000 Y1600.000
G01 X710.000 Y1582.194
G01 X681.404 Y1600.000
G01 X710.000 Y1600.000
G01 X710.000 Y1588.326
G01 X691.116 Y1600.000
G01 X710.000 Y1600.000
G01 X710.000 Y1594.439
G01 X700.938 Y1600.000
G01 X710.000 Y1600.000

; BEGIN POST
G04 S60
; 110219_6.gcode; END POST
; file trimmed by trimify2x.pl
; QQQQQQQ

