; file trimmed by trimify2x.pl
; Created by Sandify
; 
;   https://sandify.org
; 
;   Sandify Version: 0.1.4
; 
;   Machine Type: Rectangular
;     MinX: 5 MaxX: 710 MinY: 5 MaxY: 1600
;   Content Type: Shapes
;     Starting Size: 800
;     Offset: X: -122 Y: 0
;     Selected Shape: Circle
;       Circle Lobes: 1
;     Number of Loops: 35
;     Spin: true
;       Spin Value: 0
;       Spin Switchbacks: 18
;     Grow: true
;       Grow Value: -6
;     Track: true
;       Track Count: 155
;       Track Size: 79.9
;       Track Grow: false
;   Path Reversed: false
; 
; filename: 'circles'

; BEGIN PRE
G28  Y
G28 X
G01 F30000; END PRE
G01 X710.000 Y802.500
G01 X710.000 Y1265.626
G01 X701.332 Y1262.327
G01 X690.780 Y1256.896
G01 X686.805 Y1254.881
G01 X688.088 Y1258.007
G01 X692.920 Y1267.616
G01 X699.307 Y1284.577
G01 X705.095 Y1309.235
G01 X708.101 Y1341.386
G01 X706.248 Y1380.284
G01 X697.699 Y1424.685
G01 X680.963 Y1472.920
G01 X654.997 Y1522.990
G01 X619.267 Y1572.684
G01 X592.852 Y1600.000
G01 X710.000 Y1600.000 
G01 X710.000 Y5.000 
G01 X562.980 Y5.000
G01 X564.933 Y6.501
G01 X610.327 Y53.539
G01 X645.964 Y103.520
G01 X671.743 Y154.145
G01 X688.116 Y203.179
G01 X696.054 Y248.575
G01 X696.988 Y288.601
G01 X692.714 Y321.935
G01 X685.285 Y347.746
G01 X676.882 Y365.738
G01 X669.680 Y376.165
G01 X665.715 Y379.815
G01 X666.757 Y377.956
G01 X674.200 Y372.259
G01 X688.979 Y364.692
G01 X710.000 Y357.888
G01 X710.000 Y1255.023
G01 X706.440 Y1254.527
G01 X680.599 Y1246.658
G01 X662.601 Y1237.742
G01 X652.213 Y1229.956
G01 X648.667 Y1225.348
G01 X650.712 Y1225.699
G01 X656.691 Y1232.424
G01 X664.644 Y1246.476
G01 X672.430 Y1268.292
G01 X677.856 Y1297.757
G01 X678.816 Y1334.216
G01 X673.421 Y1376.503
G01 X660.114 Y1423.016
G01 X637.769 Y1471.802
G01 X605.763 Y1520.679
G01 X564.017 Y1567.364
G01 X524.604 Y1600.000
G01 X710.000 Y1600.000 
G01 X710.000 Y5.000 
G01 X494.091 Y5.000
G01 X497.436 Y6.819
G01 X550.932 Y47.443
G01 X595.489 Y93.453
G01 X630.377 Y142.655
G01 X655.410 Y192.756
G01 X670.960 Y241.500
G01 X677.924 Y286.806
G01 X677.669 Y326.885
G01 X671.945 Y360.345
G01 X662.778 Y386.276
G01 X652.342 Y404.296
G01 X642.826 Y414.575
G01 X636.304 Y417.822
G01 X634.599 Y415.234
G01 X639.178 Y408.429
G01 X651.057 Y399.339
G01 X670.739 Y390.094
G01 X698.180 Y382.889
G01 X710.000 Y381.852
G01 X710.000 Y1239.936
G01 X701.577 Y1239.821
G01 X668.088 Y1233.744
G01 X642.129 Y1224.151
G01 X624.101 Y1213.215
G01 X613.855 Y1203.130
G01 X610.705 Y1195.976
G01 X613.468 Y1193.590
G01 X620.542 Y1197.457
G01 X630.004 Y1208.614
G01 X639.728 Y1227.584
G01 X647.518 Y1254.349
G01 X651.241 Y1288.339
G01 X648.959 Y1328.473
G01 X639.049 Y1373.213
G01 X620.307 Y1420.660
G01 X592.020 Y1468.663
G01 X554.016 Y1514.947
G01 X506.678 Y1557.246
G01 X450.926 Y1593.442
G01 X436.352 Y1600.000
G01 X22.883 Y1600.000
G01 X5.000 Y1590.391
G01 X5.000 Y48.718
G01 X21.550 Y37.552
G01 X82.655 Y8.890
G01 X95.982 Y5.000
G01 X388.624 Y5.000
G01 X424.342 Y17.361
G01 X484.251 Y49.158
G01 X536.712 Y88.481
G01 X580.416 Y133.408
G01 X614.551 Y181.773
G01 X638.851 Y231.291
G01 X653.604 Y279.693
G01 X659.630 Y324.864
G01 X658.233 Y364.961
G01 X651.113 Y398.525
G01 X640.265 Y424.567
G01 X627.854 Y442.621
G01 X616.080 Y452.772
G01 X607.049 Y455.647
G01 X602.637 Y452.374
G01 X604.379 Y444.513
G01 X613.372 Y433.957
G01 X630.209 Y422.816
G01 X654.939 Y413.290
G01 X687.061 Y407.529
G01 X710.000 Y407.516
G01 X710.000 Y1221.214
G01 X703.648 Y1222.030
G01 X663.552 Y1220.354
G01 X629.966 Y1212.894
G01 X603.898 Y1201.635
G01 X585.835 Y1188.739
G01 X575.713 Y1176.409
G01 X572.926 Y1166.759
G01 X576.363 Y1161.676
G01 X584.481 Y1162.713
G01 X595.395 Y1170.988
G01 X607.000 Y1187.114
G01 X617.098 Y1211.164
G01 X623.531 Y1242.660
G01 X624.317 Y1280.600
G01 X617.772 Y1323.520
G01 X602.612 Y1369.573
G01 X578.037 Y1416.643
G01 X543.782 Y1462.469
G01 X500.136 Y1504.776
G01 X447.930 Y1541.415
G01 X388.490 Y1570.486
G01 X323.567 Y1590.454
G01 X256.900 Y1600.000
G01 X237.878 Y1600.000
G01 X185.748 Y1599.281
G01 X117.466 Y1587.572
G01 X52.661 Y1565.661
G01 X5.000 Y1540.687
G01 X5.000 Y104.004
G01 X24.636 Y89.657
G01 X82.399 Y60.185
G01 X145.788 Y39.653
G01 X212.757 Y29.178
G01 X281.049 Y29.363
G01 X348.325 Y40.261
G01 X412.303 Y61.366
G01 X470.883 Y91.652
G01 X522.278 Y129.623
G01 X565.109 Y173.411
G01 X598.487 Y220.881
G01 X622.063 Y269.759
G01 X636.040 Y317.766
G01 X641.164 Y362.755
G01 X638.671 Y402.833
G01 X630.208 Y436.477
G01 X617.737 Y462.619
G01 X603.409 Y480.710
G01 X589.433 Y490.751
G01 X577.942 Y493.285
G01 X570.864 Y489.369
G01 X569.798 Y480.502
G01 X575.923 Y468.535
G01 X589.918 Y455.558
G01 X611.925 Y443.767
G01 X641.533 Y435.336
G01 X677.804 Y432.278
G01 X710.000 Y435.414
G01 X710.000 Y1198.697
G01 X665.798 Y1203.521
G01 X625.730 Y1200.760
G01 X592.071 Y1191.970
G01 X565.905 Y1179.102
G01 X547.804 Y1164.303
G01 X537.789 Y1149.785
G01 X535.335 Y1137.688
G01 X539.406 Y1129.950
G01 X548.516 Y1128.187
G01 X560.827 Y1133.597
G01 X574.255 Y1146.883
G01 X586.602 Y1168.207
G01 X595.693 Y1197.182
G01 X599.502 Y1232.893
G01 X596.287 Y1273.946
G01 X584.687 Y1318.551
G01 X563.816 Y1364.631
G01 X533.316 Y1409.940
G01 X493.381 Y1452.200
G01 X444.752 Y1489.234
G01 X388.676 Y1519.095
G01 X326.835 Y1540.185
G01 X261.249 Y1551.346
G01 X194.160 Y1551.933
G01 X127.903 Y1541.850
G01 X64.767 Y1521.557
G01 X6.868 Y1492.042
G01 X5.000 Y1490.672
G01 X5.000 Y160.116
G01 X27.907 Y141.913
G01 X82.285 Y111.672
G01 X142.566 Y90.032
G01 X206.755 Y78.189
G01 X272.626 Y76.830
G01 X337.850 Y86.095
G01 X400.130 Y105.570
G01 X457.338 Y134.306
G01 X507.633 Y170.879
G01 X549.570 Y213.474
G01 X582.184 Y259.990
G01 X605.042 Y308.170
G01 X618.266 Y355.727
G01 X622.521 Y400.486
G01 X618.975 Y440.507
G01 X609.222 Y474.204
G01 X595.185 Y500.433
G01 X578.998 Y518.564
G01 X562.876 Y528.509
G01 X548.977 Y530.731
G01 X539.275 Y526.211
G01 X535.434 Y516.388
G01 X538.708 Y503.066
G01 X549.866 Y488.310
G01 X569.139 Y474.313
G01 X596.210 Y463.265
G01 X630.225 Y457.218
G01 X669.847 Y457.960
G01 X710.000 Y466.221
G01 X710.000 Y1170.563
G01 X672.799 Y1180.789
G01 X628.106 Y1184.832
G01 X588.105 Y1181.030
G01 X554.399 Y1170.962
G01 X528.150 Y1156.542
G01 X510.010 Y1139.900
G01 X500.087 Y1123.250
G01 X497.938 Y1108.757
G01 X502.603 Y1098.406
G01 X512.658 Y1093.876
G01 X526.310 Y1096.441
G01 X541.501 Y1106.890
G01 X556.041 Y1125.479
G01 X567.735 Y1151.912
G01 X574.522 Y1185.358
G01 X574.599 Y1224.498
G01 X566.535 Y1267.602
G01 X549.357 Y1312.634
G01 X522.614 Y1357.368
G01 X486.408 Y1399.525
G01 X441.387 Y1436.904
G01 X388.716 Y1467.514
G01 X330.008 Y1489.696
G01 X267.230 Y1502.218
G01 X202.592 Y1504.348
G01 X138.416 Y1495.902
G01 X77.003 Y1477.252
G01 X20.499 Y1449.305
G01 X5.000 Y1438.130
G01 X5.000 Y217.219
G01 X31.368 Y194.315
G01 X82.321 Y163.345
G01 X139.444 Y140.629
G01 X200.797 Y127.435
G01 X264.189 Y124.535
G01 X327.302 Y132.158
G01 X387.833 Y149.978
G01 X443.623 Y177.128
G01 X492.781 Y212.256
G01 X533.801 Y253.603
G01 X565.642 Y299.109
G01 X587.787 Y346.533
G01 X600.276 Y393.584
G01 X603.695 Y438.064
G01 X599.139 Y477.988
G01 X588.146 Y511.709
G01 X572.599 Y538.011
G01 X554.612 Y556.179
G01 X536.401 Y566.042
G01 X520.146 Y567.979
G01 X507.864 Y562.894
G01 X501.280 Y552.162
G01 X501.725 Y537.540
G01 X510.052 Y521.063
G01 X526.586 Y504.917
G01 X551.098 Y491.306
G01 X582.823 Y482.319
G01 X620.499 Y479.797
G01 X662.444 Y485.227
G01 X706.652 Y499.644
G01 X710.000 Y501.453
G01 X710.000 Y1137.357
G01 X681.883 Y1150.437
G01 X634.967 Y1162.744
G01 X590.565 Y1165.959
G01 X550.671 Y1161.157
G01 X516.948 Y1149.862
G01 X490.631 Y1133.946
G01 X472.454 Y1115.518
G01 X462.610 Y1096.794
G01 X460.741 Y1079.958
G01 X465.961 Y1067.039
G01 X476.913 Y1059.775
G01 X491.851 Y1059.515
G01 X508.750 Y1067.136
G01 X525.424 Y1082.984
G01 X539.667 Y1106.853
G01 X549.382 Y1138.001
G01 X552.713 Y1175.184
G01 X548.158 Y1216.735
G01 X534.659 Y1260.662
G01 X511.676 Y1304.764
G01 X479.213 Y1346.761
G01 X437.829 Y1384.433
G01 X388.603 Y1415.750
G01 X333.077 Y1438.992
G01 X273.162 Y1452.855
G01 X211.032 Y1456.523
G01 X148.995 Y1449.724
G01 X89.359 Y1432.740
G01 X34.297 Y1406.397
G01 X5.000 Y1385.657
G01 X5.000 Y488.690
G01 X17.234 Y501.667
G01 X27.043 Y521.407
G01 X28.781 Y539.394
G01 X23.297 Y553.581
G01 X11.914 Y562.199
G01 X5.000 Y562.937
G01 X5.000 Y275.544
G01 X35.025 Y246.853
G01 X82.513 Y215.199
G01 X136.431 Y191.439
G01 X194.893 Y176.914
G01 X255.747 Y172.479
G01 X316.693 Y178.452
G01 X375.420 Y194.594
G01 X429.744 Y220.124
G01 X477.729 Y253.762
G01 X517.807 Y293.810
G01 X548.861 Y338.248
G01 X570.297 Y384.856
G01 X582.067 Y431.346
G01 X584.678 Y475.496
G01 X579.154 Y515.282
G01 X566.971 Y548.997
G01 X549.970 Y575.354
G01 X530.242 Y593.556
G01 X509.998 Y603.348
G01 X491.441 Y605.023
G01 X476.625 Y599.410
G01 X467.334 Y587.816
G01 X464.972 Y571.948
G01 X470.478 Y553.808
G01 X484.266 Y535.571
G01 X506.201 Y519.453
G01 X535.604 Y507.573
G01 X571.291 Y501.828
G01 X611.645 Y503.770
G01 X654.706 Y514.519
G01 X698.294 Y534.684
G01 X710.000 Y542.978
G01 X710.000 Y1097.630
G01 X689.964 Y1111.629
G01 X643.568 Y1132.887
G01 X597.227 Y1144.480
G01 X553.168 Y1146.894
G01 X513.423 Y1141.134
G01 X479.714 Y1128.661
G01 X453.347 Y1111.305
G01 X435.137 Y1091.150
G01 X425.362 Y1070.408
G01 X423.748 Y1051.283
G01 X429.488 Y1035.841
G01 X441.290 Y1025.879
G01 X457.462 Y1022.819
G01 X476.009 Y1027.621
G01 X494.759 Y1040.722
G01 X511.495 Y1062.010
G01 X524.090 Y1090.828
G01 X530.635 Y1126.012
G01 X529.560 Y1165.960
G01 X519.726 Y1208.725
G01 X500.500 Y1252.135
G01 X471.793 Y1293.916
G01 X434.072 Y1331.829
G01 X388.330 Y1363.809
G01 X336.033 Y1388.078
G01 X279.036 Y1403.260
G01 X219.473 Y1408.460
G01 X159.633 Y1403.314
G01 X101.828 Y1388.018
G01 X48.255 Y1363.311
G01 X5.000 Y1333.299
G01 X5.000 Y985.596
G01 X9.933 Y987.396
G01 X20.564 Y999.405
G01 X24.319 Y1015.876
G01 X20.220 Y1034.826
G01 X7.806 Y1054.086
G01 X5.000 Y1056.445
G01 X5.000 Y485.113
G01 X9.823 Y486.980
G01 X36.208 Y505.035
G01 X54.432 Y526.032
G01 X64.176 Y547.761
G01 X65.670 Y568.010
G01 X59.684 Y584.696
G01 X47.473 Y595.994
G01 X30.704 Y600.444
G01 X11.355 Y597.047
G01 X5.000 Y593.277
G01 X5.000 Y335.417
G01 X38.883 Y299.520
G01 X82.869 Y267.226
G01 X133.534 Y242.457
G01 X189.052 Y226.623
G01 X247.310 Y220.662
G01 X306.029 Y224.978
G01 X362.898 Y239.423
G01 X415.708 Y263.300
G01 X462.481 Y295.405
G01 X501.589 Y334.101
G01 X531.844 Y377.415
G01 X552.569 Y423.150
G01 X563.635 Y469.022
G01 X565.467 Y512.791
G01 X559.013 Y552.395
G01 X545.689 Y586.072
G01 X527.289 Y612.463
G01 X505.877 Y630.694
G01 X483.660 Y640.423
G01 X462.853 Y641.860
G01 X445.550 Y635.753
G01 X433.589 Y623.342
G01 X428.446 Y606.280
G01 X431.141 Y586.534
G01 X442.181 Y566.265
G01 X461.522 Y547.696
G01 X488.573 Y532.974
G01 X522.231 Y524.046
G01 X560.943 Y522.531
G01 X602.801 Y529.629
G01 X645.654 Y546.039
G01 X687.234 Y571.921
G01 X710.000 Y592.831
G01 X710.000 Y1048.096
G01 X693.811 Y1064.500
G01 X650.788 Y1094.552
G01 X605.280 Y1115.100
G01 X559.572 Y1125.992
G01 X515.906 Y1127.633
G01 X476.355 Y1120.953
G01 X442.693 Y1107.351
G01 X416.295 Y1088.610
G01 X398.058 Y1066.786
G01 X388.344 Y1044.084
G01 X386.964 Y1022.724
G01 X393.189 Y1004.806
G01 X405.797 Y992.184
G01 X423.150 Y986.349
G01 X443.288 Y988.344
G01 X464.056 Y998.697
G01 X483.229 Y1017.387
G01 X498.653 Y1043.846
G01 X508.371 Y1076.989
G01 X510.745 Y1115.284
G01 X504.557 Y1156.833
G01 X489.085 Y1199.492
G01 X464.146 Y1240.999
G01 X430.111 Y1279.101
G01 X387.889 Y1311.697
G01 X338.868 Y1336.957
G01 X284.843 Y1353.436
G01 X227.904 Y1360.157
G01 X170.319 Y1356.670
G01 X114.401 Y1343.081
G01 X62.367 Y1320.043
G01 X16.215 Y1288.720
G01 X5.000 Y1277.682
G01 X5.000 Y945.854
G01 X22.399 Y944.801
G01 X40.928 Y951.142
G01 X54.209 Y963.945
G01 X60.734 Y981.585
G01 X59.438 Y1002.112
G01 X49.772 Y1023.375
G01 X31.734 Y1043.149
G01 X5.870 Y1059.272
G01 X5.000 Y1059.552
G01 X5.000 Y492.733
G01 X13.114 Y494.199
G01 X46.740 Y508.348
G01 X73.144 Y527.761
G01 X91.391 Y550.398
G01 X101.077 Y574.058
G01 X102.348 Y596.515
G01 X95.893 Y615.652
G01 X82.898 Y629.590
G01 X64.975 Y636.802
G01 X44.062 Y636.205
G01 X22.307 Y627.226
G01 X5.000 Y612.456
G01 X5.000 Y400.823
G01 X10.765 Y390.484
G01 X42.947 Y352.308
G01 X83.396 Y319.421
G01 X130.762 Y293.679
G01 X183.282 Y276.561
G01 X238.887 Y269.083
G01 X295.322 Y271.740
G01 X350.277 Y284.470
G01 X401.522 Y306.662
G01 X447.043 Y337.192
G01 X485.151 Y374.487
G01 X514.590 Y416.619
G01 X534.603 Y461.423
G01 X544.977 Y506.619
G01 X546.055 Y549.955
G01 X538.709 Y589.332
G01 X524.291 Y622.937
G01 X504.547 Y649.342
G01 X481.509 Y667.594
G01 X457.376 Y677.266
G01 X434.375 Y678.484
G01 X414.633 Y671.917
G01 X400.041 Y658.732
G01 X392.143 Y640.528
G01 X392.043 Y619.234
G01 X400.334 Y596.991
G01 X417.066 Y576.027
G01 X441.737 Y558.515
G01 X473.325 Y546.447
G01 X510.347 Y541.507
G01 X550.947 Y544.972
G01 X593.006 Y557.633
G01 X634.269 Y579.741
G01 X672.477 Y610.996
G01 X705.505 Y650.556
G01 X710.000 Y658.608
G01 X710.000 Y980.656
G01 X690.337 Y1010.154
G01 X653.401 Y1048.008
G01 X611.572 Y1077.240
G01 X567.011 Y1097.074
G01 X521.992 Y1107.277
G01 X478.774 Y1108.170
G01 X439.460 Y1100.607
G01 X405.879 Y1085.923
G01 X379.474 Y1065.851
G01 X361.219 Y1042.416
G01 X351.560 Y1017.812
G01 X350.394 Y994.272
G01 X357.071 Y973.928
G01 X370.442 Y958.684
G01 X388.924 Y950.102
G01 X410.597 Y949.305
G01 X433.324 Y956.909
G01 X454.878 Y972.987
G01 X473.079 Y997.059
G01 X485.926 Y1028.123
G01 X491.716 Y1064.716
G01 X489.155 Y1104.993
G01 X477.431 Y1146.844
G01 X456.267 Y1188.019
G01 X425.942 Y1226.255
G01 X387.274 Y1259.421
G01 X341.575 Y1285.635
G01 X290.573 Y1303.386
G01 X236.316 Y1311.617
G01 X181.045 Y1309.791
G01 X127.069 Y1297.924
G01 X76.624 Y1276.585
G01 X31.746 Y1246.857
G01 X5.000 Y1220.838
G01 X5.000 Y917.769
G01 X26.748 Y909.401
G01 X50.825 Y908.285
G01 X71.768 Y915.071
G01 X87.661 Y928.626
G01 X96.926 Y947.382
G01 X98.418 Y969.430
G01 X91.501 Y992.637
G01 X76.078 Y1014.778
G01 X52.607 Y1033.665
G01 X22.068 Y1047.287
G01 X5.000 Y1050.421
G01 X5.000 Y506.709
G01 X10.747 Y506.639
G01 X49.925 Y514.630
G01 X83.451 Y529.837
G01 X109.851 Y550.555
G01 X128.111 Y574.775
G01 X137.744 Y600.307
G01 X138.810 Y624.916
G01 X131.918 Y646.455
G01 X118.181 Y662.995
G01 X99.154 Y672.939
G01 X76.735 Y675.127
G01 X53.050 Y668.895
G01 X30.327 Y654.129
G01 X10.757 Y631.260
G01 X5.000 Y619.257
G01 X5.000 Y472.751
G01 X18.759 Y443.492
G01 X47.222 Y405.209
G01 X84.100 Y371.777
G01 X128.123 Y345.100
G01 X177.593 Y326.723
G01 X230.488 Y317.743
G01 X284.580 Y318.738
G01 X337.564 Y329.737
G01 X387.195 Y350.217
G01 X431.420 Y379.132
G01 X468.498 Y414.975
G01 X497.102 Y455.871
G01 X516.399 Y499.685
G01 X526.091 Y544.148
G01 X526.438 Y586.997
G01 X518.236 Y626.102
G01 X502.770 Y659.597
G01 X481.734 Y685.992
G01 X457.129 Y704.254
G01 X431.137 Y713.874
G01 X405.999 Y714.892
G01 X383.867 Y707.895
G01 X366.684 Y693.979
G01 X356.061 Y674.684
G01 X353.180 Y651.897
G01 X358.725 Y627.739
G01 X372.835 Y604.436
G01 X395.100 Y584.187
G01 X424.581 Y569.023
G01 X459.865 Y560.692
G01 X499.153 Y560.547
G01 X540.361 Y569.466
G01 X581.248 Y587.794
G01 X619.549 Y615.324
G01 X653.110 Y651.305
G01 X680.015 Y694.485
G01 X698.701 Y743.184
G01 X708.055 Y795.393
G01 X707.476 Y848.890
G01 X696.911 Y901.372
G01 X676.863 Y950.591
G01 X648.359 Y994.486
G01 X612.886 Y1031.301
G01 X572.307 Y1059.694
G01 X528.750 Y1078.810
G01 X484.479 Y1088.333
G01 X441.761 Y1088.501
G01 X402.732 Y1080.090
G01 X369.269 Y1064.370
G01 X342.881 Y1043.019
G01 X324.618 Y1018.030
G01 X315.011 Y991.584
G01 X314.041 Y965.919
G01 X321.141 Y943.198
G01 X335.233 Y925.374
G01 X354.793 Y914.074
G01 X377.944 Y910.501
G01 X402.572 Y915.359
G01 X426.450 Y928.813
G01 X447.376 Y950.473
G01 X463.306 Y979.421
G01 X472.479 Y1014.264
G01 X473.523 Y1053.215
G01 X465.538 Y1094.201
G01 X448.156 Y1134.985
G01 X421.560 Y1173.301
G01 X386.479 Y1206.987
G01 X344.144 Y1234.117
G01 X296.219 Y1253.112
G01 X244.700 Y1262.839
G01 X191.801 Y1262.674
G01 X139.824 Y1252.545
G01 X91.020 Y1232.932
G01 X47.459 Y1204.839
G01 X10.909 Y1169.740
G01 X5.000 Y1161.298
G01 X5.000 Y897.673
G01 X26.069 Y882.505
G01 X52.967 Y872.911
G01 X79.155 Y871.987
G01 X102.462 Y879.188
G01 X120.925 Y893.454
G01 X132.899 Y913.276
G01 X137.163 Y936.789
G01 X132.991 Y961.882
G01 X120.195 Y986.332
G01 X99.142 Y1007.931
G01 X70.728 Y1024.625
G01 X36.330 Y1034.638
G01 X5.000 Y1036.213
G01 X5.000 Y526.280
G01 X5.256 Y526.226
G01 X47.703 Y526.413
G01 X86.572 Y535.234
G01 X119.962 Y551.457
G01 X146.331 Y573.426
G01 X164.593 Y599.171
G01 X174.175 Y626.517
G01 X175.053 Y653.223
G01 X167.753 Y677.113
G01 X153.316 Y696.212
G01 X133.235 Y708.859
G01 X109.364 Y713.813
G01 X83.808 Y710.326
G01 X58.790 Y698.188
G01 X36.522 Y677.743
G01 X19.067 Y649.867
G01 X8.216 Y615.916
G01 X5.379 Y577.648
G01 X11.497 Y537.116
G01 X26.987 Y496.549
G01 X51.712 Y458.214
G01 X84.987 Y424.286
G01 X125.624 Y396.714
G01 X171.993 Y377.108
G01 X222.122 Y366.639
G01 X273.812 Y365.973
G01 X324.768 Y375.229
G01 X372.733 Y393.970
G01 X415.618 Y421.230
G01 X451.632 Y455.574
G01 X479.382 Y495.179
G01 X497.955 Y537.945
G01 X506.973 Y581.618
G01 X506.610 Y623.925
G01 X497.586 Y662.709
G01 X481.117 Y696.059
G01 X458.843 Y722.417
G01 X432.726 Y740.677
G01 X404.935 Y750.246
G01 X377.714 Y751.079
G01 X353.244 Y743.681
G01 X333.512 Y729.075
G01 X320.195 Y708.738
G01 X314.552 Y684.514
G01 X317.354 Y658.499
G01 X328.833 Y632.916
G01 X348.668 Y609.982
G01 X376.005 Y591.769
G01 X409.506 Y580.083
G01 X447.428 Y576.351
G01 X487.727 Y581.538
G01 X528.180 Y596.081
G01 X566.519 Y619.868
G01 X600.564 Y652.239
G01 X628.353 Y692.022
G01 X648.262 Y737.608
G01 X659.100 Y787.036
G01 X660.181 Y838.117
G01 X651.363 Y888.558
G01 X633.061 Y936.097
G01 X606.220 Y978.641
G01 X572.258 Y1014.384
G01 X532.984 Y1041.916
G01 X490.489 Y1060.307
G01 X447.023 Y1069.157
G01 X404.860 Y1068.620
G01 X366.163 Y1059.396
G01 X332.857 Y1042.683
G01 X306.512 Y1020.106
G01 X288.255 Y993.621
G01 X278.699 Y965.390
G01 X277.909 Y937.657
G01 X285.403 Y912.610
G01 X300.175 Y892.248
G01 X320.765 Y878.261
G01 X345.340 Y871.931
G01 X371.810 Y874.048
G01 X397.954 Y884.868
G01 X421.551 Y904.093
G01 X440.519 Y930.889
G01 X453.038 Y963.937
G01 X457.662 Y1001.508
G01 X453.407 Y1041.571
G01 X439.810 Y1081.907
G01 X416.962 Y1120.246
G01 X385.498 Y1154.404
G01 X346.570 Y1182.408
G01 X301.771 Y1202.618
G01 X253.046 Y1213.825
G01 X202.579 Y1215.320
G01 X152.658 Y1206.940
G01 X105.546 Y1189.079
G01 X63.347 Y1162.659
G01 X27.878 Y1129.082
G01 X5.000 Y1096.466
G01 X5.000 Y885.905
G01 X23.636 Y864.455
G01 X50.487 Y846.201
G01 X79.155 Y836.658
G01 X107.396 Y835.911
G01 X133.016 Y843.499
G01 X154.006 Y858.436
G01 X168.658 Y879.275
G01 X175.675 Y904.198
G01 X174.242 Y931.120
G01 X164.082 Y957.820
G01 X145.470 Y982.077
G01 X119.217 Y1001.797
G01 X86.625 Y1015.147
G01 X49.406 Y1020.662
G01 X9.583 Y1017.337
G01 X5.000 Y1015.895
G01 X5.000 Y552.975
G01 X42.686 Y545.519
G01 X84.551 Y546.401
G01 X123.063 Y556.020
G01 X156.277 Y573.213
G01 X182.589 Y596.383
G01 X200.838 Y623.596
G01 X210.369 Y652.698
G01 X211.073 Y681.443
G01 X203.392 Y707.634
G01 X188.294 Y729.248
G01 X167.207 Y744.565
G01 X141.941 Y752.266
G01 X114.571 Y751.517
G01 X87.317 Y742.018
G01 X62.404 Y724.019
G01 X41.935 Y698.312
G01 X27.757 Y666.178
G01 X21.353 Y629.315
G01 X23.748 Y589.736
G01 X35.451 Y549.646
G01 X56.420 Y511.316
G01 X86.064 Y476.941
G01 X123.273 Y448.516
G01 X166.491 Y427.710
G01 X213.797 Y415.770
G01 X263.028 Y413.447
G01 X311.899 Y420.948
G01 X358.144 Y437.925
G01 X399.645 Y463.494
G01 X434.560 Y496.293
G01 X461.432 Y534.553
G01 X479.273 Y576.213
G01 X487.621 Y619.036
G01 X486.569 Y660.747
G01 X476.755 Y699.162
G01 X459.325 Y732.325
G01 X435.863 Y758.619
G01 X408.292 Y776.862
G01 X378.760 Y786.380
G01 X349.514 Y787.042
G01 X322.756 Y779.271
G01 X300.520 Y764.013
G01 X284.541 Y742.683
G01 X276.156 Y717.076
G01 X276.222 Y689.262
G01 X285.061 Y661.457
G01 X302.445 Y635.892
G01 X327.605 Y614.677
G01 X359.278 Y599.674
G01 X395.781 Y592.381
G01 X435.113 Y593.847
G01 X475.074 Y604.604
G01 X513.395 Y624.632
G01 X547.873 Y653.363
G01 X576.505 Y689.710
G01 X597.606 Y732.131
G01 X609.910 Y778.724
G01 X612.647 Y827.330
G01 X605.586 Y875.672
G01 X589.054 Y921.478
G01 X563.913 Y962.625
G01 X531.508 Y997.260
G01 X493.592 Y1023.909
G01 X452.218 Y1041.565
G01 X409.616 Y1049.746
G01 X368.063 Y1048.524
G01 X329.748 Y1038.518
G01 X296.638 Y1020.855
G01 X270.365 Y997.103
G01 X252.128 Y969.177
G01 X242.624 Y939.220
G01 X242.002 Y909.476
G01 X249.863 Y882.155
G01 X265.278 Y859.299
G01 X286.849 Y842.660
G01 X312.793 Y833.594
G01 X341.048 Y832.976
G01 X369.399 Y841.155
G01 X395.613 Y857.923
G01 X417.571 Y882.533
G01 X433.398 Y913.742
G01 X441.577 Y949.882
G01 X441.038 Y988.964
G01 X431.228 Y1028.793
G01 X412.142 Y1067.100
G01 X384.326 Y1101.679
G01 X348.844 Y1130.515
G01 X307.221 Y1151.909
G01 X261.346 Y1164.576
G01 X213.367 Y1167.726
G01 X165.560 Y1161.106
G01 X120.195 Y1145.020
G01 X79.404 Y1120.309
G01 X45.052 Y1088.301
G01 X18.628 Y1050.733
G01 X5.000 Y1018.683
G01 X5.000 Y887.170
G01 X22.625 Y854.612
G01 X46.663 Y828.362
G01 X74.940 Y810.134
G01 X105.320 Y800.642
G01 X135.558 Y800.061
G01 X163.439 Y808.009
G01 X186.911 Y823.579
G01 X204.208 Y845.389
G01 X213.955 Y871.666
G01 X215.254 Y900.358
G01 X207.737 Y929.252
G01 X191.586 Y956.112
G01 X167.527 Y978.809
G01 X136.785 Y995.457
G01 X101.011 Y1004.520
G01 X62.183 Y1004.909
G01 X22.490 Y996.046
G01 X5.000 Y987.758
G01 X5.000 Y586.846
G01 X37.925 Y572.895
G01 X80.073 Y565.047
G01 X121.299 Y566.606
G01 X159.405 Y576.992
G01 X192.401 Y595.115
G01 X218.627 Y619.435
G01 X236.847 Y648.060
G01 X246.324 Y678.859
G01 X246.866 Y709.587
G01 X238.831 Y738.025
G01 X223.109 Y762.110
G01 X201.064 Y780.063
G01 X174.456 Y790.489
G01 X145.331 Y792.470
G01 X115.897 Y785.614
G01 X88.396 Y770.082
G01 X64.961 Y746.576
G01 X47.495 Y716.304
G01 X37.550 Y680.898
G01 X36.235 Y642.328
G01 X44.152 Y602.774
G01 X61.351 Y564.505
G01 X87.334 Y529.735
G01 X121.078 Y500.500
G01 X161.095 Y478.526
G01 X205.524 Y465.135
G01 X252.237 Y461.160
G01 X298.966 Y466.897
G01 X343.437 Y482.087
G01 X383.506 Y505.931
G01 X417.286 Y537.138
G01 X443.255 Y574.001
G01 X460.352 Y614.498
G01 X468.034 Y656.414
G01 X466.309 Y697.472
G01 X455.735 Y735.468
G01 X437.386 Y768.404
G01 X412.787 Y794.603
G01 X383.817 Y812.812
G01 X352.603 Y822.276
G01 X321.388 Y822.779
G01 X292.397 Y814.659
G01 X267.701 Y798.786
G01 X249.095 Y776.509
G01 X237.991 Y749.574
G01 X235.329 Y720.019
G01 X241.524 Y690.050
G01 X256.436 Y661.910
G01 X279.386 Y637.742
G01 X309.187 Y619.460
G01 X344.220 Y608.634
G01 X382.530 Y606.394
G01 X421.940 Y613.364
G01 X460.186 Y629.619
G01 X495.045 Y654.683
G01 X524.477 Y687.554
G01 X546.737 Y726.764
G01 X560.487 Y770.465
G01 X564.874 Y816.539
G01 X559.579 Y862.723
G01 X544.839 Y906.742
G01 X521.432 Y946.446
G01 X490.629 Y979.936
G01 X454.124 Y1005.676
G01 X413.927 Y1022.585
G01 X372.247 Y1030.100
G01 X331.361 Y1028.209
G01 X293.478 Y1017.450
G01 X260.606 Y998.878
G01 X234.435 Y974.001
G01 X216.237 Y944.691
G01 X206.787 Y913.065
G01 X206.323 Y881.368
G01 X214.526 Y851.826
G01 X230.547 Y826.522
G01 X253.054 Y807.266
G01 X280.312 Y795.486
G01 X310.294 Y792.143
G01 X340.795 Y797.676
G01 X369.570 Y811.968
G01 X394.469 Y834.361
G01 X413.564 Y863.687
G01 X425.269 Y898.344
G01 X428.432 Y936.390
G01 X422.408 Y975.653
G01 X407.098 Y1013.871
G01 X382.956 Y1048.818
G01 X350.960 Y1078.442
G01 X312.560 Y1100.987
G01 X269.590 Y1115.096
G01 X224.158 Y1119.894
G01 X178.523 Y1115.041
G01 X134.959 Y1100.752
G01 X95.623 Y1077.784
G01 X62.426 Y1047.389
G01 X36.918 Y1011.244
G01 X20.198 Y971.350
G01 X12.849 Y929.910
G01 X14.904 Y889.199
G01 X25.847 Y851.432
G01 X44.640 Y818.626
G01 X69.791 Y792.486
G01 X99.439 Y774.301
G01 X131.472 Y764.866
G01 X163.649 Y764.439
G01 X193.738 Y772.724
G01 X219.646 Y788.891
G01 X239.551 Y811.624
G01 X252.006 Y839.204
G01 X256.028 Y869.608
G01 X251.157 Y900.637
G01 X237.487 Y930.044
G01 X215.653 Y955.670
G01 X186.804 Y975.576
G01 X152.525 Y988.158
G01 X114.748 Y992.244
G01 X75.635 Y987.166
G01 X37.448 Y972.802
G01 X5.000 Y951.294
G01 X5.000 Y630.876
G01 X36.641 Y608.525
G01 X76.228 Y591.995
G01 X117.425 Y584.812
G01 X157.957 Y587.032
G01 X195.605 Y598.157
G01 X228.342 Y617.168
G01 X254.449 Y642.589
G01 X272.621 Y672.572
G01 X282.041 Y705.009
G01 X282.431 Y737.662
G01 X274.064 Y768.294
G01 X257.754 Y794.804
G01 X234.797 Y815.356
G01 X206.900 Y828.483
G01 X176.077 Y833.184
G01 X144.523 Y828.976
G01 X114.488 Y815.928
G01 X88.138 Y794.655
G01 X67.424 Y766.286
G01 X53.967 Y732.388
G01 X48.959 Y694.883
G01 X53.091 Y655.923
G01 X66.508 Y617.772
G01 X88.805 Y582.660
G01 X119.044 Y552.659
G01 X155.814 Y529.552
G01 X197.311 Y514.731
G01 X241.448 Y509.112
G01 X285.976 Y513.079
G01 X328.619 Y526.462
G01 X367.209 Y548.547
G01 X399.814 Y578.119
G01 X424.854 Y613.532
G01 X441.194 Y652.809
G01 X448.210 Y693.759
G01 X445.827 Y734.108
G01 X434.521 Y771.634
G01 X415.294 Y804.299
G01 X389.605 Y830.372
G01 X359.292 Y848.529
G01 X326.454 Y857.933
G01 X293.329 Y858.286
G01 X262.157 Y849.840
G01 X235.048 Y833.388
G01 X213.853 Y810.210
G01 X200.054 Y781.999
G01 X194.675 Y750.760
G01 X198.221 Y718.686
G01 X210.645 Y688.026
G01 X231.355 Y660.954
G01 X259.242 Y639.435
G01 X292.755 Y625.105
G01 X329.986 Y619.177
G01 X368.787 Y622.363
G01 X406.900 Y634.833
G01 X442.089 Y656.205
G01 X472.275 Y685.562
G01 X495.659 Y721.513
G01 X510.834 Y762.269
G01 X516.863 Y805.753
G01 X513.339 Y849.721
G01 X500.411 Y891.898
G01 X478.770 Y930.110
G01 X449.614 Y962.416
G01 X414.571 Y987.219
G01 X375.608 Y1003.367
G01 X334.908 Y1010.217
G01 X294.746 Y1007.671
G01 X257.345 Y996.187
G01 X224.755 Y976.745
G01 X198.719 Y950.792
G01 X180.579 Y920.152
G01 X171.190 Y886.917
G01 X170.874 Y853.323
G01 X179.398 Y821.615
G01 X195.990 Y793.910
G01 X219.386 Y772.073
G01 X247.907 Y757.604
G01 X279.558 Y751.548
G01 X312.150 Y754.432
G01 X343.431 Y766.232
G01 X371.220 Y786.377
G01 X393.542 Y813.780
G01 X408.743 Y846.904
G01 X415.591 Y883.857
G01 X413.350 Y922.497
G01 X401.828 Y960.568
G01 X381.383 Y995.831
G01 X352.910 Y1026.198
G01 X317.781 Y1049.858
G01 X277.769 Y1065.385
G01 X234.942 Y1071.823
G01 X191.536 Y1068.743
G01 X149.828 Y1056.270
G01 X111.997 Y1035.076
G01 X79.994 Y1006.338
G01 X55.430 Y971.668
G01 X39.474 Y933.023
G01 X32.791 Y892.577
G01 X35.499 Y852.604
G01 X47.160 Y815.333
G01 X66.813 Y782.819
G01 X93.028 Y756.823
G01 X123.992 Y738.700
G01 X157.620 Y729.328
G01 X191.679 Y729.048
G01 X223.921 Y737.649
G01 X252.218 Y754.378
G01 X274.694 Y777.990
G01 X289.831 Y806.818
G01 X296.563 Y838.878
G01 X294.342 Y871.983
G01 X283.167 Y903.882
G01 X263.589 Y932.386
G01 X236.673 Y955.508
G01 X203.939 Y971.578
G01 X167.269 Y979.344
G01 X128.794 Y978.048
G01 X90.768 Y967.474
G01 X55.435 Y947.958
G01 X24.890 Y920.370
G01 X5.000 Y891.862
G01 X5.000 Y698.692
G01 X13.630 Y683.114
G01 X41.948 Y651.416
G01 X76.240 Y627.092
G01 X114.565 Y611.330
G01 X154.753 Y604.814
G01 X194.533 Y607.682
G01 X231.671 Y619.519
G01 X264.105 Y639.382
G01 X290.060 Y665.855
G01 X308.164 Y697.140
G01 X317.519 Y731.158
G01 X317.763 Y765.678
G01 X309.087 Y798.449
G01 X292.222 Y827.337
G01 X268.397 Y850.449
G01 X239.265 Y866.252
G01 X206.801 Y873.660
G01 X173.185 Y872.101
G01 X140.672 Y861.553
G01 X111.457 Y842.543
G01 X87.537 Y816.116
G01 X70.600 Y783.776
G01 X61.918 Y747.391
G01 X62.269 Y709.085
G01 X71.894 Y671.109
G01 X90.481 Y635.708
G01 X117.180 Y604.987
G01 X150.656 Y580.783
G01 X189.168 Y564.556
G01 X230.672 Y557.302
G01 X272.941 Y559.495
G01 X313.700 Y571.052
G01 X350.760 Y591.348
G01 X382.150 Y619.243
G01 X406.232 Y653.155
G01 X421.799 Y691.156
G01 X428.148 Y731.082
G01 X425.119 Y770.665
G01 X413.109 Y807.668
G01 X393.039 Y840.018
G01 X366.310 Y865.931
G01 X334.708 Y884.013
G01 X300.304 Y893.351
G01 X265.326 Y893.560
G01 X232.029 Y884.810
G01 X202.554 Y867.811
G01 X178.808 Y843.776
G01 X162.340 Y814.343
G01 X154.258 Y781.477
G01 X155.155 Y747.355
G01 X165.076 Y714.232
G01 X183.516 Y684.308
G01 X209.450 Y659.594
G01 X241.394 Y641.792
G01 X277.490 Y632.194
G01 X315.624 Y631.600
G01 X353.547 Y640.276
G01 X389.012 Y657.932
G01 X419.905 Y683.741
G01 X444.378 Y716.387
G01 X460.952 Y754.144
G01 X468.613 Y794.981
G01 X466.865 Y836.675
G01 X455.766 Y876.955
G01 X435.922 Y913.625
G01 X408.453 Y944.705
G01 X374.924 Y968.543
G01 X337.251 Y983.914
G01 X297.590 Y990.095
G01 X258.208 Y986.907
G01 X221.343 Y974.724
G01 X189.079 Y954.450
G01 X163.212 Y927.467
G01 X145.151 Y895.552
G01 X135.832 Y860.765
G01 X135.658 Y825.333
G01 X144.481 Y791.513
G01 X161.612 Y761.455
G01 X185.854 Y737.077
G01 X215.585 Y719.947
G01 X248.849 Y711.191
G01 X283.474 Y711.425
G01 X317.204 Y720.718
G01 X347.833 Y738.587
G01 X373.339 Y764.027
G01 X392.003 Y795.571
G01 X402.516 Y831.375
G01 X404.053 Y869.333
G01 X396.327 Y907.200
G01 X379.603 Y942.724
G01 X354.687 Y973.787
G01 X322.874 Y998.526
G01 X285.875 Y1015.447
G01 X245.709 Y1023.513
G01 X204.592 Y1022.209
G01 X164.796 Y1011.570
G01 X128.519 Y992.181
G01 X97.752 Y965.140
G01 X74.160 Y931.996
G01 X58.986 Y894.654
G01 X52.973 Y855.263
G01 X56.320 Y816.084
G01 X68.674 Y779.362
G01 X89.150 Y747.186
G01 X116.383 Y721.367
G01 X148.609 Y703.330
G01 X183.775 Y694.029
G01 X219.656 Y693.890
G01 X253.996 Y702.786
G01 X284.635 Y720.046
G01 X309.642 Y744.493
G01 X327.433 Y774.519
G01 X336.861 Y808.177
G01 X337.289 Y843.301
G01 X328.625 Y877.634
G01 X311.329 Y908.965
G01 X286.386 Y935.260
G01 X255.245 Y954.785
G01 X219.737 Y966.211
G01 X181.958 Y968.691
G01 X144.152 Y961.915
G01 X108.570 Y946.125
G01 X77.340 Y922.104
G01 X52.338 Y891.127
G01 X35.073 Y854.888
G01 X26.602 Y815.397
G01 X27.462 Y774.861
G01 X37.640 Y735.552
G01 X56.573 Y699.671
G01 X83.183 Y669.220
G01 X115.938 Y645.877
G01 X152.945 Y630.901
G01 X192.064 Y625.055
G01 X231.035 Y628.561
G01 X267.611 Y641.085
G01 X299.696 Y661.761
G01 X325.465 Y689.241
G01 X343.476 Y721.774
G01 X352.758 Y757.315
G01 X352.863 Y793.644
G01 X343.896 Y828.499
G01 X326.508 Y859.715
G01 X301.859 Y885.349
G01 X271.541 Y903.799
G01 X237.492 Y913.899
G01 X201.873 Y914.989
G01 X166.940 Y906.954
G01 X134.911 Y890.233
G01 X107.830 Y865.789
G01 X87.446 Y835.054
G01 X75.108 Y799.844
G01 X71.685 Y762.249
G01 X77.511 Y724.506
G01 X92.366 Y688.871
G01 X115.491 Y657.478
G01 X145.629 Y632.214
G01 X181.103 Y614.607
G01 X219.916 Y605.731
G01 X259.868 Y606.147
G01 X298.687 Y615.863
G01 X334.168 Y634.339
G01 X364.301 Y660.516
G01 X387.393 Y692.879
G01 X402.170 Y729.548
G01 X407.847 Y768.391
G01 X404.184 Y807.150
G01 X391.492 Y843.578
G01 X370.617 Y875.567
G01 X342.893 Y901.284
G01 X310.056 Y919.269
G01 X274.143 Y928.531
G01 X237.372 Y928.601
G01 X202.004 Y919.564
G01 X170.214 Y902.051
G01 X143.956 Y877.201
G01 X124.848 Y846.595
G01 X114.078 Y812.159
G01 X112.326 Y776.048
G01 X119.731 Y740.519
G01 X135.876 Y707.795
G01 X159.819 Y679.930
G01 X190.145 Y658.690
G01 X225.052 Y645.442
G01 X262.461 Y641.077
G01 X300.136 Y645.951
G01 X335.821 Y659.870
G01 X367.375 Y682.096
G01 X392.898 Y711.393
G01 X410.846 Y746.100
G01 X420.125 Y784.232
G01 X420.153 Y823.595
G01 X410.899 Y861.920
G01 X392.882 Y896.998
G01 X367.141 Y926.810
G01 X335.174 Y949.650
G01 X298.846 Y964.226
G01 X260.283 Y969.735
G01 X221.738 Y965.914
G01 X185.464 Y953.055
G01 X153.571 Y931.985
G01 X127.909 Y904.019
G01 X109.953 Y870.881
G01 X100.712 Y834.600
G01 X100.676 Y797.389
G01 X109.782 Y761.513
G01 X127.419 Y729.151
G01 X152.466 Y702.272
G01 X183.357 Y682.510
G01 X218.177 Y671.070
G01 X254.776 Y668.656
G01 X290.898 Y675.430
G01 X324.314 Y690.997
G01 X352.959 Y714.437
G01 X375.053 Y744.351
G01 X389.210 Y778.953
G01 X394.517 Y816.171
G01 X390.594 Y853.775
G01 X377.612 Y889.507
G01 X356.286 Y921.218
G01 X327.833 Y946.997
G01 X293.897 Y965.284
G01 X256.450 Y974.966
G01 X217.680 Y975.438
G01 X179.852 Y966.648
G01 X145.180 Y949.092
G01 X115.692 Y923.789
G01 X93.106 Y892.219
G01 X78.732 Y856.237
G01 X73.392 Y817.957
G01 X77.370 Y779.631
G01 X90.395 Y743.512
G01 X111.659 Y711.720
G01 X139.863 Y686.115
G01 X173.298 Y668.188
G01 X209.944 Y658.969
G01 X247.591 Y658.967
G01 X283.973 Y668.141
G01 X316.902 Y685.901
G01 X344.400 Y711.142
G01 X364.816 Y742.315
G01 X376.924 Y777.516
G01 X379.999 Y814.599
G01 X373.857 Y851.310
G01 X358.868 Y885.414
G01 X335.935 Y914.837
G01 X306.435 Y937.783
G01 X272.142 Y952.847
G01 X235.118 Y959.096
G01 X197.588 Y956.124
G01 X161.814 Y944.080
G01 X129.948 Y923.657
G01 X103.915 Y896.051
G01 X85.291 Y862.889
G01 X75.208 Y826.131
G01 X74.292 Y787.956
G01 X82.618 Y750.629
G01 X99.712 Y716.367
G01 X124.574 Y687.205
G01 X155.742 Y664.875
G01 X191.376 Y650.705
G01 X229.369 Y645.535
G01 X267.473 Y649.669
G01 X303.433 Y662.858
G01 X335.122 Y684.313
G01 X360.667 Y712.754
G01 X378.562 Y746.483
G01 X387.759 Y783.490
G01 X387.726 Y821.569
G01 X378.486 Y858.453
G01 X360.606 Y891.947
G01 X335.172 Y920.061
G01 X303.720 Y941.128
G01 X268.143 Y953.903
G01 X230.578 Y957.639
G01 X193.282 Y952.129
G01 X158.493 Y937.721
G01 X128.295 Y915.296
G01 X104.499 Y886.214
G01 X88.529 Y852.233
G01 X81.341 Y815.406
G01 X83.361 Y777.955
G01 X94.465 Y742.140
G01 X113.983 Y710.124
G01 X140.740 Y683.840
G01 X173.126 Y664.880
G01 X209.192 Y654.397
G01 X246.767 Y653.036
G01 X283.589 Y660.897
G01 X317.439 Y677.527
G01 X346.271 Y701.947
G01 X368.342 Y732.711
G01 X382.308 Y767.993
G01 X387.308 Y805.696
G01 X383.018 Y843.574
G01 X369.666 Y879.371
G01 X348.021 Y910.953
G01 X319.347 Y936.436
G01 X285.327 Y954.298
G01 X247.963 Y963.472
G01 X209.455 Y963.405
G01 X172.073 Y954.098
G01 X138.018 Y936.100
G01 X109.290 Y910.477
G01 X87.574 Y878.749
G01 X74.133 Y842.798
G01 X69.736 Y804.756
G01 X74.613 Y766.878
G01 X88.439 Y731.407
G01 X110.354 Y700.437
G01 X139.016 Y675.794
G01 X172.681 Y658.920
G01 X209.307 Y650.792
G01 X246.676 Y651.860
G01 X282.527 Y662.024
G01 X314.691 Y680.635
G01 X341.224 Y706.540
G01 X360.518 Y738.146
G01 X371.400 Y773.516
G01 X373.204 Y810.488
G01 X365.809 Y846.803
G01 X349.645 Y880.236
G01 X325.670 Y908.737
G01 X295.313 Y930.546
G01 X260.386 Y944.306
G01 X222.977 Y949.136
G01 X185.329 Y944.690
G01 X149.698 Y931.176
G01 X118.225 Y909.344
G01 X92.806 Y880.439
G01 X74.979 Y846.132
G01 X65.830 Y808.413
G01 X65.930 Y769.481
G01 X75.303 Y731.604
G01 X93.418 Y696.990
G01 X119.228 Y667.652
G01 X151.229 Y645.289
G01 X187.551 Y631.183
G01 X226.066 Y626.126
G01 X264.522 Y630.370
G01 X300.671 Y643.612
G01 X332.410 Y665.015
G01 X357.898 Y693.254
G01 X375.675 Y726.600
G01 X384.742 Y763.021
G01 X384.626 Y800.304
G01 X375.404 Y836.188
G01 X357.700 Y868.497
G01 X332.650 Y895.276
G01 X301.828 Y914.901
G01 X267.157 Y926.182
G01 X230.791 Y928.430
G01 X194.989 Y921.501
G01 X161.975 Y905.804
G01 X133.809 Y882.276
G01 X112.262 Y852.329
G01 X98.710 Y817.761
G01 X94.051 Y780.650
G01 X98.653 Y743.235
G01 X112.327 Y707.773
G01 X134.345 Y676.413
G01 X163.477 Y651.061
G01 X198.069 Y633.271
G01 X236.138 Y624.147
G01 X275.491 Y624.281
G01 X313.859 Y633.718
G01 X349.028 Y651.948
G01 X378.974 Y677.943
G01 X401.983 Y710.215
G01 X416.752 Y746.902
G01 X422.469 Y785.887
G01 X418.859 Y824.918
G01 X406.202 Y861.742
G01 X385.314 Y894.247
G01 X357.501 Y920.578
G01 X324.476 Y939.256
G01 X288.264 Y949.261
G01 X251.070 Y950.097
G01 X215.157 Y941.818
G01 X182.706 Y925.025
G01 X155.683 Y900.831
G01 X135.728 Y870.795
G01 X124.051 Y836.826
G01 X121.360 Y801.071
G01 X127.822 Y765.784
G01 X143.050 Y733.193
G01 X166.128 Y705.365
G01 X195.662 Y684.083
G01 X229.869 Y670.741
G01 X266.678 Y666.253
G01 X303.857 Y671.010
G01 X339.145 Y684.844
G01 X370.390 Y707.045
G01 X395.672 Y736.403
G01 X413.424 Y771.276
G01 X422.522 Y809.691
G01 X422.353 Y849.462
G01 X412.853 Y888.318
G01 X394.509 Y924.039
G01 X368.332 Y954.590
G01 X335.793 Y978.242
G01 X298.743 Y993.673
G01 X259.291 Y1000.049
G01 X219.690 Y997.073
G01 X182.193 Y985.002
G01 X148.926 Y964.631
G01 X121.755 Y937.246
G01 X102.178 Y904.548
G01 X91.235 Y868.547
G01 X89.446 Y831.446
G01 X96.782 Y795.508
G01 X112.663 Y762.918
G01 X135.998 Y735.655
G01 X165.244 Y715.372
G01 X198.507 Y703.298
G01 X233.648 Y700.164
G01 X268.416 Y706.158
G01 X300.581 Y720.917
G01 X328.068 Y743.542
G01 X349.082 Y772.661
G01 X362.215 Y806.502
G01 X366.530 Y843.006
G01 X361.618 Y879.945
G01 X347.626 Y915.057
G01 X325.243 Y946.183
G01 X295.663 Y971.393
G01 X260.512 Y989.105
G01 X221.753 Y998.176
G01 X181.568 Y997.973
G01 X142.229 Y988.410
G01 X105.959 Y969.954
G01 X74.806 Y943.597
G01 X50.513 Y910.794
G01 X34.421 Y873.384
G01 X27.386 Y833.469
G01 X29.727 Y793.301
G01 X41.210 Y755.136
G01 X61.063 Y721.109
G01 X88.016 Y693.100
G01 X120.386 Y672.625
G01 X156.172 Y660.745
G01 X193.176 Y658.005
G01 X229.136 Y664.396
G01 X261.862 Y679.363
G01 X289.363 Y701.836
G01 X309.972 Y730.289
G01 X322.440 Y762.843
G01 X326.017 Y797.366
G01 X320.491 Y831.612
G01 X306.204 Y863.348
G01 X284.033 Y890.491
G01 X255.332 Y911.235
G01 X221.859 Y924.156
G01 X185.664 Y928.298
G01 X148.970 Y923.232
G01 X114.038 Y909.083
G01 X83.034 Y886.520
G01 X57.898 Y856.720
G01 X40.228 Y821.294
G01 X31.185 Y782.195
G01 X31.423 Y741.600
G01 X41.047 Y701.780
G01 X59.614 Y664.965
G01 X86.149 Y633.212
G01 X119.212 Y608.280
G01 X156.979 Y591.529
G01 X197.352 Y583.835
G01 X238.085 Y585.541
G01 X276.914 Y596.436
G01 X311.698 Y615.768
G01 X340.543 Y642.287
G01 X361.914 Y674.325
G01 X374.729 Y709.892
G01 X378.422 Y746.795
G01 X372.976 Y782.774
G01 X358.924 Y815.632
G01 X337.317 Y843.369
G01 X309.658 Y864.301
G01 X277.818 Y877.164
G01 X243.916 Y881.183
G01 X210.196 Y876.125
G01 X178.893 Y862.312
G01 X152.096 Y840.597
G01 X131.624 Y812.318
G01 X118.917 Y779.217
G01 X114.949 Y743.334
G01 X120.169 Y706.887
G01 X134.475 Y672.138
G01 X157.215 Y641.259
G01 X187.233 Y616.200
G01 X222.931 Y598.575
G01 X262.366 Y589.561
G01 X303.367 Y589.833
G01 X343.664 Y599.519
G01 X381.021 Y618.194
G01 X413.371 Y644.904
G01 X438.939 Y678.226
G01 X456.348 Y716.346
G01 X464.700 Y757.175
G01 X463.629 Y798.467
G01 X453.324 Y837.957
G01 X434.516 Y873.496
G01 X408.433 Y903.173
G01 X376.731 Y925.439
G01 X341.386 Y939.189
G01 X304.587 Y943.834
G01 X268.593 Y939.335
G01 X235.606 Y926.200
G01 X207.636 Y905.459
G01 X186.382 Y878.599
G01 X173.128 Y847.476
G01 X168.666 Y814.198
G01 X173.255 Y781.008
G01 X186.594 Y750.142
G01 X207.850 Y723.694
G01 X235.705 Y703.496
G01 X268.431 Y691.004
G01 X303.998 Y687.211
G01 X340.194 Y692.585
G01 X374.756 Y707.046
G01 X405.506 Y729.962
G01 X430.486 Y760.195
G01 X448.065 Y796.161
G01 X457.049 Y835.929
G01 X456.742 Y877.333
G01 X446.995 Y918.103
G01 X428.213 Y955.999
G01 X401.329 Y988.943
G01 X367.753 Y1015.146
G01 X329.283 Y1033.211
G01 X288.002 Y1042.221
G01 X246.154 Y1041.786
G01 X206.006 Y1032.072
G01 X169.717 Y1013.788
G01 X139.208 Y988.145
G01 X116.050 Y956.781
G01 X101.366 Y921.662
G01 X95.768 Y884.970
G01 X99.321 Y848.965
G01 X111.537 Y815.852
G01 X131.408 Y787.653
G01 X157.466 Y766.079
G01 X187.871 Y752.433
G01 X220.519 Y747.531
G01 X253.176 Y751.649
G01 X283.603 Y764.512
G01 X309.698 Y785.308
G01 X329.619 Y812.736
G01 X341.894 Y845.084
G01 X345.513 Y880.331
G01 X339.984 Y916.272
G01 X325.370 Y950.643
G01 X302.279 Y981.263
G01 X271.834 Y1006.160
G01 X235.602 Y1023.692
G01 X195.505 Y1032.644
G01 X153.701 Y1032.302
G01 X112.461 Y1022.495
G01 X74.031 Y1003.607
G01 X40.496 Y976.553
G01 X13.661 Y942.724
G01 X5.000 Y924.767
G01 X5.000 Y756.437
G01 X11.951 Y741.938
G01 X37.152 Y710.602
G01 X68.175 Y686.553
G01 X103.064 Y670.936
G01 X139.645 Y664.386
G01 X175.658 Y666.991
G01 X208.893 Y678.286
G01 X237.320 Y697.286
G01 X259.211 Y722.539
G01 X273.247 Y752.220
G01 X278.590 Y784.237
G01 X274.942 Y816.356
G01 X262.556 Y846.341
G01 X242.223 Y872.081
G01 X215.225 Y891.722
G01 X183.259 Y903.779
G01 X148.334 Y907.221
G01 X112.652 Y901.539
G01 X78.475 Y886.771
G01 X47.989 Y863.508
G01 X23.177 Y832.853
G01 X5.695 Y796.359
G01 X5.000 Y793.208
G01 X5.000 Y680.565
G01 X7.019 Y672.031
G01 X26.011 Y633.068
G01 X53.234 Y598.945
G01 X87.313 Y571.480
G01 X126.472 Y552.105
G01 X168.645 Y541.783
G01 X211.596 Y540.946
G01 X253.049 Y549.474
G01 X290.831 Y566.702
G01 X322.992 Y591.459
G01 X347.930 Y622.137
G01 X364.479 Y656.792
G01 X371.981 Y693.258
G01 X370.326 Y729.276
G01 X359.952 Y762.630
G01 X341.826 Y791.282
G01 X317.381 Y813.488
G01 X288.426 Y827.912
G01 X257.046 Y833.697
G01 X225.467 Y830.519
G01 X195.929 Y818.611
G01 X170.547 Y798.742
G01 X151.187 Y772.177
G01 X139.350 Y740.596
G01 X136.085 Y705.998
G01 X141.922 Y670.578
G01 X156.841 Y636.598
G01 X180.275 Y606.250
G01 X211.137 Y581.526
G01 X247.891 Y564.096
G01 X288.637 Y555.210
G01 X331.228 Y555.623
G01 X373.396 Y565.548
G01 X412.888 Y584.643
G01 X447.596 Y612.032
G01 X475.689 Y646.357
G01 X495.715 Y685.856
G01 X506.693 Y728.471
G01 X508.166 Y771.967
G01 X500.232 Y814.068
G01 X483.535 Y852.590
G01 X459.226 Y885.575
G01 X428.896 Y911.400
G01 X394.477 Y928.880
G01 X358.129 Y937.334
G01 X322.111 Y936.628
G01 X288.641 Y927.178
G01 X259.768 Y909.929
G01 X237.248 Y886.293
G01 X222.437 Y858.069
G01 X216.212 Y827.327
G01 X218.919 Y796.293
G01 X230.347 Y767.205
G01 X249.749 Y742.185
G01 X275.879 Y723.109
G01 X307.072 Y711.494
G01 X341.341 Y708.406
G01 X376.494 Y714.397
G01 X410.273 Y729.468
G01 X440.480 Y753.070
G01 X465.114 Y784.137
G01 X482.490 Y821.147
G01 X491.341 Y862.212
G01 X490.892 Y905.192
G01 X480.909 Y947.819
G01 X461.713 Y987.836
G01 X434.159 Y1023.126
G01 X399.590 Y1051.844
G01 X359.755 Y1072.521
G01 X316.703 Y1084.154
G01 X272.665 Y1086.264
G01 X229.920 Y1078.925
G01 X190.659 Y1062.760
G01 X156.854 Y1038.902
G01 X130.144 Y1008.922
G01 X111.734 Y974.743
G01 X102.328 Y938.518
G01 X102.085 Y902.502
G01 X110.609 Y868.919
G01 X126.980 Y839.828
G01 X149.802 Y816.996
G01 X177.293 Y801.800
G01 X207.391 Y795.136
G01 X237.878 Y797.371
G01 X266.513 Y808.319
G01 X291.168 Y827.252
G01 X309.958 Y852.944
G01 X321.349 Y883.746
G01 X324.258 Y917.681
G01 X318.113 Y952.565
G01 X302.892 Y986.139
G01 X279.123 Y1016.202
G01 X247.853 Y1040.743
G01 X210.590 Y1058.063
G01 X169.209 Y1066.878
G01 X125.845 Y1066.393
G01 X82.762 Y1056.352
G01 X42.224 Y1037.055
G01 X6.354 Y1009.339
G01 X5.000 Y1007.733
G01 X5.000 Y711.001
G01 X16.058 Y700.701
G01 X49.993 Y681.363
G01 X86.093 Y671.006
G01 X122.102 Y669.811
G01 X155.794 Y677.409
G01 X185.102 Y692.898
G01 X208.242 Y714.904
G01 X223.822 Y741.659
G01 X230.925 Y771.110
G01 X229.162 Y801.045
G01 X218.696 Y829.224
G01 X200.234 Y853.512
G01 X174.982 Y872.012
G01 X144.575 Y883.178
G01 X110.977 Y885.907
G01 X76.366 Y879.608
G01 X43.000 Y864.238
G01 X13.085 Y840.303
G01 X5.000 Y829.894
G01 X5.000 Y585.098
G01 X20.492 Y564.844
G01 X55.539 Y534.882
G01 X96.038 Y512.909
G01 X139.954 Y499.969
G01 X185.064 Y496.586
G01 X229.086 Y502.730
G01 X269.815 Y517.824
G01 X305.253 Y540.776
G01 X333.728 Y570.044
G01 X353.993 Y603.732
G01 X365.302 Y639.702
G01 X367.448 Y675.702
G01 X360.779 Y709.500
G01 X346.172 Y739.020
G01 X324.986 Y762.467
G01 X298.971 Y778.430
G01 X270.170 Y785.972
G01 X240.790 Y784.680
G01 X213.072 Y774.697
G01 X189.155 Y756.708
G01 X170.946 Y731.899
G01 X160.007 Y701.890
G01 X157.458 Y668.633
G01 X163.911 Y634.299
G01 X179.431 Y601.144
G01 X203.530 Y571.380
G01 X235.197 Y547.033
G01 X272.958 Y529.831
G01 X314.960 Y521.092
G01 X359.083 Y521.652
G01 X403.065 Y531.807
G01 X444.637 Y551.300
G01 X481.657 Y579.333
G01 X512.236 Y614.617
G01 X534.855 Y655.442
G01 X548.447 Y699.785
G01 X552.467 Y745.426
G01 X546.921 Y790.081
G01 X532.365 Y831.539
G01 X509.871 Y867.789
G01 X480.963 Y897.143
G01 X447.525 Y918.335
G01 X411.689 Y930.595
G01 X375.703 Y933.693
G01 X341.802 Y927.953
G01 X312.071 Y914.232
G01 X288.320 Y893.868
G01 X271.976 Y868.597
G01 X263.997 Y840.449
G01 X264.816 Y811.628
G01 X274.315 Y784.374
G01 X291.830 Y760.830
G01 X316.193 Y742.916
G01 X345.801 Y732.206
G01 X378.714 Y729.839
G01 X412.768 Y736.446
G01 X445.707 Y752.113
G01 X475.317 Y776.375
G01 X499.562 Y808.237
G01 X516.703 Y846.242
G01 X525.401 Y888.550
G01 X524.804 Y933.046
G01 X514.592 Y977.473
G01 X495.003 Y1019.557
G01 X466.814 Y1057.147
G01 X431.297 Y1088.342
G01 X390.149 Y1111.605
G01 X345.383 Y1125.849
G01 X299.215 Y1130.506
G01 X253.929 Y1125.559
G01 X211.746 Y1111.543
G01 X174.686 Y1089.509
G01 X144.455 Y1060.964
G01 X122.337 Y1027.780
G01 X109.127 Y992.080
G01 X105.076 Y956.111
G01 X109.885 Y922.112
G01 X122.718 Y892.174
G01 X142.258 Y868.120
G01 X166.782 Y851.396
G01 X194.272 Y842.980
G01 X222.531 Y843.327
G01 X249.318 Y852.341
G01 X272.485 Y869.379
G01 X290.103 Y893.293
G01 X300.582 Y922.498
G01 X302.767 Y955.063
G01 X296.005 Y988.833
G01 X280.190 Y1021.553
G01 X255.768 Y1051.006
G01 X223.712 Y1075.147
G01 X185.466 Y1092.223
G01 X142.856 Y1100.880
G01 X97.989 Y1100.244
G01 X53.122 Y1089.977
G01 X10.530 Y1070.292
G01 X5.000 Y1066.185
G01 X5.000 Y688.826
G01 X32.528 Y677.864
G01 X68.476 Y672.860
G01 X102.572 Y676.737
G01 X132.714 Y688.680
G01 X157.067 Y707.392
G01 X174.169 Y731.166
G01 X183.021 Y757.995
G01 X183.147 Y785.688
G01 X174.620 Y812.005
G01 X158.060 Y834.791
G01 X134.596 Y852.110
G01 X105.799 Y862.356
G01 X73.585 Y864.357
G01 X40.103 Y857.440
G01 X7.606 Y841.479
G01 X5.000 Y839.292
G01 X5.000 Y515.515
G01 X23.900 Y498.482
G01 X65.686 Y473.937
G01 X111.288 Y458.393
G01 X158.499 Y452.462
G01 X205.034 Y456.207
G01 X248.659 Y469.139
G01 X287.329 Y490.246
G01 X319.310 Y518.055
G01 X343.274 Y550.721
G01 X358.384 Y586.137
G01 X364.341 Y622.060
G01 X361.399 Y656.248
G01 X350.347 Y686.592
G01 X332.466 Y711.242
G01 X309.445 Y728.720
G01 X283.280 Y738.008
G01 X256.157 Y738.606
G01 X230.315 Y730.566
G01 X207.912 Y714.487
G01 X190.895 Y691.477
G01 X180.883 Y663.090
G01 X179.067 Y631.230
G01 X186.139 Y598.040
G01 X202.247 Y565.768
G01 X226.985 Y536.639
G01 X259.420 Y512.715
G01 X298.141 Y495.775
G01 X341.344 Y487.206
G01 X386.941 Y487.920
G01 X432.679 Y498.298
G01 X476.276 Y518.169
G01 X515.559 Y546.814
G01 X548.588 Y583.012
G01 X573.771 Y625.112
G01 X589.964 Y671.126
G01 X596.532 Y718.854
G01 X593.388 Y766.007
G01 X581.001 Y810.348
G01 X560.361 Y849.821
G01 X532.925 Y882.672
G01 X500.523 Y907.557
G01 X465.255 Y923.617
G01 X429.360 Y930.529
G01 X395.083 Y928.521
G01 X364.541 Y918.364
G01 X339.596 Y901.316
G01 X321.743 Y879.051
G01 X312.020 Y853.555
G01 X310.949 Y827.005
G01 X318.501 Y801.640
G01 X334.098 Y779.623
G01 X356.652 Y762.911
G01 X384.626 Y753.136
G01 X416.128 Y751.506
G01 X449.023 Y758.733
G01 X481.065 Y774.986
G01 X510.027 Y799.881
G01 X533.838 Y832.502
G01 X550.707 Y871.456
G01 X559.230 Y914.951
G01 X558.476 Y960.907
G01 X548.042 Y1007.075
G01 X528.080 Y1051.170
G01 X499.287 Y1091.011
G01 X462.867 Y1124.645
G01 X420.457 Y1150.466
G01 X374.033 Y1167.306
G01 X325.793 Y1174.510
G01 X278.024 Y1171.970
G01 X232.970 Y1160.129
G01 X192.699 Y1139.959
G01 X158.979 Y1112.898
G01 X133.173 Y1080.764
G01 X116.164 Y1045.647
G01 X108.299 Y1009.783
G01 X109.370 Y975.421
G01 X118.631 Y944.683
G01 X134.843 Y919.446
G01 X156.348 Y901.219
G01 X181.173 Y891.063
G01 X207.145 Y889.519
G01 X232.029 Y896.582
G01 X253.656 Y911.695
G01 X270.061 Y933.791
G01 X279.598 Y961.349
G01 X281.040 Y992.489
G01 X273.658 Y1025.085
G01 X257.260 Y1056.893
G01 X232.210 Y1085.685
G01 X199.405 Y1109.380
G01 X160.222 Y1126.176
G01 X116.438 Y1134.652
G01 X70.126 Y1133.857
G01 X23.532 Y1123.368
G01 X5.000 Y1115.034
G01 X5.000 Y678.551
G01 X14.790 Y676.141
G01 X49.235 Y676.274
G01 X80.164 Y684.637
G01 X105.692 Y700.010
G01 X124.290 Y720.753
G01 X134.879 Y744.902
G01 X136.896 Y770.294
G01 X130.323 Y794.692
G01 X115.695 Y815.927
G01 X94.061 Y832.022
G01 X66.922 Y841.318
G01 X36.147 Y842.572
G01 X5.000 Y835.301
G01 X5.000 Y454.343
G01 X35.424 Y435.186
G01 X82.656 Y417.054
G01 X131.910 Y408.576
G01 X180.900 Y409.909
G01 X227.369 Y420.653
G01 X269.229 Y439.877
G01 X304.681 Y466.179
G01 X332.322 Y497.768
G01 X351.227 Y532.571
G01 X361.003 Y568.360
G01 X361.808 Y602.884
G01 X354.345 Y634.002
G01 X339.814 Y659.818
G01 X319.838 Y678.785
G01 X296.367 Y689.807
G01 X271.560 Y692.296
G01 X247.649 Y686.215
G01 X226.811 Y672.074
G01 X211.028 Y650.902
G01 X201.975 Y624.187
G01 X200.911 Y593.780
G01 X208.606 Y561.792
G01 X225.291 Y530.461
G01 X250.646 Y502.021
G01 X283.813 Y478.565
G01 X323.448 Y461.924
G01 X367.799 Y453.548
G01 X414.812 Y454.426
G01 X462.247 Y465.025
G01 X507.815 Y485.255
G01 X549.312 Y514.480
G01 X584.748 Y551.551
G01 X612.467 Y594.874
G01 X631.245 Y642.504
G01 X640.358 Y692.260
G01 X639.630 Y741.855
G01 X629.437 Y789.026
G01 X610.690 Y831.677
G01 X584.772 Y867.991
G01 X553.461 Y896.548
G01 X518.820 Y916.401
G01 X483.073 Y927.132
G01 X448.474 Y928.877
G01 X417.169 Y922.317
G01 X391.068 Y908.629
G01 X371.733 Y889.422
G01 X360.281 Y866.634
G01 X357.319 Y842.415
G01 X362.908 Y818.996
G01 X376.560 Y798.557
G01 X397.266 Y783.090
G01 X423.556 Y774.281
G01 X453.591 Y773.408
G01 X485.270 Y781.260
G01 X516.356 Y798.088
G01 X544.616 Y823.594
G01 X567.947 Y856.938
G01 X584.508 Y896.795
G01 X592.832 Y941.425
G01 X591.910 Y988.783
G01 X581.257 Y1036.633
G01 X560.939 Y1082.685
G01 X531.573 Y1124.727
G01 X494.291 Y1160.759
G01 X450.670 Y1189.107
G01 X402.644 Y1208.528
G01 X352.390 Y1218.277
G01 X302.195 Y1218.154
G01 X254.324 Y1208.515
G01 X210.886 Y1190.246
G01 X173.711 Y1164.715
G01 X144.240 Y1133.685
G01 X123.441 Y1099.209
G01 X111.754 Y1063.509
G01 X109.067 Y1028.838
G01 X114.724 Y997.350
G01 X127.565 Y970.967
G01 X145.999 Y951.266
G01 X168.101 Y939.383
G01 X191.729 Y935.948
G01 X214.652 Y941.045
G01 X234.689 Y954.207
G01 X249.838 Y974.444
G01 X258.399 Y1000.306
G01 X259.080 Y1029.966
G01 X251.072 Y1061.331
G01 X234.100 Y1092.170
G01 X208.445 Y1120.245
G01 X174.925 Y1143.448
G01 X134.850 Y1159.927
G01 X89.944 Y1168.197
G01 X42.245 Y1167.231
G01 X5.000 Y1158.968
G01 X5.000 Y677.407
G01 X27.460 Y680.776
G01 X54.123 Y692.767
G01 X74.188 Y710.426
G01 X86.500 Y731.839
G01 X90.407 Y754.871
G01 X85.804 Y777.296
G01 X73.134 Y796.926
G01 X53.367 Y811.754
G01 X27.937 Y820.067
G01 X5.000 Y820.448
G01 X5.000 Y396.829
G01 X5.262 Y396.653
G01 X54.067 Y375.949
G01 X105.307 Y364.929
G01 X156.694 Y363.839
G01 X205.954 Y372.370
G01 X250.957 Y389.674
G01 X289.846 Y414.423
G01 X321.141 Y444.881
G01 X343.832 Y479.014
G01 X357.431 Y514.611
G01 X362.003 Y549.415
G01 X358.160 Y581.260
G01 X347.021 Y608.201
G01 X330.141 Y628.629
G01 X309.421 Y641.368
G01 X286.987 Y645.748
G01 X265.066 Y641.638
G01 X245.844 Y629.463
G01 X231.340 Y610.169
G01 X223.279 Y585.173
G01 X222.987 Y556.273
G01 X231.311 Y525.545
G01 X248.567 Y495.213
G01 X274.517 Y467.516
G01 X308.382 Y444.577
G01 X348.886 Y428.272
G01 X394.334 Y420.115
G01 X442.705 Y421.171
G01 X491.779 Y431.988
G01 X539.261 Y452.562
G01 X582.921 Y482.338
G01 X620.722 Y520.241
G01 X650.947 Y564.738
G01 X672.291 Y613.928
G01 X683.945 Y665.655
G01 X685.642 Y717.632
G01 X677.669 Y767.581
G01 X660.849 Y813.363
G01 X636.496 Y853.105
G01 X606.329 Y885.310
G01 X572.373 Y908.945
G01 X536.833 Y923.501
G01 X501.968 Y929.018
G01 X469.949 Y926.085
G01 X442.733 Y915.800
G01 X421.945 Y899.702
G01 X408.778 Y879.678
G01 X403.926 Y857.847
G01 X407.541 Y836.432
G01 X419.221 Y817.623
G01 X438.040 Y803.445
G01 X462.599 Y795.637
G01 X491.113 Y795.542
G01 X521.517 Y804.025
G01 X551.591 Y821.423
G01 X579.093 Y847.518
G01 X601.895 Y881.552
G01 X618.111 Y922.267
G01 X626.209 Y967.981
G01 X625.106 Y1016.683
G01 X614.235 Y1066.158
G01 X593.577 Y1114.110
G01 X563.667 Y1158.302
G01 X525.562 Y1196.688
G01 X480.779 Y1227.533
G01 X431.208 Y1249.516
G01 X378.998 Y1261.805
G01 X326.433 Y1264.109
G01 X275.798 Y1256.694
G01 X229.241 Y1240.362
G01 X188.648 Y1216.407
G01 X155.535 Y1186.535
G01 X130.956 Y1152.758
G01 X115.444 Y1117.279
G01 X108.981 Y1082.356
G01 X111.003 Y1050.167
G01 X120.431 Y1022.679
G01 X135.744 Y1001.532
G01 X155.068 Y987.939
G01 X176.292 Y982.616
G01 X197.198 Y985.735
G01 X215.591 Y996.918
G01 X229.439 Y1015.260
G01 X236.992 Y1039.379
G01 X236.889 Y1067.504
G01 X228.247 Y1097.580
G01 X210.707 Y1127.392
G01 X184.467 Y1154.696
G01 X150.266 Y1177.359
G01 X109.343 Y1193.481
G01 X63.367 Y1201.518
G01 X14.337 Y1200.368
G01 X5.000 Y1198.322
G01 X5.000 Y687.451
G01 X23.868 Y700.195
G01 X37.885 Y718.816
G01 X43.680 Y739.431
G01 X41.057 Y759.823
G01 X30.372 Y777.797
G01 X12.510 Y791.313
G01 X5.000 Y793.627
G01 X5.000 Y344.566
G01 X25.532 Y335.078
G01 X78.698 Y321.521
G01 X132.425 Y318.000
G01 X184.421 Y324.295
G01 X232.521 Y339.645
G01 X274.809 Y362.795
G01 X309.733 Y392.070
G01 X336.197 Y425.476
G01 X353.622 Y460.822
G01 X361.979 Y495.850
G01 X361.786 Y528.371
G01 X354.080 Y556.396
G01 X340.346 Y578.254
G01 X322.432 Y592.695
G01 X302.431 Y598.961
G01 X282.556 Y596.835
G01 X265.004 Y586.649
G01 X251.824 Y569.269
G01 X244.789 Y546.039
G01 X245.292 Y518.701
G01 X254.255 Y489.291
G01 X272.077 Y460.015
G01 X298.602 Y433.117
G01 X333.133 Y410.744
G01 X374.464 Y394.814
G01 X420.956 Y386.904
G01 X470.630 Y388.152
G01 X521.285 Y399.188
G01 X570.624 Y420.092
G01 X616.394 Y450.393
G01 X656.518 Y489.089
G01 X689.214 Y534.712
G01 X710.000 Y578.820
G01 X710.000 Y796.469
G01 X688.090 Y838.019
G01 X659.120 Y873.846
G01 X625.905 Y901.252
G01 X590.630 Y919.633
G01 X555.555 Y928.938
G01 X522.873 Y929.662
G01 X494.584 Y922.820
G01 X472.373 Y909.881
G01 X457.510 Y892.677
G01 X450.773 Y873.294
G01 X452.402 Y853.939
G01 X462.087 Y836.813
G01 X478.982 Y823.971
G01 X501.764 Y817.199
G01 X528.703 Y817.904
G01 X557.774 Y827.029
G01 X586.777 Y844.991
G01 X613.467 Y871.658
G01 X635.692 Y906.350
G01 X651.521 Y947.881
G01 X659.364 Y994.626
G01 X658.065 Y1044.618
G01 X646.975 Y1095.658
G01 X625.990 Y1145.453
G01 X595.562 Y1191.743
G01 X556.673 Y1232.440
G01 X510.776 Y1265.748
G01 X459.713 Y1290.271
G01 X405.606 Y1305.094
G01 X350.731 Y1309.833
G01 X297.386 Y1304.663
G01 X247.756 Y1290.302
G01 X203.783 Y1267.968
G01 X167.055 Y1239.304
G01 X138.709 Y1206.283
G01 X119.370 Y1171.084
G01 X109.117 Y1135.965
G01 X107.474 Y1103.126
G01 X113.449 Y1074.575
G01 X125.591 Y1052.014
G01 X142.081 Y1036.729
G01 X160.844 Y1029.522
G01 X179.674 Y1030.653
G01 X196.371 Y1039.835
G01 X208.872 Y1056.245
G01 X215.379 Y1078.575
G01 X214.470 Y1105.112
G01 X205.183 Y1133.841
G01 X187.080 Y1162.567
G01 X160.273 Y1189.045
G01 X125.421 Y1211.118
G01 X83.693 Y1226.844
G01 X36.697 Y1234.619
G01 X5.000 Y1233.768
G01 X5.000 Y292.116
G01 X52.093 Y278.352
G01 X108.101 Y272.393
G01 X162.780 Y276.433
G01 X213.928 Y289.797
G01 X259.576 Y311.304
G01 X298.102 Y339.344
G01 X328.326 Y371.966
G01 X349.577 Y407.003
G01 X361.732 Y442.198
G01 X365.217 Y475.344
G01 X360.983 Y504.409
G01 X350.445 Y527.666
G01 X335.392 Y543.788
G01 X317.882 Y551.936
G01 X300.111 Y551.801
G01 X284.283 Y543.628
G01 X272.473 Y528.197
G01 X266.502 Y506.778
G01 X267.825 Y481.055
G01 X277.438 Y453.020
G01 X295.822 Y424.859
G01 X322.906 Y398.815
G01 X358.072 Y377.057
G01 X400.189 Y361.544
G01 X447.675 Y353.912
G01 X498.596 Y355.369
G01 X550.773 Y366.626
G01 X601.912 Y387.849
G01 X649.740 Y418.649
G01 X692.141 Y458.102
G01 X710.000 Y481.843
G01 X710.000 Y863.913
G01 X679.406 Y893.321
G01 X644.456 Y915.529
G01 X609.227 Y928.635
G01 X575.934 Y933.044
G01 X546.615 Y929.684
G01 X523.014 Y919.952
G01 X506.475 Y905.623
G01 X497.858 Y888.744
G01 X497.494 Y871.508
G01 X505.161 Y856.120
G01 X520.099 Y844.660
G01 X541.058 Y838.962
G01 X566.369 Y840.493
G01 X594.051 Y850.271
G01 X621.925 Y868.795
G01 X647.746 Y896.017
G01 X669.342 Y931.337
G01 X684.744 Y973.644
G01 X692.302 Y1021.371
G01 X690.790 Y1072.595
G01 X679.477 Y1125.143
G01 X658.176 Y1176.723
G01 X627.255 Y1225.058
G01 X587.618 Y1268.020
G01 X540.654 Y1303.756
G01 X488.153 Y1330.798
G01 X432.205 Y1348.144
G01 X375.078 Y1355.322
G01 X319.079 Y1352.417
G01 X266.425 Y1340.059
G01 X219.113 Y1319.388
G01 X178.796 Y1291.985
G01 X146.698 Y1259.776
G01 X123.534 Y1224.916
G01 X109.476 Y1189.657
G01 X104.142 Y1156.219
G01 X106.625 Y1126.650
G01 X115.548 Y1102.707
G01 X129.150 Y1085.752
G01 X145.393 Y1076.667
G01 X162.091 Y1075.803
G01 X177.036 Y1082.962
G01 X188.143 Y1097.406
G01 X193.567 Y1117.902
G01 X191.825 Y1142.799
G01 X181.881 Y1170.125
G01 X163.217 Y1197.707
G01 X135.859 Y1223.302
G01 X100.386 Y1244.733
G01 X57.892 Y1260.021
G01 X9.926 Y1267.503
G01 X5.000 Y1267.353
G01 X5.000 Y242.130
G01 X25.501 Y235.421
G01 X83.733 Y227.021
G01 X141.038 Y228.788
G01 X195.185 Y240.134
G01 X244.152 Y259.957
G01 X286.251 Y286.711
G01 X320.219 Y318.493
G01 X345.294 Y353.162
G01 X361.259 Y388.468
G01 X368.448 Y422.186
G01 X367.725 Y452.247
G01 X360.429 Y476.868
G01 X348.292 Y494.650
G01 X333.330 Y504.671
G01 X317.721 Y506.535
G01 X303.671 Y500.394
G01 X293.280 Y486.946
G01 X288.412 Y467.382
G01 X290.581 Y443.325
G01 X300.858 Y416.723
G01 X319.804 Y389.735
G01 X347.432 Y364.602
G01 X383.205 Y343.510
G01 X426.068 Y328.458
G01 X474.500 Y321.135
G01 X526.612 Y322.820
G01 X580.253 Y334.304
G01 X633.134 Y355.836
G01 X682.967 Y387.113
G01 X710.000 Y411.447
G01 X710.000 Y902.376
G01 X698.300 Y911.186
G01 X662.975 Y928.105
G01 X629.123 Y936.224
G01 X598.820 Y936.384
G01 X573.864 Y929.906
G01 X555.670 Y918.506
G01 X545.182 Y904.190
G01 X542.818 Y889.131
G01 X548.448 Y875.534
G01 X561.396 Y865.506
G01 X580.489 Y860.920
G01 X604.121 Y863.305
G01 X630.357 Y873.750
G01 X657.042 Y892.837
G01 X681.938 Y920.598
G01 X702.856 Y956.520
G01 X710.000 Y977.116
G01 X710.000 Y1158.914
G01 X690.131 Y1207.930
G01 X658.739 Y1258.256
G01 X618.389 Y1303.436
G01 X570.403 Y1341.563
G01 X516.517 Y1371.097
G01 X458.787 Y1390.955
G01 X399.465 Y1400.577
G01 X340.868 Y1399.952
G01 X285.241 Y1389.626
G01 X234.630 Y1370.660
G01 X190.756 Y1344.568
G01 X154.923 Y1313.227
G01 X127.937 Y1278.763
G01 X110.063 Y1243.423
G01 X101.013 Y1209.440
G01 X99.968 Y1178.897
G01 X105.625 Y1153.609
G01 X116.284 Y1135.005
G01 X129.950 Y1124.050
G01 X144.456 Y1121.186
G01 X157.596 Y1126.303
G01 X167.259 Y1138.749
G01 X171.561 Y1157.369
G01 X168.957 Y1180.574
G01 X158.343 Y1206.439
G01 X139.116 Y1232.818
G01 X111.221 Y1257.474
G01 X75.153 Y1278.213
G01 X31.933 Y1293.019
G01 X5.000 Y1296.962
G01 X5.000 Y191.639
G01 X59.329 Y181.885
G01 X119.205 Y181.363
G01 X176.299 Y190.662
G01 X228.543 Y208.762
G01 X274.183 Y234.180
G01 X311.877 Y265.066
G01 X340.772 Y299.309
G01 X360.558 Y334.669
G01 X371.474 Y368.905
G01 X374.297 Y399.917
G01 X370.290 Y425.865
G01 X361.122 Y445.284
G01 X348.766 Y457.168
G01 X335.377 Y461.034
G01 X323.161 Y456.945
G01 X314.239 Y445.509
G01 X310.514 Y427.844
G01 X313.559 Y405.503
G01 X324.515 Y380.389
G01 X344.024 Y354.633
G01 X372.183 Y330.468
G01 X408.538 Y310.095
G01 X452.108 Y295.547
G01 X501.438 Y288.567
G01 X554.687 Y290.502
G01 X609.734 Y302.220
G01 X664.299 Y324.056
G01 X710.000 Y352.061
G01 X710.000 Y929.689
G01 X682.434 Y939.198
G01 X651.192 Y942.913
G01 X624.918 Y939.735
G01 X605.093 Y931.317
G01 X592.745 Y919.622
G01 X588.378 Y906.797
G01 X591.952 Y895.049
G01 X602.879 Y886.501
G01 X620.064 Y883.069
G01 X641.968 Y886.337
G01 X666.701 Y897.466
G01 X692.140 Y917.116
G01 X710.000 Y938.245
G01 X710.000 Y1258.536
G01 X690.010 Y1291.344
G01 X648.981 Y1338.694
G01 X600.016 Y1379.173
G01 X544.796 Y1411.173
G01 X485.341 Y1433.529
G01 X423.883 Y1445.594
G01 X362.744 Y1447.265
G01 X304.196 Y1439.000
G01 X250.329 Y1421.777
G01 X202.930 Y1397.045
G01 X163.382 Y1366.627
G01 X132.578 Y1332.618
G01 X110.879 Y1297.254
G01 X98.091 Y1262.779
G01 X93.482 Y1231.310
G01 X95.828 Y1204.712
G01 X103.492 Y1184.485
G01 X114.524 Y1171.673
G01 X126.780 Y1166.805
G01 X138.058 Y1169.862
G01 X146.227 Y1180.280
G01 X149.365 Y1196.982
G01 X145.871 Y1218.445
G01 X134.569 Y1242.794
G01 X114.777 Y1267.912
G01 X86.356 Y1291.571
G01 X49.719 Y1311.565
G01 X5.810 Y1325.844
G01 X5.000 Y1325.954
G01 X5.000 Y143.342
G01 X34.899 Y136.987
G01 X97.288 Y134.162
G01 X157.277 Y141.388
G01 X212.756 Y157.724
G01 X261.904 Y181.759
G01 X303.302 Y211.695
G01 X336.012 Y245.454
G01 X359.625 Y280.809
G01 X374.290 Y315.509
G01 X380.694 Y347.423
G01 X380.020 Y374.662
G01 X373.873 Y395.691
G01 X364.180 Y409.427
G01 X353.070 Y415.297
G01 X342.745 Y413.275
G01 X335.341 Y403.882
G01 X332.801 Y388.155
G01 X336.752 Y367.581
G01 X348.406 Y344.011
G01 X368.482 Y319.545
G01 X397.162 Y296.406
G01 X434.075 Y276.805
G01 X478.316 Y262.807
G01 X528.498 Y256.206
G01 X582.831 Y258.414
G01 X639.225 Y270.375
G01 X695.416 Y292.509
G01 X710.000 Y301.249
G01 X710.000 Y947.838
G01 X703.724 Y949.265
G01 X676.170 Y949.431
G01 X654.742 Y944.048
G01 X640.545 Y935.029
G01 X634.174 Y924.498
G01 X635.677 Y914.654
G01 X644.555 Y907.638
G01 X659.792 Y905.401
G01 X679.917 Y909.584
G01 X703.092 Y921.415
G01 X710.000 Y927.203
G01 X710.000 Y1337.465
G01 X679.387 Y1373.802
G01 X629.485 Y1416.592
G01 X572.983 Y1451.028
G01 X511.858 Y1475.867
G01 X448.323 Y1490.373
G01 X384.699 Y1494.353
G01 X323.281 Y1488.173
G01 X266.203 Y1472.733
G01 X215.314 Y1449.407
G01 X172.072 Y1419.967
G01 X137.458 Y1386.471
G01 X111.928 Y1351.141
G01 X95.382 Y1316.229
G01 X87.176 Y1283.882
G01 X86.167 Y1256.013
G01 X90.784 Y1234.189
G01 X99.124 Y1219.532
G01 X109.072 Y1212.660
G01 X118.431 Y1213.643
G01 X125.056 Y1222.005
G01 X126.987 Y1236.749
G01 X122.571 Y1256.421
G01 X110.561 Y1279.199
G01 X90.199 Y1302.998
G01 X61.262 Y1325.602
G01 X24.078 Y1344.797
G01 X5.000 Y1350.664
G01 X5.000 Y93.655
G01 X10.452 Y92.327
G01 X75.296 Y87.189
G01 X138.129 Y92.316
G01 X196.795 Y106.853
G01 X249.417 Y129.457
G01 X294.498 Y158.388
G01 X331.012 Y191.606
G01 X358.459 Y226.897
G01 X376.892 Y262.007
G01 X386.909 Y294.775
G01 X389.611 Y323.264
G01 X386.537 Y345.876
G01 X379.564 Y361.449
G01 X370.792 Y369.323
G01 X362.413 Y369.382
G01 X356.580 Y362.059
G01 X355.269 Y348.308
G01 X360.159 Y329.549
G01 X372.530 Y307.578
G01 X393.180 Y284.460
G01 X422.372 Y262.404
G01 X459.821 Y243.630
G01 X504.699 Y230.230
G01 X555.688 Y224.045
G01 X611.051 Y226.551
G01 X668.737 Y238.769
G01 X710.000 Y254.793
G01 X710.000 Y957.227
G01 X704.612 Y956.688
G01 X688.582 Y950.404
G01 X680.208 Y942.225
G01 X679.627 Y934.342
G01 X686.429 Y928.910
G01 X699.679 Y927.913
G01 X710.000 Y930.807
G01 X710.000 Y1408.281
G01 X709.602 Y1408.767
G01 X658.803 Y1453.826
G01 X601.068 Y1490.667
G01 X538.329 Y1517.971
G01 X472.775 Y1534.913
G01 X406.724 Y1541.212
G01 X342.490 Y1537.142
G01 X282.247 Y1523.519
G01 X227.903 Y1501.647
G01 X180.990 Y1473.238
G01 X142.578 Y1440.312
G01 X113.212 Y1405.075
G01 X92.888 Y1369.781
G01 X81.054 Y1336.605
G01 X76.648 Y1307.506
G01 X78.166 Y1284.113
G01 X83.759 Y1267.628
G01 X91.340 Y1258.753
G01 X98.724 Y1257.650
G01 X103.752 Y1263.928
G01 X104.432 Y1276.676
G01 X99.059 Y1294.510
G01 X86.321 Y1315.662
G01 X65.382 Y1338.084
G01 X35.935 Y1359.576
G01 X5.000 Y1374.622
G01 X5.000 Y45.798
G01 X53.240 Y40.446
G01 X118.861 Y43.452
G01 X180.669 Y56.153
G01 X236.727 Y77.282
G01 X285.466 Y105.155
G01 X325.774 Y137.774
G01 X357.058 Y172.944
G01 X379.277 Y208.407
G01 X392.936 Y241.979
G01 X399.056 Y271.678
G01 X399.105 Y295.843
G01 X394.908 Y313.235
G01 X388.531 Y323.110
G01 X382.157 Y325.262
G01 X377.947 Y320.034
G01 X377.909 Y308.297
G01 X383.774 Y291.400
G01 X396.885 Y271.082
G01 X418.116 Y249.370
G01 X447.816 Y228.456
G01 X485.780 Y210.563
G01 X531.263 Y197.809
G01 X583.015 Y192.079
G01 X639.358 Y194.911
G01 X698.278 Y207.399
G01 X710.000 Y211.894
G01 X710.000 Y1470.709
G01 X687.964 Y1490.881
G01 X629.044 Y1530.094
G01 X564.745 Y1559.842
G01 X497.230 Y1579.214
G01 X428.810 Y1587.839
G01 X361.815 Y1585.901
G01 X298.454 Y1574.131
G01 X240.692 Y1553.756
G01 X190.134 Y1526.431
G01 X147.935 Y1494.133
G01 X114.731 Y1459.046
G01 X90.614 Y1423.427
G01 X75.122 Y1389.472
G01 X67.279 Y1359.185
G01 X65.650 Y1334.255
G01 X68.438 Y1315.959
G01 X73.595 Y1305.085
G01 X78.946 Y1301.884
G01 X82.324 Y1306.056
G01 X81.707 Y1316.772
G01 X75.342 Y1332.721
G01 X61.852 Y1352.193
G01 X40.326 Y1373.180
G01 X10.374 Y1393.501
G01 X5.000 Y1395.953
G01 X5.000 Y5.000
G01 X160.602 Y5.000
G01 X164.384 Y5.631
G01 X223.840 Y25.241
G01 X276.210 Y52.005
G01 X320.298 Y83.968
G01 X355.420 Y118.958
G01 X381.439 Y154.718
G01 X398.770 Y189.042
G01 X408.348 Y219.908
G01 X411.569 Y245.594
G01 X410.202 Y264.788
G01 X406.279 Y276.659
G01 X401.967 Y280.913
G01 X399.434 Y277.802
G01 X400.717 Y268.115
G01 X407.592 Y253.125
G01 X421.467 Y234.513
G01 X443.291 Y214.265
G01 X473.494 Y194.551
G01 X511.957 Y177.595
G01 X558.013 Y165.537
G01 X610.487 Y160.304
G01 X667.759 Y163.491
G01 X710.000 Y172.470
G01 X710.000 Y1532.577
G01 X656.901 Y1569.313
G01 X594.130 Y1600.000
G01 X241.831 Y1600.000
G01 X199.502 Y1579.536
G01 X153.529 Y1547.923
G01 X116.488 Y1513.045
G01 X88.564 Y1477.157
G01 X69.387 Y1442.476
G01 X58.066 Y1411.044
G01 X53.241 Y1384.609
G01 X53.172 Y1364.523
G01 X55.846 Y1351.656
G01 X59.105 Y1346.349
G01 X60.779 Y1348.393
G01 X58.819 Y1357.042
G01 X51.424 Y1371.061
G01 X37.157 Y1388.801
G01 X15.032 Y1408.296
G01 X5.000 Y1414.585
G01 X5.000 Y5.000
G01 X276.003 Y5.000
G01 X314.586 Y30.197
G01 X353.544 Y64.948
G01 X383.377 Y100.948
G01 X404.405 Y135.973
G01 X417.478 Y167.961
G01 X423.919 Y195.135
G01 X425.439 Y216.108
G01 X424.028 Y229.969
G01 X421.835 Y236.331
G01 X421.034 Y235.359
G01 X423.685 Y227.756
G01 X431.609 Y214.718
G01 X446.274 Y197.864
G01 X468.704 Y179.136
G01 X499.409 Y160.680
G01 X538.355 Y144.717
G01 X584.956 Y133.406
G01 X638.112 Y128.712
G01 X696.264 Y132.287
G01 X710.000 Y135.221
G01 X710.000 Y1590.138
G01 X696.247 Y1600.000
G01 X157.383 Y1600.000
G01 X118.483 Y1567.063
G01 X86.740 Y1530.964
G01 X63.853 Y1495.609
G01 X49.018 Y1463.077
G01 X40.950 Y1435.172
G01 X37.968 Y1413.318
G01 X38.101 Y1398.466
G01 X39.212 Y1391.047
G01 X39.127 Y1390.942
G01 X35.774 Y1397.492
G01 X27.310 Y1409.539
G01 X12.239 Y1425.494
G01 X5.000 Y1431.208
G01 X5.000 Y5.000
G01 X344.072 Y5.000
G01 X351.430 Y10.924
G01 X385.086 Y47.107
G01 X409.836 Y82.779
G01 X426.442 Y115.844
G01 X436.149 Y144.469
G01 X440.607 Y167.200
G01 X441.766 Y183.040
G01 X441.752 Y191.516
G01 X442.738 Y192.702
G01 X446.805 Y187.213
G01 X455.818 Y176.169
G01 X471.303 Y161.124
G01 X494.353 Y143.973
G01 X525.562 Y126.834
G01 X564.977 Y111.922
G01 X612.098 Y101.410
G01 X665.897 Y97.298
G01 X710.000 Y100.286
G01 X710.000 Y1600.000
G01 X100.023 Y1600.000
G01 X85.145 Y1584.838
G01 X58.526 Y1548.862
G01 X40.141 Y1515.277
G01 X28.784 Y1485.939
G01 X22.836 Y1462.340
G01 X20.371 Y1445.514
G01 X19.274 Y1435.980
G01 X17.374 Y1433.709
G01 X12.579 Y1438.129
G01 X5.000 Y1446.072
G01 X5.000 Y5.000
G01 X395.834 Y5.000
G01 X415.059 Y29.468
G01 X435.231 Y63.563
G01 X448.250 Y93.603
G01 X455.700 Y118.064
G01 X459.485 Y135.872
G01 X461.708 Y146.465
G01 X464.537 Y149.825
G01 X470.072 Y146.480
G01 X480.215 Y137.472
G01 X496.549 Y124.286
G01 X520.238 Y108.768
G01 X551.953 Y93.004
G01 X591.827 Y79.199
G01 X639.442 Y69.539
G01 X693.848 Y66.056
G01 X710.000 Y67.259
G01 X710.000 Y1600.000
G01 X51.994 Y1600.000
G01 X31.441 Y1567.637
G01 X16.751 Y1536.904
G01 X7.785 Y1511.587
G01 X5.000 Y1501.367
G01 X5.000 Y690.846

; BEGIN POST
; file: circles; END POST
; file trimmed by trimify2x.pl
; QQQQQQQ

