; file trimmed by trimify2x.pl
; Created by Sandify
; 
;   https://sandify.org
; 
;   Sandify Version: 0.1.4
; 
;   Machine Type: Rectangular
;     MinX: 5 MaxX: 710 MinY: 5 MaxY: 1600
;   Content Type: Shapes
;     Starting Size: 800
;     Offset: X: -122 Y: 0
;     Selected Shape: Circle
;       Circle Lobes: 1
;     Number of Loops: 57
;     Spin: true
;       Spin Value: -3.1
;       Spin Switchbacks: 0
;     Grow: true
;       Grow Value: -4
;     Track: true
;       Track Count: 119
;       Track Size: 79.2
;       Track Grow: false
;   Path Reversed: false
; 
; filename: 'circles2'

; BEGIN PRE
G28  Y
G28 X
G01 F30000; END PRE
G01 X710.000 Y802.500
G01 X710.000 Y1288.004
G01 X708.737 Y1289.704
G01 X705.288 Y1302.261
G01 X702.975 Y1319.950
G01 X700.216 Y1343.080
G01 X695.392 Y1371.556
G01 X686.948 Y1404.879
G01 X673.485 Y1442.176
G01 X653.853 Y1482.245
G01 X627.215 Y1523.626
G01 X593.109 Y1564.684
G01 X555.424 Y1600.000
G01 X710.000 Y1600.000 
G01 X710.000 Y5.000 
G01 X522.878 Y5.000
G01 X540.131 Y16.967
G01 X582.815 Y55.622
G01 X617.981 Y96.757
G01 X645.573 Y138.649
G01 X665.942 Y179.624
G01 X679.823 Y218.160
G01 X688.286 Y252.968
G01 X692.669 Y283.070
G01 X694.495 Y307.851
G01 X695.380 Y327.095
G01 X696.932 Y340.992
G01 X700.652 Y350.125
G01 X707.844 Y355.432
G01 X710.000 Y355.933
G01 X710.000 Y1265.893
G01 X699.749 Y1266.467
G01 X689.424 Y1269.037
G01 X683.281 Y1274.694
G01 X680.172 Y1284.564
G01 X678.703 Y1299.450
G01 X677.319 Y1319.777
G01 X674.400 Y1345.575
G01 X668.358 Y1376.463
G01 X657.737 Y1411.677
G01 X641.302 Y1450.106
G01 X618.116 Y1490.360
G01 X587.599 Y1530.849
G01 X549.567 Y1569.872
G01 X511.477 Y1600.000
G01 X5.000 Y1600.000
G01 X5.000 Y15.252
G01 X24.134 Y5.000
G01 X458.756 Y5.000
G01 X475.439 Y13.035
G01 X525.488 Y45.993
G01 X568.702 Y83.499
G01 X604.499 Y123.908
G01 X632.706 Y165.499
G01 X653.561 Y206.576
G01 X667.693 Y245.563
G01 X676.084 Y281.094
G01 X680.005 Y312.097
G01 X680.940 Y337.846
G01 X680.488 Y358.008
G01 X680.275 Y372.655
G01 X681.845 Y382.261
G01 X686.574 Y387.667
G01 X695.580 Y390.031
G01 X709.656 Y390.754
G01 X710.000 Y390.765
G01 X710.000 Y1257.734
G01 X691.695 Y1257.314
G01 X675.546 Y1256.542
G01 X664.651 Y1257.078
G01 X658.282 Y1260.363
G01 X655.376 Y1267.607
G01 X654.601 Y1279.715
G01 X654.437 Y1297.233
G01 X653.270 Y1320.309
G01 X649.491 Y1348.684
G01 X641.591 Y1381.706
G01 X628.260 Y1418.362
G01 X608.464 Y1457.340
G01 X581.508 Y1497.099
G01 X547.088 Y1535.964
G01 X505.307 Y1572.218
G01 X463.066 Y1600.000
G01 X5.000 Y1600.000
G01 X5.000 Y60.398
G01 X40.812 Y39.168
G01 X96.475 Y15.666
G01 X136.050 Y5.000
G01 X356.809 Y5.000
G01 X404.887 Y19.044
G01 X460.708 Y44.026
G01 X510.992 Y75.336
G01 X554.686 Y111.569
G01 X591.100 Y151.121
G01 X619.942 Y192.285
G01 X641.336 Y233.345
G01 X655.801 Y272.683
G01 X664.227 Y308.864
G01 X667.811 Y340.723
G01 X667.986 Y367.428
G01 X666.332 Y388.531
G01 X664.481 Y403.987
G01 X664.013 Y414.156
G01 X666.367 Y419.777
G01 X672.747 Y421.924
G01 X684.051 Y421.938
G01 X700.813 Y421.345
G01 X710.000 Y421.516
G01 X710.000 Y1250.363
G01 X691.734 Y1250.870
G01 X669.030 Y1249.311
G01 X652.020 Y1247.037
G01 X640.474 Y1245.657
G01 X633.771 Y1246.665
G01 X630.937 Y1251.352
G01 X630.709 Y1260.722
G01 X631.611 Y1275.432
G01 X632.044 Y1295.753
G01 X630.383 Y1321.547
G01 X625.078 Y1352.277
G01 X614.749 Y1387.034
G01 X598.270 Y1424.588
G01 X574.838 Y1463.459
G01 X544.027 Y1502.003
G01 X505.819 Y1538.507
G01 X460.602 Y1571.287
G01 X409.159 Y1598.787
G01 X405.876 Y1600.000
G01 X45.643 Y1600.000
G01 X5.000 Y1579.166
G01 X5.000 Y106.335
G01 X37.835 Y84.799
G01 X90.482 Y59.851
G01 X147.735 Y41.887
G01 X208.092 Y31.829
G01 X269.868 Y30.221
G01 X331.299 Y37.205
G01 X390.631 Y52.507
G01 X446.228 Y75.453
G01 X496.658 Y105.013
G01 X540.774 Y139.852
G01 X577.780 Y178.419
G01 X607.268 Y219.024
G01 X629.244 Y259.947
G01 X644.117 Y299.531
G01 X652.678 Y336.278
G01 X656.044 Y368.939
G01 X655.591 Y396.580
G01 X652.870 Y418.637
G01 X649.510 Y434.950
G01 X647.121 Y445.761
G01 X647.196 Y451.705
G01 X651.019 Y453.767
G01 X659.586 Y453.219
G01 X673.548 Y451.545
G01 X693.162 Y450.349
G01 X710.000 Y450.956
G01 X710.000 Y1242.369
G01 X699.878 Y1243.734
G01 X670.754 Y1244.024
G01 X647.091 Y1241.539
G01 X629.183 Y1237.895
G01 X616.917 Y1234.719
G01 X609.779 Y1233.555
G01 X606.892 Y1235.762
G01 X607.069 Y1242.439
G01 X608.884 Y1254.355
G01 X610.761 Y1271.897
G01 X611.071 Y1295.053
G01 X608.229 Y1323.401
G01 X600.792 Y1356.139
G01 X587.548 Y1392.128
G01 X567.592 Y1429.955
G01 X540.379 Y1468.016
G01 X505.766 Y1504.609
G01 X464.020 Y1538.035
G01 X415.809 Y1566.690
G01 X362.166 Y1589.166
G01 X320.918 Y1600.000
G01 X123.163 Y1600.000
G01 X123.074 Y1599.985
G01 X65.706 Y1581.947
G01 X12.608 Y1556.629
G01 X5.000 Y1551.591
G01 X5.000 Y153.235
G01 X36.048 Y130.681
G01 X85.579 Y104.410
G01 X140.089 Y84.715
G01 X198.145 Y72.617
G01 X258.113 Y68.775
G01 X318.243 Y73.449
G01 X376.773 Y86.486
G01 X432.026 Y107.326
G01 X482.505 Y135.037
G01 X526.977 Y168.368
G01 X564.540 Y205.821
G01 X594.673 Y245.738
G01 X617.265 Y286.398
G01 X632.612 Y326.116
G01 X641.401 Y363.340
G01 X644.663 Y396.740
G01 X643.711 Y425.285
G01 X640.057 Y448.300
G01 X635.320 Y465.506
G01 X631.131 Y477.031
G01 X629.029 Y483.400
G01 X630.372 Y485.502
G01 X636.250 Y484.536
G01 X647.422 Y481.934
G01 X664.268 Y479.277
G01 X686.763 Y478.197
G01 X710.000 Y479.942
G01 X710.000 Y1233.379
G01 X680.475 Y1237.292
G01 X650.491 Y1237.213
G01 X625.878 Y1233.936
G01 X607.046 Y1229.056
G01 X593.997 Y1224.211
G01 X586.333 Y1220.982
G01 X583.276 Y1220.796
G01 X583.719 Y1224.837
G01 X586.296 Y1233.981
G01 X589.463 Y1248.733
G01 X591.593 Y1269.201
G01 X591.076 Y1295.085
G01 X586.414 Y1325.694
G01 X576.316 Y1359.982
G01 X559.777 Y1396.612
G01 X536.139 Y1434.028
G01 X505.135 Y1470.549
G01 X466.908 Y1504.466
G01 X422.010 Y1534.138
G01 X371.365 Y1558.094
G01 X316.230 Y1575.111
G01 X258.115 Y1584.293
G01 X198.706 Y1585.119
G01 X139.767 Y1577.475
G01 X83.037 Y1561.659
G01 X30.140 Y1538.368
G01 X5.000 Y1522.692
G01 X5.000 Y201.328
G01 X35.470 Y176.756
G01 X81.794 Y149.291
G01 X133.443 Y127.970
G01 X189.066 Y113.907
G01 X247.079 Y107.869
G01 X305.761 Y110.237
G01 X363.348 Y120.978
G01 X418.131 Y139.649
G01 X468.555 Y165.422
G01 X513.305 Y197.133
G01 X551.380 Y233.348
G01 X582.148 Y272.447
G01 X605.379 Y312.717
G01 X621.257 Y352.453
G01 X630.359 Y390.056
G01 X633.627 Y424.124
G01 X632.301 Y453.532
G01 X627.847 Y477.498
G01 X621.868 Y495.626
G01 X616.004 Y507.926
G01 X611.833 Y514.811
G01 X610.780 Y517.072
G01 X614.024 Y515.826
G01 X622.429 Y512.446
G01 X636.493 Y508.484
G01 X656.314 Y505.569
G01 X681.580 Y505.311
G01 X710.000 Y509.000
G01 X710.000 Y1222.289
G01 X696.863 Y1226.017
G01 X661.722 Y1230.707
G01 X630.930 Y1230.381
G01 X605.385 Y1226.443
G01 X585.611 Y1220.461
G01 X571.730 Y1214.076
G01 X563.457 Y1208.897
G01 X560.117 Y1206.410
G01 X560.694 Y1207.881
G01 X563.885 Y1214.286
G01 X568.188 Y1226.245
G01 X571.986 Y1243.988
G01 X573.651 Y1267.336
G01 X571.641 Y1295.712
G01 X564.590 Y1328.170
G01 X551.401 Y1363.455
G01 X531.303 Y1400.066
G01 X503.911 Y1436.352
G01 X469.243 Y1470.603
G01 X427.728 Y1501.150
G01 X380.183 Y1526.462
G01 X327.770 Y1545.239
G01 X271.930 Y1556.482
G01 X214.303 Y1559.557
G01 X156.635 Y1554.229
G01 X100.681 Y1540.678
G01 X48.104 Y1519.487
G01 X5.000 Y1494.306
G01 X5.000 Y250.928
G01 X36.117 Y222.966
G01 X79.151 Y194.443
G01 X127.831 Y171.608
G01 X180.888 Y155.662
G01 X236.803 Y147.479
G01 X293.891 Y147.556
G01 X350.390 Y155.981
G01 X404.571 Y172.429
G01 X454.828 Y196.181
G01 X499.770 Y226.166
G01 X538.303 Y261.021
G01 X569.685 Y299.171
G01 X593.571 Y338.922
G01 X610.025 Y378.557
G01 X619.519 Y416.436
G01 X622.894 Y451.091
G01 X621.315 Y481.312
G01 X616.194 Y506.211
G01 X609.107 Y525.278
G01 X601.696 Y538.405
G01 X595.571 Y545.891
G01 X592.215 Y548.423
G01 X592.888 Y547.029
G01 X598.559 Y543.020
G01 X609.838 Y537.907
G01 X626.945 Y533.308
G01 X649.690 Y530.854
G01 X677.486 Y532.086
G01 X709.380 Y538.362
G01 X710.000 Y538.584
G01 X710.000 Y1209.966
G01 X679.226 Y1219.031
G01 X643.591 Y1223.928
G01 X612.051 Y1223.470
G01 X585.603 Y1219.000
G01 X564.882 Y1212.051
G01 X550.127 Y1204.256
G01 X541.170 Y1197.247
G01 X537.445 Y1192.559
G01 X538.027 Y1191.534
G01 X541.689 Y1195.243
G01 X546.974 Y1204.418
G01 X552.286 Y1219.409
G01 X555.989 Y1240.158
G01 X556.499 Y1266.206
G01 X552.390 Y1296.712
G01 X542.473 Y1330.507
G01 X525.873 Y1366.157
G01 X502.085 Y1402.045
G01 X471.003 Y1436.470
G01 X432.934 Y1467.743
G01 X388.582 Y1494.284
G01 X339.010 Y1514.716
G01 X285.580 Y1527.949
G01 X229.880 Y1533.235
G01 X173.631 Y1530.222
G01 X118.593 Y1518.968
G01 X66.460 Y1499.940
G01 X18.772 Y1473.988
G01 X5.000 Y1463.584
G01 X5.000 Y302.515
G01 X5.099 Y302.379
G01 X38.001 Y269.249
G01 X77.672 Y239.812
G01 X123.278 Y215.582
G01 X173.645 Y197.846
G01 X227.323 Y187.577
G01 X282.667 Y185.388
G01 X337.933 Y191.486
G01 X391.377 Y205.667
G01 X441.348 Y227.324
G01 X486.389 Y255.483
G01 X525.315 Y288.860
G01 X557.280 Y325.933
G01 X581.823 Y365.035
G01 X598.893 Y404.444
G01 X608.846 Y442.490
G01 X612.425 Y477.646
G01 X610.709 Y508.620
G01 X605.051 Y534.425
G01 X596.989 Y554.438
G01 X588.162 Y568.434
G01 X580.203 Y576.595
G01 X574.642 Y579.501
G01 X572.820 Y578.088
G01 X575.797 Y573.594
G01 X584.299 Y567.482
G01 X598.663 Y561.353
G01 X618.823 Y556.848
G01 X644.309 Y555.545
G01 X674.271 Y558.870
G01 X707.532 Y568.004
G01 X710.000 Y569.115
G01 X710.000 Y1195.285
G01 X700.553 Y1199.876
G01 X662.084 Y1211.713
G01 X626.052 Y1216.904
G01 X593.832 Y1216.424
G01 X566.518 Y1211.549
G01 X544.853 Y1203.766
G01 X529.194 Y1194.694
G01 X519.489 Y1185.979
G01 X515.284 Y1179.197
G01 X515.752 Y1175.758
G01 X519.743 Y1176.823
G01 X525.859 Y1183.233
G01 X532.531 Y1195.453
G01 X538.121 Y1213.551
G01 X541.018 Y1237.186
G01 X539.736 Y1265.625
G01 X533.005 Y1297.793
G01 X519.849 Y1332.326
G01 X499.646 Y1367.655
G01 X472.169 Y1402.093
G01 X437.599 Y1433.939
G01 X396.525 Y1461.573
G01 X349.904 Y1483.551
G01 X299.015 Y1498.690
G01 X245.386 Y1506.141
G01 X190.705 Y1505.430
G01 X136.726 Y1496.495
G01 X85.169 Y1479.685
G01 X37.625 Y1455.744
G01 X5.000 Y1432.544
G01 X5.000 Y359.621
G01 X11.804 Y348.895
G01 X41.130 Y315.546
G01 X77.373 Y285.340
G01 X119.811 Y259.844
G01 X167.369 Y240.418
G01 X218.671 Y228.134
G01 X272.125 Y223.713
G01 X326.011 Y227.484
G01 X378.577 Y239.363
G01 X428.138 Y258.858
G01 X473.177 Y285.099
G01 X512.423 Y316.885
G01 X544.930 Y352.755
G01 X570.124 Y391.076
G01 X587.836 Y430.133
G01 X598.309 Y468.232
G01 X602.180 Y503.795
G01 X600.438 Y535.453
G01 X594.368 Y562.127
G01 X585.467 Y583.083
G01 X575.357 Y597.979
G01 X565.685 Y606.881
G01 X558.027 Y610.257
G01 X553.789 Y608.945
G01 X554.125 Y604.106
G01 X559.866 Y597.148
G01 X571.471 Y589.643
G01 X588.993 Y583.234
G01 X612.082 Y579.531
G01 X639.997 Y580.017
G01 X671.653 Y585.957
G01 X705.680 Y598.319
G01 X710.000 Y600.725
G01 X710.000 Y1178.277
G01 X683.789 Y1191.617
G01 X645.397 Y1204.023
G01 X609.068 Y1209.587
G01 X576.246 Y1209.190
G01 X548.113 Y1204.031
G01 X525.519 Y1195.548
G01 X508.935 Y1185.333
G01 X498.427 Y1175.038
G01 X493.655 Y1166.274
G01 X493.894 Y1160.511
G01 X498.081 Y1158.994
G01 X504.879 Y1162.666
G01 X512.756 Y1172.111
G01 X520.082 Y1187.516
G01 X525.225 Y1208.660
G01 X526.650 Y1234.926
G01 X523.010 Y1265.335
G01 X513.235 Y1298.601
G01 X496.589 Y1333.209
G01 X472.723 Y1367.497
G01 X441.696 Y1399.761
G01 X403.974 Y1428.347
G01 X360.409 Y1451.751
G01 X312.189 Y1468.708
G01 X260.773 Y1478.263
G01 X207.806 Y1479.831
G01 X155.032 Y1473.228
G01 X104.186 Y1458.684
G01 X56.903 Y1436.829
G01 X14.622 Y1408.657
G01 X5.000 Y1399.816
G01 X5.000 Y547.369
G01 X11.022 Y552.168
G01 X19.020 Y562.829
G01 X21.465 Y571.394
G01 X19.210 Y576.463
G01 X13.424 Y576.888
G01 X5.525 Y571.845
G01 X5.000 Y571.163
G01 X5.000 Y422.602
G01 X19.779 Y395.203
G01 X45.509 Y361.795
G01 X78.268 Y330.972
G01 X117.452 Y304.343
G01 X162.086 Y283.337
G01 X210.881 Y269.116
G01 X262.301 Y262.509
G01 X314.658 Y263.963
G01 X366.203 Y273.515
G01 X415.225 Y290.792
G01 X460.151 Y315.028
G01 X499.635 Y345.114
G01 X532.633 Y379.658
G01 X558.461 Y417.069
G01 X576.833 Y455.645
G01 X587.877 Y493.677
G01 X592.120 Y529.546
G01 X590.458 Y561.813
G01 X584.099 Y589.308
G01 X574.490 Y611.193
G01 X563.231 Y627.011
G01 X551.974 Y636.710
G01 X542.330 Y640.643
G01 X535.766 Y639.547
G01 X533.521 Y634.498
G01 X536.530 Y626.842
G01 X545.366 Y618.116
G01 X560.207 Y609.955
G01 X580.821 Y603.991
G01 X606.582 Y601.758
G01 X636.500 Y604.596
G01 X669.284 Y613.571
G01 X703.414 Y629.409
G01 X710.000 Y633.896
G01 X710.000 Y1159.071
G01 X705.521 Y1162.485
G01 X667.313 Y1182.909
G01 X629.120 Y1195.925
G01 X592.601 Y1201.933
G01 X559.262 Y1201.716
G01 X530.367 Y1196.391
G01 X506.868 Y1187.337
G01 X489.349 Y1176.114
G01 X477.993 Y1164.370
G01 X472.576 Y1153.740
G01 X472.481 Y1145.750
G01 X476.734 Y1141.721
G01 X484.068 Y1142.696
G01 X492.996 Y1149.368
G01 X501.906 Y1162.047
G01 X509.151 Y1180.635
G01 X513.155 Y1204.629
G01 X512.504 Y1233.153
G01 X506.036 Y1265.007
G01 X492.908 Y1298.735
G01 X472.651 Y1332.711
G01 X445.198 Y1365.234
G01 X410.897 Y1394.626
G01 X370.485 Y1419.330
G01 X325.053 Y1438.004
G01 X275.987 Y1449.597
G01 X224.882 Y1453.411
G01 X173.460 Y1449.142
G01 X123.464 Y1436.899
G01 X76.566 Y1417.198
G01 X34.267 Y1390.932
G01 X5.000 Y1365.552
G01 X5.000 Y551.886
G01 X22.750 Y560.959
G01 X37.702 Y573.301
G01 X46.492 Y585.557
G01 X49.487 Y596.118
G01 X47.438 Y603.519
G01 X41.430 Y606.528
G01 X32.820 Y604.218
G01 X23.151 Y596.026
G01 X14.060 Y581.784
G01 X7.182 Y561.735
G01 X5.000 Y544.176
G01 X5.000 Y522.127
G01 X5.993 Y507.122
G01 X14.076 Y474.855
G01 X29.014 Y441.238
G01 X51.137 Y407.935
G01 X80.368 Y376.649
G01 X116.219 Y349.027
G01 X157.825 Y326.557
G01 X203.983 Y310.488
G01 X253.227 Y301.751
G01 X303.908 Y300.909
G01 X354.286 Y308.120
G01 X402.633 Y323.129
G01 X447.331 Y345.283
G01 X486.962 Y373.567
G01 X520.390 Y406.665
G01 X546.825 Y443.036
G01 X565.866 Y481.001
G01 X577.521 Y518.844
G01 X582.209 Y554.911
G01 X580.724 Y587.702
G01 X574.194 Y615.964
G01 X564.009 Y638.755
G01 X551.734 Y655.506
G01 X539.022 Y666.046
G01 X527.508 Y670.615
G01 X518.714 Y669.842
G01 X513.958 Y664.713
G01 X514.272 Y656.505
G01 X520.343 Y646.711
G01 X532.470 Y636.949
G01 X550.542 Y628.868
G01 X574.048 Y624.042
G01 X602.103 Y623.881
G01 X633.498 Y629.541
G01 X666.773 Y641.857
G01 X700.299 Y661.288
G01 X710.000 Y669.334
G01 X710.000 Y1135.397
G01 X688.531 Y1152.647
G01 X651.075 Y1173.729
G01 X613.207 Y1187.384
G01 X576.611 Y1193.899
G01 X542.846 Y1193.953
G01 X513.255 Y1188.574
G01 X488.885 Y1179.076
G01 X470.431 Y1166.978
G01 X458.193 Y1153.917
G01 X452.063 Y1141.544
G01 X451.534 Y1131.431
G01 X455.730 Y1124.969
G01 X463.458 Y1123.293
G01 X473.287 Y1127.208
G01 X483.626 Y1137.140
G01 X492.825 Y1153.114
G01 X499.276 Y1174.747
G01 X501.504 Y1201.268
G01 X498.261 Y1231.569
G01 X488.601 Y1264.262
G01 X471.938 Y1297.763
G01 X448.083 Y1330.384
G01 X417.259 Y1360.431
G01 X380.088 Y1386.303
G01 X337.560 Y1406.587
G01 X290.977 Y1420.140
G01 X241.880 Y1426.155
G01 X191.957 Y1424.211
G01 X142.955 Y1414.297
G01 X96.570 Y1396.809
G01 X54.360 Y1372.536
G01 X17.650 Y1342.605
G01 X5.000 Y1328.283
G01 X5.000 Y1062.569
G01 X9.678 Y1064.333
G01 X13.354 Y1071.364
G01 X11.645 Y1080.994
G01 X5.000 Y1090.271
G01 X5.000 Y563.121
G01 X26.465 Y569.186
G01 X48.450 Y580.546
G01 X64.335 Y593.915
G01 X73.963 Y607.636
G01 X77.588 Y620.076
G01 X75.852 Y629.714
G01 X69.753 Y635.239
G01 X60.578 Y635.625
G01 X49.827 Y630.195
G01 X39.123 Y618.661
G01 X30.115 Y601.143
G01 X24.378 Y578.164
G01 X23.315 Y550.618
G01 X28.078 Y519.721
G01 X39.494 Y486.939
G01 X58.012 Y453.903
G01 X83.678 Y422.313
G01 X116.128 Y393.842
G01 X154.606 Y370.033
G01 X198.007 Y352.213
G01 X244.936 Y341.412
G01 X293.792 Y338.305
G01 X342.856 Y343.170
G01 X390.390 Y355.872
G01 X434.738 Y375.874
G01 X474.417 Y402.260
G01 X508.206 Y433.796
G01 X535.210 Y469.000
G01 X554.916 Y506.223
G01 X567.215 Y543.753
G01 X572.410 Y579.905
G01 X571.194 Y613.129
G01 X564.606 Y642.092
G01 X553.971 Y665.755
G01 X540.815 Y683.440
G01 X526.780 Y694.858
G01 X513.518 Y700.130
G01 X502.597 Y699.780
G01 X495.407 Y694.694
G01 X493.073 Y686.076
G01 X496.393 Y675.365
G01 X505.782 Y664.158
G01 X521.255 Y654.106
G01 X542.417 Y646.819
G01 X568.489 Y643.768
G01 X598.354 Y646.194
G01 X630.618 Y655.036
G01 X663.694 Y670.871
G01 X695.892 Y693.879
G01 X710.000 Y708.138
G01 X710.000 Y1108.245
G01 X705.625 Y1113.433
G01 X671.597 Y1142.330
G01 X635.024 Y1164.056
G01 X597.608 Y1178.371
G01 X561.053 Y1185.446
G01 X526.962 Y1185.854
G01 X496.748 Y1180.528
G01 X471.551 Y1170.709
G01 X452.172 Y1157.869
G01 X439.027 Y1143.624
G01 X432.126 Y1129.634
G01 X431.074 Y1117.507
G01 X435.095 Y1108.698
G01 X443.082 Y1104.430
G01 X453.660 Y1105.611
G01 X465.274 Y1112.786
G01 X476.278 Y1126.100
G01 X485.038 Y1145.290
G01 X490.026 Y1169.699
G01 X489.917 Y1198.312
G01 X483.667 Y1229.818
G01 X470.575 Y1262.683
G01 X450.330 Y1295.239
G01 X423.030 Y1325.786
G01 X389.180 Y1352.687
G01 X349.663 Y1374.465
G01 X305.693 Y1389.891
G01 X258.745 Y1398.054
G01 X210.471 Y1398.418
G01 X162.606 Y1390.848
G01 X116.869 Y1375.624
G01 X74.864 Y1353.423
G01 X37.987 Y1325.278
G01 X7.350 Y1292.520
G01 X5.000 Y1288.960
G01 X5.000 Y1048.401
G01 X10.887 Y1044.925
G01 X24.158 Y1042.317
G01 X34.546 Y1045.086
G01 X40.744 Y1052.225
G01 X41.735 Y1062.437
G01 X36.851 Y1074.214
G01 X25.814 Y1085.928
G01 X8.756 Y1095.930
G01 X5.000 Y1097.048
G01 X5.000 Y578.709
G01 X22.985 Y580.108
G01 X51.222 Y587.953
G01 X74.084 Y599.773
G01 X90.904 Y614.033
G01 X101.408 Y629.089
G01 X105.731 Y643.286
G01 X104.409 Y655.059
G01 X98.343 Y663.022
G01 X88.745 Y666.057
G01 X77.064 Y663.377
G01 X64.901 Y654.575
G01 X53.910 Y639.647
G01 X45.700 Y619.000
G01 X41.738 Y593.421
G01 X43.262 Y564.036
G01 X51.202 Y532.244
G01 X66.125 Y499.637
G01 X88.203 Y467.904
G01 X117.192 Y438.734
G01 X152.452 Y413.717
G01 X192.978 Y394.252
G01 X237.457 Y381.462
G01 X284.343 Y376.131
G01 X331.944 Y378.655
G01 X378.524 Y389.023
G01 X422.393 Y406.810
G01 X462.014 Y431.209
G01 X496.083 Y461.074
G01 X523.610 Y494.986
G01 X543.968 Y531.337
G01 X556.932 Y568.424
G01 X562.690 Y604.545
G01 X561.825 Y638.103
G01 X555.287 Y667.693
G01 X544.326 Y692.187
G01 X530.422 Y710.795
G01 X515.196 Y723.116
G01 X500.311 Y729.152
G01 X487.373 Y729.314
G01 X477.834 Y724.389
G01 X472.910 Y715.497
G01 X473.501 Y704.020
G01 X480.142 Y691.521
G01 X492.967 Y679.648
G01 X511.703 Y670.037
G01 X535.681 Y664.212
G01 X563.881 Y663.494
G01 X594.982 Y668.920
G01 X627.446 Y681.182
G01 X659.605 Y700.581
G01 X689.760 Y727.010
G01 X710.000 Y752.155
G01 X710.000 Y1073.377
G01 X687.275 Y1102.178
G01 X654.670 Y1131.527
G01 X619.108 Y1153.873
G01 X582.275 Y1168.858
G01 X545.881 Y1176.539
G01 X511.569 Y1177.374
G01 X480.815 Y1172.201
G01 X454.844 Y1162.181
G01 X434.560 Y1148.730
G01 X420.493 Y1133.435
G01 X412.772 Y1117.957
G01 X411.116 Y1103.930
G01 X414.854 Y1092.869
G01 X422.967 Y1086.075
G01 X434.149 Y1084.557
G01 X446.884 Y1088.973
G01 X459.540 Y1099.591
G01 X470.466 Y1116.268
G01 X478.091 Y1138.462
G01 X481.017 Y1165.260
G01 X478.107 Y1195.431
G01 X468.552 Y1227.499
G01 X451.918 Y1259.828
G01 X428.180 Y1290.717
G01 X397.721 Y1318.503
G01 X361.315 Y1341.652
G01 X320.082 Y1358.855
G01 X275.423 Y1369.103
G01 X228.945 Y1371.744
G01 X182.365 Y1366.526
G01 X137.414 Y1353.606
G01 X95.734 Y1333.549
G01 X58.788 Y1307.287
G01 X27.775 Y1276.072
G01 X5.000 Y1243.459
G01 X5.000 Y1047.112
G01 X15.499 Y1036.200
G01 X31.485 Y1026.687
G01 X46.527 Y1023.390
G01 X59.060 Y1025.758
G01 X67.705 Y1032.879
G01 X71.350 Y1043.531
G01 X69.217 Y1056.255
G01 X60.909 Y1069.447
G01 X46.435 Y1081.449
G01 X26.210 Y1090.652
G01 X5.000 Y1094.815
G01 X5.000 Y597.641
G01 X14.146 Y596.514
G01 X47.077 Y598.704
G01 X75.951 Y606.508
G01 X99.648 Y618.663
G01 X117.395 Y633.682
G01 X128.800 Y649.939
G01 X133.883 Y665.769
G01 X133.066 Y679.567
G01 X127.150 Y689.884
G01 X117.266 Y695.512
G01 X104.806 Y695.560
G01 X91.337 Y689.501
G01 X78.512 Y677.213
G01 X67.966 Y658.980
G01 X61.222 Y635.479
G01 X59.595 Y607.742
G01 X64.115 Y577.094
G01 X75.466 Y545.077
G01 X93.940 Y513.362
G01 X119.418 Y483.646
G01 X151.378 Y457.559
G01 X188.921 Y436.563
G01 X230.819 Y421.868
G01 X275.591 Y414.365
G01 X321.582 Y414.566
G01 X367.061 Y422.579
G01 X410.318 Y438.100
G01 X449.767 Y460.431
G01 X484.031 Y488.519
G01 X512.023 Y521.017
G01 X533.009 Y556.366
G01 X546.650 Y592.880
G01 X553.014 Y628.850
G01 X552.578 Y662.637
G01 X546.189 Y692.773
G01 X535.022 Y718.044
G01 X520.501 Y737.557
G01 X504.219 Y750.796
G01 X487.839 Y757.646
G01 X472.997 Y758.401
G01 X461.204 Y753.747
G01 X453.755 Y744.713
G01 X451.651 Y732.616
G01 X455.541 Y718.979
G01 X465.681 Y705.437
G01 X481.919 Y693.643
G01 X503.701 Y685.168
G01 X530.106 Y681.403
G01 X559.895 Y683.481
G01 X591.588 Y692.203
G01 X623.546 Y707.990
G01 X654.068 Y730.861
G01 X681.494 Y760.421
G01 X704.297 Y795.890
G01 X710.000 Y809.490
G01 X710.000 Y1024.576
G01 X694.976 Y1054.815
G01 X668.763 Y1090.502
G01 X637.696 Y1120.238
G01 X603.275 Y1143.168
G01 X567.154 Y1158.824
G01 X531.047 Y1167.144
G01 X496.625 Y1168.473
G01 X465.419 Y1163.546
G01 X438.736 Y1153.439
G01 X417.577 Y1139.505
G01 X402.585 Y1123.294
G01 X394.005 Y1106.458
G01 X391.673 Y1090.652
G01 X395.027 Y1077.440
G01 X403.141 Y1068.194
G01 X414.783 Y1064.021
G01 X428.486 Y1065.689
G01 X442.641 Y1073.585
G01 X455.588 Y1087.688
G01 X465.719 Y1107.573
G01 X471.574 Y1132.434
G01 X471.926 Y1161.127
G01 X465.862 Y1192.242
G01 X452.830 Y1224.181
G01 X432.681 Y1255.253
G01 X405.676 Y1283.774
G01 X372.474 Y1308.164
G01 X334.093 Y1327.041
G01 X291.860 Y1339.299
G01 X247.324 Y1344.179
G01 X202.178 Y1341.308
G01 X158.153 Y1330.723
G01 X116.925 Y1312.872
G01 X80.016 Y1288.584
G01 X48.704 Y1259.023
G01 X23.957 Y1225.620
G01 X6.371 Y1189.990
G01 X5.000 Y1185.146
G01 X5.000 Y1060.019
G01 X5.465 Y1058.566
G01 X18.729 Y1035.748
G01 X34.777 Y1018.946
G01 X51.978 Y1008.537
G01 X68.666 Y1004.489
G01 X83.236 Y1006.364
G01 X94.244 Y1013.349
G01 X100.488 Y1024.302
G01 X101.085 Y1037.824
G01 X95.521 Y1052.339
G01 X83.681 Y1066.192
G01 X65.861 Y1077.746
G01 X42.749 Y1085.484
G01 X15.384 Y1088.094
G01 X5.000 Y1086.879
G01 X5.000 Y620.095
G01 X38.057 Y615.443
G01 X71.229 Y617.210
G01 X100.658 Y624.871
G01 X125.140 Y637.241
G01 X143.794 Y652.887
G01 X156.117 Y670.211
G01 X162.010 Y687.545
G01 X161.781 Y703.255
G01 X156.126 Y715.833
G01 X146.089 Y723.990
G01 X132.995 Y726.732
G01 X118.374 Y723.421
G01 X103.867 Y713.810
G01 X91.127 Y698.064
G01 X81.722 Y676.745
G01 X77.041 Y650.784
G01 X78.209 Y621.428
G01 X86.019 Y590.162
G01 X100.885 Y558.628
G01 X122.813 Y528.524
G01 X151.400 Y501.509
G01 X185.856 Y479.102
G01 X225.049 Y462.598
G01 X267.566 Y452.983
G01 X311.798 Y450.886
G01 X356.030 Y456.536
G01 X398.538 Y469.749
G01 X437.695 Y489.938
G01 X472.056 Y516.150
G01 X500.447 Y547.118
G01 X522.029 Y581.336
G01 X536.347 Y617.148
G01 X543.354 Y652.840
G01 X543.411 Y686.746
G01 X537.267 Y717.340
G01 X526.008 Y743.326
G01 X510.999 Y763.715
G01 X493.794 Y777.876
G01 X476.050 Y785.579
G01 X459.425 Y787.001
G01 X445.477 Y782.718
G01 X435.576 Y773.669
G01 X430.820 Y761.096
G01 X431.968 Y746.472
G01 X439.396 Y731.414
G01 X453.074 Y717.583
G01 X472.566 Y706.587
G01 X497.054 Y699.882
G01 X525.389 Y698.688
G01 X556.153 Y703.913
G01 X587.745 Y716.097
G01 X618.475 Y735.381
G01 X646.661 Y761.494
G01 X670.727 Y793.769
G01 X689.299 Y831.178
G01 X701.282 Y872.392
G01 X705.927 Y915.857
G01 X702.874 Y959.882
G01 X692.173 Y1002.737
G01 X674.283 Y1042.753
G01 X650.043 Y1078.417
G01 X620.626 Y1108.461
G01 X587.470 Y1131.933
G01 X552.193 Y1148.249
G01 X516.500 Y1157.232
G01 X482.083 Y1159.111
G01 X450.522 Y1154.516
G01 X423.198 Y1144.431
G01 X401.205 Y1130.140
G01 X385.293 Y1113.146
G01 X375.826 Y1095.084
G01 X372.755 Y1077.624
G01 X375.631 Y1062.366
G01 X383.627 Y1050.753
G01 X395.591 Y1043.979
G01 X410.113 Y1042.918
G01 X425.612 Y1048.076
G01 X440.431 Y1059.554
G01 X452.933 Y1077.046
G01 X461.601 Y1099.856
G01 X465.129 Y1126.934
G01 X462.501 Y1156.942
G01 X453.052 Y1188.329
G01 X436.509 Y1219.422
G01 X413.009 Y1248.526
G01 X383.094 Y1274.021
G01 X347.678 Y1294.458
G01 X308.001 Y1308.644
G01 X265.552 Y1315.713
G01 X221.987 Y1315.174
G01 X179.033 Y1306.946
G01 X138.390 Y1291.356
G01 X101.629 Y1269.124
G01 X70.105 Y1241.323
G01 X44.880 Y1209.312
G01 X26.658 Y1174.662
G01 X15.751 Y1139.058
G01 X12.058 Y1104.209
G01 X15.077 Y1071.741
G01 X23.930 Y1043.107
G01 X37.422 Y1019.502
G01 X54.111 Y1001.793
G01 X72.393 Y990.471
G01 X90.599 Y985.620
G01 X107.093 Y986.918
G01 X120.372 Y993.655
G01 X129.151 Y1004.778
G01 X132.447 Y1018.949
G01 X129.629 Y1034.633
G01 X120.462 Y1050.186
G01 X105.122 Y1063.951
G01 X84.181 Y1074.363
G01 X58.580 Y1080.038
G01 X29.571 Y1079.856
G01 X5.000 Y1074.435
G01 X5.000 Y648.002
G01 X26.964 Y639.992
G01 X62.154 Y634.361
G01 X95.457 Y635.637
G01 X125.354 Y643.060
G01 X150.558 Y655.530
G01 X170.092 Y671.675
G01 X183.339 Y689.931
G01 X190.082 Y708.639
G01 X190.514 Y726.142
G01 X185.223 Y740.881
G01 X175.159 Y751.494
G01 X161.576 Y756.888
G01 X145.955 Y756.316
G01 X129.918 Y749.411
G01 X115.128 Y736.214
G01 X103.191 Y717.172
G01 X95.562 Y693.111
G01 X93.453 Y665.191
G01 X97.765 Y634.833
G01 X109.029 Y603.642
G01 X127.377 Y573.309
G01 X152.527 Y545.514
G01 X183.803 Y521.826
G01 X220.171 Y503.613
G01 X260.297 Y491.959
G01 X302.623 Y487.602
G01 X345.458 Y490.890
G01 X387.077 Y501.761
G01 X425.815 Y519.743
G01 X460.170 Y543.988
G01 X488.884 Y573.312
G01 X511.019 Y606.274
G01 X526.005 Y641.251
G01 X533.680 Y676.539
G01 X534.289 Y710.448
G01 X528.474 Y741.404
G01 X517.234 Y768.036
G01 X501.861 Y789.260
G01 X483.867 Y804.339
G01 X464.892 Y812.924
G01 X446.606 Y815.076
G01 X430.609 Y811.259
G01 X418.340 Y802.314
G01 X410.985 Y789.403
G01 X409.410 Y773.943
G01 X414.109 Y757.523
G01 X425.175 Y741.803
G01 X442.290 Y728.420
G01 X464.747 Y718.889
G01 X491.489 Y714.509
G01 X521.171 Y716.290
G01 X552.236 Y724.889
G01 X583.012 Y740.568
G01 X611.805 Y763.181
G01 X636.998 Y792.177
G01 X657.151 Y826.633
G01 X671.079 Y865.305
G01 X677.927 Y906.699
G01 X677.217 Y949.158
G01 X668.879 Y990.958
G01 X653.252 Y1030.405
G01 X631.068 Y1065.934
G01 X603.409 Y1096.202
G01 X571.641 Y1120.160
G01 X537.338 Y1137.117
G01 X502.187 Y1146.777
G01 X467.895 Y1149.255
G01 X436.083 Y1145.070
G01 X408.195 Y1135.109
G01 X385.417 Y1120.581
G01 X368.603 Y1102.935
G01 X358.230 Y1083.782
G01 X354.368 Y1064.794
G01 X356.682 Y1047.604
G01 X364.448 Y1033.714
G01 X376.599 Y1024.401
G01 X391.792 Y1020.642
G01 X408.483 Y1023.057
G01 X425.022 Y1031.869
G01 X439.755 Y1046.894
G01 X451.115 Y1067.547
G01 X457.723 Y1092.880
G01 X458.467 Y1121.631
G01 X452.571 Y1152.305
G01 X439.640 Y1183.256
G01 X419.687 Y1212.786
G01 X393.134 Y1239.244
G01 X360.786 Y1261.121
G01 X323.792 Y1277.143
G01 X283.570 Y1286.341
G01 X241.735 Y1288.111
G01 X200.000 Y1282.249
G01 X160.078 Y1268.964
G01 X123.584 Y1248.864
G01 X91.942 Y1222.923
G01 X66.302 Y1192.423
G01 X47.476 Y1158.880
G01 X35.890 Y1123.956
G01 X31.560 Y1089.361
G01 X34.095 Y1056.753
G01 X42.721 Y1027.646
G01 X56.325 Y1003.314
G01 X73.527 Y984.725
G01 X92.756 Y972.481
G01 X112.349 Y966.786
G01 X130.648 Y967.433
G01 X146.099 Y973.819
G01 X157.342 Y984.983
G01 X163.295 Y999.660
G01 X163.217 Y1016.361
G01 X156.753 Y1033.460
G01 X143.955 Y1049.292
G01 X125.281 Y1062.250
G01 X101.567 Y1070.885
G01 X73.979 Y1073.989
G01 X43.946 Y1070.670
G01 X13.075 Y1060.405
G01 X5.000 Y1055.742
G01 X5.000 Y680.810
G01 X17.066 Y673.158
G01 X51.660 Y659.569
G01 X86.459 Y653.270
G01 X119.778 Y653.997
G01 X150.047 Y661.095
G01 X175.906 Y673.555
G01 X196.281 Y690.072
G01 X210.447 Y709.127
G01 X218.071 Y729.077
G01 X219.227 Y748.249
G01 X214.394 Y765.044
G01 X204.424 Y778.030
G01 X190.491 Y786.026
G01 X174.021 Y788.174
G01 X156.608 Y783.992
G01 X139.916 Y773.397
G01 X125.581 Y756.718
G01 X115.116 Y734.673
G01 X109.815 Y708.326
G01 X110.681 Y679.031
G01 X118.361 Y648.345
G01 X133.108 Y617.944
G01 X154.767 Y589.522
G01 X182.778 Y564.687
G01 X216.209 Y544.877
G01 X253.810 Y531.264
G01 X294.085 Y524.694
G01 X335.375 Y525.632
G01 X375.959 Y534.137
G01 X414.147 Y549.857
G01 X448.385 Y572.049
G01 X477.338 Y599.623
G01 X499.971 Y631.205
G01 X515.607 Y665.218
G01 X523.964 Y699.972
G01 X525.174 Y733.765
G01 X519.768 Y764.980
G01 X508.649 Y792.180
G01 X493.034 Y814.191
G01 X474.382 Y830.171
G01 X454.309 Y839.657
G01 X434.489 Y842.592
G01 X416.557 Y839.327
G01 X402.008 Y830.598
G01 X392.115 Y817.482
G01 X387.846 Y801.335
G01 X389.811 Y783.706
G01 X398.223 Y766.248
G01 X412.886 Y750.618
G01 X433.206 Y738.380
G01 X458.223 Y730.909
G01 X486.671 Y729.310
G01 X517.049 Y734.351
G01 X547.708 Y746.418
G01 X576.952 Y765.487
G01 X603.131 Y791.129
G01 X624.745 Y822.527
G01 X640.528 Y858.530
G01 X649.520 Y897.711
G01 X651.129 Y938.456
G01 X645.165 Y979.054
G01 X631.848 Y1017.795
G01 X611.796 Y1053.072
G01 X585.995 Y1083.469
G01 X555.733 Y1107.850
G01 X522.532 Y1125.417
G01 X488.055 Y1135.759
G01 X454.012 Y1138.873
G01 X422.056 Y1135.166
G01 X393.693 Y1125.426
G01 X370.188 Y1110.777
G01 X352.498 Y1092.609
G01 X341.210 Y1072.498
G01 X336.515 Y1052.111
G01 X338.191 Y1033.107
G01 X345.622 Y1017.039
G01 X357.834 Y1005.258
G01 X373.553 Y998.841
G01 X391.282 Y998.518
G01 X409.389 Y1004.634
G01 X426.208 Y1017.126
G01 X440.133 Y1035.526
G01 X449.717 Y1058.988
G01 X453.760 Y1086.337
G01 X451.377 Y1116.140
G01 X442.053 Y1146.786
G01 X425.679 Y1176.583
G01 X402.554 Y1203.857
G01 X373.370 Y1227.047
G01 X339.178 Y1244.804
G01 X301.323 Y1256.062
G01 X261.365 Y1260.105
G01 X220.996 Y1256.611
G01 X181.935 Y1245.666
G01 X145.833 Y1227.764
G01 X114.175 Y1203.776
G01 X88.195 Y1174.900
G01 X68.807 Y1142.592
G01 X56.548 Y1108.478
G01 X51.553 Y1074.263
G01 X53.546 Y1041.631
G01 X61.856 Y1012.144
G01 X75.462 Y987.153
G01 X93.049 Y967.722
G01 X113.091 Y954.560
G01 X133.940 Y947.990
G01 X153.922 Y947.920
G01 X171.440 Y953.859
G01 X185.065 Y964.943
G01 X193.624 Y979.986
G01 X196.269 Y997.553
G01 X192.526 Y1016.046
G01 X182.326 Y1033.796
G01 X166.006 Y1049.167
G01 X144.295 Y1060.650
G01 X118.266 Y1066.955
G01 X89.279 Y1067.088
G01 X58.895 Y1060.410
G01 X28.793 Y1046.676
G01 X5.000 Y1029.233
G01 X5.000 Y721.428
G01 X11.757 Y714.633
G01 X43.073 Y693.397
G01 X76.716 Y679.155
G01 X110.996 Y672.170
G01 X144.211 Y672.298
G01 X174.750 Y678.992
G01 X201.186 Y691.337
G01 X222.354 Y708.105
G01 X237.424 Y727.828
G01 X245.949 Y748.885
G01 X247.885 Y769.600
G01 X243.596 Y788.339
G01 X233.832 Y803.609
G01 X219.683 Y814.145
G01 X202.513 Y818.986
G01 X183.877 Y817.534
G01 X165.433 Y809.584
G01 X148.839 Y795.345
G01 X135.658 Y775.422
G01 X127.258 Y750.782
G01 X124.740 Y722.699
G01 X128.863 Y692.679
G01 X140.002 Y662.374
G01 X158.125 Y633.479
G01 X182.792 Y607.638
G01 X213.180 Y586.348
G01 X248.129 Y570.867
G01 X286.211 Y562.141
G01 X325.807 Y560.752
G01 X365.210 Y566.879
G01 X402.712 Y580.289
G01 X436.715 Y600.351
G01 X465.814 Y626.073
G01 X488.883 Y656.156
G01 X505.138 Y689.076
G01 X514.184 Y723.166
G01 X516.033 Y756.719
G01 X511.106 Y788.084
G01 X500.204 Y815.765
G01 X484.463 Y838.506
G01 X465.283 Y855.362
G01 X444.246 Y865.758
G01 X423.022 Y869.520
G01 X403.270 Y866.882
G01 X386.540 Y858.474
G01 X374.180 Y845.283
G01 X367.256 Y828.592
G01 X366.490 Y809.906
G01 X372.217 Y790.862
G01 X384.361 Y773.129
G01 X402.445 Y758.311
G01 X425.613 Y747.851
G01 X452.682 Y742.944
G01 X482.214 Y744.467
G01 X512.593 Y752.925
G01 X542.128 Y768.417
G01 X569.147 Y790.637
G01 X592.097 Y818.881
G01 X609.633 Y852.092
G01 X620.701 Y888.923
G01 X624.596 Y927.806
G01 X621.008 Y967.054
G01 X610.035 Y1004.949
G01 X592.184 Y1039.848
G01 X568.334 Y1070.274
G01 X539.693 Y1095.005
G01 X507.721 Y1113.141
G01 X474.049 Y1124.158
G01 X440.380 Y1127.937
G01 X408.395 Y1124.769
G01 X379.649 Y1115.338
G01 X355.485 Y1100.678
G01 X336.955 Y1082.114
G01 X324.756 Y1061.179
G01 X319.194 Y1039.526
G01 X320.166 Y1018.830
G01 X327.166 Y1000.686
G01 X339.317 Y986.518
G01 X355.422 Y977.492
G01 X374.038 Y974.448
G01 X393.560 Y977.848
G01 X412.318 Y987.752
G01 X428.675 Y1003.809
G01 X441.124 Y1025.284
G01 X448.382 Y1051.092
G01 X449.461 Y1079.869
G01 X443.731 Y1110.047
G01 X430.957 Y1139.950
G01 X411.315 Y1167.888
G01 X385.383 Y1192.258
G01 X354.108 Y1211.640
G01 X318.752 Y1224.878
G01 X280.817 Y1231.150
G01 X241.963 Y1230.013
G01 X203.908 Y1221.433
G01 X168.328 Y1205.787
G01 X136.763 Y1183.839
G01 X110.526 Y1156.696
G01 X90.626 Y1125.745
G01 X77.711 Y1092.572
G01 X72.034 Y1058.867
G01 X73.433 Y1026.329
G01 X81.348 Y996.563
G01 X94.851 Y970.991
G01 X112.702 Y950.763
G01 X133.426 Y936.697
G01 X155.396 Y929.229
G01 X176.935 Y928.388
G01 X196.408 Y933.793
G01 X212.326 Y944.683
G01 X223.432 Y959.957
G01 X228.773 Y978.242
G01 X227.760 Y997.974
G01 X220.200 Y1017.492
G01 X206.313 Y1035.138
G01 X186.712 Y1049.350
G01 X162.376 Y1058.764
G01 X134.585 Y1062.288
G01 X104.851 Y1059.170
G01 X74.825 Y1049.044
G01 X46.205 Y1031.951
G01 X20.631 Y1008.342
G01 X5.000 Y986.579
G01 X5.000 Y778.026
G01 X14.199 Y763.007
G01 X39.765 Y735.284
G01 X69.595 Y713.603
G01 X102.158 Y698.734
G01 X135.786 Y691.059
G01 X168.775 Y690.547
G01 X199.477 Y696.766
G01 X226.403 Y708.900
G01 X248.307 Y725.801
G01 X264.258 Y746.062
G01 X273.693 Y768.093
G01 X276.453 Y790.221
G01 X272.785 Y810.787
G01 X263.334 Y828.245
G01 X249.098 Y841.251
G01 X231.370 Y848.747
G01 X211.664 Y850.021
G01 X191.621 Y844.749
G01 X172.911 Y833.017
G01 X157.139 Y815.315
G01 X145.743 Y792.506
G01 X139.912 Y765.782
G01 X140.515 Y736.588
G01 X148.047 Y706.540
G01 X162.601 Y677.331
G01 X183.857 Y650.631
G01 X211.104 Y627.987
G01 X243.279 Y610.736
G01 X279.028 Y599.922
G01 X316.783 Y596.238
G01 X354.855 Y599.983
G01 X391.532 Y611.046
G01 X425.176 Y628.911
G01 X454.320 Y652.685
G01 X477.752 Y681.154
G01 X494.587 Y712.853
G01 X504.316 Y746.148
G01 X506.833 Y779.334
G01 X502.446 Y810.737
G01 X491.851 Y838.807
G01 X476.096 Y862.209
G01 X456.514 Y879.906
G01 X434.646 Y891.211
G01 X412.149 Y895.833
G01 X390.700 Y893.889
G01 X371.891 Y885.899
G01 X357.143 Y872.754
G01 X347.612 Y855.660
G01 X344.131 Y836.069
G01 X347.151 Y815.592
G01 X356.720 Y795.902
G01 X372.479 Y778.637
G01 X393.679 Y765.298
G01 X419.230 Y757.165
G01 X447.759 Y755.219
G01 X477.696 Y760.080
G01 X507.362 Y771.974
G01 X535.070 Y790.714
G01 X559.221 Y815.714
G01 X578.403 Y846.020
G01 X591.468 Y880.364
G01 X597.605 Y917.240
G01 X596.384 Y954.989
G01 X587.783 Y991.894
G01 X572.189 Y1026.285
G01 X550.379 Y1056.631
G01 X523.467 Y1081.629
G01 X492.848 Y1100.284
G01 X460.111 Y1111.960
G01 X426.946 Y1116.422
G01 X395.050 Y1113.844
G01 X366.022 Y1104.803
G01 X341.275 Y1090.239
G01 X321.950 Y1071.401
G01 X308.852 Y1049.773
G01 X302.401 Y1026.987
G01 X302.613 Y1004.724
G01 X309.094 Y984.616
G01 X321.068 Y968.148
G01 X337.424 Y956.572
G01 X356.779 Y950.832
G01 X377.562 Y951.506
G01 X398.109 Y958.776
G01 X416.759 Y972.413
G01 X431.956 Y991.791
G01 X442.337 Y1015.924
G01 X446.818 Y1043.524
G01 X444.656 Y1073.073
G01 X435.493 Y1102.919
G01 X419.382 Y1131.366
G01 X396.781 Y1156.776
G01 X368.530 Y1177.667
G01 X335.801 Y1192.797
G01 X300.032 Y1201.241
G01 X262.842 Y1202.441
G01 X225.938 Y1196.242
G01 X191.015 Y1182.901
G01 X159.660 Y1163.070
G01 X133.257 Y1137.763
G01 X112.906 Y1108.290
G01 X99.364 Y1076.187
G01 X92.997 Y1043.122
G01 X93.762 Y1010.801
G01 X101.209 Y980.864
G01 X114.510 Y954.793
G01 X132.508 Y933.825
G01 X153.783 Y918.879
G01 X176.742 Y910.503
G01 X199.707 Y908.844
G01 X221.019 Y913.637
G01 X239.136 Y924.227
G01 X252.720 Y939.603
G01 X260.719 Y958.460
G01 X262.433 Y979.278
G01 X257.548 Y1000.413
G01 X246.160 Y1020.190
G01 X228.770 Y1037.007
G01 X206.252 Y1049.429
G01 X179.805 Y1056.273
G01 X150.878 Y1056.678
G01 X121.093 Y1050.158
G01 X92.142 Y1036.632
G01 X65.692 Y1016.427
G01 X43.284 Y990.263
G01 X26.248 Y959.210
G01 X15.618 Y924.627
G01 X12.075 Y888.085
G01 X15.908 Y851.271
G01 X26.991 Y815.895
G01 X44.797 Y783.588
G01 X68.425 Y755.806
G01 X96.653 Y733.751
G01 X128.008 Y718.295
G01 X160.855 Y709.932
G01 X193.490 Y708.751
G01 X224.241 Y714.432
G01 X251.566 Y726.264
G01 X274.141 Y743.187
G01 X290.937 Y763.858
G01 X301.282 Y786.730
G01 X304.899 Y810.140
G01 X301.921 Y832.411
G01 X292.879 Y851.953
G01 X278.678 Y867.352
G01 X260.535 Y877.455
G01 X239.911 Y881.442
G01 X218.421 Y878.870
G01 X197.741 Y869.702
G01 X179.510 Y854.311
G01 X165.226 Y833.452
G01 X156.163 Y808.227
G01 X153.295 Y780.014
G01 X157.232 Y750.386
G01 X168.192 Y721.024
G01 X185.978 Y693.614
G01 X209.994 Y669.749
G01 X239.280 Y650.835
G01 X272.561 Y638.010
G01 X308.328 Y632.074
G01 X344.921 Y633.446
G01 X380.629 Y642.135
G01 X413.784 Y657.741
G01 X442.864 Y679.480
G01 X466.579 Y706.226
G01 X483.944 Y736.580
G01 X494.340 Y768.948
G01 X497.545 Y801.639
G01 X493.750 Y832.961
G01 X483.544 Y861.319
G01 X467.880 Y885.309
G01 X448.018 Y903.801
G01 X425.451 Y916.003
G01 X401.815 Y921.508
G01 X378.793 Y920.315
G01 X358.016 Y912.833
G01 X340.965 Y899.849
G01 X328.886 Y882.487
G01 X322.714 Y862.140
G01 X323.016 Y840.383
G01 X329.965 Y818.886
G01 X343.319 Y799.310
G01 X362.442 Y783.209
G01 X386.339 Y771.942
G01 X413.714 Y766.585
G01 X443.047 Y767.874
G01 X472.681 Y776.156
G01 X500.922 Y791.369
G01 X526.137 Y813.045
G01 X546.848 Y840.338
G01 X561.823 Y872.067
G01 X570.147 Y906.792
G01 X571.273 Y942.892
G01 X565.060 Y978.661
G01 X551.775 Y1012.409
G01 X532.082 Y1042.558
G01 X507.003 Y1067.734
G01 X477.857 Y1086.847
G01 X446.184 Y1099.155
G01 X413.654 Y1104.308
G01 X381.969 Y1102.363
G01 X352.766 Y1093.784
G01 X327.519 Y1079.413
G01 X307.454 Y1060.419
G01 X293.479 Y1038.229
G01 X286.128 Y1014.443
G01 X285.533 Y990.743
G01 X291.416 Y968.785
G01 X303.107 Y950.112
G01 X319.583 Y936.054
G01 X339.531 Y927.653
G01 X361.422 Y925.603
G01 X383.606 Y930.205
G01 X404.408 Y941.352
G01 X422.227 Y958.533
G01 X435.632 Y980.863
G01 X443.445 Y1007.138
G01 X444.815 Y1035.899
G01 X439.264 Y1065.525
G01 X426.719 Y1094.323
G01 X407.519 Y1120.628
G01 X382.391 Y1142.903
G01 X352.414 Y1159.829
G01 X318.950 Y1170.380
G01 X283.572 Y1173.886
G01 X247.967 Y1170.073
G01 X213.842 Y1159.075
G01 X182.819 Y1141.433
G01 X156.348 Y1118.056
G01 X135.617 Y1090.177
G01 X121.484 Y1059.272
G01 X114.430 Y1026.978
G01 X114.530 Y994.999
G01 X121.446 Y965.003
G01 X134.456 Y938.527
G01 X152.487 Y916.884
G01 X174.186 Y901.090
G01 X197.999 Y891.805
G01 X222.260 Y889.293
G01 X245.291 Y893.406
G01 X265.503 Y903.597
G01 X281.487 Y918.951
G01 X292.099 Y938.239
G01 X296.527 Y959.993
G01 X294.340 Y982.590
G01 X285.510 Y1004.352
G01 X270.422 Y1023.642
G01 X249.842 Y1038.964
G01 X224.878 Y1049.048
G01 X196.916 Y1052.930
G01 X167.534 Y1050.006
G01 X138.412 Y1040.071
G01 X111.235 Y1023.329
G01 X87.592 Y1000.385
G01 X68.881 Y972.209
G01 X56.230 Y940.078
G01 X50.430 Y905.507
G01 X51.887 Y870.154
G01 X60.598 Y835.730
G01 X76.151 Y803.895
G01 X97.753 Y776.163
G01 X124.267 Y753.814
G01 X154.289 Y737.818
G01 X186.223 Y728.782
G01 X218.377 Y726.912
G01 X249.060 Y732.002
G01 X276.684 Y743.449
G01 X299.854 Y760.288
G01 X317.451 Y781.247
G01 X328.696 Y804.826
G01 X333.195 Y829.385
G01 X330.963 Y853.238
G01 X322.421 Y874.755
G01 X308.372 Y892.459
G01 X289.949 Y905.113
G01 X268.554 Y911.788
G01 X245.771 Y911.928
G01 X223.271 Y905.372
G01 X202.717 Y892.372
G01 X185.661 Y873.575
G01 X173.457 Y849.984
G01 X167.174 Y822.903
G01 X167.540 Y793.857
G01 X174.892 Y764.505
G01 X189.159 Y736.540
G01 X209.863 Y711.591
G01 X236.150 Y691.130
G01 X266.834 Y676.379
G01 X300.469 Y668.245
G01 X335.434 Y667.261
G01 X370.026 Y673.558
G01 X402.557 Y686.856
G01 X431.458 Y706.479
G01 X455.366 Y731.397
G01 X473.202 Y760.285
G01 X484.240 Y791.597
G01 X488.141 Y823.663
G01 X484.981 Y854.782
G01 X475.236 Y883.321
G01 X459.762 Y907.816
G01 X439.740 Y927.049
G01 X416.604 Y940.126
G01 X391.962 Y946.527
G01 X367.496 Y946.133
G01 X344.865 Y939.237
G01 X325.606 Y926.522
G01 X311.045 Y909.023
G01 X302.216 Y888.065
G01 X299.802 Y865.182
G01 X304.093 Y842.029
G01 X314.971 Y820.283
G01 X331.915 Y801.545
G01 X354.030 Y787.241
G01 X380.104 Y778.542
G01 X408.674 Y776.293
G01 X438.113 Y780.961
G01 X466.730 Y792.610
G01 X492.862 Y810.891
G01 X514.979 Y835.069
G01 X531.768 Y864.059
G01 X542.214 Y896.493
G01 X545.659 Y930.796
G01 X541.839 Y965.281
G01 X530.902 Y998.247
G01 X513.398 Y1028.077
G01 X490.249 Y1053.331
G01 X462.693 Y1072.833
G01 X432.212 Y1085.738
G01 X400.447 Y1091.579
G01 X369.098 Y1090.298
G01 X339.832 Y1082.245
G01 X314.176 Y1068.159
G01 X293.436 Y1049.122
G01 X278.617 Y1026.496
G01 X270.363 Y1001.845
G01 X268.925 Y976.837
G01 X274.140 Y953.151
G01 X285.448 Y932.374
G01 X301.921 Y915.910
G01 X322.320 Y904.895
G01 X345.167 Y900.131
G01 X368.836 Y902.041
G01 X391.644 Y910.638
G01 X411.955 Y925.529
G01 X428.275 Y945.937
G01 X439.342 Y970.745
G01 X444.198 Y998.562
G01 X442.248 Y1027.805
G01 X433.296 Y1056.792
G01 X417.557 Y1083.843
G01 X395.644 Y1107.371
G01 X368.534 Y1125.987
G01 X337.512 Y1138.570
G01 X304.093 Y1144.341
G01 X269.936 Y1142.908
G01 X236.750 Y1134.283
G01 X206.189 Y1118.890
G01 X179.758 Y1097.535
G01 X158.725 Y1071.360
G01 X144.049 Y1041.778
G01 X136.322 Y1010.386
G01 X135.734 Y978.878
G01 X142.066 Y948.941
G01 X154.700 Y922.156
G01 X172.658 Y899.911
G01 X194.658 Y883.314
G01 X219.193 Y873.130
G01 X244.617 Y869.739
G01 X269.242 Y873.112
G01 X291.441 Y882.814
G01 X309.740 Y898.029
G01 X322.908 Y917.612
G01 X330.028 Y940.152
G01 X330.550 Y964.059
G01 X324.327 Y987.657
G01 X311.622 Y1009.284
G01 X293.091 Y1027.390
G01 X269.747 Y1040.625
G01 X242.902 Y1047.927
G01 X214.084 Y1048.577
G01 X184.954 Y1042.247
G01 X157.205 Y1029.018
G01 X132.462 Y1009.377
G01 X112.191 Y984.187
G01 X97.605 Y954.639
G01 X89.600 Y922.182
G01 X88.698 Y888.440
G01 X95.017 Y855.114
G01 X108.266 Y823.886
G01 X127.760 Y796.318
G01 X152.456 Y773.763
G01 X181.024 Y757.287
G01 X211.915 Y747.602
G01 X243.457 Y745.032
G01 X273.950 Y749.487
G01 X301.767 Y760.476
G01 X325.451 Y777.130
G01 X343.795 Y798.258
G01 X355.919 Y822.415
G01 X361.314 Y847.989
G01 X359.877 Y873.294
G01 X351.915 Y896.672
G01 X338.124 Y916.589
G01 X319.553 Y931.727
G01 X297.534 Y941.058
G01 X273.610 Y943.909
G01 X249.441 Y940.002
G01 X226.705 Y929.465
G01 X207.001 Y912.831
G01 X191.752 Y891.003
G01 X182.123 Y865.203
G01 X178.950 Y836.899
G01 X182.691 Y807.718
G01 X193.400 Y779.355
G01 X210.721 Y753.468
G01 X233.907 Y731.582
G01 X261.868 Y715.001
G01 X293.230 Y704.731
G01 X326.419 Y701.420
G01 X359.746 Y705.318
G01 X391.516 Y716.266
G01 X420.116 Y733.701
G01 X444.117 Y756.694
G01 X462.356 Y783.998
G01 X474.000 Y814.126
G01 X478.597 Y845.436
G01 X476.104 Y876.226
G01 X466.886 Y904.836
G01 X451.694 Y929.744
G01 X431.623 Y949.654
G01 X408.046 Y963.575
G01 X382.531 Y970.874
G01 X356.752 Y971.317
G01 X332.387 Y965.077
G01 X311.021 Y952.732
G01 X294.053 Y935.220
G01 X282.612 Y913.793
G01 X277.490 Y889.934
G01 X279.099 Y865.278
G01 X287.440 Y841.509
G01 X302.112 Y820.262
G01 X322.325 Y803.029
G01 X346.955 Y791.066
G01 X374.603 Y785.323
G01 X403.685 Y786.387
G01 X432.517 Y794.443
G01 X459.418 Y809.268
G01 X482.810 Y830.239
G01 X501.309 Y856.372
G01 X513.803 Y886.377
G01 X519.526 Y918.736
G01 X518.095 Y951.788
G01 X509.536 Y983.830
G01 X494.284 Y1013.212
G01 X473.155 Y1038.438
G01 X447.300 Y1058.251
G01 X418.136 Y1071.704
G01 X387.266 Y1078.222
G01 X356.383 Y1077.627
G01 X327.170 Y1070.155
G01 X301.203 Y1056.438
G01 X279.861 Y1037.464
G01 X264.239 Y1014.528
G01 X255.091 Y989.143
G01 X252.783 Y962.961
G01 X257.271 Y937.670
G01 X268.105 Y914.896
G01 X284.457 Y896.110
G01 X305.170 Y882.535
G01 X328.824 Y875.080
G01 X353.823 Y874.283
G01 X378.488 Y880.281
G01 X401.155 Y892.800
G01 X420.277 Y911.173
G01 X434.509 Y934.377
G01 X442.795 Y961.096
G01 X444.426 Y989.795
G01 X439.082 Y1018.811
G01 X426.855 Y1046.452
G01 X408.241 Y1071.097
G01 X384.109 Y1091.288
G01 X355.659 Y1105.819
G01 X324.343 Y1113.805
G01 X291.784 Y1114.735
G01 X259.683 Y1108.503
G01 X229.716 Y1095.413
G01 X203.439 Y1076.160
G01 X182.193 Y1051.795
G01 X167.031 Y1023.657
G01 X158.654 Y993.297
G01 X157.368 Y962.390
G01 X163.070 Y932.632
G01 X175.254 Y905.646
G01 X193.038 Y882.880
G01 X215.219 Y865.531
G01 X240.346 Y854.468
G01 X266.798 Y850.183
G01 X292.890 Y852.767
G01 X316.961 Y861.898
G01 X337.483 Y876.866
G01 X353.142 Y896.611
G01 X362.920 Y919.791
G01 X366.155 Y944.855
G01 X362.577 Y970.138
G01 X352.327 Y993.962
G01 X335.948 Y1014.728
G01 X314.354 Y1031.018
G01 X288.773 Y1041.673
G01 X260.679 Y1045.865
G01 X231.704 Y1043.145
G01 X203.539 Y1033.469
G01 X177.842 Y1017.203
G01 X156.132 Y995.101
G01 X139.705 Y968.261
G01 X129.556 Y938.061
G01 X126.322 Y906.078
G01 X130.243 Y873.998
G01 X141.145 Y843.514
G01 X158.457 Y816.231
G01 X181.237 Y793.568
G01 X208.234 Y776.679
G01 X237.953 Y766.380
G01 X268.751 Y763.110
G01 X298.928 Y766.897
G01 X326.828 Y777.361
G01 X350.935 Y793.738
G01 X369.965 Y814.921
G01 X382.936 Y839.527
G01 X389.230 Y865.983
G01 X388.627 Y892.610
G01 X381.316 Y917.730
G01 X367.886 Y939.760
G01 X349.290 Y957.307
G01 X326.789 Y969.249
G01 X301.876 Y974.804
G01 X276.189 Y973.572
G01 X251.417 Y965.560
G01 X229.193 Y951.183
G01 X211.005 Y931.239
G01 X198.106 Y906.863
G01 X191.438 Y879.457
G01 X191.576 Y850.612
G01 X198.699 Y822.011
G01 X212.572 Y795.333
G01 X232.564 Y772.151
G01 X257.684 Y753.845
G01 X286.637 Y741.513
G01 X317.901 Y735.913
G01 X349.815 Y737.415
G01 X380.679 Y745.981
G01 X408.851 Y761.165
G01 X432.841 Y782.141
G01 X451.404 Y807.750
G01 X463.608 Y836.568
G01 X468.889 Y866.990
G01 X467.087 Y897.323
G01 X458.450 Y925.887
G01 X443.625 Y951.111
G01 X423.614 Y971.628
G01 X399.720 Y986.351
G01 X373.465 Y994.541
G01 X346.504 Y995.846
G01 X320.528 Y990.324
G01 X297.162 Y978.440
G01 X277.871 Y961.033
G01 X263.871 Y939.274
G01 X256.062 Y914.590
G01 X254.973 Y888.584
G01 X260.728 Y862.939
G01 X273.043 Y839.319
G01 X291.241 Y819.269
G01 X314.289 Y804.129
G01 X340.863 Y794.948
G01 X369.425 Y792.426
G01 X398.310 Y796.873
G01 X425.827 Y808.189
G01 X450.358 Y825.869
G01 X470.452 Y849.033
G01 X484.911 Y876.479
G01 X492.862 Y906.748
G01 X493.804 Y938.218
G01 X487.645 Y969.189
G01 X474.698 Y997.991
G01 X455.671 Y1023.075
G01 X431.623 Y1043.111
G01 X403.899 Y1057.057
G01 X374.055 Y1064.228
G01 X343.766 Y1064.332
G01 X314.727 Y1057.486
G01 X288.554 Y1044.213
G01 X266.689 Y1025.405
G01 X250.317 Y1002.276
G01 X240.294 Y976.288
G01 X237.100 Y949.065
G01 X240.809 Y922.296
G01 X251.086 Y897.640
G01 X267.208 Y876.624
G01 X288.103 Y860.553
G01 X312.417 Y850.438
G01 X338.594 Y846.931
G01 X364.965 Y850.290
G01 X389.849 Y860.363
G01 X411.649 Y876.596
G01 X428.950 Y898.068
G01 X440.601 Y923.540
G01 X445.782 Y951.533
G01 X444.052 Y980.415
G01 X435.378 Y1008.491
G01 X420.135 Y1034.109
G01 X399.085 Y1055.754
G01 X373.333 Y1072.139
G01 X344.261 Y1082.278
G01 X313.449 Y1085.546
G01 X282.581 Y1081.716
G01 X253.346 Y1070.971
G01 X227.343 Y1053.895
G01 X205.980 Y1031.439
G01 X190.400 Y1004.863
G01 X181.406 Y975.664
G01 X179.421 Y945.488
G01 X184.458 Y916.036
G01 X196.125 Y888.957
G01 X213.641 Y865.760
G01 X235.890 Y847.721
G01 X261.479 Y835.807
G01 X288.827 Y830.625
G01 X316.254 Y832.380
G01 X342.080 Y840.868
G01 X364.725 Y855.486
G01 X382.801 Y875.269
G01 X395.196 Y898.946
G01 X401.134 Y925.014
G01 X400.228 Y951.831
G01 X392.496 Y977.706
G01 X378.365 Y1001.006
G01 X358.642 Y1020.245
G01 X334.469 Y1034.177
G01 X307.257 Y1041.869
G01 X278.598 Y1042.751
G01 X250.179 Y1036.658
G01 X223.674 Y1023.832
G01 X200.654 Y1004.913
G01 X182.489 Y980.900
G01 X170.269 Y953.093
G01 X164.741 Y923.017
G01 X166.264 Y892.332
G01 X174.786 Y862.735
G01 X189.852 Y835.864
G01 X210.625 Y813.198
G01 X235.937 Y795.972
G01 X264.358 Y785.104
G01 X294.282 Y781.144
G01 X324.015 Y784.238
G01 X351.881 Y794.122
G01 X376.315 Y810.136
G01 X395.958 Y831.265
G01 X409.737 Y856.197
G01 X416.923 Y883.401
G01 X417.181 Y911.218
G01 X410.583 Y937.956
G01 X397.606 Y961.992
G01 X379.104 Y981.866
G01 X356.258 Y996.368
G01 X330.506 Y1004.606
G01 X303.455 Y1006.065
G01 X276.793 Y1000.629
G01 X252.184 Y988.594
G01 X231.171 Y970.649
G01 X215.088 Y947.834
G01 X204.977 Y921.481
G01 X201.531 Y893.132
G01 X205.049 Y864.455
G01 X215.421 Y837.139
G01 X232.134 Y812.799
G01 X254.301 Y792.878
G01 X280.711 Y778.566
G01 X309.905 Y770.726
G01 X340.256 Y769.846
G01 X370.070 Y776.009
G01 X397.680 Y788.887
G01 X421.546 Y807.763
G01 X440.347 Y831.570
G01 X453.055 Y858.955
G01 X458.998 Y888.359
G01 X457.899 Y918.105
G01 X449.891 Y946.502
G01 X435.509 Y971.938
G01 X415.659 Y992.981
G01 X391.567 Y1008.456
G01 X364.702 Y1017.518
G01 X336.694 Y1019.704
G01 X309.234 Y1014.951
G01 X283.981 Y1003.611
G01 X262.456 Y986.420
G01 X245.961 Y964.461
G01 X235.496 Y939.098
G01 X231.704 Y911.895
G01 X234.832 Y884.525
G01 X244.716 Y858.670
G01 X260.792 Y835.926
G01 X282.128 Y817.703
G01 X307.478 Y805.147
G01 X335.360 Y799.070
G01 X364.135 Y799.901
G01 X392.110 Y807.666
G01 X417.637 Y821.980
G01 X439.207 Y842.071
G01 X455.538 Y866.830
G01 X465.656 Y894.869
G01 X468.948 Y924.606
G01 X465.197 Y954.360
G01 X454.600 Y982.443
G01 X437.750 Y1007.266
G01 X415.608 Y1027.428
G01 X389.442 Y1041.801
G01 X360.753 Y1049.593
G01 X331.190 Y1050.397
G01 X302.450 Y1044.214
G01 X276.180 Y1031.452
G01 X253.881 Y1012.903
G01 X236.818 Y989.697
G01 X225.948 Y963.234
G01 X221.863 Y935.103
G01 X224.753 Y906.987
G01 X234.400 Y880.566
G01 X250.188 Y857.418
G01 X271.139 Y838.924
G01 X295.971 Y826.190
G01 X323.174 Y819.980
G01 X351.099 Y820.672
G01 X378.054 Y828.235
G01 X402.405 Y842.233
G01 X422.672 Y861.848
G01 X437.613 Y885.929
G01 X446.302 Y913.060
G01 X448.180 Y941.644
G01 X443.090 Y969.994
G01 X431.283 Y996.438
G01 X413.410 Y1019.410
G01 X390.476 Y1037.546
G01 X363.787 Y1049.767
G01 X334.869 Y1055.336
G01 X305.382 Y1053.907
G01 X277.022 Y1045.541
G01 X251.419 Y1030.707
G01 X230.044 Y1010.252
G01 X214.120 Y985.351
G01 X204.554 Y957.439
G01 X201.878 Y928.127
G01 X206.226 Y899.106
G01 X217.318 Y872.051
G01 X234.481 Y848.519
G01 X256.687 Y829.860
G01 X282.614 Y817.136
G01 X310.725 Y811.061
G01 X339.356 Y811.958
G01 X366.813 Y819.740
G01 X391.475 Y833.915
G01 X411.887 Y853.617
G01 X426.845 Y877.652
G01 X435.469 Y904.576
G01 X437.252 Y932.772
G01 X432.091 Y960.552
G01 X420.292 Y986.251
G01 X402.555 Y1008.326
G01 X379.929 Y1025.452
G01 X353.752 Y1036.590
G01 X325.573 Y1041.059
G01 X297.059 Y1038.567
G01 X269.900 Y1029.235
G01 X245.705 Y1013.584
G01 X225.913 Y992.511
G01 X211.703 Y967.231
G01 X203.929 Y939.207
G01 X203.066 Y910.066
G01 X209.187 Y881.502
G01 X221.951 Y855.176
G01 X240.631 Y832.618
G01 X264.151 Y815.141
G01 X291.152 Y803.759
G01 X320.070 Y799.131
G01 X349.229 Y801.518
G01 X376.940 Y810.773
G01 X401.598 Y826.347
G01 X421.775 Y847.319
G01 X436.311 Y872.456
G01 X444.373 Y900.279
G01 X445.510 Y929.152
G01 X439.677 Y957.382
G01 X427.236 Y983.312
G01 X408.940 Y1005.423
G01 X385.883 Y1022.421
G01 X359.438 Y1033.314
G01 X331.176 Y1037.469
G01 X302.775 Y1034.650
G01 X275.919 Y1025.033
G01 X252.200 Y1009.193
G01 X233.027 Y988.071
G01 X219.537 Y962.919
G01 X212.534 Y935.229
G01 X212.439 Y906.638
G01 X219.268 Y878.841
G01 X232.625 Y853.483
G01 X251.733 Y832.067
G01 X275.474 Y815.867
G01 X302.455 Y805.846
G01 X331.094 Y802.608
G01 X359.710 Y806.356
G01 X386.620 Y816.883
G01 X410.242 Y833.583
G01 X429.186 Y855.488
G01 X442.333 Y881.321
G01 X448.906 Y909.577
G01 X448.514 Y938.606
G01 X441.170 Y966.711
G01 X427.299 Y992.250
G01 X407.706 Y1013.731
G01 X383.531 Y1029.897
G01 X356.185 Y1039.805
G01 X327.261 Y1042.877
G01 X298.448 Y1038.935
G01 X271.424 Y1028.212
G01 X247.764 Y1011.340
G01 X228.845 Y989.309
G01 X215.764 Y963.410
G01 X209.275 Y935.161
G01 X209.746 Y906.218
G01 X217.134 Y878.273
G01 X230.992 Y852.961
G01 X250.491 Y831.759
G01 X274.473 Y815.902
G01 X301.516 Y806.308
G01 X330.018 Y803.528
G01 X358.293 Y807.710
G01 X384.669 Y818.591
G01 X407.585 Y835.514
G01 X425.688 Y857.465
G01 X437.903 Y883.135
G01 X443.508 Y910.992
G01 X442.166 Y939.378
G01 X433.953 Y966.601
G01 X419.346 Y991.036
G01 X399.204 Y1011.222
G01 X374.709 Y1025.946
G01 X347.301 Y1034.316
G01 X318.595 Y1035.812
G01 X290.281 Y1030.317
G01 X264.030 Y1018.125
G01 X241.392 Y999.922
G01 X223.708 Y976.748
G01 X212.030 Y949.936
G01 X207.057 Y921.029
G01 X209.098 Y891.698
G01 X218.052 Y863.634
G01 X233.412 Y838.459
G01 X254.299 Y817.623
G01 X279.509 Y802.321
G01 X307.587 Y793.425
G01 X336.913 Y791.431
G01 X365.793 Y796.431
G01 X392.562 Y808.107
G01 X415.682 Y825.750
G01 X433.830 Y848.301
G01 X445.976 Y874.414
G01 X451.446 Y902.538
G01 X449.959 Y931.002
G01 X441.645 Y958.119
G01 X427.035 Y982.282
G01 X407.033 Y1002.060
G01 X382.859 Y1016.282
G01 X355.981 Y1024.105
G01 X328.026 Y1025.065
G01 X300.685 Y1019.102
G01 X275.615 Y1006.567
G01 X254.338 Y988.198
G01 X238.156 Y965.080
G01 X228.070 Y938.579
G01 X224.724 Y910.260
G01 X228.367 Y881.802
G01 X238.835 Y854.890
G01 X255.566 Y831.125
G01 X277.627 Y811.924
G01 X303.772 Y798.439
G01 X332.514 Y791.487
G01 X362.215 Y791.508
G01 X391.177 Y798.530
G01 X417.744 Y812.178
G01 X440.402 Y831.685
G01 X457.864 Y855.946
G01 X469.145 Y883.577
G01 X473.623 Y913.001
G01 X471.075 Y942.535
G01 X461.685 Y970.494
G01 X446.041 Y995.288
G01 X425.094 Y1015.512
G01 X400.103 Y1030.036
G01 X372.563 Y1038.063
G01 X344.118 Y1039.182
G01 X316.460 Y1033.387
G01 X291.231 Y1021.083
G01 X269.930 Y1003.055
G01 X253.821 Y980.430
G01 X243.859 Y954.601
G01 X240.634 Y927.154
G01 X244.339 Y899.769
G01 X254.755 Y874.124
G01 X271.266 Y851.795
G01 X292.892 Y834.161
G01 X318.353 Y822.329
G01 X346.137 Y817.062
G01 X374.591 Y818.738
G01 X402.023 Y827.328
G01 X426.795 Y842.392
G01 X447.420 Y863.113
G01 X462.654 Y888.339
G01 X471.565 Y916.651
G01 X473.588 Y946.448
G01 X468.562 Y976.040
G01 X456.733 Y1003.747
G01 X438.746 Y1027.997
G01 X415.604 Y1047.421
G01 X388.609 Y1060.929
G01 X359.288 Y1067.776
G01 X329.299 Y1067.605
G01 X300.339 Y1060.472
G01 X274.042 Y1046.833
G01 X251.880 Y1027.529
G01 X235.083 Y1003.725
G01 X224.562 Y976.850
G01 X220.858 Y948.509
G01 X224.110 Y920.389
G01 X234.044 Y894.160
G01 X249.996 Y871.377
G01 X270.945 Y853.389
G01 X295.575 Y841.256
G01 X322.353 Y835.695
G01 X349.622 Y837.027
G01 X375.691 Y845.166
G01 X398.943 Y859.623
G01 X417.926 Y879.531
G01 X431.438 Y903.699
G01 X438.600 Y930.680
G01 X438.906 Y958.860
G01 X432.254 Y986.546
G01 X418.953 Y1012.074
G01 X399.703 Y1033.897
G01 X375.556 Y1050.687
G01 X347.854 Y1061.402
G01 X318.148 Y1065.357
G01 X288.111 Y1062.256
G01 X259.439 Y1052.217
G01 X233.748 Y1035.758
G01 X212.485 Y1013.774
G01 X196.837 Y987.478
G01 X187.668 Y958.335
G01 X185.461 Y927.970
G01 X190.299 Y898.082
G01 X201.851 Y870.334
G01 X219.397 Y846.264
G01 X241.871 Y827.188
G01 X267.920 Y814.129
G01 X295.986 Y807.752
G01 X324.399 Y808.330
G01 X351.471 Y815.722
G01 X375.601 Y829.388
G01 X395.365 Y848.417
G01 X409.598 Y871.582
G01 X417.470 Y897.413
G01 X418.527 Y924.282
G01 X412.721 Y950.500
G01 X400.416 Y974.416
G01 X382.359 Y994.515
G01 X359.643 Y1009.506
G01 X333.640 Y1018.401
G01 X305.921 Y1020.570
G01 X278.163 Y1015.779
G01 X252.050 Y1004.206
G01 X229.175 Y986.428
G01 X210.948 Y963.390
G01 X198.509 Y936.349
G01 X192.664 Y906.798
G01 X193.836 Y876.384
G01 X202.041 Y846.804
G01 X216.888 Y819.713
G01 X237.598 Y796.622
G01 X263.052 Y778.812
G01 X291.859 Y767.258
G01 X322.433 Y762.570
G01 X353.088 Y764.964
G01 X382.137 Y774.240
G01 X407.991 Y789.803
G01 X429.252 Y810.691
G01 X444.794 Y835.636
G01 X453.830 Y863.138
G01 X455.957 Y891.553
G01 X451.180 Y919.187
G01 X439.912 Y944.401
G01 X422.948 Y965.703
G01 X401.418 Y981.836
G01 X376.723 Y991.857
G01 X350.449 Y995.183
G01 X324.274 Y991.637
G01 X299.873 Y981.448
G01 X278.813 Y965.243
G01 X262.466 Y944.010
G01 X251.923 Y919.039
G01 X247.937 Y891.844
G01 X250.870 Y864.078
G01 X260.677 Y837.434
G01 X276.906 Y813.545
G01 X298.725 Y793.888
G01 X324.970 Y779.699
G01 X354.216 Y771.896
G01 X384.853 Y771.031
G01 X415.190 Y777.252
G01 X443.546 Y790.296
G01 X468.354 Y809.504
G01 X488.248 Y833.863
G01 X502.148 Y862.058
G01 X509.318 Y892.557
G01 X509.415 Y923.694
G01 X502.501 Y953.771
G01 X489.048 Y981.156
G01 X469.904 Y1004.379
G01 X446.245 Y1022.216
G01 X419.504 Y1033.763
G01 X391.290 Y1038.491
G01 X363.292 Y1036.269
G01 X337.176 Y1027.378
G01 X314.492 Y1012.495
G01 X296.583 Y992.646
G01 X284.500 Y969.152
G01 X278.946 Y943.547
G01 X280.234 Y917.491
G01 X288.265 Y892.669
G01 X302.538 Y870.692
G01 X322.176 Y853.004
G01 X345.982 Y840.794
G01 X372.503 Y834.930
G01 X400.122 Y835.902
G01 X427.147 Y843.798
G01 X451.918 Y858.293
G01 X472.896 Y878.675
G01 X488.761 Y903.879
G01 X498.483 Y932.554
G01 X501.391 Y963.141
G01 X497.203 Y993.964
G01 X486.051 Y1023.326
G01 X468.469 Y1049.613
G01 X445.363 Y1071.384
G01 X417.958 Y1087.457
G01 X387.727 Y1096.981
G01 X356.304 Y1099.480
G01 X325.386 Y1094.885
G01 X296.641 Y1083.537
G01 X271.601 Y1066.167
G01 X251.579 Y1043.851
G01 X237.589 Y1017.948
G01 X230.289 Y990.019
G01 X229.940 Y961.738
G01 X236.394 Y934.789
G01 X249.101 Y910.772
G01 X267.143 Y891.104
G01 X289.286 Y876.938
G01 X314.058 Y869.097
G01 X339.828 Y868.023
G01 X364.912 Y873.750
G01 X387.664 Y885.905
G01 X406.576 Y903.729
G01 X420.369 Y926.122
G01 X428.067 Y951.705
G01 X429.053 Y978.904
G01 X423.110 Y1006.042
G01 X410.429 Y1031.438
G01 X391.602 Y1053.504
G01 X367.586 Y1070.840
G01 X339.649 Y1082.316
G01 X309.292 Y1087.139
G01 X278.165 Y1084.901
G01 X247.970 Y1075.599
G01 X220.359 Y1059.641
G01 X196.839 Y1037.818
G01 X178.683 Y1011.259
G01 X166.859 Y981.367
G01 X161.967 Y949.735
G01 X164.209 Y918.053
G01 X173.376 Y888.007
G01 X188.860 Y861.186
G01 X209.692 Y838.983
G01 X234.595 Y822.518
G01 X262.065 Y812.569
G01 X290.452 Y809.531
G01 X318.067 Y813.387
G01 X343.270 Y823.717
G01 X364.577 Y839.717
G01 X380.739 Y860.249
G01 X390.822 Y883.910
G01 X394.256 Y909.112
G01 X390.874 Y934.178
G01 X380.917 Y957.438
G01 X365.024 Y977.332
G01 X344.190 Y992.498
G01 X319.712 Y1001.856
G01 X293.110 Y1004.669
G01 X266.038 Y1000.587
G01 X240.186 Y989.672
G01 X217.183 Y972.390
G01 X198.498 Y949.584
G01 X185.355 Y922.431
G01 X178.662 Y892.366
G01 X178.955 Y861.002
G01 X186.368 Y830.034
G01 X200.624 Y801.143
G01 X221.051 Y775.894
G01 X246.622 Y755.645
G01 X276.013 Y741.469
G01 X307.682 Y734.091
G01 X339.961 Y733.844
G01 X371.147 Y740.653
G01 X399.611 Y754.036
G01 X423.885 Y773.135
G01 X442.752 Y796.765
G01 X455.317 Y823.488
G01 X461.057 Y851.690
G01 X459.853 Y879.683
G01 X451.995 Y905.802
G01 X438.168 Y928.501
G01 X419.405 Y946.448
G01 X397.033 Y958.598
G01 X372.588 Y964.260
G01 X347.729 Y963.134
G01 X324.138 Y955.328
G01 X303.419 Y941.357
G01 X287.007 Y922.104
G01 X276.081 Y898.778
G01 X271.494 Y872.833
G01 X273.722 Y845.892
G01 X282.838 Y819.642
G01 X298.504 Y795.743
G01 X319.992 Y775.724
G01 X346.228 Y760.898
G01 X375.849 Y752.280
G01 X407.291 Y750.532
G01 X438.872 Y755.917
G01 X468.896 Y768.290
G01 X495.750 Y787.103
G01 X517.999 Y811.438
G01 X534.469 Y840.058
G01 X544.317 Y871.481
G01 X547.080 Y904.068
G01 X542.699 Y936.117
G01 X531.527 Y965.963
G01 X514.305 Y992.074
G01 X492.117 Y1013.144
G01 X466.331 Y1028.165
G01 X438.511 Y1036.488
G01 X410.333 Y1037.862
G01 X383.480 Y1032.445
G01 X359.547 Y1020.795
G01 X339.945 Y1003.839
G01 X325.818 Y982.814
G01 X317.979 Y959.199
G01 X316.858 Y934.622
G01 X322.476 Y910.766
G01 X334.452 Y889.273
G01 X352.015 Y871.640
G01 X374.055 Y859.136
G01 X399.189 Y852.725
G01 X425.840 Y853.010
G01 X452.331 Y860.193
G01 X476.982 Y874.068
G01 X498.212 Y894.029
G01 X514.631 Y919.107
G01 X525.119 Y948.025
G01 X528.897 Y979.271
G01 X525.570 Y1011.192
G01 X515.151 Y1042.084
G01 X498.061 Y1070.297
G01 X475.105 Y1094.328
G01 X447.425 Y1112.909
G01 X416.432 Y1125.084
G01 X383.725 Y1130.262
G01 X351.000 Y1128.252
G01 X319.943 Y1119.275
G01 X292.142 Y1103.949
G01 X268.985 Y1083.255
G01 X251.585 Y1058.474
G01 X240.712 Y1031.119
G01 X236.751 Y1002.839
G01 X239.676 Y975.326
G01 X249.058 Y950.214
G01 X264.084 Y928.983
G01 X283.611 Y912.872
G01 X306.231 Y902.807
G01 X330.354 Y899.345
G01 X354.305 Y902.643
G01 X376.419 Y912.447
G01 X395.143 Y928.109
G01 X409.126 Y948.623
G01 X417.298 Y972.687
G01 X418.937 Y998.776
G01 X413.709 Y1025.236
G01 X401.688 Y1050.377
G01 X383.356 Y1072.577
G01 X359.569 Y1090.374
G01 X331.513 Y1102.554
G01 X300.634 Y1108.222
G01 X268.551 Y1106.857
G01 X236.961 Y1098.338
G01 X207.544 Y1082.958
G01 X181.862 Y1061.402
G01 X161.267 Y1034.709
G01 X146.823 Y1004.214
G01 X139.246 Y971.466
G01 X138.858 Y938.140
G01 X145.572 Y905.938
G01 X158.894 Y876.490
G01 X177.956 Y851.260
G01 X201.568 Y831.459
G01 X228.281 Y817.974
G01 X256.480 Y811.319
G01 X284.477 Y811.603
G01 X310.608 Y818.526
G01 X333.334 Y831.397
G01 X351.327 Y849.172
G01 X363.555 Y870.523
G01 X369.335 Y893.909
G01 X368.380 Y917.673
G01 X360.811 Y940.137
G01 X347.151 Y959.702
G01 X328.296 Y974.942
G01 X305.459 Y984.691
G01 X280.101 Y988.109
G01 X253.847 Y984.733
G01 X228.382 Y974.506
G01 X205.363 Y957.781
G01 X186.313 Y935.298
G01 X172.532 Y908.144
G01 X165.026 Y877.690
G01 X164.441 Y845.509
G01 X171.027 Y813.284
G01 X184.625 Y782.714
G01 X204.673 Y755.409
G01 X230.237 Y732.798
G01 X260.071 Y716.048
G01 X292.686 Y705.991
G01 X326.435 Y703.081
G01 X359.614 Y707.364
G01 X390.556 Y718.477
G01 X417.735 Y735.668
G01 X439.848 Y757.843
G01 X455.894 Y783.629
G01 X465.236 Y811.456
G01 X467.629 Y839.647
G01 X463.242 Y866.521
G01 X452.642 Y890.486
G01 X436.763 Y910.139
G01 X416.849 Y924.342
G01 X394.381 Y932.297
G01 X370.987 Y933.583
G01 X348.349 Y928.189
G01 X328.101 Y916.511
G01 X311.734 Y899.327
G01 X300.506 Y877.756
G01 X295.368 Y853.187
G01 X296.907 Y827.201
G01 X305.313 Y801.475
G01 X320.364 Y777.684
G01 X341.440 Y757.403
G01 X367.560 Y742.016
G01 X397.436 Y732.628
G01 X429.550 Y730.008
G01 X462.242 Y734.534
G01 X493.809 Y746.180
G01 X522.600 Y764.510
G01 X547.118 Y788.706
G01 X566.101 Y817.615
G01 X578.603 Y849.815
G01 X584.043 Y883.700
G01 X582.241 Y917.572
G01 X573.431 Y949.742
G01 X558.240 Y978.626
G01 X537.659 Y1002.839
G01 X512.979 Y1021.275
G01 X485.714 Y1033.172
G01 X457.519 Y1038.156
G01 X430.084 Y1036.260
G01 X405.039 Y1027.925
G01 X383.860 Y1013.971
G01 X367.778 Y995.546
G01 X357.707 Y974.065
G01 X354.194 Y951.116
G01 X357.384 Y928.374
G01 X367.012 Y907.500
G01 X382.418 Y890.038
G01 X402.589 Y877.331
G01 X426.215 Y870.434
G01 X451.769 Y870.058
G01 X477.593 Y876.522
G01 X502.001 Y889.735
G01 X523.377 Y909.204
G01 X540.265 Y934.058
G01 X551.463 Y963.099
G01 X556.089 Y994.875
G01 X553.634 Y1027.761
G01 X543.994 Y1060.056
G01 X527.474 Y1090.080
G01 X504.775 Y1116.277
G01 X476.948 Y1137.298
G01 X445.338 Y1152.090
G01 X411.501 Y1159.947
G01 X377.117 Y1160.557
G01 X343.891 Y1154.020
G01 X313.451 Y1140.840
G01 X287.258 Y1121.895
G01 X266.515 Y1098.384
G01 X252.104 Y1071.762
G01 X244.529 Y1043.646
G01 X243.888 Y1015.727
G01 X249.873 Y989.664
G01 X261.782 Y966.994
G01 X278.568 Y949.035
G01 X298.896 Y936.810
G01 X321.222 Y930.992
G01 X343.891 Y931.855
G01 X365.228 Y939.269
G01 X383.640 Y952.697
G01 X397.712 Y971.236
G01 X406.288 Y993.664
G01 X408.542 Y1018.515
G01 X404.025 Y1044.164
G01 X392.695 Y1068.924
G01 X374.919 Y1091.146
G01 X351.451 Y1109.312
G01 X323.390 Y1122.131
G01 X292.115 Y1128.611
G01 X259.206 Y1128.118
G01 X226.352 Y1120.418
G01 X195.250 Y1105.683
G01 X167.507 Y1084.492
G01 X144.549 Y1057.789
G01 X127.532 Y1026.831
G01 X117.282 Y993.118
G01 X114.240 Y958.300
G01 X118.440 Y924.087
G01 X129.508 Y892.142
G01 X146.682 Y863.992
G01 X168.859 Y840.933
G01 X194.659 Y823.957
G01 X222.507 Y813.696
G01 X250.727 Y810.382
G01 X277.636 Y813.838
G01 X301.648 Y823.487
G01 X321.366 Y838.388
G01 X335.663 Y857.292
G01 X343.748 Y878.715
G01 X345.214 Y901.028
G01 X340.062 Y922.552
G01 X328.696 Y941.658
G01 X311.908 Y956.864
G01 X290.822 Y966.923
G01 X266.835 Y970.897
G01 X241.528 Y968.211
G01 X216.581 Y958.693
G01 X193.664 Y942.577
G01 X174.347 Y920.498
G01 X160.004 Y893.450
G01 X151.729 Y862.729
G01 X150.276 Y829.863
G01 X156.012 Y796.514
G01 X168.894 Y764.389
G01 X188.472 Y735.136
G01 X213.914 Y710.248
G01 X244.056 Y690.979
G01 X277.468 Y678.268
G01 X312.535 Y672.683
G01 X347.557 Y674.392
G01 X380.842 Y683.153
G01 X410.810 Y698.324
G01 X436.080 Y718.908
G01 X455.552 Y743.606
G01 X468.473 Y770.895
G01 X474.478 Y799.123
G01 X473.611 Y826.597
G01 X466.321 Y851.689
G01 X453.436 Y872.933
G01 X436.111 Y889.105
G01 X415.764 Y899.299
G01 X393.985 Y902.980
G01 X372.447 Y900.015
G01 X352.806 Y890.682
G01 X336.600 Y875.648
G01 X325.159 Y855.937
G01 X319.529 Y832.865
G01 X320.405 Y807.965
G01 X328.092 Y782.892
G01 X342.486 Y759.332
G01 X363.077 Y738.896
G01 X388.982 Y723.031
G01 X418.994 Y712.928
G01 X451.650 Y709.457
G01 X485.321 Y713.113
G01 X518.302 Y723.985
G01 X548.917 Y741.752
G01 X575.609 Y765.702
G01 X597.039 Y794.770
G01 X612.160 Y827.601
G01 X620.278 Y862.632
G01 X621.093 Y898.177
G01 X614.714 Y932.530
G01 X601.658 Y964.064
G01 X582.812 Y991.322
G01 X559.385 Y1013.106
G01 X532.835 Y1028.544
G01 X504.785 Y1037.140
G01 X476.925 Y1038.805
G01 X450.914 Y1033.857
G01 X428.281 Y1023.006
G01 X410.338 Y1007.307
G01 X398.099 Y988.100
G01 X392.223 Y966.929
G01 X392.978 Y945.451
G01 X400.216 Y925.335
G01 X413.395 Y908.168
G01 X431.599 Y895.356
G01 X453.600 Y888.044
G01 X477.927 Y887.044
G01 X502.953 Y892.790
G01 X526.993 Y905.311
G01 X548.401 Y924.224
G01 X565.667 Y948.762
G01 X577.511 Y977.815
G01 X582.951 Y1009.994
G01 X581.369 Y1043.712
G01 X572.544 Y1077.278
G01 X556.664 Y1108.994
G01 X534.320 Y1137.256
G01 X506.470 Y1160.643
G01 X474.383 Y1178.006
G01 X439.566 Y1188.531
G01 X403.676 Y1191.786
G01 X368.424 Y1187.750
G01 X335.476 Y1176.808
G01 X306.352 Y1159.732
G01 X282.346 Y1137.635
G01 X264.440 Y1111.902
G01 X253.259 Y1084.114
G01 X249.024 Y1055.948
G01 X251.550 Y1029.085
G01 X260.251 Y1005.106
G01 X274.177 Y985.403
G01 X292.075 Y971.094
G01 X312.457 Y962.959
G01 X333.693 Y961.393
G01 X354.109 Y966.386
G01 X372.080 Y977.519
G01 X386.134 Y993.992
G01 X395.033 Y1014.673
G01 X397.853 Y1038.160
G01 X394.034 Y1062.868
G01 X383.415 Y1087.118
G01 X366.249 Y1109.243
G01 X343.183 Y1127.679
G01 X315.222 Y1141.063
G01 X283.674 Y1148.311
G01 X250.073 Y1148.682
G01 X216.086 Y1141.824
G01 X183.422 Y1127.795
G01 X153.726 Y1107.059
G01 X128.488 Y1080.460
G01 X108.954 Y1049.176
G01 X96.053 Y1014.645
G01 X90.343 Y978.489
G01 X91.981 Y942.413
G01 X100.712 Y908.107
G01 X115.884 Y877.151
G01 X136.491 Y850.922
G01 X161.225 Y830.511
G01 X188.560 Y816.663
G01 X216.839 Y809.735
G01 X244.372 Y809.672
G01 X269.534 Y816.017
G01 X290.862 Y827.933
G01 X307.143 Y844.259
G01 X317.481 Y863.573
G01 X321.352 Y884.285
G01 X318.634 Y904.722
G01 X309.616 Y923.234
G01 X294.976 Y938.290
G01 X275.747 Y948.570
G01 X253.251 Y953.041
G01 X229.024 Y951.022
G01 X204.723 Y942.221
G01 X182.031 Y926.759
G01 X162.554 Y905.157
G01 X147.729 Y878.313
G01 X138.739 Y847.446
G01 X136.439 Y814.024
G01 X141.310 Y779.683
G01 X153.428 Y746.130
G01 X172.456 Y715.043
G01 X197.669 Y687.971
G01 X227.988 Y666.249
G01 X262.051 Y650.915
G01 X298.284 Y642.653
G01 X334.999 Y641.752
G01 X370.487 Y648.089
G01 X403.122 Y661.138
G01 X431.451 Y680.001
G01 X454.282 Y703.462
G01 X470.751 Y730.054
G01 X480.372 Y758.155
G01 X483.065 Y786.071
G01 X479.158 Y812.148
G01 X469.368 Y834.860
G01 X454.759 Y852.905
G01 X436.674 Y865.275
G01 X416.659 Y871.324
G01 X396.371 Y870.797
G01 X377.475 Y863.849
G01 X361.552 Y851.038
G01 X349.997 Y833.286
G01 X343.945 Y811.829
G01 X344.193 Y788.142
G01 X351.163 Y763.855
G01 X364.866 Y740.652
G01 X384.908 Y720.173
G01 X410.507 Y703.920
G01 X440.541 Y693.165
G01 X473.613 Y688.876
G01 X508.129 Y691.658
G01 X542.395 Y701.719
G01 X574.713 Y718.854
G01 X603.479 Y742.458
G01 X627.282 Y771.560
G01 X644.979 Y804.882
G01 X655.765 Y840.908
G01 X659.221 Y877.974
G01 X655.336 Y914.367
G01 X644.507 Y948.422
G01 X627.516 Y978.620
G01 X605.486 Y1003.675
G01 X579.808 Y1022.609
G01 X552.067 Y1034.811
G01 X523.942 Y1040.064
G01 X497.113 Y1038.567
G01 X473.156 Y1030.913
G01 X453.456 Y1018.059
G01 X439.122 Y1001.264
G01 X430.924 Y982.019
G01 X429.246 Y961.953
G01 X434.065 Y942.740
G01 X444.952 Y925.996
G01 X461.098 Y913.187
G01 X481.362 Y905.538
G01 X504.336 Y903.961
G01 X528.433 Y909.003
G01 X551.975 Y920.808
G01 X573.297 Y939.111
G01 X590.844 Y963.251
G01 X603.259 Y992.208
G01 X609.472 Y1024.666
G01 X608.754 Y1059.085
G01 X600.769 Y1093.791
G01 X585.588 Y1127.076
G01 X563.690 Y1157.295
G01 X535.934 Y1182.964
G01 X503.506 Y1202.844
G01 X467.858 Y1216.016
G01 X430.614 Y1221.932
G01 X393.484 Y1220.446
G01 X358.161 Y1211.826
G01 X326.221 Y1196.733
G01 X299.036 Y1176.185
G01 X277.691 Y1151.495
G01 X262.923 Y1124.196
G01 X255.077 Y1095.946
G01 X254.092 Y1068.436
G01 X259.499 Y1043.286
G01 X270.454 Y1021.953
G01 X285.789 Y1005.643
G01 X304.081 Y995.242
G01 X323.735 Y991.262
G01 X343.083 Y993.814
G01 X360.479 Y1002.597
G01 X374.399 Y1016.923
G01 X383.533 Y1035.751
G01 X386.861 Y1057.752
G01 X383.715 Y1081.387
G01 X373.819 Y1104.997
G01 X357.307 Y1126.904
G01 X334.716 Y1145.505
G01 X306.955 Y1159.372
G01 X275.253 Y1167.335
G01 X241.089 Y1168.549
G01 X206.103 Y1162.549
G01 X172.004 Y1149.274
G01 X140.468 Y1129.073
G01 X113.042 Y1102.689
G01 X91.054 Y1071.208
G01 X75.533 Y1036.007
G01 X67.152 Y998.664
G01 X66.189 Y960.874
G01 X72.510 Y924.346
G01 X85.577 Y890.707
G01 X104.483 Y861.403
G01 X128.003 Y837.622
G01 X154.664 Y820.219
G01 X182.840 Y809.671
G01 X210.839 Y806.049
G01 X237.007 Y809.015
G01 X259.824 Y817.842
G01 X277.995 Y831.463
G01 X290.524 Y848.527
G01 X296.772 Y867.488
G01 X296.498 Y886.689
G01 X289.869 Y904.468
G01 X277.452 Y919.254
G01 X260.178 Y929.657
G01 X239.291 Y934.557
G01 X216.272 Y933.168
G01 X192.749 Y925.084
G01 X170.407 Y910.309
G01 X150.881 Y889.250
G01 X135.665 Y862.704
G01 X126.022 Y831.801
G01 X122.906 Y797.951
G01 X126.910 Y762.752
G01 X138.225 Y727.902
G01 X156.633 Y695.099
G01 X181.515 Y665.943
G01 X211.887 Y641.841
G01 X246.459 Y623.927
G01 X283.707 Y612.996
G01 X321.963 Y609.457
G01 X359.510 Y613.307
G01 X394.683 Y624.140
G01 X425.967 Y641.161
G01 X452.081 Y663.241
G01 X472.056 Y688.979
G01 X485.286 Y716.789
G01 X491.569 Y744.989
G01 X491.109 Y771.901
G01 X484.509 Y795.952
G01 X472.735 Y815.766
G01 X457.050 Y830.241
G01 X438.948 Y838.619
G01 X420.058 Y840.526
G01 X402.051 Y835.997
G01 X386.538 Y825.472
G01 X374.976 Y809.770
G01 X368.579 Y790.040
G01 X368.246 Y767.695
G01 X374.510 Y744.325
G01 X387.500 Y721.606
G01 X406.936 Y701.201
G01 X432.145 Y684.658
G01 X462.094 Y673.324
G01 X495.457 Y668.258
G01 X530.687 Y670.175
G01 X566.105 Y679.398
G01 X600.003 Y695.839
G01 X630.739 Y719.006
G01 X656.831 Y748.026
G01 X677.049 Y781.702
G01 X690.484 Y818.573
G01 X696.597 Y857.008
G01 X695.256 Y895.293
G01 X686.739 Y931.735
G01 X671.718 Y964.760
G01 X651.221 Y993.000
G01 X626.569 Y1015.379
G01 X599.298 Y1031.167
G01 X571.070 Y1040.028
G01 X543.576 Y1042.034
G01 X518.431 Y1037.663
G01 X497.087 Y1027.765
G01 X480.741 Y1013.516
G01 X470.269 Y996.343
G01 X466.173 Y977.840
G01 X468.551 Y959.675
G01 X477.092 Y943.488
G01 X491.097 Y930.796
G01 X509.517 Y922.898
G01 X531.016 Y920.802
G01 X554.052 Y925.163
G01 X576.966 Y936.241
G01 X598.081 Y953.888
G01 X615.802 Y977.554
G01 X628.709 Y1006.315
G01 X635.642 Y1038.934
G01 X635.769 Y1073.923
G01 X628.640 Y1109.636
G01 X614.208 Y1144.362
G01 X592.837 Y1176.427
G01 X565.283 Y1204.287
G01 X532.647 Y1226.621
G01 X496.312 Y1242.410
G01 X457.867 Y1250.989
G01 X419.009 Y1252.094
G01 X381.450 Y1245.869
G01 X346.814 Y1232.864
G01 X316.546 Y1213.996
G01 X291.825 Y1190.498
G01 X273.499 Y1163.848
G01 X262.036 Y1135.677
G01 X257.497 Y1107.677
G01 X259.534 Y1081.498
G01 X267.414 Y1058.656
G01 X280.060 Y1040.439
G01 X296.119 Y1027.833
G01 X314.041 Y1021.464
G01 X332.172 Y1021.565
G01 X348.852 Y1027.956
G01 X362.518 Y1040.060
G01 X371.790 Y1056.935
G01 X375.559 Y1077.331
G01 X373.052 Y1099.764
G01 X363.878 Y1122.603
G01 X348.055 Y1144.166
G01 X326.005 Y1162.821
G01 X298.537 Y1177.083
G01 X266.795 Y1185.699
G01 X232.195 Y1187.726
G01 X196.342 Y1182.588
G01 X160.937 Y1170.105
G01 X127.680 Y1150.513
G01 X98.165 Y1124.443
G01 X73.795 Y1092.892
G01 X55.696 Y1057.161
G01 X44.651 Y1018.782
G01 X41.059 Y979.431
G01 X44.906 Y940.825
G01 X55.773 Y904.628
G01 X72.855 Y872.354
G01 X95.015 Y845.277
G01 X120.846 Y824.360
G01 X148.755 Y810.198
G01 X177.060 Y802.985
G01 X204.086 Y802.507
G01 X228.263 Y808.151
G01 X248.222 Y818.946
G01 X262.869 Y833.622
G01 X271.458 Y850.683
G01 X273.626 Y868.498
G01 X269.420 Y885.402
G01 X259.289 Y899.788
G01 X244.063 Y910.209
G01 X224.898 Y915.461
G01 X203.213 Y914.657
G01 X180.600 Y907.280
G01 X158.736 Y893.215
G01 X139.277 Y872.756
G01 X123.768 Y846.591
G01 X113.543 Y815.762
G01 X109.652 Y781.608
G01 X112.794 Y745.682
G01 X123.279 Y709.666
G01 X141.004 Y675.270
G01 X165.463 Y644.135
G01 X195.770 Y617.735
G01 X230.714 Y597.294
G01 X268.828 Y583.714
G01 X308.473 Y577.519
G01 X347.931 Y578.831
G01 X385.510 Y587.361
G01 X419.636 Y602.425
G01 X448.948 Y622.987
G01 X472.376 Y647.717
G01 X489.199 Y675.075
G01 X499.090 Y703.395
G01 X502.131 Y730.990
G01 X498.808 Y756.245
G01 X489.981 Y777.716
G01 X476.830 Y794.213
G01 X460.786 Y804.872
G01 X443.446 Y809.200
G01 X426.473 Y807.112
G01 X411.505 Y798.929
G01 X400.048 Y785.362
G01 X393.393 Y767.466
G01 X392.535 Y746.584
G01 X398.115 Y724.262
G01 X410.379 Y702.159
G01 X429.164 Y681.948
G01 X453.905 Y665.221
G01 X483.669 Y653.387
G01 X517.203 Y647.596
G01 X553.016 Y648.665
G01 X589.454 Y657.033
G01 X624.806 Y672.730
G01 X657.397 Y695.377
G01 X685.689 Y724.205
G01 X708.367 Y758.103
G01 X710.000 Y761.925
G01 X710.000 Y958.698
G01 X696.531 Y981.108
G01 X673.053 Y1006.867
G01 X646.413 Y1026.214
G01 X618.246 Y1038.689
G01 X590.242 Y1044.243
G01 X564.052 Y1043.230
G01 X541.183 Y1036.395
G01 X522.918 Y1024.818
G01 X510.232 Y1009.859
G01 X503.742 Y993.070
G01 X503.667 Y976.102
G01 X509.817 Y960.611
G01 X521.605 Y948.156
G01 X538.080 Y940.106
G01 X557.985 Y937.557
G01 X579.831 Y941.269
G01 X601.986 Y951.619
G01 X622.769 Y968.575
G01 X640.554 Y991.700
G01 X653.863 Y1020.172
G01 X661.455 Y1052.837
G01 X662.398 Y1088.268
G01 X656.129 Y1124.855
G01 X642.486 Y1160.894
G01 X621.716 Y1194.687
G01 X594.467 Y1224.639
G01 X561.746 Y1249.356
G01 X524.868 Y1267.721
G01 X485.371 Y1278.958
G01 X444.936 Y1282.682
G01 X405.284 Y1278.918
G01 X368.079 Y1268.096
G01 X334.830 Y1251.032
G01 X306.807 Y1228.871
G01 X284.964 Y1203.029
G01 X269.887 Y1175.100
G01 X261.762 Y1146.769
G01 X260.363 Y1119.709
G01 X265.071 Y1095.486
G01 X274.906 Y1075.463
G01 X288.593 Y1060.722
G01 X304.633 Y1052.001
G01 X321.397 Y1049.651
G01 X337.221 Y1053.615
G01 X350.504 Y1063.431
G01 X359.809 Y1078.260
G01 X363.942 Y1096.938
G01 X362.029 Y1118.043
G01 X353.568 Y1139.978
G01 X338.458 Y1161.070
G01 X317.007 Y1179.663
G01 X289.917 Y1194.222
G01 X258.243 Y1203.420
G01 X223.331 Y1206.222
G01 X186.743 Y1201.939
G01 X150.165 Y1190.278
G01 X115.307 Y1171.356
G01 X83.808 Y1145.694
G01 X57.137 Y1114.191
G01 X36.511 Y1078.068
G01 X22.820 Y1038.803
G01 X16.580 Y998.042
G01 X17.900 Y957.504
G01 X26.480 Y918.884
G01 X41.623 Y883.751
G01 X62.285 Y853.462
G01 X87.130 Y829.082
G01 X114.611 Y811.321
G01 X143.060 Y800.498
G01 X170.791 Y796.520
G01 X196.193 Y798.892
G01 X217.827 Y806.748
G01 X234.513 Y818.901
G01 X245.395 Y833.916
G01 X249.993 Y850.195
G01 X248.232 Y866.077
G01 X240.444 Y879.931
G01 X227.350 Y890.257
G01 X210.016 Y895.774
G01 X189.788 Y895.501
G01 X168.216 Y888.810
G01 X146.960 Y875.469
G01 X127.689 Y855.656
G01 X111.989 Y829.950
G01 X101.262 Y799.297
G01 X96.645 Y764.958
G01 X98.943 Y728.436
G01 X108.580 Y691.386
G01 X125.571 Y655.523
G01 X149.523 Y622.521
G01 X179.653 Y593.913
G01 X214.837 Y571.006
G01 X253.671 Y554.804
G01 X294.551 Y545.947
G01 X335.772 Y544.680
G01 X375.618 Y550.831
G01 X412.467 Y563.832
G01 X444.885 Y582.743
G01 X471.704 Y606.315
G01 X492.092 Y633.059
G01 X505.600 Y661.338
G01 X512.186 Y689.459
G01 X512.217 Y715.776
G01 X506.444 Y738.786
G01 X495.955 Y757.214
G01 X482.113 Y770.095
G01 X466.471 Y776.821
G01 X450.682 Y777.186
G01 X436.396 Y771.391
G01 X425.164 Y760.034
G01 X418.347 Y744.074
G01 X417.029 Y724.775
G01 X421.957 Y703.631
G01 X433.492 Y682.274
G01 X451.589 Y662.383
G01 X475.796 Y645.580
G01 X505.278 Y633.335
G01 X538.870 Y626.878
G01 X575.137 Y627.129
G01 X612.462 Y634.635
G01 X649.139 Y649.547
G01 X683.469 Y671.600
G01 X710.000 Y696.509
G01 X710.000 Y1005.228
G01 X693.348 Y1019.958
G01 X665.403 Y1036.046
G01 X637.050 Y1045.179
G01 X609.961 Y1047.593
G01 X585.695 Y1043.916
G01 X565.610 Y1035.135
G01 X550.780 Y1022.531
G01 X541.931 Y1007.603
G01 X539.403 Y991.983
G01 X543.127 Y977.330
G01 X552.631 Y965.239
G01 X567.067 Y957.140
G01 X585.263 Y954.213
G01 X605.792 Y957.321
G01 X627.055 Y966.952
G01 X647.378 Y983.191
G01 X665.112 Y1005.717
G01 X678.727 Y1033.814
G01 X686.907 Y1066.415
G01 X688.628 Y1102.164
G01 X683.215 Y1139.494
G01 X670.390 Y1176.714
G01 X650.283 Y1212.112
G01 X623.432 Y1244.054
G01 X590.747 Y1271.073
G01 X553.462 Y1291.963
G01 X513.064 Y1305.842
G01 X471.204 Y1312.205
G01 X429.605 Y1310.955
G01 X389.962 Y1302.405
G01 X353.843 Y1287.260
G01 X322.600 Y1266.576
G01 X297.289 Y1241.695
G01 X278.613 Y1214.171
G01 X266.880 Y1185.671
G01 X261.989 Y1157.882
G01 X263.436 Y1132.412
G01 X270.346 Y1110.693
G01 X281.526 Y1093.898
G01 X295.538 Y1082.871
G01 X310.784 Y1078.082
G01 X325.604 Y1079.594
G01 X338.373 Y1087.065
G01 X347.597 Y1099.762
G01 X352.009 Y1116.614
G01 X350.637 Y1136.267
G01 X342.868 Y1157.167
G01 X328.485 Y1177.657
G01 X307.681 Y1196.068
G01 X281.047 Y1210.821
G01 X249.543 Y1220.524
G01 X214.440 Y1224.049
G01 X177.247 Y1220.607
G01 X139.627 Y1209.786
G01 X103.294 Y1191.587
G01 X69.922 Y1166.418
G01 X41.039 Y1135.074
G01 X17.946 Y1098.692
G01 X5.000 Y1066.939
G01 X5.000 Y912.347
G01 X10.803 Y895.567
G01 X29.834 Y862.159
G01 X53.542 Y834.376
G01 X80.432 Y813.043
G01 X108.864 Y798.599
G01 X137.144 Y791.076
G01 X163.629 Y790.099
G01 X186.821 Y794.909
G01 X205.454 Y804.409
G01 X218.571 Y817.234
G01 X225.576 Y831.828
G01 X226.274 Y846.540
G01 X220.876 Y859.724
G01 X209.992 Y869.835
G01 X194.589 Y875.523
G01 X175.939 Y875.715
G01 X155.537 Y869.678
G01 X135.019 Y857.065
G01 X116.061 Y837.936
G01 X100.280 Y812.757
G01 X89.138 Y782.375
G01 X83.854 Y747.967
G01 X85.335 Y710.977
G01 X94.116 Y673.026
G01 X110.331 Y635.826
G01 X133.701 Y601.072
G01 X163.552 Y570.352
G01 X198.849 Y545.050
G01 X238.259 Y526.265
G01 X280.225 Y514.751
G01 X323.056 Y510.871
G01 X365.027 Y514.578
G01 X404.474 Y525.417
G01 X439.896 Y542.553
G01 X470.034 Y564.821
G01 X493.949 Y590.793
G01 X511.073 Y618.867
G01 X521.239 Y647.356
G01 X524.692 Y674.589
G01 X522.070 Y699.010
G01 X514.365 Y719.270
G01 X502.865 Y734.303
G01 X489.071 Y743.394
G01 X474.615 Y746.214
G01 X461.153 Y742.843
G01 X450.273 Y733.764
G01 X443.396 Y719.834
G01 X441.693 Y702.234
G01 X446.011 Y682.394
G01 X456.825 Y661.916
G01 X474.208 Y642.473
G01 X497.820 Y625.709
G01 X526.935 Y613.148
G01 X560.474 Y606.095
G01 X597.071 Y605.564
G01 X635.151 Y612.214
G01 X673.021 Y626.310
G01 X708.968 Y647.705
G01 X710.000 Y648.602
G01 X710.000 Y1033.204
G01 X683.937 Y1044.835
G01 X656.100 Y1050.732
G01 X630.571 Y1050.305
G01 X608.776 Y1044.434
G01 X591.879 Y1034.319
G01 X580.716 Y1021.401
G01 X575.745 Y1007.278
G01 X577.017 Y993.609
G01 X584.179 Y982.015
G01 X596.490 Y973.978
G01 X612.868 Y970.759
G01 X631.954 Y973.315
G01 X652.194 Y982.245
G01 X671.927 Y997.753
G01 X689.489 Y1019.631
G01 X703.308 Y1047.273
G01 X710.000 Y1072.247
G01 X710.000 Y1152.569
G01 X709.876 Y1153.596
G01 X697.889 Y1191.865
G01 X678.499 Y1228.745
G01 X652.131 Y1262.564
G01 X619.594 Y1291.799
G01 X582.036 Y1315.155
G01 X540.882 Y1331.648
G01 X497.749 Y1340.659
G01 X454.352 Y1341.968
G01 X412.408 Y1335.767
G01 X373.536 Y1322.650
G01 X339.164 Y1303.576
G01 X310.445 Y1279.809
G01 X288.194 Y1252.850
G01 X272.843 Y1224.344
G01 X264.412 Y1195.982
G01 X262.519 Y1169.406
G01 X266.395 Y1146.108
G01 X274.938 Y1127.348
G01 X286.778 Y1114.072
G01 X300.356 Y1106.865
G01 X314.024 Y1105.911
G01 X326.140 Y1110.988
G01 X335.166 Y1121.476
G01 X339.762 Y1136.399
G01 X338.867 Y1154.479
G01 X331.760 Y1174.215
G01 X318.109 Y1193.972
G01 X297.989 Y1212.076
G01 X271.880 Y1226.915
G01 X240.642 Y1237.035
G01 X205.463 Y1241.227
G01 X167.794 Y1238.598
G01 X129.264 Y1228.626
G01 X91.585 Y1211.193
G01 X56.455 Y1186.592
G01 X25.455 Y1155.511
G01 X5.000 Y1126.211
G01 X5.000 Y861.194
G01 X20.106 Y840.235
G01 X46.247 Y815.366
G01 X74.497 Y797.301
G01 X103.167 Y786.198
G01 X130.590 Y781.802
G01 X155.213 Y783.466
G01 X175.695 Y790.192
G01 X190.979 Y800.686
G01 X200.359 Y813.444
G01 X203.518 Y826.837
G01 X200.547 Y839.209
G01 X191.941 Y848.979
G01 X178.565 Y854.736
G01 X161.607 Y855.320
G01 X142.503 Y849.896
G01 X122.856 Y838.004
G01 X104.338 Y819.586
G01 X88.590 Y794.994
G01 X77.127 Y764.970
G01 X71.245 Y730.604
G01 X71.945 Y693.271
G01 X79.873 Y654.552
G01 X95.280 Y616.144
G01 X118.003 Y579.760
G01 X147.478 Y547.031
G01 X182.768 Y519.411
G01 X222.615 Y498.092
G01 X265.517 Y483.935
G01 X309.807 Y477.422
G01 X353.757 Y478.628
G01 X395.672 Y487.216
G01 X433.988 Y502.459
G01 X467.365 Y523.282
G01 X494.759 Y548.327
G01 X515.486 Y576.034
G01 X529.256 Y604.729
G01 X536.189 Y632.726
G01 X536.809 Y658.426
G01 X532.005 Y680.408
G01 X522.982 Y697.518
G01 X511.184 Y708.928
G01 X498.210 Y714.194
G01 X485.718 Y713.274
G01 X475.321 Y706.533
G01 X468.496 Y694.721
G01 X466.490 Y678.928
G01 X470.251 Y660.518
G01 X480.363 Y641.050
G01 X497.014 Y622.184
G01 X519.983 Y605.580
G01 X548.650 Y592.804
G01 X582.032 Y585.232
G01 X618.837 Y583.967
G01 X657.541 Y589.774
G01 X696.472 Y603.034
G01 X710.000 Y610.507
G01 X710.000 Y1050.116
G01 X702.409 Y1052.634
G01 X675.756 Y1055.535
G01 X652.367 Y1052.684
G01 X633.493 Y1045.189
G01 X620.072 Y1034.424
G01 X612.677 Y1021.950
G01 X611.482 Y1009.413
G01 X616.253 Y998.452
G01 X626.359 Y990.597
G01 X640.816 Y987.178
G01 X658.340 Y989.246
G01 X677.426 Y997.505
G01 X696.437 Y1012.275
G01 X710.000 Y1028.921
G01 X710.000 Y1237.089
G01 X706.327 Y1244.627
G01 X680.518 Y1280.210
G01 X648.233 Y1311.564
G01 X610.530 Y1337.318
G01 X568.764 Y1356.390
G01 X524.508 Y1368.046
G01 X479.463 Y1371.948
G01 X435.360 Y1368.165
G01 X393.859 Y1357.177
G01 X356.457 Y1339.838
G01 X324.399 Y1317.332
G01 X298.609 Y1291.098
G01 X279.637 Y1262.748
G01 X267.631 Y1233.971
G01 X262.327 Y1206.434
G01 X263.069 Y1181.684
G01 X268.852 Y1161.056
G01 X278.377 Y1145.598
G01 X290.137 Y1136.004
G01 X302.504 Y1132.581
G01 X313.826 Y1135.227
G01 X322.528 Y1143.436
G01 X327.207 Y1156.333
G01 X326.714 Y1172.725
G01 X320.228 Y1191.168
G01 X307.303 Y1210.060
G01 X287.896 Y1227.730
G01 X262.373 Y1242.541
G01 X231.488 Y1252.985
G01 X196.344 Y1257.776
G01 X158.324 Y1255.925
G01 X119.017 Y1246.800
G01 X80.122 Y1230.165
G01 X43.354 Y1206.198
G01 X10.340 Y1175.477
G01 X5.000 Y1168.464
G01 X5.000 Y826.245
G01 X12.081 Y818.288
G01 X39.986 Y796.615
G01 X68.886 Y781.906
G01 X97.095 Y774.031
G01 X123.018 Y772.459
G01 X145.240 Y776.292
G01 X162.614 Y784.320
G01 X174.325 Y795.094
G01 X179.937 Y807.016
G01 X179.421 Y818.432
G01 X173.153 Y827.731
G01 X161.892 Y833.446
G01 X146.736 Y834.339
G01 X129.056 Y829.476
G01 X110.411 Y818.288
G01 X92.462 Y800.599
G01 X76.867 Y776.645
G01 X65.184 Y747.059
G01 X58.779 Y712.839
G01 X58.746 Y675.284
G01 X65.834 Y635.927
G01 X80.411 Y596.444
G01 X102.431 Y558.555
G01 X131.444 Y523.926
G01 X166.612 Y494.075
G01 X206.763 Y470.278
G01 X250.452 Y453.503
G01 X296.050 Y444.346
G01 X341.831 Y443.005
G01 X386.077 Y449.262
G01 X427.172 Y462.501
G01 X463.698 Y481.745
G01 X494.513 Y505.712
G01 X518.821 Y532.890
G01 X536.207 Y561.628
G01 X546.670 Y590.235
G01 X550.613 Y617.074
G01 X548.819 Y640.664
G01 X542.404 Y659.761
G01 X532.746 Y673.438
G01 X521.406 Y681.130
G01 X510.031 Y682.677
G01 X500.254 Y678.324
G01 X493.598 Y668.709
G01 X491.383 Y654.828
G01 X494.648 Y637.969
G01 X504.084 Y619.642
G01 X519.998 Y601.484
G01 X542.283 Y585.163
G01 X570.432 Y572.281
G01 X603.560 Y564.275
G01 X640.457 Y562.333
G01 X679.655 Y567.322
G01 X710.000 Y576.771
G01 X710.000 Y1059.710
G01 X696.338 Y1059.858
G01 X675.583 Y1055.107
G01 X659.969 Y1046.639
G01 X650.181 Y1035.963
G01 X646.514 Y1024.707
G01 X648.853 Y1014.521
G01 X656.684 Y1006.972
G01 X669.123 Y1003.455
G01 X684.967 Y1005.106
G01 X702.771 Y1012.734
G01 X710.000 Y1018.322
G01 X710.000 Y1294.888
G01 X708.551 Y1297.030
G01 X676.614 Y1330.402
G01 X638.887 Y1358.478
G01 X596.649 Y1380.082
G01 X551.420 Y1394.373
G01 X504.879 Y1400.890
G01 X458.760 Y1399.584
G01 X414.759 Y1390.815
G01 X374.434 Y1375.332
G01 X339.116 Y1354.227
G01 X309.832 Y1328.875
G01 X287.250 Y1300.844
G01 X271.642 Y1271.814
G01 X262.865 Y1243.467
G01 X260.382 Y1217.395
G01 X263.285 Y1195.007
G01 X270.360 Y1177.442
G01 X280.154 Y1165.504
G01 X291.068 Y1159.619
G01 X301.451 Y1159.804
G01 X309.698 Y1165.673
G01 X314.349 Y1176.456
G01 X314.178 Y1191.048
G01 X308.263 Y1208.074
G01 X296.047 Y1225.970
G01 X277.371 Y1243.076
G01 X252.485 Y1257.739
G01 X222.035 Y1268.407
G01 X187.030 Y1273.721
G01 X148.781 Y1272.602
G01 X108.827 Y1264.312
G01 X68.848 Y1248.499
G01 X30.566 Y1225.222
G01 X5.000 Y1203.058
G01 X5.000 Y796.878
G01 X5.360 Y796.546
G01 X34.326 Y778.217
G01 X63.167 Y766.813
G01 X90.250 Y761.922
G01 X114.097 Y762.753
G01 X133.475 Y768.183
G01 X147.464 Y776.829
G01 X155.511 Y787.130
G01 X157.467 Y797.440
G01 X153.587 Y806.132
G01 X144.522 Y811.688
G01 X131.273 Y812.798
G01 X115.137 Y808.437
G01 X97.625 Y797.925
G01 X80.377 Y780.972
G01 X65.057 Y757.697
G01 X53.261 Y728.622
G01 X46.419 Y694.644
G01 X45.706 Y656.985
G01 X51.978 Y617.120
G01 X65.713 Y576.694
G01 X86.986 Y537.427
G01 X115.458 Y501.013
G01 X150.398 Y469.024
G01 X190.723 Y442.817
G01 X235.056 Y423.457
G01 X281.810 Y411.656
G01 X329.272 Y407.731
G01 X375.708 Y411.586
G01 X419.460 Y422.721
G01 X459.037 Y440.258
G01 X493.207 Y462.998
G01 X521.061 Y489.488
G01 X542.068 Y518.107
G01 X556.099 Y547.165
G01 X563.437 Y575.000
G01 X564.755 Y600.073
G01 X561.073 Y621.062
G01 X553.697 Y636.940
G01 X544.141 Y647.030
G01 X534.033 Y651.050
G01 X525.016 Y649.125
G01 X518.652 Y641.779
G01 X516.328 Y629.907
G01 X519.168 Y614.717
G01 X527.969 Y597.659
G01 X543.148 Y580.341
G01 X564.719 Y564.431
G01 X592.287 Y551.556
G01 X625.071 Y543.208
G01 X661.948 Y540.654
G01 X701.515 Y544.858
G01 X710.000 Y547.272
G01 X710.000 Y1061.284
G01 X700.375 Y1058.008
G01 X688.235 Y1049.279
G01 X682.100 Y1039.456
G01 X681.979 Y1030.189
G01 X687.472 Y1023.077
G01 X697.803 Y1019.570
G01 X710.000 Y1020.712
G01 X710.000 Y1342.402
G01 X704.689 Y1348.351
G01 X667.053 Y1378.664
G01 X624.476 Y1402.745
G01 X578.423 Y1419.647
G01 X530.536 Y1428.794
G01 X482.549 Y1430.013
G01 X436.183 Y1423.546
G01 X393.050 Y1410.030
G01 X354.558 Y1390.463
G01 X321.836 Y1366.145
G01 X295.664 Y1338.596
G01 X276.437 Y1309.473
G01 X264.137 Y1280.470
G01 X258.344 Y1253.216
G01 X258.257 Y1229.182
G01 X262.749 Y1209.595
G01 X270.431 Y1195.366
G01 X279.742 Y1187.034
G01 X289.037 Y1184.741
G01 X296.693 Y1188.218
G01 X301.201 Y1196.806
G01 X301.259 Y1209.494
G01 X295.855 Y1224.980
G01 X284.322 Y1241.748
G01 X266.385 Y1258.160
G01 X242.178 Y1272.553
G01 X212.235 Y1283.337
G01 X177.467 Y1289.091
G01 X139.106 Y1288.649
G01 X98.635 Y1281.172
G01 X57.705 Y1266.193
G01 X18.036 Y1243.653
G01 X5.000 Y1233.091
G01 X5.000 Y772.347
G01 X28.829 Y760.176
G01 X56.928 Y751.893
G01 X82.278 Y749.618
G01 X103.564 Y752.324
G01 X119.766 Y758.699
G01 X130.221 Y767.228
G01 X134.656 Y776.285
G01 X133.206 Y784.228
G01 X126.408 Y789.502
G01 X115.165 Y790.730
G01 X100.690 Y786.799
G01 X84.440 Y776.926
G01 X68.023 Y760.706
G01 X53.105 Y738.142
G01 X41.310 Y709.640
G01 X34.121 Y675.997
G01 X32.795 Y638.345
G01 X38.283 Y598.098
G01 X51.175 Y556.862
G01 X71.663 Y516.347
G01 X99.526 Y478.266
G01 X134.140 Y444.239
G01 X174.516 Y415.696
G01 X219.353 Y393.797
G01 X267.112 Y379.362
G01 X316.104 Y372.827
G01 X364.587 Y374.221
G01 X410.867 Y383.157
G01 X453.390 Y398.867
G01 X490.837 Y420.237
G01 X522.196 Y445.881
G01 X546.814 Y474.219
G01 X564.442 Y503.569
G01 X575.239 Y532.249
G01 X579.762 Y558.674
G01 X578.932 Y581.451
G01 X573.977 Y599.456
G01 X566.353 Y611.904
G01 X557.662 Y618.393
G01 X549.549 Y618.926
G01 X543.609 Y613.913
G01 X541.283 Y604.141
G01 X543.779 Y590.731
G01 X551.992 Y575.069
G01 X566.450 Y558.723
G01 X587.286 Y543.352
G01 X614.220 Y530.602
G01 X646.578 Y522.012
G01 X683.329 Y518.921
G01 X710.000 Y521.242
G01 X710.000 Y1384.881
G01 X694.974 Y1397.909
G01 X652.189 Y1424.403
G01 X605.455 Y1443.884
G01 X556.374 Y1455.662
G01 X506.669 Y1459.446
G01 X458.077 Y1455.352
G01 X412.255 Y1443.907
G01 X370.686 Y1426.008
G01 X334.589 Y1402.872
G01 X304.859 Y1375.965
G01 X282.007 Y1346.914
G01 X266.143 Y1317.412
G01 X256.965 Y1289.118
G01 X253.785 Y1263.561
G01 X255.566 Y1242.048
G01 X260.994 Y1225.589
G01 X268.550 Y1214.839
G01 X276.609 Y1210.058
G01 X283.533 Y1211.101
G01 X287.774 Y1217.420
G01 X287.964 Y1228.105
G01 X283.000 Y1241.933
G01 X272.114 Y1257.445
G01 X254.914 Y1273.031
G01 X231.418 Y1287.027
G01 X202.046 Y1297.815
G01 X167.607 Y1303.918
G01 X129.246 Y1304.090
G01 X88.384 Y1297.393
G01 X46.634 Y1283.250
G01 X5.708 Y1261.485
G01 X5.000 Y1260.947
G01 X5.000 Y749.728
G01 X23.073 Y742.403
G01 X49.795 Y736.928
G01 X72.885 Y736.790
G01 X91.229 Y740.756
G01 X104.051 Y747.365
G01 X110.962 Y755.017
G01 X111.974 Y762.068
G01 X107.507 Y766.930
G01 X98.360 Y768.169
G01 X85.660 Y764.589
G01 X70.798 Y755.307
G01 X55.345 Y739.808
G01 X40.958 Y717.975
G01 X29.280 Y690.101
G01 X21.843 Y656.874
G01 X19.976 Y619.338
G01 X24.723 Y578.831
G01 X36.782 Y536.916
G01 X56.460 Y495.284
G01 X83.654 Y455.660
G01 X117.851 Y419.702
G01 X158.163 Y388.906
G01 X203.367 Y364.520
G01 X251.984 Y347.471
G01 X302.354 Y338.312
G01 X352.737 Y337.193
G01 X401.411 Y343.848
G01 X446.767 Y357.616
G01 X487.407 Y377.480
G01 X522.215 Y402.125
G01 X550.428 Y430.019
G01 X571.671 Y459.498
G01 X585.979 Y488.871
G01 X593.793 Y516.512
G01 X595.928 Y540.963
G01 X593.526 Y561.012
G01 X587.980 Y575.768
G01 X580.858 Y584.711
G01 X573.797 Y587.724
G01 X568.414 Y585.097
G01 X566.203 Y577.508
G01 X568.443 Y565.985
G01 X576.125 Y551.841
G01 X589.888 Y536.599
G01 X609.979 Y521.898
G01 X636.234 Y509.396
G01 X668.092 Y500.670
G01 X704.617 Y497.123
G01 X710.000 Y497.498
G01 X710.000 Y1424.723
G01 X679.731 Y1445.082
G01 X632.457 Y1467.100
G01 X582.332 Y1481.503
G01 X531.059 Y1487.878
G01 X480.383 Y1486.222
G01 X432.001 Y1476.943
G01 X387.457 Y1460.834
G01 X348.061 Y1439.024
G01 X314.812 Y1412.916
G01 X288.341 Y1384.100
G01 X268.882 Y1354.259
G01 X256.254 Y1325.075
G01 X249.883 Y1298.123
G01 X248.834 Y1274.786
G01 X251.867 Y1256.169
G01 X257.520 Y1243.039
G01 X264.192 Y1235.774
G01 X270.241 Y1234.349
G01 X274.085 Y1238.335
G01 X274.299 Y1246.924
G01 X269.698 Y1258.981
G01 X259.411 Y1273.111
G01 X242.936 Y1287.739
G01 X220.173 Y1301.210
G01 X191.427 Y1311.884
G01 X157.400 Y1318.238
G01 X119.146 Y1318.951
G01 X78.016 Y1312.992
G01 X35.578 Y1299.677
G01 X5.000 Y1284.433
G01 X5.000 Y728.380
G01 X16.666 Y724.725
G01 X41.448 Y721.629
G01 X61.850 Y723.052
G01 X76.991 Y727.594
G01 X86.363 Y733.690
G01 X89.859 Y739.702
G01 X87.778 Y744.017
G01 X80.811 Y745.152
G01 X69.992 Y741.835
G01 X56.641 Y733.087
G01 X42.283 Y718.285
G01 X28.558 Y697.195
G01 X17.119 Y669.994
G01 X9.540 Y637.259
G01 X7.213 Y599.937
G01 X11.272 Y559.290
G01 X22.517 Y516.826
G01 X41.369 Y474.210
G01 X67.844 Y433.168
G01 X101.543 Y395.391
G01 X141.681 Y362.432
G01 X187.122 Y335.622
G01 X236.451 Y315.990
G01 X288.047 Y304.202
G01 X340.182 Y300.529
G01 X391.111 Y304.828
G01 X439.181 Y316.550
G01 X482.919 Y334.777
G01 X521.115 Y358.274
G01 X552.893 Y385.562
G01 X577.758 Y415.008
G01 X595.622 Y444.917
G01 X606.803 Y473.633
G01 X612.009 Y499.637
G01 X612.287 Y521.637
G01 X608.964 Y538.641
G01 X603.560 Y550.013
G01 X597.700 Y555.517
G01 X593.015 Y555.320
G01 X591.039 Y549.989
G01 X593.121 Y540.453
G01 X600.341 Y527.947
G01 X613.443 Y513.939
G01 X632.787 Y500.040
G01 X658.331 Y487.911
G01 X689.622 Y479.160
G01 X710.000 Y476.959
G01 X710.000 Y1462.671
G01 X707.048 Y1464.813
G01 X659.370 Y1489.318
G01 X608.350 Y1506.327
G01 X555.659 Y1515.311
G01 X503.046 Y1516.145
G01 X452.235 Y1509.118
G01 X404.828 Y1494.914
G01 X362.216 Y1474.570
G01 X325.499 Y1449.416
G01 X295.425 Y1420.996
G01 X272.349 Y1390.979
G01 X256.216 Y1361.056
G01 X246.567 Y1332.845
G01 X242.572 Y1307.796
G01 X243.077 Y1287.104
G01 X246.680 Y1271.640
G01 X251.812 Y1261.903
G01 X256.839 Y1257.989
G01 X260.153 Y1259.585
G01 X260.277 Y1265.995
G01 X255.950 Y1276.173
G01 X246.206 Y1288.796
G01 X230.434 Y1302.334
G01 X208.415 Y1315.149
G01 X180.341 Y1325.589
G01 X146.802 Y1332.089
G01 X108.756 Y1333.264
G01 X67.477 Y1327.992
G01 X24.480 Y1315.486
G01 X5.000 Y1306.369
G01 X5.000 Y707.883
G01 X9.263 Y706.886
G01 X31.632 Y705.637
G01 X49.032 Y707.969
G01 X60.842 Y712.358
G01 X66.832 Y717.181
G01 X67.184 Y720.812
G01 X62.472 Y721.721
G01 X53.635 Y718.570
G01 X41.915 Y710.290
G01 X28.782 Y696.151
G01 X15.850 Y675.806
G01 X5.000 Y649.848
G01 X5.000 Y510.331
G01 X8.358 Y496.563
G01 X26.380 Y453.094
G01 X52.096 Y410.764
G01 X85.225 Y371.284
G01 X125.087 Y336.260
G01 X170.640 Y307.098
G01 X220.540 Y284.922
G01 X273.212 Y270.511
G01 X326.947 Y264.255
G01 X379.990 Y266.132
G01 X430.649 Y275.711
G01 X477.382 Y292.177
G01 X518.893 Y314.380
G01 X554.198 Y340.907
G01 X582.683 Y370.156
G01 X604.134 Y400.441
G01 X618.750 Y430.084
G01 X627.124 Y457.514
G01 X630.206 Y481.365
G01 X629.244 Y500.546
G01 X625.709 Y514.313
G01 X621.201 Y522.306
G01 X617.355 Y524.575
G01 X615.743 Y521.569
G01 X617.772 Y514.114
G01 X624.607 Y503.360
G01 X637.092 Y490.713
G01 X655.701 Y477.749
G01 X680.507 Y466.122
G01 X710.000 Y457.794
G01 X710.000 Y1497.160
G01 X686.137 Y1510.562
G01 X634.367 Y1530.149
G01 X580.411 Y1541.750
G01 X526.009 Y1545.117
G01 X472.905 Y1540.419
G01 X422.753 Y1528.227
G01 X377.016 Y1509.480
G01 X336.892 Y1485.430
G01 X303.241 Y1457.569
G01 X276.538 Y1427.537
G01 X256.854 Y1397.032
G01 X243.849 Y1367.704
G01 X236.801 Y1341.062
G01 X234.648 Y1318.385
G01 X236.055 Y1300.646
G01 X239.497 Y1288.460
G01 X243.352 Y1282.043
G01 X245.997 Y1281.204
G01 X245.910 Y1285.357
G01 X241.761 Y1293.555
G01 X232.495 Y1304.551
G01 X217.392 Y1316.870
G01 X196.121 Y1328.897
G01 X168.754 Y1338.978
G01 X135.770 Y1345.514
G01 X98.026 Y1347.061
G01 X56.712 Y1342.416
G01 X13.283 Y1330.691
G01 X5.000 Y1327.046
G01 X5.000 Y688.560
G01 X20.171 Y688.545
G01 X34.384 Y691.078
G01 X42.870 Y694.561
G01 X45.689 Y697.364
G01 X43.301 Y697.920
G01 X36.540 Y694.830
G01 X26.565 Y686.942
G01 X14.785 Y673.423
G01 X5.000 Y657.442
G01 X5.000 Y448.564
G01 X11.482 Y431.909
G01 X36.410 Y388.421
G01 X68.905 Y347.360
G01 X108.398 Y310.375
G01 X153.944 Y278.939
G01 X204.277 Y254.269
G01 X257.877 Y237.251
G01 X313.060 Y228.392
G01 X368.072 Y227.793
G01 X421.187 Y235.141
G01 X470.807 Y249.729
G01 X515.552 Y270.500
G01 X554.335 Y296.109
G01 X586.425 Y324.999
G01 X611.488 Y355.499
G01 X629.596 Y385.917
G01 X641.227 Y414.640
G01 X647.228 Y440.231
G01 X648.763 Y461.510
G01 X647.244 Y477.625
G01 X644.239 Y488.099
G01 X641.380 Y492.859
G01 X640.264 Y492.236
G01 X642.354 Y486.949
G01 X648.889 Y478.056
G01 X660.811 Y466.893
G01 X678.705 Y454.996
G01 X702.760 Y444.001
G01 X710.000 Y441.963
G01 X710.000 Y1532.004
G01 X660.326 Y1552.989
G01 X605.255 Y1567.203
G01 X549.213 Y1573.135
G01 X493.958 Y1570.833
G01 X441.184 Y1560.752
G01 X392.424 Y1543.728
G01 X348.963 Y1520.929
G01 X311.770 Y1493.784
G01 X281.441 Y1463.902
G01 X258.169 Y1432.974
G01 X241.739 Y1402.674
G01 X231.539 Y1374.566
G01 X226.603 Y1350.003
G01 X225.674 Y1330.058
G01 X227.276 Y1315.457
G01 X229.808 Y1306.535
G01 X231.641 Y1303.223
G01 X231.216 Y1305.051
G01 X227.142 Y1311.173
G01 X218.277 Y1320.428
G01 X203.801 Y1331.399
G01 X183.269 Y1342.507
G01 X156.635 Y1352.100
G01 X124.264 Y1358.556
G01 X86.909 Y1360.380
G01 X45.669 Y1356.293
G01 X5.000 Y1346.081
G01 X5.000 Y669.841
G01 X6.978 Y669.905
G01 X17.950 Y671.898
G01 X23.262 Y673.725
G01 X23.257 Y673.797
G01 X18.660 Y670.656
G01 X10.539 Y663.075
G01 X5.000 Y656.111
G01 X5.000 Y395.234
G01 X20.780 Y366.112
G01 X52.588 Y323.595
G01 X91.627 Y284.758
G01 X137.054 Y251.137
G01 X187.687 Y224.031
G01 X242.069 Y204.431
G01 X298.550 Y192.961
G01 X355.382 Y189.841
G01 X410.818 Y194.879
G01 X463.209 Y207.481
G01 X511.096 Y226.686
G01 X553.298 Y251.226
G01 X588.971 Y279.596
G01 X617.657 Y310.149
G01 X639.305 Y341.186
G01 X654.274 Y371.061
G01 X663.303 Y398.276
G01 X667.466 Y421.564
G01 X668.108 Y439.972
G01 X666.757 Y452.906
G01 X665.034 Y460.171
G01 X664.553 Y461.980
G01 X666.821 Y458.939
G01 X673.151 Y452.010
G01 X684.575 Y442.454
G01 X701.784 Y431.754
G01 X710.000 Y428.147
G01 X710.000 Y1563.768
G01 X686.170 Y1574.870
G01 X630.132 Y1591.683
G01 X573.968 Y1600.000
G01 X512.862 Y1600.000
G01 X460.075 Y1592.473
G01 X408.397 Y1577.290
