; file trimmed by trimify2x.pl
; Created by Sandify
; 
;   https://sandify.org
; 
;   Sandify Version: 0.1.4
; 
;   Machine Type: Rectangular
;     MinX: 5 MaxX: 710 MinY: 5 MaxY: 1600
;   Content Type: Shapes
;     Starting Size: 800
;     Offset: X: -36 Y: 0
;     Selected Shape: Circle
;       Circle Lobes: 1
;     Number of Loops: 73
;     Spin: true
;       Spin Value: -7.2
;       Spin Switchbacks: 0
;     Grow: true
;       Grow Value: -3
;     Track: true
;       Track Count: 152
;       Track Size: 79.2
;       Track Grow: false
;   Path Reversed: false
; 
; filename: 'circles3'

; BEGIN PRE
G28  Y
G28 X
G01 F30000; END PRE
G01 X710.000 Y802.500
G01 X710.000 Y1578.589
G01 X690.873 Y1600.000
G01 X710.000 Y1600.000 
G01 X710.000 Y5.000 
G01 X632.613 Y5.000
G01 X660.299 Y32.275
G01 X695.886 Y79.219
G01 X710.000 Y104.770
G01 X710.000 Y1587.659
G01 X697.542 Y1600.000
G01 X33.942 Y1600.000
G01 X5.000 Y1569.126
G01 X5.000 Y5.000
G01 X558.526 Y5.000
G01 X596.270 Y37.674
G01 X634.012 Y81.514
G01 X662.457 Y126.470
G01 X681.925 Y170.392
G01 X693.242 Y211.291
G01 X697.678 Y247.446
G01 X696.873 Y277.506
G01 X692.737 Y300.572
G01 X687.327 Y316.240
G01 X682.732 Y324.630
G01 X680.938 Y326.371
G01 X683.709 Y322.565
G01 X692.483 Y314.716
G01 X708.280 Y304.643
G01 X710.000 Y303.887
G01 X710.000 Y1588.347
G01 X696.603 Y1600.000
G01 X100.073 Y1600.000
G01 X60.265 Y1562.565
G01 X26.182 Y1519.382
G01 X5.000 Y1482.365
G01 X5.000 Y5.000
G01 X474.901 Y5.000
G01 X486.535 Y11.373
G01 X534.996 Y48.180
G01 X574.634 Y88.864
G01 X605.095 Y131.269
G01 X626.551 Y173.229
G01 X639.685 Y212.700
G01 X645.644 Y247.878
G01 X645.970 Y277.301
G01 X642.507 Y299.936
G01 X637.281 Y315.236
G01 X632.385 Y323.174
G01 X629.847 Y324.238
G01 X631.508 Y319.403
G01 X638.910 Y310.070
G01 X653.204 Y297.981
G01 X675.073 Y285.117
G01 X704.694 Y273.572
G01 X710.000 Y272.406
G01 X710.000 Y1582.137
G01 X686.386 Y1600.000
G01 X172.067 Y1600.000
G01 X167.206 Y1597.071
G01 X122.322 Y1559.861
G01 X86.391 Y1519.551
G01 X59.578 Y1478.311
G01 X41.529 Y1438.276
G01 X31.389 Y1401.414
G01 X27.861 Y1369.419
G01 X29.282 Y1343.606
G01 X33.733 Y1324.837
G01 X39.147 Y1313.475
G01 X43.440 Y1309.362
G01 X44.638 Y1311.828
G01 X40.992 Y1319.738
G01 X31.090 Y1331.554
G01 X13.941 Y1345.437
G01 X5.000 Y1350.430
G01 X5.000 Y23.419
G01 X31.652 Y10.152
G01 X47.591 Y5.000
G01 X372.632 Y5.000
G01 X427.073 Y30.329
G01 X476.866 Y63.387
G01 X518.145 Y100.885
G01 X550.408 Y140.696
G01 X573.673 Y180.649
G01 X588.479 Y218.659
G01 X595.844 Y252.844
G01 X597.207 Y281.638
G01 X594.333 Y303.879
G01 X589.209 Y318.882
G01 X583.922 Y326.470
G01 X580.531 Y326.988
G01 X580.945 Y321.279
G01 X586.805 Y310.633
G01 X599.381 Y296.708
G01 X619.501 Y281.431
G01 X647.490 Y266.883
G01 X683.156 Y255.172
G01 X710.000 Y250.850
G01 X710.000 Y1570.290
G01 X678.172 Y1590.962
G01 X658.247 Y1600.000
G01 X255.618 Y1600.000
G01 X228.489 Y1585.946
G01 X182.242 Y1552.209
G01 X144.694 Y1514.798
G01 X116.162 Y1475.867
G01 X96.442 Y1437.569
G01 X84.818 Y1401.928
G01 X80.114 Y1370.724
G01 X80.764 Y1345.385
G01 X84.910 Y1326.909
G01 X90.516 Y1315.801
G01 X95.489 Y1312.051
G01 X97.809 Y1315.131
G01 X95.650 Y1324.029
G01 X87.492 Y1337.313
G01 X72.212 Y1353.213
G01 X49.157 Y1369.732
G01 X18.184 Y1384.762
G01 X5.000 Y1388.682
G01 X5.000 Y51.869
G01 X47.203 Y34.671
G01 X114.825 Y18.410
G01 X183.218 Y12.588
G01 X250.151 Y17.039
G01 X313.503 Y31.077
G01 X371.380 Y53.541
G01 X422.222 Y82.863
G01 X464.896 Y117.163
G01 X498.749 Y154.355
G01 X523.650 Y192.274
G01 X539.989 Y228.801
G01 X548.652 Y261.988
G01 X550.964 Y290.170
G01 X548.606 Y312.067
G01 X543.514 Y326.852
G01 X537.760 Y334.202
G01 X533.424 Y334.318
G01 X532.472 Y327.904
G01 X536.635 Y316.133
G01 X547.301 Y300.571
G01 X565.433 Y283.082
G01 X591.508 Y265.720
G01 X625.483 Y250.604
G01 X666.797 Y239.791
G01 X710.000 Y235.581
G01 X710.000 Y1553.875
G01 X667.098 Y1577.369
G01 X604.938 Y1600.000
G01 X363.267 Y1600.000
G01 X341.777 Y1594.274
G01 X286.986 Y1570.190
G01 X239.636 Y1539.914
G01 X200.696 Y1505.413
G01 X170.633 Y1468.810
G01 X149.393 Y1432.267
G01 X136.405 Y1397.854
G01 X130.617 Y1367.429
G01 X130.569 Y1342.527
G01 X134.474 Y1324.274
G01 X140.336 Y1313.319
G01 X146.063 Y1309.798
G01 X149.601 Y1313.327
G01 X149.054 Y1323.026
G01 X142.801 Y1337.571
G01 X129.596 Y1355.278
G01 X108.641 Y1374.197
G01 X79.642 Y1392.235
G01 X42.827 Y1407.277
G01 X5.000 Y1415.930
G01 X5.000 Y82.663
G01 X66.015 Y63.219
G01 X132.661 Y52.762
G01 X198.573 Y52.599
G01 X261.588 Y62.197
G01 X319.738 Y80.532
G01 X371.358 Y106.152
G01 X415.186 Y137.261
G01 X450.426 Y171.826
G01 X476.795 Y207.696
G01 X494.536 Y242.730
G01 X504.395 Y274.924
G01 X507.579 Y302.523
G01 X505.675 Y324.131
G01 X500.559 Y338.786
G01 X494.276 Y346.021
G01 X488.920 Y345.887
G01 X486.502 Y338.952
G01 X488.836 Y326.260
G01 X497.419 Y309.278
G01 X513.347 Y289.798
G01 X537.243 Y269.837
G01 X569.218 Y251.514
G01 X608.861 Y236.920
G01 X655.258 Y228.001
G01 X707.047 Y226.431
G01 X710.000 Y226.809
G01 X710.000 Y1533.806
G01 X653.053 Y1559.405
G01 X588.097 Y1577.294
G01 X522.398 Y1584.865
G01 X458.175 Y1582.315
G01 X397.535 Y1570.351
G01 X342.349 Y1550.157
G01 X294.147 Y1523.314
G01 X254.032 Y1491.715
G01 X222.619 Y1457.444
G01 X200.005 Y1422.663
G01 X185.763 Y1389.475
G01 X178.976 Y1359.808
G01 X178.292 Y1335.297
G01 X182.008 Y1317.192
G01 X188.174 Y1306.279
G01 X194.713 Y1302.844
G01 X199.545 Y1306.648
G01 X200.714 Y1316.946
G01 X196.507 Y1332.533
G01 X185.558 Y1351.814
G01 X166.931 Y1372.901
G01 X140.183 Y1393.726
G01 X105.387 Y1412.160
G01 X63.136 Y1426.148
G01 X14.510 Y1433.825
G01 X5.000 Y1433.791
G01 X5.000 Y117.759
G01 X22.683 Y110.680
G01 X87.280 Y95.819
G01 X151.864 Y91.222
G01 X214.241 Y96.513
G01 X272.379 Y110.809
G01 X324.516 Y132.779
G01 X369.268 Y160.722
G01 X405.699 Y192.666
G01 X433.378 Y226.486
G01 X452.395 Y260.030
G01 X463.357 Y291.244
G01 X467.345 Y318.295
G01 X465.845 Y339.677
G01 X460.663 Y354.297
G01 X453.808 Y361.546
G01 X447.373 Y361.326
G01 X443.411 Y354.061
G01 X443.804 Y340.667
G01 X450.154 Y322.499
G01 X463.683 Y301.270
G01 X485.160 Y278.948
G01 X514.846 Y257.641
G01 X552.484 Y239.467
G01 X597.302 Y226.430
G01 X648.061 Y220.304
G01 X703.124 Y222.516
G01 X710.000 Y223.900
G01 X710.000 Y1508.862
G01 X699.124 Y1514.742
G01 X636.720 Y1536.819
G01 X572.857 Y1548.711
G01 X509.763 Y1550.457
G01 X449.585 Y1542.614
G01 X394.271 Y1526.229
G01 X345.457 Y1502.772
G01 X304.374 Y1474.052
G01 X271.784 Y1442.106
G01 X247.931 Y1409.081
G01 X232.539 Y1377.106
G01 X224.826 Y1348.169
G01 X223.557 Y1323.997
G01 X227.121 Y1305.956
G01 X233.625 Y1294.971
G01 X241.015 Y1291.472
G01 X247.197 Y1295.367
G01 X250.165 Y1306.052
G01 X248.121 Y1322.446
G01 X239.587 Y1343.054
G01 X223.494 Y1366.058
G01 X199.249 Y1389.423
G01 X166.772 Y1411.022
G01 X126.506 Y1428.759
G01 X79.393 Y1440.695
G01 X26.824 Y1445.168
G01 X5.000 Y1443.507
G01 X5.000 Y154.081
G01 X47.199 Y141.196
G01 X110.169 Y132.367
G01 X171.626 Y133.503
G01 X229.481 Y143.867
G01 X281.886 Y162.258
G01 X327.342 Y187.075
G01 X364.779 Y216.418
G01 X393.616 Y248.199
G01 X413.795 Y280.264
G01 X425.776 Y310.522
G01 X430.510 Y337.066
G01 X429.377 Y358.289
G01 X424.101 Y372.975
G01 X416.646 Y380.372
G01 X409.097 Y380.236
G01 X403.531 Y372.843
G01 X401.895 Y358.974
G01 X405.886 Y339.869
G01 X416.848 Y317.150
G01 X435.687 Y292.728
G01 X462.820 Y268.686
G01 X498.139 Y247.158
G01 X541.022 Y230.201
G01 X590.361 Y219.671
G01 X644.625 Y217.113
G01 X701.947 Y223.669
G01 X710.000 Y225.927
G01 X710.000 Y1480.679
G01 X680.567 Y1493.510
G01 X618.812 Y1509.489
G01 X557.120 Y1515.345
G01 X497.671 Y1511.483
G01 X442.481 Y1498.811
G01 X393.282 Y1478.677
G01 X351.430 Y1452.800
G01 X317.825 Y1423.156
G01 X292.861 Y1391.872
G01 X276.412 Y1361.090
G01 X267.837 Y1332.849
G01 X266.023 Y1308.959
G01 X269.458 Y1290.897
G01 X276.317 Y1279.720
G01 X284.580 Y1276.000
G01 X292.147 Y1279.797
G01 X296.973 Y1290.649
G01 X297.185 Y1307.605
G01 X291.200 Y1329.277
G01 X277.819 Y1353.926
G01 X256.305 Y1379.565
G01 X226.423 Y1404.075
G01 X188.465 Y1425.332
G01 X143.230 Y1441.336
G01 X91.984 Y1450.325
G01 X36.388 Y1450.885
G01 X5.000 Y1446.094
G01 X5.000 Y191.202
G01 X12.484 Y188.331
G01 X73.578 Y175.488
G01 X133.850 Y172.638
G01 X191.169 Y179.197
G01 X243.608 Y194.094
G01 X289.560 Y215.841
G01 X327.825 Y242.616
G01 X357.680 Y272.379
G01 X378.913 Y302.984
G01 X391.841 Y332.313
G01 X397.276 Y358.397
G01 X396.485 Y379.534
G01 X391.103 Y394.390
G01 X383.038 Y402.073
G01 X374.356 Y402.194
G01 X367.150 Y394.881
G01 X363.422 Y380.775
G01 X364.954 Y360.993
G01 X373.204 Y337.059
G01 X389.216 Y310.815
G01 X413.554 Y284.311
G01 X446.266 Y259.684
G01 X486.881 Y239.032
G01 X534.425 Y224.286
G01 X587.485 Y217.099
G01 X644.283 Y218.743
G01 X702.777 Y230.036
G01 X710.000 Y232.683
G01 X710.000 Y1451.020
G01 X660.088 Y1467.669
G01 X600.051 Y1477.434
G01 X541.582 Y1477.398
G01 X486.751 Y1468.324
G01 X437.383 Y1451.437
G01 X394.947 Y1428.352
G01 X360.480 Y1400.981
G01 X334.524 Y1371.414
G01 X317.102 Y1341.799
G01 X307.716 Y1314.214
G01 X305.385 Y1290.546
G01 X308.699 Y1272.373
G01 X315.914 Y1260.881
G01 X325.050 Y1256.784
G01 X334.017 Y1260.289
G01 X340.737 Y1271.081
G01 X343.272 Y1288.343
G01 X339.943 Y1310.804
G01 X329.427 Y1336.812
G01 X310.844 Y1364.438
G01 X283.809 Y1391.582
G01 X248.457 Y1416.106
G01 X205.443 Y1435.953
G01 X155.901 Y1449.277
G01 X101.385 Y1454.547
G01 X43.778 Y1450.640
G01 X5.000 Y1441.554
G01 X5.000 Y230.509
G01 X42.125 Y220.044
G01 X100.971 Y213.395
G01 X157.517 Y216.288
G01 X209.770 Y227.792
G01 X256.022 Y246.536
G01 X294.951 Y270.788
G01 X325.690 Y298.563
G01 X347.882 Y327.735
G01 X361.692 Y356.168
G01 X367.795 Y381.842
G01 X367.334 Y402.967
G01 X361.849 Y418.096
G01 X353.184 Y426.207
G01 X343.371 Y426.762
G01 X334.513 Y419.741
G01 X328.653 Y405.642
G01 X327.652 Y385.453
G01 X333.074 Y360.591
G01 X346.095 Y332.820
G01 X367.425 Y304.146
G01 X397.268 Y276.699
G01 X435.302 Y252.605
G01 X480.700 Y233.862
G01 X532.170 Y222.220
G01 X588.030 Y219.077
G01 X646.304 Y225.394
G01 X704.837 Y241.640
G01 X710.000 Y244.023
G01 X710.000 Y1418.201
G01 X696.558 Y1423.732
G01 X638.406 Y1437.189
G01 X581.146 Y1440.810
G01 X526.896 Y1435.208
G01 X477.559 Y1421.477
G01 X434.713 Y1401.125
G01 X399.526 Y1375.984
G01 X372.686 Y1348.103
G01 X354.364 Y1319.623
G01 X344.209 Y1292.653
G01 X341.374 Y1269.144
G01 X344.564 Y1250.771
G01 X352.118 Y1238.841
G01 X362.110 Y1234.207
G01 X372.468 Y1237.224
G01 X381.093 Y1247.725
G01 X385.994 Y1265.033
G01 X385.399 Y1287.998
G01 X377.872 Y1315.066
G01 X362.394 Y1344.375
G01 X338.428 Y1373.856
G01 X305.956 Y1401.365
G01 X265.481 Y1424.805
G01 X218.002 Y1442.250
G01 X164.957 Y1452.062
G01 X108.143 Y1452.985
G01 X49.613 Y1444.226
G01 X5.000 Y1429.834
G01 X5.000 Y269.344
G01 X15.795 Y265.502
G01 X72.991 Y255.251
G01 X128.547 Y254.632
G01 X180.409 Y262.857
G01 X226.779 Y278.678
G01 X266.216 Y300.460
G01 X297.720 Y326.284
G01 X320.784 Y354.056
G01 X335.424 Y381.631
G01 X342.172 Y406.945
G01 X342.043 Y428.134
G01 X336.475 Y443.642
G01 X327.234 Y452.320
G01 X316.315 Y453.486
G01 X305.814 Y446.971
G01 X297.809 Y433.127
G01 X294.228 Y412.808
G01 X296.735 Y387.315
G01 X306.630 Y358.327
G01 X324.768 Y327.794
G01 X351.506 Y297.826
G01 X386.677 Y270.570
G01 X429.598 Y248.077
G01 X479.110 Y232.187
G01 X533.636 Y224.415
G01 X591.276 Y225.861
G01 X649.916 Y237.148
G01 X707.343 Y258.378
G01 X710.000 Y259.891
G01 X710.000 Y1383.638
G01 X672.079 Y1395.085
G01 X616.239 Y1402.180
G01 X562.772 Y1399.911
G01 X513.652 Y1389.235
G01 X470.558 Y1371.544
G01 X434.783 Y1348.586
G01 X407.155 Y1322.354
G01 X387.996 Y1294.974
G01 X377.103 Y1268.575
G01 X373.766 Y1245.162
G01 X376.811 Y1226.500
G01 X384.670 Y1214.011
G01 X395.482 Y1208.682
G01 X407.200 Y1211.015
G01 X417.719 Y1220.994
G01 X424.999 Y1238.082
G01 X427.190 Y1261.259
G01 X422.746 Y1289.078
G01 X410.515 Y1319.750
G01 X389.813 Y1351.252
G01 X360.466 Y1381.445
G01 X322.824 Y1408.200
G01 X277.744 Y1429.524
G01 X226.542 Y1443.678
G01 X170.918 Y1449.283
G01 X112.863 Y1445.398
G01 X54.538 Y1431.580
G01 X5.000 Y1410.782
G01 X5.000 Y308.758
G01 X49.863 Y297.701
G01 X104.229 Y293.735
G01 X155.511 Y298.804
G01 X201.830 Y311.790
G01 X241.635 Y331.165
G01 X273.793 Y355.083
G01 X297.653 Y381.490
G01 X313.081 Y408.246
G01 X320.464 Y433.253
G01 X320.684 Y454.578
G01 X315.066 Y470.569
G01 X305.295 Y479.951
G01 X293.313 Y481.903
G01 X281.203 Y476.108
G01 X271.065 Y462.769
G01 X264.884 Y442.600
G01 X264.418 Y416.783
G01 X271.083 Y386.897
G01 X285.875 Y354.830
G01 X309.302 Y322.662
G01 X341.352 Y292.545
G01 X381.495 Y266.577
G01 X428.704 Y246.675
G01 X481.519 Y234.463
G01 X538.125 Y231.178
G01 X596.458 Y237.590
G01 X654.323 Y253.961
G01 X709.520 Y280.027
G01 X710.000 Y280.360
G01 X710.000 Y786.018
G01 X709.353 Y785.500
G01 X705.309 Y773.622
G01 X708.983 Y760.952
G01 X710.000 Y759.936
G01 X710.000 Y1348.229
G01 X701.011 Y1351.596
G01 X646.780 Y1361.973
G01 X594.282 Y1362.888
G01 X545.550 Y1355.156
G01 X502.357 Y1340.050
G01 X466.113 Y1319.219
G01 X437.784 Y1294.596
G01 X417.840 Y1268.278
G01 X406.228 Y1242.404
G01 X402.378 Y1219.026
G01 X405.242 Y1199.990
G01 X413.357 Y1186.823
G01 X424.932 Y1180.644
G01 X437.959 Y1182.101
G01 X450.334 Y1191.324
G01 X459.981 Y1207.926
G01 X464.980 Y1231.020
G01 X463.683 Y1259.271
G01 X454.812 Y1290.978
G01 X437.537 Y1324.169
G01 X411.529 Y1356.724
G01 X376.986 Y1386.492
G01 X334.616 Y1411.425
G01 X285.606 Y1429.693
G01 X231.552 Y1439.797
G01 X174.369 Y1440.658
G01 X116.181 Y1431.678
G01 X59.200 Y1412.778
G01 X5.596 Y1384.406
G01 X5.000 Y1383.950
G01 X5.000 Y893.070
G01 X14.507 Y897.485
G01 X22.773 Y908.487
G01 X23.542 Y921.592
G01 X16.513 Y934.712
G01 X5.000 Y943.411
G01 X5.000 Y348.604
G01 X31.492 Y340.250
G01 X84.487 Y333.113
G01 X135.017 Y335.160
G01 X181.130 Y345.409
G01 X221.172 Y362.444
G01 X253.886 Y384.504
G01 X278.477 Y409.585
G01 X294.662 Y435.562
G01 X302.680 Y460.313
G01 X303.278 Y481.846
G01 X297.661 Y498.418
G01 X287.421 Y508.638
G01 X274.442 Y511.549
G01 X260.780 Y506.684
G01 X248.546 Y494.099
G01 X239.775 Y474.363
G01 X236.307 Y448.530
G01 X239.670 Y418.076
G01 X250.993 Y384.812
G01 X270.934 Y350.779
G01 X299.637 Y318.125
G01 X336.724 Y288.979
G01 X381.312 Y265.329
G01 X432.060 Y248.899
G01 X487.249 Y241.053
G01 X544.878 Y242.707
G01 X602.778 Y254.281
G01 X658.738 Y275.668
G01 X710.000 Y305.870
G01 X710.000 Y776.461
G01 X697.240 Y773.493
G01 X685.141 Y764.129
G01 X680.111 Y751.405
G01 X682.779 Y737.335
G01 X693.260 Y724.029
G01 X710.000 Y714.232
G01 X710.000 Y1311.095
G01 X672.733 Y1320.657
G01 X621.371 Y1324.598
G01 X573.182 Y1319.693
G01 X530.025 Y1307.085
G01 X493.420 Y1288.322
G01 X464.467 Y1265.263
G01 X443.780 Y1239.969
G01 X431.456 Y1214.577
G01 X427.070 Y1191.177
G01 X429.707 Y1171.683
G01 X438.010 Y1157.726
G01 X450.273 Y1150.548
G01 X464.534 Y1150.939
G01 X478.702 Y1159.179
G01 X490.677 Y1175.030
G01 X498.478 Y1197.742
G01 X500.361 Y1226.103
G01 X494.929 Y1258.506
G01 X481.212 Y1293.043
G01 X458.729 Y1327.621
G01 X427.519 Y1360.081
G01 X388.142 Y1388.328
G01 X341.649 Y1410.453
G01 X289.524 Y1424.845
G01 X233.595 Y1430.291
G01 X175.938 Y1426.042
G01 X118.751 Y1411.861
G01 X64.227 Y1388.039
G01 X14.435 Y1355.378
G01 X5.000 Y1346.600
G01 X5.000 Y909.946
G01 X11.443 Y908.210
G01 X32.209 Y909.074
G01 X47.908 Y916.076
G01 X57.164 Y927.610
G01 X59.034 Y941.784
G01 X53.072 Y956.534
G01 X39.348 Y969.749
G01 X18.450 Y979.394
G01 X5.000 Y981.507
G01 X5.000 Y387.349
G01 X17.734 Y382.428
G01 X69.198 Y372.301
G01 X118.820 Y371.467
G01 X164.587 Y379.082
G01 X204.750 Y393.852
G01 X237.930 Y414.106
G01 X263.198 Y437.902
G01 X280.119 Y463.139
G01 X288.786 Y487.681
G01 X289.803 Y509.489
G01 X284.251 Y526.736
G01 X273.623 Y537.922
G01 X259.731 Y541.957
G01 X244.596 Y538.229
G01 X230.330 Y526.642
G01 X219.008 Y507.619
G01 X212.539 Y482.083
G01 X212.559 Y451.395
G01 X220.323 Y417.282
G01 X236.635 Y381.733
G01 X261.796 Y346.881
G01 X295.582 Y314.877
G01 X337.255 Y287.767
G01 X385.605 Y267.369
G01 X439.015 Y255.163
G01 X495.558 Y252.210
G01 X553.102 Y259.081
G01 X609.437 Y275.830
G01 X662.398 Y301.983
G01 X709.994 Y336.569
G01 X710.000 Y336.575
G01 X710.000 Y757.540
G01 X691.566 Y759.922
G01 X672.892 Y755.897
G01 X659.854 Y746.284
G01 X653.684 Y732.803
G01 X655.152 Y717.423
G01 X664.523 Y702.240
G01 X681.539 Y689.355
G01 X705.435 Y680.746
G01 X710.000 Y680.345
G01 X710.000 Y1273.557
G01 X694.107 Y1278.695
G01 X644.029 Y1285.499
G01 X596.525 Y1283.296
G01 X553.526 Y1273.096
G01 X516.657 Y1256.337
G01 X487.144 Y1234.798
G01 X465.745 Y1210.489
G01 X452.706 Y1185.539
G01 X447.750 Y1162.062
G01 X450.096 Y1142.036
G01 X458.506 Y1127.181
G01 X471.362 Y1118.863
G01 X486.763 Y1118.005
G01 X502.639 Y1125.040
G01 X516.875 Y1139.877
G01 X527.440 Y1161.912
G01 X532.506 Y1190.059
G01 X530.562 Y1222.813
G01 X520.501 Y1258.341
G01 X501.693 Y1294.590
G01 X474.021 Y1329.402
G01 X437.891 Y1360.648
G01 X394.213 Y1386.347
G01 X344.350 Y1404.789
G01 X290.038 Y1414.629
G01 X233.291 Y1414.973
G01 X176.280 Y1405.428
G01 X121.215 Y1386.127
G01 X70.211 Y1357.720
G01 X25.170 Y1321.342
G01 X5.000 Y1298.319
G01 X5.000 Y939.061
G01 X20.159 Y929.707
G01 X44.216 Y922.580
G01 X65.420 Y923.053
G01 X81.954 Y930.027
G01 X92.328 Y941.997
G01 X95.470 Y957.140
G01 X90.784 Y973.426
G01 X78.192 Y988.742
G01 X58.134 Y1001.013
G01 X31.549 Y1008.332
G01 X5.000 Y1008.954
G01 X5.000 Y425.355
G01 X8.403 Y423.788
G01 X58.195 Y410.858
G01 X106.771 Y407.289
G01 X152.065 Y412.380
G01 X192.243 Y424.961
G01 X225.814 Y443.464
G01 X251.713 Y466.015
G01 X269.361 Y490.548
G01 X278.700 Y514.926
G01 X280.190 Y537.069
G01 X274.784 Y555.079
G01 X263.864 Y567.350
G01 X249.163 Y572.666
G01 X232.657 Y570.273
G01 X216.449 Y559.924
G01 X202.640 Y541.893
G01 X193.204 Y516.964
G01 X189.870 Y486.378
G01 X194.018 Y451.770
G01 X206.593 Y415.064
G01 X228.049 Y378.368
G01 X258.318 Y343.845
G01 X296.814 Y313.587
G01 X342.461 Y289.494
G01 X393.754 Y273.160
G01 X448.848 Y265.778
G01 X505.660 Y268.073
G01 X561.992 Y280.254
G01 X615.654 Y302.007
G01 X664.592 Y332.504
G01 X707.008 Y370.459
G01 X710.000 Y374.258
G01 X710.000 Y732.772
G01 X690.258 Y742.050
G01 X667.328 Y745.530
G01 X647.966 Y741.760
G01 X633.881 Y731.996
G01 X626.424 Y717.867
G01 X626.505 Y701.285
G01 X634.538 Y684.326
G01 X650.416 Y669.105
G01 X673.516 Y657.653
G01 X702.737 Y651.791
G01 X710.000 Y652.055
G01 X710.000 Y1236.730
G01 X662.293 Y1246.042
G01 X615.598 Y1246.412
G01 X572.865 Y1238.528
G01 X535.816 Y1223.708
G01 X505.799 Y1203.641
G01 X483.710 Y1180.283
G01 X469.943 Y1155.737
G01 X464.370 Y1132.136
G01 X466.350 Y1111.508
G01 X474.769 Y1095.659
G01 X488.108 Y1086.066
G01 X504.532 Y1083.788
G01 X522.005 Y1089.402
G01 X538.409 Y1102.972
G01 X551.673 Y1124.037
G01 X559.893 Y1151.645
G01 X561.451 Y1184.403
G01 X555.112 Y1220.563
G01 X540.097 Y1258.119
G01 X516.134 Y1294.929
G01 X483.473 Y1328.838
G01 X442.881 Y1357.807
G01 X395.589 Y1380.032
G01 X343.233 Y1394.047
G01 X287.755 Y1398.818
G01 X231.291 Y1393.795
G01 X176.051 Y1378.954
G01 X124.189 Y1354.792
G01 X77.682 Y1322.303
G01 X38.212 Y1282.920
G01 X7.074 Y1238.430
G01 X5.000 Y1233.940
G01 X5.000 Y982.599
G01 X6.084 Y980.727
G01 X28.567 Y956.392
G01 X52.905 Y940.304
G01 X76.962 Y932.505
G01 X98.663 Y932.516
G01 X116.118 Y939.367
G01 X127.733 Y951.660
G01 X132.305 Y967.652
G01 X129.097 Y985.357
G01 X117.880 Y1002.669
G01 X98.944 Y1017.486
G01 X73.089 Y1027.837
G01 X41.573 Y1032.000
G01 X6.041 Y1028.605
G01 X5.000 Y1028.276
G01 X5.000 Y463.353
G01 X51.271 Y448.370
G01 X98.680 Y442.216
G01 X143.389 Y444.894
G01 X183.490 Y455.366
G01 X217.385 Y472.173
G01 X243.880 Y493.519
G01 X262.254 Y517.382
G01 X272.299 Y541.634
G01 X274.329 Y564.166
G01 X269.160 Y583.015
G01 X258.060 Y596.481
G01 X242.674 Y603.226
G01 X224.922 Y602.357
G01 X206.886 Y593.477
G01 X190.683 Y576.709
G01 X178.342 Y552.693
G01 X171.678 Y522.546
G01 X172.185 Y487.798
G01 X180.948 Y450.304
G01 X198.570 Y412.130
G01 X225.142 Y375.441
G01 X260.228 Y342.366
G01 X302.894 Y314.876
G01 X351.756 Y294.668
G01 X405.059 Y283.066
G01 X460.782 Y280.939
G01 X516.747 Y288.657
G01 X570.752 Y306.058
G01 X620.691 Y332.467
G01 X664.681 Y366.730
G01 X701.167 Y407.279
G01 X710.000 Y421.539
G01 X710.000 Y700.814
G01 X690.446 Y718.140
G01 X666.167 Y730.397
G01 X642.956 Y734.484
G01 X622.836 Y731.061
G01 X607.605 Y721.258
G01 X598.727 Y706.608
G01 X597.245 Y688.955
G01 X603.722 Y670.343
G01 X618.202 Y652.893
G01 X640.209 Y638.677
G01 X668.774 Y629.592
G01 X702.491 Y627.249
G01 X710.000 Y628.387
G01 X710.000 Y1198.058
G01 X676.239 Y1206.669
G01 X630.462 Y1209.482
G01 X588.092 Y1203.817
G01 X550.938 Y1190.871
G01 X520.461 Y1172.232
G01 X497.693 Y1149.790
G01 X483.175 Y1125.618
G01 X476.929 Y1101.852
G01 X478.457 Y1080.562
G01 X486.773 Y1063.631
G01 X500.465 Y1052.642
G01 X517.776 Y1048.782
G01 X536.715 Y1052.772
G01 X555.168 Y1064.827
G01 X571.036 Y1084.636
G01 X582.349 Y1111.386
G01 X587.392 Y1143.802
G01 X584.805 Y1180.229
G01 X573.667 Y1218.721
G01 X553.550 Y1257.162
G01 X524.550 Y1293.384
G01 X487.281 Y1325.299
G01 X442.842 Y1351.018
G01 X392.758 Y1368.964
G01 X338.889 Y1377.965
G01 X283.325 Y1377.322
G01 X228.264 Y1366.851
G01 X175.890 Y1346.896
G01 X128.241 Y1318.305
G01 X87.096 Y1282.386
G01 X53.871 Y1240.829
G01 X29.538 Y1195.608
G01 X14.571 Y1148.863
G01 X8.922 Y1102.783
G01 X12.019 Y1059.469
G01 X22.812 Y1020.822
G01 X39.828 Y988.424
G01 X61.264 Y963.453
G01 X85.093 Y946.612
G01 X109.185 Y938.091
G01 X131.436 Y937.557
G01 X149.888 Y944.177
G01 X162.851 Y956.665
G01 X169.003 Y973.367
G01 X167.463 Y992.351
G01 X157.853 Y1011.531
G01 X140.312 Y1028.787
G01 X115.498 Y1042.093
G01 X84.542 Y1049.640
G01 X48.986 Y1049.940
G01 X10.696 Y1041.923
G01 X5.000 Y1039.448
G01 X5.000 Y501.275
G01 X48.183 Y484.452
G01 X94.318 Y475.864
G01 X138.345 Y476.243
G01 X178.287 Y484.687
G01 X212.450 Y499.852
G01 X239.517 Y520.029
G01 X258.626 Y543.251
G01 X269.421 Y567.408
G01 X272.067 Y590.374
G01 X267.241 Y610.131
G01 X256.089 Y624.890
G01 X240.159 Y633.200
G01 X221.306 Y634.032
G01 X201.579 Y626.840
G01 X183.103 Y611.597
G01 X167.948 Y588.795
G01 X158.009 Y559.420
G01 X154.886 Y524.889
G01 X159.795 Y486.976
G01 X173.490 Y447.700
G01 X196.215 Y409.212
G01 X227.692 Y373.667
G01 X267.131 Y343.097
G01 X313.274 Y319.296
G01 X364.469 Y303.706
G01 X418.764 Y297.342
G01 X474.015 Y300.725
G01 X528.016 Y313.854
G01 X578.623 Y336.204
G01 X623.876 Y366.759
G01 X662.116 Y404.068
G01 X692.076 Y446.331
G01 X710.000 Y485.111
G01 X710.000 Y652.200
G01 X707.627 Y658.628
G01 X688.854 Y687.642
G01 X666.398 Y708.923
G01 X642.337 Y721.949
G01 X618.806 Y726.717
G01 X597.871 Y723.742
G01 X581.406 Y714.027
G01 X570.984 Y698.999
G01 X567.777 Y680.426
G01 X572.491 Y660.309
G01 X585.324 Y640.763
G01 X605.948 Y623.890
G01 X633.533 Y611.656
G01 X666.792 Y605.769
G01 X704.056 Y607.578
G01 X710.000 Y609.153
G01 X710.000 Y1160.226
G01 X685.987 Y1167.810
G01 X641.224 Y1172.932
G01 X599.299 Y1169.391
G01 X562.102 Y1158.252
G01 X531.202 Y1141.000
G01 X507.759 Y1119.446
G01 X492.459 Y1095.622
G01 X485.473 Y1071.658
G01 X486.450 Y1049.658
G01 X494.538 Y1031.571
G01 X508.439 Y1019.076
G01 X526.484 Y1013.484
G01 X546.732 Y1015.660
G01 X567.091 Y1025.965
G01 X585.440 Y1044.243
G01 X599.756 Y1069.821
G01 X608.233 Y1101.552
G01 X609.396 Y1137.880
G01 X602.183 Y1176.934
G01 X586.016 Y1216.630
G01 X560.832 Y1254.801
G01 X527.093 Y1289.319
G01 X485.760 Y1318.224
G01 X438.237 Y1339.833
G01 X386.294 Y1352.843
G01 X331.963 Y1356.410
G01 X277.422 Y1350.193
G01 X224.869 Y1334.377
G01 X176.397 Y1309.665
G01 X133.870 Y1277.233
G01 X98.817 Y1238.665
G01 X72.348 Y1195.858
G01 X55.084 Y1150.915
G01 X47.129 Y1106.018
G01 X48.064 Y1063.305
G01 X56.971 Y1024.742
G01 X72.492 Y992.012
G01 X92.911 Y966.416
G01 X116.254 Y948.797
G01 X140.408 Y939.495
G01 X163.249 Y938.324
G01 X182.763 Y944.591
G01 X197.172 Y957.132
G01 X205.037 Y974.387
G01 X205.342 Y994.491
G01 X197.560 Y1015.386
G01 X181.678 Y1034.946
G01 X158.206 Y1051.101
G01 X128.144 Y1061.962
G01 X92.925 Y1065.935
G01 X54.331 Y1061.816
G01 X14.388 Y1048.863
G01 X5.000 Y1043.581
G01 X5.000 Y538.722
G01 X48.653 Y518.751
G01 X93.424 Y507.883
G01 X136.684 Y506.078
G01 X176.399 Y512.574
G01 X210.784 Y526.148
G01 X238.405 Y545.189
G01 X258.267 Y567.793
G01 X269.864 Y591.880
G01 X273.212 Y615.314
G01 X268.846 Y636.033
G01 X257.784 Y652.171
G01 X241.468 Y662.167
G01 X221.677 Y664.863
G01 X200.421 Y659.566
G01 X179.818 Y646.099
G01 X161.972 Y624.802
G01 X148.843 Y596.524
G01 X142.134 Y562.565
G01 X143.184 Y524.606
G01 X152.891 Y484.607
G01 X171.657 Y444.696
G01 X199.358 Y407.042
G01 X235.354 Y373.729
G01 X278.520 Y346.633
G01 X327.315 Y327.314
G01 X379.864 Y316.920
G01 X434.071 Y316.126
G01 X487.737 Y325.087
G01 X538.689 Y343.434
G01 X584.902 Y370.292
G01 X624.620 Y404.334
G01 X656.454 Y443.855
G01 X679.462 Y486.873
G01 X693.204 Y531.244
G01 X697.763 Y574.790
G01 X693.739 Y615.422
G01 X682.214 Y651.261
G01 X664.684 Y680.754
G01 X642.968 Y702.754
G01 X619.105 Y716.595
G01 X595.225 Y722.124
G01 X573.428 Y719.710
G01 X555.656 Y710.223
G01 X543.581 Y694.977
G01 X538.499 Y675.653
G01 X541.259 Y654.200
G01 X552.208 Y632.716
G01 X571.171 Y613.323
G01 X597.460 Y598.044
G01 X629.914 Y588.676
G01 X666.965 Y586.688
G01 X706.730 Y593.128
G01 X710.000 Y594.378
G01 X710.000 Y1122.960
G01 X691.699 Y1129.875
G01 X648.029 Y1137.175
G01 X606.621 Y1135.662
G01 X569.434 Y1126.267
G01 X538.136 Y1110.362
G01 X514.013 Y1089.672
G01 X497.892 Y1066.179
G01 X490.091 Y1041.997
G01 X490.409 Y1019.249
G01 X498.134 Y999.943
G01 X512.085 Y985.848
G01 X530.690 Y978.392
G01 X552.073 Y978.575
G01 X574.170 Y986.910
G01 X594.852 Y1003.392
G01 X612.049 Y1027.494
G01 X623.878 Y1058.203
G01 X628.752 Y1094.072
G01 X625.479 Y1133.308
G01 X613.329 Y1173.879
G01 X592.084 Y1213.625
G01 X562.050 Y1250.392
G01 X524.043 Y1282.155
G01 X479.343 Y1307.137
G01 X429.618 Y1323.914
G01 X376.833 Y1331.496
G01 X323.134 Y1329.389
G01 X270.724 Y1317.621
G01 X221.737 Y1296.744
G01 X178.113 Y1267.797
G01 X141.490 Y1232.250
G01 X113.104 Y1191.917
G01 X93.725 Y1148.848
G01 X83.607 Y1105.213
G01 X82.483 Y1063.171
G01 X89.574 Y1024.749
G01 X103.644 Y991.720
G01 X123.070 Y965.501
G01 X145.943 Y947.073
G01 X170.177 Y936.922
G01 X193.636 Y935.014
G01 X214.264 Y940.795
G01 X230.201 Y953.232
G01 X239.898 Y970.868
G01 X242.210 Y991.912
G01 X236.461 Y1014.347
G01 X222.488 Y1036.050
G01 X200.650 Y1054.918
G01 X171.810 Y1068.994
G01 X137.282 Y1076.583
G01 X98.757 Y1076.354
G01 X58.205 Y1067.421
G01 X17.758 Y1049.398
G01 X5.000 Y1040.382
G01 X5.000 Y577.423
G01 X10.305 Y573.168
G01 X52.373 Y550.953
G01 X95.707 Y537.957
G01 X138.129 Y534.080
G01 X177.558 Y538.706
G01 X212.127 Y550.739
G01 X240.295 Y568.671
G01 X260.933 Y590.674
G01 X273.392 Y614.704
G01 X277.538 Y638.630
G01 X273.759 Y660.354
G01 X262.940 Y677.941
G01 X246.412 Y689.730
G01 X225.867 Y694.436
G01 X203.264 Y691.227
G01 X180.706 Y679.771
G01 X160.318 Y660.259
G01 X144.117 Y633.395
G01 X133.897 Y600.356
G01 X131.116 Y562.720
G01 X136.813 Y522.380
G01 X151.540 Y481.428
G01 X175.333 Y442.037
G01 X207.702 Y406.330
G01 X247.664 Y376.259
G01 X293.793 Y353.488
G01 X344.304 Y339.297
G01 X397.158 Y334.507
G01 X450.173 Y339.431
G01 X501.159 Y353.855
G01 X548.038 Y377.052
G01 X588.964 Y407.821
G01 X622.435 Y444.564
G01 X647.372 Y485.370
G01 X663.186 Y528.135
G01 X669.807 Y570.680
G01 X667.689 Y610.880
G01 X657.779 Y646.786
G01 X641.459 Y676.743
G01 X620.467 Y699.481
G01 X596.790 Y714.190
G01 X572.544 Y720.570
G01 X549.852 Y718.841
G01 X530.715 Y709.733
G01 X516.894 Y694.442
G01 X509.805 Y674.553
G01 X510.434 Y651.954
G01 X519.278 Y628.713
G01 X536.315 Y606.964
G01 X561.003 Y588.774
G01 X592.313 Y576.022
G01 X628.787 Y570.287
G01 X668.621 Y572.750
G01 X709.775 Y584.128
G01 X710.000 Y584.243
G01 X710.000 Y1086.002
G01 X693.574 Y1093.254
G01 X651.063 Y1102.601
G01 X610.232 Y1103.023
G01 X573.098 Y1095.312
G01 X541.422 Y1080.719
G01 X516.607 Y1060.878
G01 X499.617 Y1037.707
G01 X490.920 Y1013.294
G01 X490.463 Y989.775
G01 X497.675 Y969.203
G01 X511.505 Y953.429
G01 X530.483 Y943.991
G01 X552.806 Y942.023
G01 X576.450 Y948.183
G01 X599.289 Y962.618
G01 X619.218 Y984.954
G01 X634.284 Y1014.312
G01 X642.800 Y1049.365
G01 X643.445 Y1088.410
G01 X635.345 Y1129.471
G01 X618.126 Y1170.411
G01 X591.937 Y1209.060
G01 X557.447 Y1243.341
G01 X515.800 Y1271.390
G01 X468.560 Y1291.667
G01 X417.611 Y1303.047
G01 X365.058 Y1304.883
G01 X313.095 Y1297.047
G01 X263.890 Y1279.936
G01 X219.448 Y1254.449
G01 X181.505 Y1221.935
G01 X151.420 Y1184.115
G01 X130.103 Y1142.977
G01 X117.963 Y1100.667
G01 X114.881 Y1059.358
G01 X120.223 Y1021.123
G01 X132.881 Y987.819
G01 X151.334 Y960.973
G01 X173.744 Y941.697
G01 X198.064 Y930.624
G01 X222.160 Y927.868
G01 X243.937 Y933.023
G01 X261.467 Y945.188
G01 X273.099 Y963.016
G01 X277.562 Y984.802
G01 X274.036 Y1008.580
G01 X262.206 Y1032.241
G01 X242.280 Y1053.660
G01 X214.978 Y1070.820
G01 X181.489 Y1081.935
G01 X143.405 Y1085.555
G01 X102.626 Y1080.653
G01 X61.250 Y1066.690
G01 X21.451 Y1043.644
G01 X5.000 Y1029.231
G01 X5.000 Y617.542
G01 X19.040 Y604.838
G01 X59.012 Y580.778
G01 X100.848 Y565.804
G01 X142.373 Y559.967
G01 X181.467 Y562.798
G01 X216.193 Y573.335
G01 X244.905 Y590.182
G01 X266.351 Y611.590
G01 X279.739 Y635.569
G01 X284.785 Y659.997
G01 X281.729 Y682.754
G01 X271.319 Y701.844
G01 X254.765 Y715.514
G01 X233.667 Y722.361
G01 X209.920 Y721.413
G01 X185.602 Y712.188
G01 X162.847 Y694.725
G01 X143.721 Y669.581
G01 X130.099 Y637.800
G01 X123.550 Y600.853
G01 X125.247 Y560.553
G01 X135.893 Y518.946
G01 X155.680 Y478.196
G01 X184.274 Y440.457
G01 X220.835 Y407.743
G01 X264.061 Y381.816
G01 X312.268 Y364.081
G01 X363.479 Y355.500
G01 X415.547 Y356.540
G01 X466.272 Y367.146
G01 X513.532 Y386.738
G01 X555.405 Y414.253
G01 X590.281 Y448.201
G01 X616.950 Y486.757
G01 X634.677 Y527.862
G01 X643.242 Y569.349
G01 X642.946 Y609.069
G01 X634.599 Y645.010
G01 X619.465 Y675.425
G01 X599.188 Y698.925
G01 X575.695 Y714.563
G01 X551.078 Y721.889
G01 X527.471 Y720.975
G01 X506.926 Y712.409
G01 X491.285 Y697.258
G01 X482.075 Y677.008
G01 X480.415 Y653.470
G01 X486.951 Y628.678
G01 X501.812 Y604.762
G01 X524.608 Y583.824
G01 X554.446 Y567.815
G01 X589.984 Y558.416
G01 X629.511 Y556.936
G01 X671.041 Y564.238
G01 X710.000 Y579.716
G01 X710.000 Y1049.107
G01 X691.848 Y1058.313
G01 X650.550 Y1069.579
G01 X610.344 Y1071.846
G01 X573.297 Y1065.762
G01 X541.255 Y1052.453
G01 X515.730 Y1033.451
G01 X497.820 Y1010.602
G01 X488.138 Y985.960
G01 X486.781 Y961.658
G01 X493.325 Y939.790
G01 X506.851 Y922.277
G01 X525.998 Y910.760
G01 X549.049 Y906.498
G01 X574.029 Y910.296
G01 X598.824 Y922.453
G01 X621.308 Y942.745
G01 X639.467 Y970.437
G01 X651.521 Y1004.326
G01 X656.029 Y1042.809
G01 X651.976 Y1083.977
G01 X638.835 Y1125.727
G01 X616.597 Y1165.884
G01 X585.779 Y1202.329
G01 X547.389 Y1233.123
G01 X502.871 Y1256.618
G01 X454.025 Y1271.558
G01 X402.899 Y1277.148
G01 X351.674 Y1273.105
G01 X302.533 Y1259.670
G01 X257.540 Y1237.596
G01 X218.519 Y1208.107
G01 X186.946 Y1172.820
G01 X163.868 Y1133.655
G01 X149.841 Y1092.721
G01 X144.899 Y1052.192
G01 X148.557 Y1014.182
G01 X159.836 Y980.620
G01 X177.327 Y953.136
G01 X199.273 Y932.969
G01 X223.674 Y920.893
G01 X248.409 Y917.174
G01 X271.358 Y921.553
G01 X290.529 Y933.266
G01 X304.180 Y951.086
G01 X310.918 Y973.401
G01 X309.785 Y998.305
G01 X300.315 Y1023.715
G01 X282.564 Y1047.495
G01 X257.102 Y1067.579
G01 X224.990 Y1082.098
G01 X187.710 Y1089.491
G01 X147.084 Y1088.596
G01 X105.165 Y1078.723
G01 X64.119 Y1059.694
G01 X26.098 Y1031.854
G01 X5.000 Y1008.959
G01 X5.000 Y659.529
G01 X30.372 Y633.710
G01 X68.213 Y607.990
G01 X108.507 Y591.183
G01 X149.088 Y583.494
G01 X187.808 Y584.602
G01 X222.669 Y593.683
G01 X251.931 Y609.459
G01 X274.221 Y630.273
G01 X288.609 Y654.193
G01 X294.664 Y679.122
G01 X292.475 Y702.924
G01 X282.648 Y723.554
G01 X266.267 Y739.175
G01 X244.830 Y748.273
G01 X220.162 Y749.740
G01 X194.301 Y742.948
G01 X169.381 Y727.780
G01 X147.507 Y704.646
G01 X130.622 Y674.451
G01 X120.402 Y638.550
G01 X118.145 Y598.665
G01 X124.702 Y556.789
G01 X140.421 Y515.065
G01 X165.124 Y475.662
G01 X198.119 Y440.651
G01 X238.236 Y411.881
G01 X283.897 Y390.871
G01 X333.202 Y378.724
G01 X384.044 Y376.056
G01 X434.228 Y382.969
G01 X481.600 Y399.036
G01 X524.169 Y423.333
G01 X560.224 Y454.490
G01 X588.434 Y490.771
G01 X607.921 Y530.177
G01 X618.312 Y570.564
G01 X619.760 Y609.763
G01 X612.931 Y645.717
G01 X598.963 Y676.590
G01 X579.401 Y700.881
G01 X556.101 Y717.513
G01 X531.121 Y725.887
G01 X506.597 Y725.925
G01 X484.618 Y718.070
G01 X467.100 Y703.257
G01 X455.675 Y682.861
G01 X451.589 Y658.612
G01 X455.632 Y632.493
G01 X468.087 Y606.622
G01 X488.714 Y583.128
G01 X516.765 Y564.021
G01 X551.022 Y551.074
G01 X589.870 Y545.720
G01 X631.393 Y548.961
G01 X673.483 Y561.313
G01 X710.000 Y580.667
G01 X710.000 Y1012.034
G01 X686.791 Y1025.389
G01 X646.747 Y1038.450
G01 X607.205 Y1042.476
G01 X570.272 Y1037.968
G01 X537.869 Y1025.921
G01 X511.612 Y1007.756
G01 X492.725 Y985.241
G01 X481.964 Y960.382
G01 X479.578 Y935.303
G01 X485.290 Y912.124
G01 X498.318 Y892.830
G01 X517.420 Y879.155
G01 X540.971 Y872.480
G01 X567.056 Y873.750
G01 X593.585 Y883.414
G01 X618.420 Y901.403
G01 X639.497 Y927.129
G01 X654.954 Y959.518
G01 X663.235 Y997.076
G01 X663.192 Y1037.972
G01 X654.145 Y1080.147
G01 X635.930 Y1121.433
G01 X608.908 Y1159.681
G01 X573.943 Y1192.884
G01 X532.358 Y1219.298
G01 X485.855 Y1237.542
G01 X436.417 Y1246.678
G01 X386.197 Y1246.268
G01 X337.389 Y1236.397
G01 X292.100 Y1217.672
G01 X252.235 Y1191.180
G01 X219.379 Y1158.430
G01 X194.709 Y1121.263
G01 X178.927 Y1081.742
G01 X172.221 Y1042.033
G01 X174.252 Y1004.278
G01 X184.180 Y970.469
G01 X200.712 Y942.332
G01 X222.183 Y921.226
G01 X246.650 Y908.063
G01 X272.013 Y903.260
G01 X296.136 Y906.706
G01 X316.978 Y917.780
G01 X332.711 Y935.380
G01 X341.829 Y957.995
G01 X343.239 Y983.790
G01 X336.326 Y1010.719
G01 X320.992 Y1036.644
G01 X297.658 Y1059.463
G01 X267.248 Y1077.234
G01 X231.126 Y1088.292
G01 X191.028 Y1091.345
G01 X148.950 Y1085.558
G01 X107.039 Y1070.594
G01 X67.465 Y1046.645
G01 X32.294 Y1014.416
G01 X5.000 Y977.308
G01 X5.000 Y708.996
G01 X13.249 Y694.641
G01 X43.913 Y659.595
G01 X79.607 Y632.392
G01 X118.326 Y613.894
G01 X157.925 Y604.455
G01 X196.242 Y603.907
G01 X231.222 Y611.566
G01 X261.043 Y626.279
G01 X284.218 Y646.489
G01 X299.683 Y670.332
G01 X306.860 Y695.744
G01 X305.687 Y720.587
G01 X296.625 Y742.775
G01 X280.626 Y760.398
G01 X259.080 Y771.835
G01 X233.728 Y775.851
G01 X206.562 Y771.672
G01 X179.704 Y759.028
G01 X155.283 Y738.176
G01 X135.307 Y709.879
G01 X121.543 Y675.369
G01 X115.413 Y636.270
G01 X117.909 Y594.507
G01 X129.532 Y552.192
G01 X150.264 Y511.501
G01 X179.562 Y474.548
G01 X216.394 Y443.259
G01 X259.296 Y419.262
G01 X306.455 Y403.789
G01 X355.815 Y397.608
G01 X405.198 Y400.973
G01 X452.425 Y413.614
G01 X495.449 Y434.750
G01 X532.469 Y463.136
G01 X562.035 Y497.135
G01 X583.132 Y534.817
G01 X595.239 Y574.068
G01 X598.357 Y612.719
G01 X593.005 Y648.666
G01 X580.192 Y680.002
G01 X561.354 Y705.120
G01 X538.268 Y722.813
G01 X512.947 Y732.340
G01 X487.517 Y733.473
G01 X464.098 Y726.505
G01 X444.668 Y712.236
G01 X430.954 Y691.923
G01 X424.326 Y667.203
G01 X425.713 Y640.002
G01 X435.551 Y612.414
G01 X453.754 Y586.579
G01 X479.719 Y564.561
G01 X512.359 Y548.215
G01 X550.167 Y539.088
G01 X591.305 Y538.320
G01 X633.708 Y546.574
G01 X675.205 Y564.004
G01 X710.000 Y587.744
G01 X710.000 Y974.551
G01 X678.703 Y994.787
G01 X639.943 Y1009.525
G01 X601.095 Y1015.228
G01 X564.297 Y1012.251
G01 X531.532 Y1001.449
G01 X504.516 Y984.130
G01 X484.592 Y961.971
G01 X472.658 Y936.922
G01 X469.108 Y911.087
G01 X473.819 Y886.602
G01 X486.148 Y865.504
G01 X504.979 Y849.614
G01 X528.788 Y840.428
G01 X555.729 Y839.025
G01 X583.749 Y846.005
G01 X610.706 Y861.451
G01 X634.500 Y884.927
G01 X653.193 Y915.495
G01 X665.126 Y951.776
G01 X669.020 Y992.028
G01 X664.049 Y1034.246
G01 X649.893 Y1076.280
G01 X626.755 Y1115.963
G01 X595.354 Y1151.232
G01 X556.882 Y1180.254
G01 X512.934 Y1201.530
G01 X465.423 Y1213.986
G01 X416.458 Y1217.031
G01 X368.233 Y1210.595
G01 X322.891 Y1195.132
G01 X282.404 Y1171.592
G01 X248.461 Y1141.368
G01 X222.362 Y1106.212
G01 X204.952 Y1068.130
G01 X196.570 Y1029.271
G01 X197.027 Y991.793
G01 X205.625 Y957.742
G01 X221.195 Y928.932
G01 X242.168 Y906.836
G01 X266.671 Y892.500
G01 X292.634 Y886.487
G01 X317.920 Y888.840
G01 X340.443 Y899.080
G01 X358.300 Y916.238
G01 X369.879 Y938.912
G01 X373.959 Y965.348
G01 X369.778 Y993.546
G01 X357.084 Y1021.379
G01 X336.147 Y1046.718
G01 X307.746 Y1067.558
G01 X273.126 Y1082.139
G01 X233.921 Y1089.049
G01 X192.063 Y1087.306
G01 X149.669 Y1076.423
G01 X108.916 Y1056.433
G01 X71.913 Y1027.890
G01 X40.580 Y991.839
G01 X16.534 Y949.753
G01 X5.000 Y915.383
G01 X5.000 Y780.330
G01 X10.382 Y760.323
G01 X31.242 Y718.321
G01 X59.265 Y682.345
G01 X92.808 Y653.831
G01 X129.932 Y633.776
G01 X168.523 Y622.686
G01 X206.412 Y620.542
G01 X241.504 Y626.807
G01 X271.897 Y640.457
G01 X296.001 Y660.042
G01 X312.621 Y683.776
G01 X321.035 Y709.640
G01 X321.031 Y735.503
G01 X312.923 Y759.249
G01 X297.525 Y778.902
G01 X276.109 Y792.745
G01 X250.326 Y799.420
G01 X222.110 Y798.011
G01 X193.562 Y788.097
G01 X166.823 Y769.780
G01 X143.954 Y743.677
G01 X126.806 Y710.890
G01 X116.917 Y672.935
G01 X115.414 Y631.661
G01 X122.950 Y589.138
G01 X139.663 Y547.536
G01 X165.167 Y509.001
G01 X198.570 Y475.527
G01 X238.529 Y448.841
G01 X283.328 Y430.302
G01 X330.974 Y420.818
G01 X379.312 Y420.800
G01 X426.155 Y430.132
G01 X469.406 Y448.180
G01 X507.185 Y473.831
G01 X537.930 Y505.555
G01 X560.495 Y541.499
G01 X574.214 Y579.592
G01 X578.933 Y617.671
G01 X575.025 Y653.601
G01 X563.363 Y685.408
G01 X545.268 Y711.389
G01 X522.429 Y730.213
G01 X496.803 Y741.002
G01 X470.498 Y743.375
G01 X445.649 Y737.477
G01 X424.292 Y723.965
G01 X408.240 Y703.972
G01 X398.977 Y679.037
G01 X397.569 Y651.015
G01 X404.602 Y621.965
G01 X420.145 Y594.031
G01 X443.744 Y569.315
G01 X474.449 Y549.750
G01 X510.869 Y536.985
G01 X551.251 Y532.291
G01 X593.585 Y536.480
G01 X635.720 Y549.859
G01 X675.486 Y572.212
G01 X710.000 Y602.091
G01 X710.000 Y933.588
G01 X702.549 Y941.797
G01 X667.914 Y966.778
G01 X630.457 Y983.081
G01 X592.325 Y990.387
G01 X555.676 Y988.901
G01 X522.547 Y979.337
G01 X494.742 Y962.881
G01 X473.720 Y941.112
G01 X460.513 Y915.913
G01 X455.665 Y889.359
G01 X459.200 Y863.590
G01 X470.623 Y840.687
G01 X488.950 Y822.549
G01 X512.762 Y810.777
G01 X540.295 Y806.580
G01 X569.543 Y810.706
G01 X598.372 Y823.393
G01 X624.654 Y844.354
G01 X646.388 Y872.797
G01 X661.819 Y907.463
G01 X669.545 Y946.709
G01 X668.598 Y988.593
G01 X658.502 Y1030.998
G01 X639.304 Y1071.745
G01 X611.572 Y1108.729
G01 X576.361 Y1140.037
G01 X535.156 Y1164.063
G01 X489.781 Y1179.597
G01 X442.300 Y1185.903
G01 X394.891 Y1182.754
G01 X349.722 Y1170.451
G01 X308.826 Y1149.803
G01 X273.982 Y1122.079
G01 X246.610 Y1088.932
G01 X227.692 Y1052.306
G01 X217.717 Y1014.317
G01 X216.647 Y977.132
G01 X223.929 Y942.842
G01 X238.522 Y913.337
G01 X258.965 Y890.198
G01 X283.461 Y874.601
G01 X309.983 Y867.253
G01 X336.397 Y868.348
G01 X360.591 Y877.555
G01 X380.592 Y894.042
G01 X394.692 Y916.523
G01 X401.545 Y943.334
G01 X400.247 Y972.533
G01 X390.393 Y1002.015
G01 X372.099 Y1029.633
G01 X345.999 Y1053.333
G01 X313.206 Y1071.266
G01 X275.249 Y1081.906
G01 X233.984 Y1084.134
G01 X191.486 Y1077.313
G01 X149.926 Y1061.316
G01 X111.449 Y1036.545
G01 X78.041 Y1003.902
G01 X51.420 Y964.740
G01 X32.933 Y920.785
G01 X23.475 Y874.034
G01 X23.440 Y826.641
G01 X32.698 Y780.791
G01 X50.601 Y738.573
G01 X76.023 Y701.859
G01 X107.424 Y672.195
G01 X142.943 Y650.712
G01 X180.508 Y638.062
G01 X217.953 Y634.377
G01 X253.151 Y639.268
G01 X284.133 Y651.845
G01 X309.209 Y670.775
G01 X327.064 Y694.357
G01 X336.833 Y720.626
G01 X338.154 Y747.469
G01 X331.191 Y772.751
G01 X316.618 Y794.441
G01 X295.581 Y810.733
G01 X269.635 Y820.153
G01 X240.642 Y821.648
G01 X210.670 Y814.646
G01 X181.866 Y799.095
G01 X156.329 Y775.461
G01 X135.988 Y744.711
G01 X122.485 Y708.246
G01 X117.079 Y667.828
G01 X120.570 Y625.473
G01 X133.254 Y583.336
G01 X154.898 Y543.584
G01 X184.758 Y508.267
G01 X221.622 Y479.202
G01 X263.874 Y457.865
G01 X309.595 Y445.306
G01 X356.666 Y442.084
G01 X402.902 Y448.239
G01 X446.168 Y463.289
G01 X484.510 Y486.255
G01 X516.267 Y515.724
G01 X540.166 Y549.927
G01 X555.397 Y586.849
G01 X561.656 Y624.339
G01 X559.167 Y660.245
G01 X548.661 Y692.535
G01 X531.338 Y719.417
G01 X508.790 Y739.445
G01 X482.910 Y751.602
G01 X455.777 Y755.362
G01 X429.532 Y750.718
G01 X406.255 Y738.182
G01 X387.837 Y718.757
G01 X375.871 Y693.872
G01 X371.554 Y665.303
G01 X375.619 Y635.067
G01 X388.289 Y605.298
G01 X409.263 Y578.125
G01 X437.733 Y555.547
G01 X472.430 Y539.310
G01 X511.698 Y530.807
G01 X553.591 Y530.995
G01 X595.986 Y540.336
G01 X636.706 Y558.769
G01 X673.650 Y585.714
G01 X704.911 Y620.103
G01 X710.000 Y628.662
G01 X710.000 Y887.799
G01 X687.542 Y915.380
G01 X654.775 Y941.597
G01 X618.632 Y959.360
G01 X581.233 Y968.201
G01 X544.741 Y968.173
G01 X511.243 Y959.847
G01 X482.619 Y944.280
G01 X460.436 Y922.947
G01 X445.858 Y897.654
G01 X439.574 Y870.435
G01 X441.759 Y843.425
G01 X452.066 Y818.738
G01 X469.647 Y798.340
G01 X493.199 Y783.930
G01 X521.048 Y776.846
G01 X551.243 Y777.974
G01 X581.672 Y787.708
G01 X610.190 Y805.914
G01 X634.742 Y831.946
G01 X653.488 Y864.676
G01 X664.908 Y902.566
G01 X667.898 Y943.750
G01 X661.830 Y986.150
G01 X646.593 Y1027.592
G01 X622.602 Y1065.937
G01 X590.772 Y1099.203
G01 X552.465 Y1125.683
G01 X509.415 Y1144.043
G01 X463.623 Y1153.400
G01 X417.244 Y1153.377
G01 X372.460 Y1144.118
G01 X331.352 Y1126.287
G01 X295.783 Y1101.022
G01 X267.285 Y1069.873
G01 X246.973 Y1034.708
G01 X235.480 Y997.603
G01 X232.923 Y960.724
G01 X238.894 Y926.193
G01 X252.489 Y895.970
G01 X272.357 Y871.735
G01 X296.789 Y854.789
G01 X323.810 Y845.980
G01 X351.304 Y845.651
G01 X377.136 Y853.624
G01 X399.278 Y869.205
G01 X415.933 Y891.234
G01 X425.636 Y918.144
G01 X427.346 Y948.061
G01 X420.507 Y978.911
G01 X405.081 Y1008.547
G01 X381.551 Y1034.868
G01 X350.894 Y1055.953
G01 X314.525 Y1070.166
G01 X274.214 Y1076.259
G01 X231.983 Y1073.444
G01 X189.990 Y1061.441
G01 X150.397 Y1040.494
G01 X115.252 Y1011.360
G01 X86.363 Y975.264
G01 X65.193 Y933.828
G01 X52.777 Y888.980
G01 X49.662 Y842.836
G01 X55.871 Y797.584
G01 X70.907 Y755.349
G01 X93.777 Y718.077
G01 X123.058 Y687.417
G01 X156.973 Y664.627
G01 X193.500 Y650.500
G01 X230.490 Y645.321
G01 X265.792 Y648.851
G01 X297.381 Y660.338
G01 X323.475 Y678.571
G01 X342.643 Y701.944
G01 X353.883 Y728.555
G01 X356.686 Y756.321
G01 X351.063 Y783.097
G01 X337.542 Y806.807
G01 X317.141 Y825.567
G01 X291.306 Y837.792
G01 X261.823 Y842.298
G01 X230.713 Y838.365
G01 X200.117 Y825.786
G01 X172.164 Y804.875
G01 X148.847 Y776.457
G01 X131.907 Y741.811
G01 X122.726 Y702.603
G01 X122.249 Y660.786
G01 X130.925 Y618.486
G01 X148.679 Y577.880
G01 X174.917 Y541.065
G01 X208.561 Y509.938
G01 X248.107 Y486.084
G01 X291.716 Y470.687
G01 X337.321 Y464.454
G01 X382.744 Y467.581
G01 X425.826 Y479.735
G01 X464.550 Y500.081
G01 X497.162 Y527.326
G01 X522.268 Y559.797
G01 X538.920 Y595.539
G01 X546.665 Y632.431
G01 X545.575 Y668.309
G01 X536.239 Y701.095
G01 X519.727 Y728.916
G01 X497.529 Y750.217
G01 X471.462 Y763.851
G01 X443.565 Y769.144
G01 X415.977 Y765.940
G01 X390.809 Y754.601
G01 X370.024 Y735.994
G01 X355.312 Y711.434
G01 X347.998 Y682.609
G01 X348.958 Y651.477
G01 X358.568 Y620.155
G01 X376.682 Y590.789
G01 X402.637 Y565.432
G01 X435.295 Y545.919
G01 X473.104 Y533.758
G01 X514.193 Y530.044
G01 X556.478 Y535.390
G01 X597.786 Y549.894
G01 X635.981 Y573.128
G01 X669.087 Y604.166
G01 X695.407 Y641.633
G01 X710.000 Y675.411
G01 X710.000 Y825.536
G01 X695.701 Y857.703
G01 X670.575 Y892.118
G01 X639.662 Y919.438
G01 X604.836 Y938.564
G01 X568.178 Y948.878
G01 X531.851 Y950.284
G01 X497.975 Y943.206
G01 X468.501 Y928.565
G01 X445.098 Y907.725
G01 X429.052 Y882.407
G01 X421.196 Y854.594
G01 X421.856 Y826.405
G01 X430.834 Y799.977
G01 X447.423 Y777.332
G01 X470.445 Y760.262
G01 X498.322 Y750.220
G01 X529.170 Y748.234
G01 X560.909 Y754.846
G01 X591.388 Y770.081
G01 X618.511 Y793.440
G01 X640.358 Y823.932
G01 X655.304 Y860.132
G01 X662.112 Y900.259
G01 X660.006 Y942.288
G01 X648.719 Y984.059
G01 X628.509 Y1023.411
G01 X600.146 Y1058.302
G01 X564.866 Y1086.935
G01 X524.301 Y1107.856
G01 X480.381 Y1120.045
G01 X435.226 Y1122.972
G01 X391.020 Y1116.627
G01 X349.886 Y1101.524
G01 X313.757 Y1078.667
G01 X284.270 Y1049.494
G01 X262.668 Y1015.788
G01 X249.727 Y979.577
G01 X245.715 Y943.010
G01 X250.374 Y908.236
G01 X262.936 Y877.272
G01 X282.175 Y851.889
G01 X306.472 Y833.508
G01 X333.917 Y823.113
G01 X362.421 Y821.196
G01 X389.838 Y827.731
G01 X414.094 Y842.170
G01 X433.312 Y863.480
G01 X445.916 Y890.202
G01 X450.733 Y920.541
G01 X447.058 Y952.466
G01 X434.698 Y983.834
G01 X413.984 Y1012.517
G01 X385.751 Y1036.524
G01 X351.292 Y1054.124
G01 X312.283 Y1063.942
G01 X270.684 Y1065.047
G01 X228.622 Y1057.004
G01 X188.274 Y1039.901
G01 X151.732 Y1014.345
G01 X120.885 Y981.427
G01 X97.308 Y942.658
G01 X82.170 Y899.885
G01 X76.164 Y855.178
G01 X79.469 Y810.714
G01 X91.739 Y768.647
G01 X112.122 Y730.985
G01 X139.315 Y699.472
G01 X171.633 Y675.486
G01 X207.118 Y659.960
G01 X243.645 Y653.328
G01 X279.051 Y655.500
G01 X311.264 Y665.871
G01 X338.422 Y683.353
G01 X358.980 Y706.446
G01 X371.806 Y733.321
G01 X376.244 Y761.933
G01 X372.154 Y790.141
G01 X359.916 Y815.832
G01 X340.412 Y837.052
G01 X314.973 Y852.116
G01 X285.296 Y859.713
G01 X253.350 Y858.978
G01 X221.255 Y849.551
G01 X191.159 Y831.593
G01 X165.111 Y805.779
G01 X144.939 Y773.263
G01 X132.144 Y735.604
G01 X127.807 Y694.683
G01 X132.531 Y652.586
G01 X146.396 Y611.487
G01 X168.964 Y573.519
G01 X199.293 Y540.651
G01 X236.002 Y514.569
G01 X277.340 Y496.582
G01 X321.300 Y487.543
G01 X365.725 Y487.800
G01 X408.439 Y497.175
G01 X447.377 Y514.977
G01 X480.696 Y540.039
G01 X506.893 Y570.793
G01 X524.882 Y605.356
G01 X534.067 Y641.644
G01 X534.365 Y677.492
G01 X526.221 Y710.786
G01 X510.572 Y739.583
G01 X488.794 Y762.226
G01 X462.621 Y777.440
G01 X434.043 Y784.412
G01 X405.184 Y782.831
G01 X378.180 Y772.911
G01 X355.049 Y755.378
G01 X337.577 Y731.424
G01 X327.205 Y702.639
G01 X324.951 Y670.917
G01 X331.341 Y638.343
G01 X346.385 Y607.070
G01 X369.570 Y579.193
G01 X399.892 Y556.627
G01 X435.914 Y540.987
G01 X475.848 Y533.501
G01 X517.663 Y534.931
G01 X559.198 Y545.530
G01 X598.294 Y565.026
G01 X632.916 Y592.637
G01 X661.275 Y627.116
G01 X681.930 Y666.823
G01 X693.874 Y709.822
G01 X696.594 Y753.990
G01 X690.095 Y797.147
G01 X674.906 Y837.178
G01 X652.047 Y872.155
G01 X622.964 Y900.457
G01 X589.451 Y920.855
G01 X553.539 Y932.590
G01 X517.381 Y935.412
G01 X483.119 Y929.599
G01 X452.767 Y915.931
G01 X428.085 Y895.654
G01 X410.478 Y870.396
G01 X400.918 Y842.078
G01 X399.879 Y812.792
G01 X407.317 Y784.687
G01 X422.668 Y759.834
G01 X444.883 Y740.105
G01 X472.492 Y727.064
G01 X503.686 Y721.874
G01 X536.430 Y725.226
G01 X568.576 Y737.299
G01 X597.997 Y757.747
G01 X622.707 Y785.720
G01 X640.981 Y819.914
G01 X651.456 Y858.645
G01 X653.214 Y899.946
G01 X645.831 Y941.686
G01 X629.410 Y981.692
G01 X604.572 Y1017.875
G01 X572.418 Y1048.354
G01 X534.471 Y1071.566
G01 X492.581 Y1086.356
G01 X448.824 Y1092.047
G01 X405.374 Y1088.474
G01 X364.382 Y1076.000
G01 X327.846 Y1055.490
G01 X297.498 Y1028.261
G01 X274.703 Y996.006
G01 X260.375 Y960.692
G01 X254.933 Y924.443
G01 X258.268 Y889.421
G01 X269.757 Y857.695
G01 X288.299 Y831.116
G01 X312.377 Y811.217
G01 X340.154 Y799.114
G01 X369.578 Y795.449
G01 X398.505 Y800.344
G01 X424.825 Y813.402
G01 X446.587 Y833.724
G01 X462.116 Y859.967
G01 X470.110 Y890.421
G01 X469.720 Y923.110
G01 X460.597 Y955.909
G01 X442.919 Y986.669
G01 X417.376 Y1013.346
G01 X385.131 Y1034.116
G01 X347.756 Y1047.490
G01 X307.138 Y1052.397
G01 X265.367 Y1048.249
G01 X224.617 Y1034.977
G01 X187.018 Y1013.036
G01 X154.529 Y983.377
G01 X128.828 Y947.395
G01 X111.211 Y906.845
G01 X102.514 Y863.740
G01 X103.070 Y820.237
G01 X112.687 Y778.508
G01 X130.657 Y740.611
G01 X155.801 Y708.377
G01 X186.539 Y683.298
G01 X220.982 Y666.441
G01 X257.041 Y658.388
G01 X292.553 Y659.200
G01 X325.407 Y668.417
G01 X353.668 Y685.086
G01 X375.689 Y707.815
G01 X390.212 Y734.860
G01 X396.437 Y764.224
G01 X394.071 Y793.778
G01 X383.346 Y821.386
G01 X365.002 Y845.033
G01 X340.248 Y862.942
G01 X310.685 Y873.681
G01 X278.217 Y876.246
G01 X244.932 Y870.124
G01 X212.988 Y855.319
G01 X184.477 Y832.360
G01 X161.307 Y802.262
G01 X145.086 Y766.474
G01 X137.030 Y726.792
G01 X137.889 Y685.253
G01 X147.900 Y644.017
G01 X166.780 Y605.242
G01 X193.732 Y570.955
G01 X227.499 Y542.938
G01 X266.433 Y522.617
G01 X308.591 Y510.985
G01 X351.851 Y508.542
G01 X394.033 Y515.263
G01 X433.027 Y530.606
G01 X466.920 Y553.537
G01 X494.098 Y582.598
G01 X513.351 Y615.986
G01 X523.936 Y651.666
G01 X525.621 Y687.483
G01 X518.700 Y721.298
G01 X503.973 Y751.105
G01 X482.699 Y775.153
G01 X456.518 Y792.048
G01 X427.360 Y800.837
G01 X397.324 Y801.061
G01 X368.559 Y792.781
G01 X343.132 Y776.577
G01 X322.911 Y753.514
G01 X309.451 Y725.076
G01 X303.901 Y693.079
G01 X306.940 Y659.569
G01 X318.731 Y626.692
G01 X338.915 Y596.579
G01 X366.628 Y571.208
G01 X400.554 Y552.298
G01 X439.000 Y541.201
G01 X479.995 Y538.823
G01 X521.403 Y545.573
G01 X561.054 Y561.335
G01 X596.864 Y585.476
G01 X626.960 Y616.880
G01 X649.792 Y654.018
G01 X664.218 Y695.031
G01 X669.575 Y737.842
G01 X665.716 Y780.277
G01 X653.020 Y820.191
G01 X632.366 Y855.593
G01 X605.084 Y884.764
G01 X572.875 Y906.354
G01 X537.712 Y919.464
G01 X501.725 Y923.694
G01 X467.071 Y919.171
G01 X435.815 Y906.534
G01 X409.799 Y886.902
G01 X390.543 Y861.802
G01 X379.151 Y833.084
G01 X376.245 Y802.804
G01 X381.933 Y773.110
G01 X395.799 Y746.111
G01 X416.930 Y723.752
G01 X443.968 Y707.701
G01 X475.193 Y699.247
G01 X508.621 Y699.228
G01 X542.123 Y707.976
G01 X573.550 Y725.301
G01 X600.859 Y750.499
G01 X622.236 Y782.394
G01 X636.199 Y819.403
G01 X641.690 Y859.634
G01 X638.136 Y900.992
G01 X625.480 Y941.305
G01 X604.192 Y978.446
G01 X575.234 Y1010.463
G01 X540.012 Y1035.690
G01 X500.288 Y1052.844
G01 X458.081 Y1061.104
G01 X415.545 Y1060.152
G01 X374.849 Y1050.199
G01 X338.046 Y1031.965
G01 X306.955 Y1006.643
G01 X283.054 Y975.825
G01 X267.393 Y941.406
G01 X260.537 Y905.480
G01 X262.530 Y870.209
G01 X272.894 Y837.700
G01 X290.659 Y809.881
G01 X314.421 Y788.386
G01 X342.422 Y774.461
G01 X372.658 Y768.890
G01 X402.998 Y771.948
G01 X431.305 Y783.388
G01 X455.568 Y802.452
G01 X474.017 Y827.918
G01 X485.229 Y858.172
G01 X488.214 Y891.303
G01 X482.472 Y925.215
G01 X468.024 Y957.751
G01 X445.410 Y986.819
G01 X415.659 Y1010.519
G01 X380.232 Y1027.250
G01 X340.931 Y1035.809
G01 X299.798 Y1035.458
G01 X258.994 Y1025.973
G01 X220.674 Y1007.654
G01 X186.860 Y981.308
G01 X159.321 Y948.205
G01 X139.474 Y910.000
G01 X128.294 Y868.642
G01 X126.267 Y826.254
G01 X133.352 Y785.014
G01 X148.990 Y747.024
G01 X172.134 Y714.191
G01 X201.314 Y688.113
G01 X234.719 Y669.986
G01 X270.307 Y660.535
G01 X305.925 Y659.975
G01 X339.434 Y667.993
G01 X368.835 Y683.773
G01 X392.388 Y706.042
G01 X408.712 Y733.147
G01 X416.869 Y763.149
G01 X416.414 Y793.943
G01 X407.429 Y823.381
G01 X390.508 Y849.396
G01 X366.732 Y870.128
G01 X337.596 Y884.031
G01 X304.928 Y889.967
G01 X270.779 Y887.272
G01 X237.299 Y875.796
G01 X206.616 Y855.913
G01 X180.705 Y828.500
G01 X161.276 Y794.884
G01 X149.671 Y756.768
G01 X146.783 Y716.129
G01 X153.007 Y675.102
G01 X168.213 Y635.859
G01 X191.754 Y600.477
G01 X222.504 Y570.819
G01 X258.923 Y548.424
G01 X299.147 Y534.421
G01 X341.095 Y529.455
G01 X382.595 Y533.658
G01 X421.507 Y546.635
G01 X455.848 Y567.493
G01 X483.911 Y594.889
G01 X504.361 Y627.112
G01 X516.315 Y662.182
G01 X519.392 Y697.968
G01 X513.735 Y732.312
G01 X500.003 Y763.158
G01 X479.327 Y788.670
G01 X453.251 Y807.340
G01 X423.631 Y818.081
G01 X392.533 Y820.284
G01 X362.106 Y813.860
G01 X334.457 Y799.241
G01 X311.528 Y777.354
G01 X294.976 Y749.572
G01 X286.081 Y717.627
G01 X285.666 Y683.508
G01 X294.052 Y649.349
G01 X311.031 Y617.300
G01 X335.888 Y589.399
G01 X367.432 Y567.453
G01 X404.073 Y552.935
G01 X443.912 Y546.889
G01 X484.851 Y549.877
G01 X524.716 Y561.940
G01 X561.388 Y582.595
G01 X592.920 Y610.867
G01 X617.658 Y645.341
G01 X634.334 Y684.246
G01 X642.140 Y725.561
G01 X640.775 Y767.130
G01 X630.467 Y806.788
G01 X611.951 Y842.490
G01 X586.432 Y872.428
G01 X555.514 Y895.138
G01 X521.101 Y909.585
G01 X485.288 Y915.222
G01 X450.238 Y912.024
G01 X418.055 Y900.485
G01 X390.658 Y881.591
G01 X369.671 Y856.762
G01 X356.325 Y827.766
G01 X351.390 Y796.614
G01 X355.123 Y765.441
G01 X367.261 Y736.385
G01 X387.030 Y711.453
G01 X413.194 Y692.407
G01 X444.127 Y680.660
G01 X477.909 Y677.189
G01 X512.440 Y682.480
G01 X545.561 Y696.499
G01 X575.183 Y718.691
G01 X599.412 Y748.014
G01 X616.655 Y782.998
G01 X625.722 Y821.832
G01 X625.888 Y862.470
G01 X616.943 Y902.750
G01 X599.200 Y940.521
G01 X573.481 Y973.768
G01 X541.065 Y1000.731
G01 X503.617 Y1020.008
G01 X463.089 Y1030.635
G01 X421.608 Y1032.146
G01 X381.347 Y1024.597
G01 X344.405 Y1008.562
G01 X312.677 Y985.103
G01 X287.747 Y955.701
G01 X270.798 Y922.177
G01 X262.538 Y886.577
G01 X263.161 Y851.056
G01 X272.340 Y817.750
G01 X289.239 Y788.651
G01 X312.572 Y765.490
G01 X340.673 Y749.634
G01 X371.595 Y742.007
G01 X403.229 Y743.037
G01 X433.423 Y752.626
G01 X460.115 Y770.163
G01 X481.450 Y794.553
G01 X495.891 Y824.288
G01 X502.313 Y857.530
G01 X500.064 Y892.224
G01 X489.010 Y926.215
G01 X469.538 Y957.377
G01 X442.539 Y983.741
G01 X409.350 Y1003.604
G01 X371.684 Y1015.636
G01 X331.523 Y1018.956
G01 X291.004 Y1013.184
G01 X252.295 Y998.463
G01 X217.469 Y975.453
G01 X188.380 Y945.293
G01 X166.556 Y909.533
G01 X153.108 Y870.042
G01 X148.668 Y828.903
G01 X153.351 Y788.289
G01 X166.746 Y750.334
G01 X187.944 Y717.011
G01 X215.591 Y690.018
G01 X247.964 Y670.672
G01 X283.079 Y659.842
G01 X318.802 Y657.889
G01 X352.975 Y664.653
G01 X383.548 Y679.460
G01 X408.693 Y701.159
G01 X426.917 Y728.197
G01 X437.143 Y758.706
G01 X438.781 Y790.614
G01 X431.757 Y821.770
G01 X416.519 Y850.068
G01 X394.013 Y873.572
G01 X365.621 Y890.632
G01 X333.086 Y899.979
G01 X298.407 Y900.803
G01 X263.720 Y892.800
G01 X231.173 Y876.188
G01 X202.803 Y851.699
G01 X180.409 Y820.533
G01 X165.452 Y784.291
G01 X158.966 Y744.879
G01 X161.498 Y704.398
G01 X173.075 Y665.019
G01 X193.201 Y628.859
G01 X220.887 Y597.855
G01 X254.708 Y573.651
G01 X292.887 Y557.500
G01 X333.398 Y550.196
G01 X374.084 Y552.022
G01 X412.786 Y562.735
G01 X447.465 Y581.583
G01 X476.324 Y607.348
G01 X497.914 Y638.416
G01 X511.214 Y672.876
G01 X515.696 Y708.627
G01 X511.353 Y743.507
G01 X498.696 Y775.416
G01 X478.728 Y802.443
G01 X452.882 Y822.974
G01 X422.937 Y835.791
G01 X390.911 Y840.143
G01 X358.946 Y835.785
G01 X329.175 Y822.999
G01 X303.605 Y802.575
G01 X283.989 Y775.762
G01 X271.729 Y744.196
G01 X267.791 Y709.808
G01 X272.648 Y674.701
G01 X286.249 Y641.036
G01 X308.027 Y610.899
G01 X336.927 Y586.177
G01 X371.468 Y568.454
G01 X409.834 Y558.909
G01 X449.972 Y558.252
G01 X489.721 Y566.680
G01 X526.934 Y583.865
G01 X559.602 Y608.974
G01 X585.976 Y640.715
G01 X604.666 Y677.415
G01 X614.725 Y717.117
G01 X615.703 Y757.692
G01 X607.670 Y796.970
G01 X591.219 Y832.859
G01 X567.425 Y863.472
G01 X537.782 Y887.239
G01 X504.117 Y902.994
G01 X468.483 Y910.044
G01 X433.037 Y908.214
G01 X399.911 Y897.848
G01 X371.091 Y879.799
G01 X348.299 Y855.368
G01 X332.888 Y826.233
G01 X325.769 Y794.348
G01 X327.351 Y761.831
G01 X337.522 Y730.831
G01 X355.654 Y703.409
G01 X380.638 Y681.415
G01 X410.952 Y666.374
G01 X444.751 Y659.402
G01 X479.972 Y661.135
G01 X514.459 Y671.694
G01 X546.089 Y690.678
G01 X572.896 Y717.183
G01 X593.186 Y749.860
G01 X605.641 Y786.989
G01 X609.392 Y826.582
G01 X604.074 Y866.501
G01 X589.843 Y904.580
G01 X567.375 Y938.752
G01 X537.818 Y967.172
G01 X502.732 Y988.326
G01 X463.994 Y1001.116
G01 X423.688 Y1004.925
G01 X383.986 Y999.658
G01 X347.018 Y985.739
G01 X314.748 Y964.093
G01 X288.861 Y936.088
G01 X270.660 Y903.455
G01 X260.997 Y868.186
G01 X260.216 Y832.418
G01 X268.138 Y798.305
G01 X284.072 Y767.894
G01 X306.853 Y743.004
G01 X334.913 Y725.118
G01 X366.376 Y715.295
G01 X399.163 Y714.111
G01 X431.120 Y721.624
G01 X460.142 Y737.369
G01 X484.300 Y760.386
G01 X501.951 Y789.279
G01 X511.839 Y822.295
G01 X513.164 Y857.429
G01 X505.638 Y892.541
G01 X489.493 Y925.482
G01 X465.474 Y954.222
G01 X434.794 Y976.967
G01 X399.061 Y992.267
G01 X360.189 Y999.102
G01 X320.281 Y996.937
G01 X281.507 Y985.761
G01 X245.979 Y966.083
G01 X215.625 Y938.905
G01 X192.078 Y905.662
G01 X176.579 Y868.137
G01 X169.903 Y828.363
G01 X172.318 Y788.494
G01 X183.565 Y750.687
G01 X202.876 Y716.973
G01 X229.018 Y689.138
G01 X260.369 Y668.618
G01 X295.007 Y656.417
G01 X330.829 Y653.044
G01 X365.672 Y658.491
G01 X397.441 Y672.228
G01 X424.232 Y693.236
G01 X444.442 Y720.068
G01 X456.866 Y750.935
G01 X460.768 Y783.810
G01 X455.920 Y816.549
G01 X442.620 Y847.017
G01 X421.674 Y873.213
G01 X394.343 Y893.391
G01 X362.278 Y906.159
G01 X327.413 Y910.563
G01 X291.859 Y906.145
G01 X257.776 Y892.969
G01 X227.247 Y871.616
G01 X202.155 Y843.154
G01 X184.070 Y809.073
G01 X174.163 Y771.198
G01 X173.128 Y731.583
G01 X181.149 Y692.391
G01 X197.884 Y655.766
G01 X222.485 Y623.708
G01 X253.650 Y597.957
G01 X289.697 Y579.887
G01 X328.665 Y570.432
G01 X368.423 Y570.027
G01 X406.804 Y578.581
G01 X441.721 Y595.487
G01 X471.299 Y619.658
G01 X493.979 Y649.585
G01 X508.611 Y683.432
G01 X514.520 Y719.143
G01 X511.547 Y754.558
G01 X500.057 Y787.547
G01 X480.915 Y816.132
G01 X455.441 Y838.600
G01 X425.323 Y853.610
G01 X392.524 Y860.268
G01 X359.165 Y858.178
G01 X327.400 Y847.470
G01 X299.284 Y828.788
G01 X276.662 Y803.255
G01 X261.049 Y772.403
G01 X253.549 Y738.090
G01 X254.786 Y702.381
G01 X264.865 Y667.435
G01 X283.372 Y635.374
G01 X309.391 Y608.158
G01 X341.560 Y587.471
G01 X378.153 Y574.622
G01 X417.177 Y570.465
G01 X456.491 Y575.352
G01 X493.931 Y589.111
G01 X527.439 Y611.054
G01 X555.178 Y640.019
G01 X575.647 Y674.439
G01 X587.762 Y712.430
G01 X590.924 Y751.904
G01 X585.052 Y790.692
G01 X570.590 Y826.668
G01 X548.475 Y857.876
G01 X520.089 Y882.646
G01 X487.173 Y899.686
G01 X451.726 Y908.164
G01 X415.887 Y907.752
G01 X381.810 Y898.646
G01 X351.535 Y881.556
G01 X326.874 Y857.661
G01 X309.296 Y828.542
G01 X299.849 Y796.087
G01 X299.092 Y762.377
G01 X307.066 Y729.572
G01 X323.291 Y699.773
G01 X346.792 Y674.906
G01 X376.160 Y656.603
G01 X409.632 Y646.112
G01 X445.196 Y644.217
G01 X480.710 Y651.194
G01 X514.024 Y666.796
G01 X543.115 Y690.265
G01 X566.195 Y720.377
G01 X581.825 Y755.513
G01 X588.997 Y793.755
G01 X587.192 Y832.998
G01 X576.412 Y871.071
G01 X557.180 Y905.869
G01 X530.511 Y935.471
G01 X497.850 Y958.256
G01 X460.989 Y973.000
G01 X421.962 Y978.940
G01 X382.925 Y975.828
G01 X346.032 Y963.938
G01 X313.305 Y944.054
G01 X286.519 Y917.422
G01 X267.096 Y885.676
G01 X256.024 Y850.746
G01 X253.796 Y814.738
G01 X260.384 Y779.816
G01 X275.241 Y748.070
G01 X297.333 Y721.399
G01 X325.199 Y701.393
G01 X357.039 Y689.243
G01 X390.818 Y685.673
G01 X424.389 Y690.892
G01 X455.618 Y704.587
G01 X482.507 Y725.937
G01 X503.318 Y753.667
G01 X516.668 Y786.116
G01 X521.618 Y821.341
G01 X517.722 Y857.227
G01 X505.057 Y891.615
G01 X484.220 Y922.424
G01 X456.290 Y947.779
G01 X422.768 Y966.118
G01 X385.484 Y976.284
G01 X346.497 Y977.595
G01 X307.970 Y969.883
G01 X272.042 Y953.505
G01 X240.707 Y929.320
G01 X215.692 Y898.642
G01 X198.360 Y863.162
G01 X189.628 Y824.846
G01 X189.913 Y785.825
G01 X199.110 Y748.267
G01 X216.595 Y714.249
G01 X241.264 Y685.637
G01 X271.599 Y663.978
G01 X305.755 Y650.406
G01 X341.668 Y645.579
G01 X377.179 Y649.637
G01 X410.161 Y662.200
G01 X438.639 Y682.383
G01 X460.913 Y708.854
G01 X475.652 Y739.913
G01 X481.978 Y773.587
G01 X479.511 Y807.751
G01 X468.397 Y840.251
G01 X449.295 Y869.033
G01 X423.342 Y892.260
G01 X392.083 Y908.425
G01 X357.382 Y916.437
G01 X321.313 Y915.686
G01 X286.034 Y906.078
G01 X253.665 Y888.045
G01 X226.162 Y862.513
G01 X205.198 Y830.855
G01 X192.071 Y794.806
G01 X187.622 Y756.363
G01 X192.189 Y717.668
G01 X205.583 Y680.881
G01 X227.105 Y648.057
G01 X255.581 Y621.019
G01 X289.433 Y601.259
G01 X326.771 Y589.844
G01 X365.505 Y587.356
G01 X403.466 Y593.860
G01 X438.535 Y608.896
G01 X468.765 Y631.510
G01 X492.495 Y660.309
G01 X508.450 Y693.540
G01 X515.814 Y729.200
G01 X514.277 Y765.145
G01 X504.053 Y799.223
G01 X485.869 Y829.398
G01 X460.919 Y853.868
G01 X430.797 Y871.175
G01 X397.399 Y880.285
G01 X362.815 Y880.654
G01 X329.205 Y872.258
G01 X298.669 Y855.593
G01 X273.127 Y831.647
G01 X254.205 Y801.843
G01 X243.137 Y767.953
G01 X240.695 Y731.995
G01 X247.141 Y696.115
G01 X262.215 Y662.459
G01 X285.145 Y633.050
G01 X314.695 Y609.664
G01 X349.238 Y593.731
G01 X386.850 Y586.246
G01 X425.423 Y587.713
G01 X462.789 Y598.116
G01 X496.847 Y616.916
G01 X525.686 Y643.088
G01 X547.697 Y675.176
G01 X561.668 Y711.380
G01 X566.856 Y749.662
G01 X563.027 Y787.865
G01 X550.472 Y823.841
G01 X529.992 Y855.575
G01 X502.846 Y881.301
G01 X470.681 Y899.613
G01 X435.432 Y909.539
G01 X399.210 Y910.603
G01 X364.180 Y902.850
G01 X332.428 Y886.846
G01 X305.845 Y863.640
G01 X286.011 Y834.706
G01 X274.105 Y801.857
G01 X270.833 Y767.132
G01 X276.390 Y732.683
G01 X290.446 Y700.645
G01 X312.167 Y673.009
G01 X340.262 Y651.508
G01 X373.062 Y637.514
G01 X408.615 Y631.953
G01 X444.804 Y635.258
G01 X479.466 Y647.336
G01 X510.528 Y667.579
G01 X536.119 Y694.895
G01 X554.688 Y727.773
G01 X565.092 Y764.376
G01 X566.661 Y802.642
G01 X559.242 Y840.409
G01 X543.207 Y875.541
G01 X519.429 Y906.053
G01 X489.231 Y930.227
G01 X454.314 Y946.716
G01 X416.649 Y954.618
G01 X378.369 Y953.532
G01 X341.638 Y943.581
G01 X308.527 Y925.405
G01 X280.894 Y900.122
G01 X260.271 Y869.263
G01 X247.776 Y834.682
G01 X244.051 Y798.447
G01 X249.220 Y762.720
G01 X262.881 Y729.627
G01 X284.136 Y701.133
G01 X311.639 Y678.931
G01 X343.675 Y664.338
G01 X378.266 Y658.219
G01 X413.280 Y660.938
G01 X446.564 Y672.333
G01 X476.064 Y691.730
G01 X499.953 Y717.977
G01 X516.732 Y749.518
G01 X525.322 Y784.481
G01 X525.125 Y820.788
G01 X516.063 Y856.277
G01 X498.580 Y888.832
G01 X473.616 Y916.505
G01 X442.555 Y937.628
G01 X407.138 Y950.918
G01 X369.368 Y955.547
G01 X331.386 Y951.191
G01 X295.352 Y938.054
G01 X263.311 Y916.848
G01 X237.079 Y888.761
G01 X218.133 Y855.380
G01 X207.524 Y818.600
G01 X205.820 Y780.513
G01 X213.067 Y743.289
G01 X228.789 Y709.041
G01 X252.017 Y679.708
G01 X281.344 Y656.938
G01 X315.008 Y641.990
G01 X350.998 Y635.666
G01 X387.168 Y638.257
G01 X421.368 Y649.531
G01 X451.565 Y668.745
G01 X475.967 Y694.690
G01 X493.126 Y725.758
G01 X502.023 Y760.044
G01 X502.130 Y795.452
G01 X493.438 Y829.822
G01 X476.457 Y861.052
G01 X452.192 Y887.230
G01 X422.077 Y906.738
G01 X387.893 Y918.353
G01 X351.666 Y921.316
G01 X315.542 Y915.379
G01 X281.668 Y900.816
G01 X252.059 Y878.412
G01 X228.486 Y849.414
G01 X212.365 Y815.458
G01 X204.680 Y778.474
G01 X205.919 Y740.571
G01 X216.053 Y703.915
G01 X234.527 Y670.604
G01 X260.305 Y642.537
G01 X291.918 Y621.312
G01 X327.560 Y608.126
G01 X365.190 Y603.707
G01 X402.650 Y608.271
G01 X437.796 Y621.509
G01 X468.619 Y642.606
G01 X493.367 Y670.287
G01 X510.646 Y702.897
G01 X519.500 Y738.490
G01 X519.471 Y774.951
G01 X510.622 Y810.117
G01 X493.534 Y841.904
G01 X469.275 Y868.428
G01 X439.332 Y888.121
G01 X405.527 Y899.817
G01 X369.907 Y902.824
G01 X334.627 Y896.962
G01 X301.822 Y882.578
G01 X273.478 Y860.521
G01 X251.322 Y832.094
G01 X236.713 Y798.977
G01 X230.567 Y763.128
G01 X233.301 Y726.670
G01 X244.811 Y691.763
G01 X264.473 Y660.478
G01 X291.183 Y634.678
G01 X323.423 Y615.903
G01 X359.347 Y605.286
G01 X396.890 Y603.479
G01 X433.891 Y610.622
G01 X468.219 Y626.330
G01 X497.896 Y649.715
G01 X521.217 Y679.441
G01 X536.847 Y713.802
G01 X543.900 Y750.819
G01 X541.993 Y788.359
G01 X531.266 Y824.260
G01 X512.375 Y856.458
G01 X486.453 Y883.105
G01 X455.042 Y902.681
G01 X420.007 Y914.083
G01 X383.421 Y916.688
G01 X347.446 Y910.389
G01 X314.207 Y895.604
G01 X285.663 Y873.249
G01 X263.497 Y844.685
G01 X249.014 Y811.636
G01 X243.064 Y776.091
G01 X245.996 Y740.185
G01 X257.633 Y706.072
G01 X277.284 Y675.802
G01 X303.785 Y651.197
G01 X335.569 Y633.746
G01 X370.754 Y624.517
G01 X407.259 Y624.092
G01 X442.921 Y632.537
G01 X475.626 Y649.394
G01 X503.431 Y673.710
G01 X524.681 Y704.091
G01 X538.103 Y738.789
G01 X542.882 Y775.796
G01 X538.711 Y812.969
G01 X525.806 Y848.154
G01 X504.896 Y879.310
G01 X477.179 Y904.634
G01 X444.251 Y922.662
G01 X408.016 Y932.356
G01 X370.567 Y933.166
G01 X334.073 Y925.064
G01 X300.641 Y908.542
G01 X272.203 Y884.585
G01 X250.393 Y854.613
G01 X236.458 Y820.397
G01 X231.180 Y783.956
G01 X234.835 Y747.438
G01 X247.173 Y712.994
G01 X267.433 Y682.649
G01 X294.391 Y658.189
G01 X326.429 Y641.050
G01 X361.630 Y632.236
G01 X397.893 Y632.262
G01 X433.055 Y641.120
G01 X465.018 Y658.284
G01 X491.874 Y682.737
G01 X512.015 Y713.031
G01 X524.227 Y747.377
G01 X527.766 Y783.744
G01 X522.396 Y819.981
G01 X508.407 Y853.945
G01 X486.596 Y883.624
G01 X458.221 Y907.259
G01 X424.927 Y923.443
G01 X388.648 Y931.206
G01 X351.497 Y930.074
G01 X315.638 Y920.093
G01 X283.160 Y901.829
G01 X255.956 Y876.335
G01 X235.610 Y845.087
G01 X223.305 Y809.899
G01 X219.752 Y772.818
G01 X225.150 Y736.000
G01 X239.173 Y701.587
G01 X260.990 Y671.578
G01 X289.313 Y647.716
G01 X322.473 Y631.381
G01 X358.519 Y623.511
G01 X395.330 Y624.549
G01 X430.743 Y634.414
G01 X462.677 Y652.506
G01 X489.258 Y677.743
G01 X508.925 Y708.625
G01 X520.527 Y743.318
G01 X523.386 Y779.769
G01 X517.339 Y815.819
G01 X502.747 Y849.336
G01 X480.473 Y878.335
G01 X451.834 Y901.099
G01 X418.520 Y916.279
G01 X382.495 Y922.971
G01 X345.886 Y920.771
G01 X310.852 Y909.799
G01 X279.461 Y890.691
G01 X253.567 Y864.563
G01 X234.700 Y832.942
G01 X223.980 Y797.682
G01 X222.045 Y760.849
G01 X229.019 Y724.605
G01 X244.503 Y691.075
G01 X267.595 Y662.230
G01 X296.949 Y639.763
G01 X330.849 Y624.995
G01 X367.311 Y618.794
G01 X404.202 Y621.529
G01 X439.361 Y633.041
G01 X470.729 Y652.658
G01 X496.471 Y679.232
G01 X515.079 Y711.209
G01 X525.465 Y746.714
G01 X527.022 Y783.669
G01 X519.663 Y819.911
G01 X503.821 Y853.318
G01 X480.430 Y881.934
G01 X450.864 Y904.088
G01 X416.859 Y918.487
G01 X380.413 Y924.294
G01 X343.663 Y921.176
G01 X308.766 Y909.326
G01 X277.767 Y889.450
G01 X252.483 Y862.724
G01 X234.393 Y830.727
G01 X224.551 Y795.348
G01 X223.528 Y758.674
G01 X231.376 Y722.868
G01 X247.622 Y690.040
G01 X271.301 Y662.126
G01 X301.010 Y640.774
G01 X334.991 Y627.243
G01 X371.234 Y622.333
G01 X407.595 Y626.338
G01 X441.923 Y639.025
G01 X472.185 Y659.653
G01 X496.588 Y687.010
G01 X513.680 Y719.491
G01 X522.441 Y755.186
G01 X522.337 Y791.999
G01 X513.357 Y827.763
G01 X496.010 Y860.374
G01 X471.296 Y887.911
G01 X440.649 Y908.752
G01 X405.850 Y921.663
G01 X368.925 Y925.879
G01 X332.025 Y921.142
G01 X297.299 Y907.720
G01 X266.769 Y886.389
G01 X242.211 Y858.390
G01 X225.050 Y825.353
G01 X216.277 Y789.202
G01 X216.391 Y752.046
G01 X225.371 Y716.049
G01 X242.672 Y683.307
G01 X267.265 Y655.723
G01 X297.692 Y634.895
G01 X332.153 Y622.027
G01 X368.611 Y617.849
G01 X404.915 Y622.583
G01 X438.923 Y635.927
G01 X468.630 Y657.069
G01 X492.283 Y684.741
G01 X508.488 Y717.289
G01 X516.290 Y752.774
G01 X515.228 Y789.083
G01 X505.363 Y824.052
G01 X487.277 Y855.598
G01 X462.035 Y881.838
G01 X431.124 Y901.201
G01 X396.365 Y912.519
G01 X359.809 Y915.097
G01 X323.613 Y908.754
G01 X289.914 Y893.832
G01 X260.705 Y871.180
G01 X237.716 Y842.099
G01 X222.314 Y808.269
G01 X215.423 Y771.650
G01 X217.466 Y734.366
G01 X228.344 Y698.581
G01 X247.442 Y666.372
G01 X273.663 Y639.606
G01 X305.491 Y619.834
G01 X341.084 Y608.194
G01 X378.381 Y605.350
G01 X415.221 Y611.449
G01 X449.470 Y626.114
G01 X479.152 Y648.468
G01 X502.554 Y677.183
G01 X518.340 Y710.558
G01 X525.617 Y746.621
G01 X523.995 Y783.245
G01 X513.609 Y818.270
G01 X495.107 Y849.632
G01 X469.616 Y875.487
G01 X438.675 Y894.314
G01 X404.142 Y905.007
G01 X368.087 Y906.942
G01 X332.670 Y900.010
G01 X300.013 Y884.626
G01 X272.076 Y861.704
G01 X250.542 Y832.603
G01 X236.717 Y799.047
G01 X231.455 Y763.025
G01 X235.104 Y726.673
G01 X247.491 Y692.147
G01 X267.925 Y661.500
G01 X295.245 Y636.559
G01 X327.882 Y618.818
G01 X363.955 Y609.350
G01 X401.379 Y608.744
G01 X437.989 Y617.071
G01 X471.665 Y633.879
G01 X500.459 Y658.219
G01 X522.707 Y688.703
G01 X537.130 Y723.583
G01 X542.903 Y760.854
G01 X539.710 Y798.374
G01 X527.759 Y833.986
G01 X507.769 Y865.648
G01 X480.932 Y891.550
G01 X448.835 Y910.223
G01 X413.377 Y920.624
G01 X376.646 Y922.196
G01 X340.808 Y914.902
G01 X307.969 Y899.227
G01 X280.059 Y876.148
G01 X258.713 Y847.080
G01 X245.180 Y813.787
G01 X240.246 Y778.284
G01 X244.188 Y742.714
G01 X256.759 Y709.226
G01 X277.203 Y679.843
G01 X304.297 Y656.350
G01 X336.426 Y640.184
G01 X371.674 Y632.351
G01 X407.940 Y633.365
G01 X443.060 Y643.222
G01 X474.935 Y661.396
G01 X501.653 Y686.869
G01 X521.602 Y718.196
G01 X533.566 Y753.585
G01 X536.793 Y791.003
G01 X531.045 Y828.296
G01 X516.606 Y863.317
G01 X494.270 Y894.048
G01 X465.290 Y918.721
G01 X431.311 Y935.922
G01 X394.266 Y944.674
G01 X356.267 Y944.493
G01 X319.482 Y935.416
G01 X286.004 Y918.000
G01 X257.729 Y893.291
G01 X236.250 Y862.757
G01 X222.755 Y828.207
G01 X217.964 Y791.683
G01 X222.084 Y755.337
G01 X234.798 Y721.309
G01 X255.284 Y691.599
G01 X282.261 Y667.950
G01 X314.069 Y651.744
G01 X348.761 Y643.923
G01 X384.223 Y644.933
G01 X418.295 Y654.696
G01 X448.900 Y672.617
G01 X474.163 Y697.619
G01 X492.527 Y728.202
G01 X502.839 Y762.537
G01 X504.421 Y798.571
G01 X497.108 Y834.147
G01 X481.262 Y867.130
G01 X457.746 Y895.536
G01 X427.876 Y917.645
G01 X393.343 Y932.104
G01 X356.114 Y938.006
G01 X318.319 Y934.944
G01 X282.123 Y923.035
G01 X249.597 Y902.910
G01 X222.603 Y875.683
G01 X202.681 Y842.882
G01 X190.956 Y806.359
G01 X188.077 Y768.182
G01 X194.176 Y730.516
G01 X208.863 Y695.491
G01 X231.245 Y665.082
G01 X259.981 Y640.991
G01 X293.362 Y624.546
G01 X329.410 Y616.626
G01 X365.994 Y617.607
G01 X400.955 Y627.341
G01 X432.236 Y645.165
G01 X457.999 Y669.942
G01 X476.734 Y700.125
G01 X487.350 Y733.847
G01 X489.236 Y769.037
G01 X482.300 Y803.536
G01 X466.971 Y835.227
G01 X444.177 Y862.158
G01 X415.289 Y882.658
G01 X382.040 Y895.436
G01 X346.422 Y899.654
G01 X310.574 Y894.982
G01 X276.650 Y881.610
G01 X246.697 Y860.245
G01 X222.531 Y832.065
G01 X205.633 Y798.648
G01 X197.061 Y761.887
G01 X197.388 Y723.872
G01 X206.666 Y686.769
G01 X224.427 Y652.697
G01 X249.706 Y623.597
G01 X281.100 Y601.123
G01 X316.851 Y586.545
G01 X354.947 Y580.671
G01 X393.240 Y583.803
G01 X429.574 Y595.718
G01 X461.909 Y615.682
G01 X488.444 Y642.492
G01 X507.719 Y674.547
G01 X518.702 Y709.945
G01 X520.851 Y746.590
G01 X514.142 Y782.320
G01 X499.074 Y815.030
G01 X476.636 Y842.798
G01 X448.253 Y863.998
G01 X415.697 Y877.396
G01 X380.985 Y882.220
G01 X346.262 Y878.207
G01 X313.672 Y865.620
G01 X285.231 Y845.229
G01 X262.713 Y818.270
G01 X247.542 Y786.368
G01 X240.706 Y751.445
G01 X242.705 Y715.604
G01 X253.514 Y681.009
G01 X272.592 Y649.753
G01 X298.905 Y623.741
G01 X330.995 Y604.571
G01 X367.059 Y593.446
G01 X405.057 Y591.100
G01 X442.833 Y597.755
G01 X478.240 Y613.110
G01 X509.265 Y636.353
G01 X534.149 Y666.217
G01 X551.488 Y701.046
G01 X560.319 Y738.898
G01 X560.171 Y777.653
G01 X551.099 Y815.145
G01 X533.673 Y849.282
G01 X508.953 Y878.173
G01 X478.417 Y900.235
G01 X443.884 Y914.292
G01 X407.399 Y919.635
G01 X371.118 Y916.072
G01 X337.176 Y903.934
G01 X307.568 Y884.057
G01 X284.027 Y857.730
G01 X267.924 Y826.624
G01 X260.186 Y792.689
G01 X261.243 Y758.041
G01 X271.003 Y724.837
G01 X288.855 Y695.148
G01 X313.709 Y670.839
G01 X344.056 Y653.455
G01 X378.058 Y644.133
G01 X413.658 Y643.533
G01 X448.698 Y651.804
G01 X481.048 Y668.566
G01 X508.731 Y692.940
G01 X530.038 Y723.596
G01 X543.630 Y758.831
G01 X548.616 Y796.669
G01 X544.605 Y834.977
G01 X531.732 Y871.592
G01 X510.645 Y904.441
G01 X482.474 Y931.673
G01 X448.758 Y951.758
G01 X411.360 Y963.582
G01 X372.355 Y966.511
G01 X333.910 Y960.428
G01 X298.154 Y945.739
G01 X267.057 Y923.350
G01 X242.313 Y894.613
G01 X225.240 Y861.247
G01 X216.704 Y825.237
G01 X217.066 Y788.715
G01 X226.166 Y753.839
G01 X243.328 Y722.662
G01 X267.401 Y697.012
G01 X296.830 Y678.388
G01 X329.743 Y667.869
G01 X364.066 Y666.048
G01 X397.640 Y673.004
G01 X428.355 Y688.291
G01 X454.267 Y710.969
G01 X473.718 Y739.654
G01 X485.430 Y772.605
G01 X488.582 Y807.824
G01 X482.862 Y843.171
G01 X468.477 Y876.494
G01 X446.152 Y905.753
G01 X417.077 Y929.141
G01 X382.847 Y945.190
G01 X345.360 Y952.858
G01 X306.713 Y951.588
G01 X269.076 Y941.345
G01 X234.562 Y922.615
G01 X205.109 Y896.379
G01 X182.361 Y864.052
G01 X167.575 Y827.404
G01 X161.546 Y788.455
G01 X164.561 Y749.357
G01 X176.383 Y712.266
G01 X196.262 Y679.217
G01 X222.984 Y652.005
G01 X254.938 Y632.081
G01 X290.213 Y620.462
G01 X326.711 Y617.680
G01 X362.270 Y623.743
G01 X394.789 Y638.138
G01 X422.353 Y659.865
G01 X443.348 Y687.489
G01 X456.550 Y719.231
G01 X461.204 Y753.069
G01 X457.063 Y786.860
G01 X444.405 Y818.463
G01 X424.014 Y845.869
G01 X397.138 Y867.316
G01 X365.412 Y881.395
G01 X330.765 Y887.131
G01 X295.304 Y884.044
G01 X261.190 Y872.174
G01 X230.512 Y852.082
G01 X205.165 Y824.816
G01 X186.736 Y791.848
G01 X176.415 Y754.992
G01 X174.917 Y716.293
G01 X182.449 Y677.911
G01 X198.691 Y641.993
G01 X222.816 Y610.547
G01 X253.542 Y585.323
G01 X289.201 Y567.714
G01 X327.843 Y558.671
G01 X367.342 Y558.648
G01 X405.532 Y567.578
G01 X440.322 Y584.874
G01 X469.828 Y609.465
G01 X492.476 Y639.859
G01 X507.100 Y674.233
G01 X513.007 Y710.534
G01 X510.017 Y746.608
G01 X498.475 Y780.320
G01 X479.230 Y809.683
G01 X453.582 Y832.973
G01 X423.209 Y848.832
G01 X390.066 Y856.347
G01 X356.271 Y855.103
G01 X323.979 Y845.209
G01 X295.253 Y827.289
G01 X271.948 Y802.448
G01 X255.596 Y772.205
G01 X247.319 Y738.405
G01 X247.761 Y703.111
G01 X257.051 Y668.480
G01 X274.793 Y636.638
G01 X300.091 Y609.555
G01 X331.602 Y588.929
G01 X367.610 Y576.086
G01 X406.133 Y571.901
G01 X445.032 Y576.747
G01 X482.142 Y590.473
G01 X515.397 Y612.413
G01 X542.950 Y641.423
G01 X563.283 Y675.951
G01 X575.295 Y714.124
G01 X578.364 Y753.861
G01 X572.390 Y792.993
G01 X557.792 Y829.391
G01 X535.491 Y861.091
G01 X506.850 Y886.407
G01 X473.597 Y904.031
G01 X437.723 Y913.112
G01 X401.362 Y913.300
G01 X366.670 Y904.770
G01 X335.694 Y888.213
G01 X310.256 Y864.788
G01 X291.840 Y836.062
G01 X281.512 Y803.910
G01 X279.852 Y770.412
G01 X286.921 Y737.721
G01 X302.258 Y707.946
G01 X324.909 Y683.021
G01 X353.480 Y664.590
G01 X386.219 Y653.918
G01 X421.123 Y651.808
G01 X456.051 Y658.556
G01 X488.854 Y673.935
G01 X517.497 Y697.207
G01 X540.183 Y727.162
G01 X555.457 Y762.197
G01 X562.292 Y800.402
G01 X560.149 Y839.675
G01 X549.008 Y877.846
G01 X529.374 Y912.801
G01 X502.241 Y942.611
G01 X469.040 Y965.639
G01 X431.551 Y980.641
G01 X391.801 Y986.834
G01 X351.946 Y983.947
G01 X314.142 Y972.233
G01 X280.420 Y952.453
G01 X252.568 Y925.837
G01 X232.026 Y894.003
G01 X219.801 Y858.869
G01 X216.408 Y822.538
G01 X221.844 Y787.170
G01 X235.582 Y754.862
G01 X256.609 Y727.521
G01 X283.480 Y706.752
G01 X314.410 Y693.762
G01 X347.373 Y689.294
G01 X380.226 Y693.579
G01 X410.833 Y706.324
G01 X437.192 Y726.729
G01 X457.551 Y753.533
G01 X470.517 Y785.091
G01 X475.131 Y819.469
G01 X470.930 Y854.558
G01 X457.972 Y888.195
G01 X436.835 Y918.298
G01 X408.582 Y942.979
G01 X374.700 Y960.664
G01 X337.011 Y970.179
G01 X297.570 Y970.822
G01 X258.537 Y962.405
G01 X222.061 Y945.265
G01 X190.142 Y920.244
G01 X164.525 Y888.639
G01 X146.591 Y852.130
G01 X137.277 Y812.676
G01 X137.024 Y772.406
G01 X145.749 Y733.489
G01 X162.852 Y698.012
G01 X187.247 Y667.854
G01 X217.434 Y644.579
G01 X251.579 Y629.341
G01 X287.628 Y622.820
G01 X323.424 Y625.183
G01 X356.836 Y636.070
G01 X385.884 Y654.621
G01 X408.853 Y679.523
G01 X424.399 Y709.091
G01 X431.623 Y741.366
G01 X430.125 Y774.228
G01 X420.030 Y805.526
G01 X401.978 Y833.203
G01 X377.086 Y855.414
G01 X346.885 Y870.640
G01 X313.228 Y877.776
G01 X278.181 Y876.193
G01 X243.902 Y865.782
G01 X212.513 Y846.955
G01 X185.978 Y820.624
G01 X165.982 Y788.148
G01 X153.838 Y751.253
G01 X150.406 Y711.931
G01 X156.042 Y672.323
G01 X170.578 Y634.595
G01 X193.331 Y600.810
G01 X223.142 Y572.808
G01 X258.447 Y552.097
G01 X297.363 Y539.766
G01 X337.804 Y536.422
G01 X377.597 Y542.151
G01 X414.616 Y556.519
G01 X446.901 Y578.592
G01 X472.775 Y606.995
G01 X490.941 Y639.991
G01 X500.560 Y675.586
G01 X501.297 Y711.641
G01 X493.341 Y746.004
G01 X477.394 Y776.633
G01 X454.629 Y801.715
G01 X426.621 Y819.778
G01 X395.251 Y829.770
G01 X362.599 Y831.126
G01 X330.821 Y823.803
G01 X302.016 Y808.274
G01 X278.110 Y785.510
G01 X260.737 Y756.917
G01 X251.145 Y724.253
G01 X250.121 Y689.529
G01 X257.942 Y654.887
G01 X274.365 Y622.473
G01 X298.634 Y594.317
G01 X329.526 Y572.205
G01 X365.422 Y557.580
G01 X404.406 Y551.454
G01 X444.368 Y554.349
G01 X483.137 Y566.268
G01 X518.603 Y586.691
G01 X548.839 Y614.605
G01 X572.221 Y648.569
G01 X587.514 Y686.791
G01 X593.950 Y727.235
G01 X591.272 Y767.745
G01 X579.748 Y806.164
G01 X560.153 Y840.465
G01 X533.728 Y868.866
G01 X502.102 Y889.939
G01 X467.199 Y902.688
G01 X431.123 Y906.612
G01 X396.036 Y901.729
G01 X364.030 Y888.578
G01 X337.003 Y868.186
G01 X316.548 Y842.006
G01 X303.861 Y811.831
G01 X299.668 Y779.690
G01 X304.185 Y747.725
G01 X317.101 Y718.069
G01 X337.604 Y692.715
G01 X364.420 Y673.403
G01 X395.893 Y661.514
G01 X430.083 Y657.990
G01 X464.877 Y663.276
G01 X498.114 Y677.295
G01 X527.717 Y699.454
G01 X551.806 Y728.673
G01 X568.819 Y763.452
G01 X577.596 Y801.958
G01 X577.452 Y842.130
G01 X568.215 Y881.803
G01 X550.240 Y918.832
G01 X524.383 Y951.219
G01 X491.958 Y977.228
G01 X454.654 Y995.490
G01 X414.439 Y1005.078
G01 X373.447 Y1005.568
G01 X333.847 Y997.057
G01 X297.725 Y980.160
G01 X266.951 Y955.973
G01 X243.081 Y926.008
G01 X227.258 Y892.107
G01 X220.149 Y856.328
G01 X221.904 Y820.828
G01 X232.152 Y787.734
G01 X250.020 Y759.020
G01 X274.184 Y736.389
G01 X302.950 Y721.174
G01 X334.356 Y714.259
G01 X366.280 Y716.028
G01 X396.576 Y726.339
G01 X423.191 Y744.538
G01 X444.292 Y769.493
G01 X458.373 Y799.663
G01 X464.344 Y833.188
G01 X461.596 Y867.996
G01 X450.034 Y901.931
G01 X430.090 Y932.872
G01 X402.692 Y958.864
G01 X369.212 Y978.232
G01 X331.389 Y989.677
G01 X291.223 Y992.354
G01 X250.859 Y985.925
G01 X212.463 Y970.574
G01 X178.096 Y947.000
G01 X149.589 Y916.376
G01 X128.442 Y880.281
G01 X115.730 Y840.605
G01 X112.047 Y799.442
G01 X117.465 Y758.964
G01 X131.534 Y721.298
G01 X153.307 Y688.398
G01 X181.400 Y661.932
G01 X214.065 Y643.185
G01 X249.304 Y632.985
G01 X284.977 Y631.653
G01 X318.934 Y638.985
G01 X349.138 Y654.266
G01 X373.786 Y676.311
G01 X391.418 Y703.539
G01 X400.996 Y734.060
G01 X401.973 Y765.792
G01 X394.318 Y796.584
G01 X378.524 Y824.339
G01 X355.573 Y847.143
G01 X326.883 Y863.372
G01 X294.224 Y871.795
G01 X259.610 Y871.642
G01 X225.184 Y862.651
G01 X193.093 Y845.085
G01 X165.357 Y819.717
G01 X143.755 Y787.785
G01 X129.716 Y750.919
G01 X124.238 Y711.047
G01 X127.827 Y670.282
G01 X140.467 Y630.798
G01 X161.622 Y594.703
G01 X190.266 Y563.916
G01 X224.942 Y540.056
G01 X263.849 Y524.344
G01 X304.944 Y517.533
G01 X346.068 Y519.869
G01 X385.064 Y531.067
G01 X419.908 Y550.339
G01 X448.829 Y576.433
G01 X470.406 Y607.710
G01 X483.657 Y642.240
G01 X488.094 Y677.915
G01 X483.750 Y712.576
G01 X471.178 Y744.135
G01 X451.415 Y770.703
G01 X425.924 Y790.698
G01 X396.506 Y802.937
G01 X365.193 Y806.710
G01 X334.127 Y801.817
G01 X305.435 Y788.585
G01 X281.104 Y767.842
G01 X262.861 Y740.873
G01 X252.073 Y709.344
G01 X249.665 Y675.204
G01 X256.066 Y640.568
G01 X271.181 Y607.594
G01 X294.397 Y578.357
G01 X324.622 Y554.726
G01 X360.340 Y538.254
G01 X399.708 Y530.085
G01 X440.660 Y530.888
G01 X481.025 Y540.819
G01 X518.661 Y559.506
G01 X551.573 Y586.076
G01 X578.034 Y619.203
G01 X596.686 Y657.185
G01 X606.615 Y698.047
G01 X607.410 Y739.652
G01 X599.184 Y779.827
G01 X582.564 Y816.492
G01 X558.661 Y847.781
G01 X528.996 Y872.149
G01 X495.417 Y888.465
G01 X459.987 Y896.076
G01 X424.863 Y894.845
G01 X392.169 Y885.156
G01 X363.870 Y867.898
G01 X341.660 Y844.402
G01 X326.858 Y816.370
G01 X320.333 Y785.771
G01 X322.452 Y754.725
G01 X333.059 Y725.378
G01 X351.483 Y699.773
G01 X376.580 Y679.734
G01 X406.796 Y666.754
G01 X440.264 Y661.906
G01 X474.908 Y665.783
G01 X508.571 Y678.460
G01 X539.135 Y699.490
G01 X564.654 Y727.927
G01 X583.463 Y762.384
G01 X594.275 Y801.113
G01 X596.262 Y842.104
G01 X589.102 Y883.208
G01 X572.997 Y922.259
G01 X548.660 Y957.199
G01 X517.281 Y986.203
G01 X480.449 Y1007.783
G01 X440.065 Y1020.874
G01 X398.226 Y1024.898
G01 X357.109 Y1019.797
G01 X318.836 Y1006.034
G01 X285.358 Y984.569
G01 X258.333 Y956.799
G01 X239.035 Y924.476
G01 X228.279 Y889.608
G01 X226.372 Y854.333
G01 X233.096 Y820.800
G01 X247.723 Y791.038
G01 X269.058 Y766.841
G01 X295.508 Y749.658
G01 X325.179 Y740.510
G01 X355.989 Y739.931
G01 X385.785 Y747.933
G01 X412.479 Y764.009
G01 X434.165 Y787.162
G01 X449.231 Y815.962
G01 X456.463 Y848.630
G01 X455.105 Y883.147
G01 X444.916 Y917.366
G01 X426.175 Y949.144
G01 X399.673 Y976.467
G01 X366.661 Y997.566
G01 X328.784 Y1011.024
G01 X287.978 Y1015.858
G01 X246.361 Y1011.578
G01 X206.110 Y998.217
G01 X169.331 Y976.327
G01 X137.937 Y946.950
G01 X113.537 Y911.555
G01 X97.340 Y871.953
G01 X90.089 Y830.194
G01 X92.011 Y788.442
G01 X102.811 Y748.850
G01 X121.685 Y713.439
G01 X147.370 Y683.974
G01 X178.218 Y661.863
G01 X212.293 Y648.076
G01 X247.486 Y643.087
G01 X281.637 Y646.850
G01 X312.665 Y658.798
G01 X338.688 Y677.882
G01 X358.136 Y702.628
G01 X369.841 Y731.230
G01 X373.109 Y761.652
G01 X367.756 Y791.753
G01 X354.123 Y819.410
G01 X333.055 Y842.645
G01 X305.850 Y859.742
G01 X274.185 Y869.348
G01 X240.013 Y870.554
G01 X205.453 Y862.951
G01 X172.664 Y846.650
G01 X143.715 Y822.281
G01 X120.466 Y790.954
G01 X104.459 Y754.197
G01 X96.823 Y713.863
G01 X98.214 Y672.026
G01 X108.767 Y630.858
G01 X128.096 Y592.503
G01 X155.313 Y558.949
G01 X189.076 Y531.916
G01 X227.676 Y512.752
G01 X269.125 Y502.357
G01 X311.285 Y501.128
G01 X351.982 Y508.938
G01 X389.139 Y525.146
G01 X420.897 Y548.630
G01 X445.721 Y577.857
G01 X462.492 Y610.973
G01 X470.570 Y645.912
G01 X469.831 Y680.517
G01 X460.676 Y712.669
G01 X444.003 Y740.408
G01 X421.157 Y762.052
G01 X393.846 Y776.297
G01 X364.043 Y782.287
G01 X333.869 Y779.672
G01 X305.467 Y768.625
G01 X280.874 Y749.831
G01 X261.901 Y724.450
G01 X250.029 Y694.046
G01 X246.315 Y660.494
G01 X251.335 Y625.874
G01 X265.146 Y592.344
G01 X287.282 Y562.018
G01 X316.781 Y536.835
G01 X352.243 Y518.451
G01 X391.907 Y508.137
G01 X433.757 Y506.707
G01 X475.637 Y514.467
G01 X515.382 Y531.198
G01 X550.938 Y556.169
G01 X580.486 Y588.178
G01 X602.548 Y625.624
G01 X616.071 Y666.598
G01 X620.491 Y708.994
G01 X615.763 Y750.637
G01 X602.367 Y789.405
G01 X581.273 Y823.355
G01 X553.890 Y850.836
G01 X521.979 Y870.584
G01 X487.550 Y881.800
G01 X452.743 Y884.191
G01 X419.705 Y877.987
G01 X390.458 Y863.931
G01 X366.785 Y843.229
G01 X350.123 Y817.482
G01 X341.480 Y788.589
G01 X341.370 Y758.636
G01 X349.792 Y729.771
G01 X366.223 Y704.079
G01 X389.649 Y683.456
G01 X418.629 Y669.500
G01 X451.376 Y663.412
G01 X485.863 Y665.928
G01 X519.943 Y677.274
G01 X551.476 Y697.151
G01 X578.452 Y724.752
G01 X599.112 Y758.810
G01 X612.052 Y797.670
G01 X616.303 Y839.384
G01 X611.392 Y881.830
G01 X597.368 Y922.829
G01 X574.799 Y960.276
G01 X544.743 Y992.266
G01 X508.681 Y1017.197
G01 X468.435 Y1033.871
G01 X426.059 Y1041.561
G01 X383.721 Y1040.052
G01 X343.575 Y1029.654
G01 X307.634 Y1011.183
G01 X277.657 Y985.915
G01 X255.041 Y955.507
G01 X240.743 Y921.899
G01 X235.225 Y887.203
G01 X238.423 Y853.578
G01 X249.760 Y823.098
G01 X268.173 Y797.636
G01 X292.179 Y778.752
G01 X319.965 Y767.598
G01 X349.493 Y764.854
G01 X378.621 Y770.686
G01 X405.232 Y784.736
G01 X427.355 Y806.146
G01 X443.287 Y833.603
G01 X451.688 Y865.422
G01 X451.668 Y899.641
G01 X442.833 Y934.138
G01 X425.314 Y966.756
G01 X399.757 Y995.430
G01 X367.289 Y1018.307
G01 X329.449 Y1033.860
G01 X288.103 Y1040.971
G01 X245.332 Y1039.002
G01 X203.309 Y1027.832
G01 X164.178 Y1007.865
G01 X129.923 Y980.004
G01 X102.255 Y945.604
G01 X82.512 Y906.387
G01 X71.581 Y864.345
G01 X69.845 Y821.623
G01 X77.164 Y780.394
G01 X92.881 Y742.730
G01 X115.864 Y710.486
G01 X144.569 Y685.185
G01 X177.137 Y667.935
G01 X211.497 Y659.363
G01 X245.494 Y659.576
G01 X277.011 Y668.161
G01 X304.099 Y684.206
G01 X325.085 Y706.358
G01 X338.679 Y732.900
G01 X344.041 Y761.854
G01 X340.837 Y791.098
G01 X329.257 Y818.494
G01 X310.001 Y842.012
G01 X284.243 Y859.850
G01 X253.558 Y870.543
G01 X219.831 Y873.048
G01 X185.144 Y866.807
G01 X151.658 Y851.782
G01 X121.481 Y828.455
G01 X96.546 Y797.804
G01 X78.499 Y761.246
G01 X68.597 Y720.552
G01 X67.638 Y677.746
G01 X75.913 Y634.988
G01 X93.187 Y594.444
G01 X118.713 Y558.164
G01 X151.274 Y527.960
G01 X189.257 Y505.302
G01 X230.745 Y491.228
G01 X273.628 Y486.291
G01 X315.729 Y490.519
G01 X354.927 Y503.421
G01 X389.285 Y524.012
G01 X417.163 Y550.875
G01 X437.308 Y582.240
G01 X448.933 Y616.093
G01 X451.759 Y650.292
G01 X446.033 Y682.696
G01 X432.508 Y711.288
G01 X412.403 Y734.294
G01 X387.328 Y750.291
G01 X359.186 Y758.288
G01 X330.066 Y757.784
G01 X302.114 Y748.798
G01 X277.408 Y731.871
G01 X257.835 Y708.029
G01 X244.980 Y678.727
G01 X240.030 Y645.760
G01 X243.702 Y611.161
G01 X256.206 Y577.079
G01 X277.224 Y545.652
G01 X305.932 Y518.885
G01 X341.048 Y498.526
G01 X380.905 Y485.967
G01 X423.545 Y482.163
G01 X466.841 Y487.571
G01 X508.611 Y502.125
G01 X546.756 Y525.240
G01 X579.372 Y555.846
G01 X604.869 Y592.448
G01 X622.059 Y633.214
G01 X630.229 Y676.084
G01 X629.177 Y718.888
G01 X619.229 Y759.472
G01 X601.213 Y795.829
G01 X576.415 Y826.208
G01 X546.501 Y849.223
G01 X513.417 Y863.929
G01 X479.278 Y869.880
G01 X446.238 Y867.151
G01 X416.369 Y856.335
G01 X391.532 Y838.508
G01 X373.275 Y815.159
G01 X362.737 Y788.111
G01 X360.581 Y759.404
G01 X366.956 Y731.178
G01 X381.488 Y705.547
G01 X403.304 Y684.473
G01 X431.077 Y669.647
G01 X463.112 Y662.394
G01 X497.441 Y663.589
G01 X531.937 Y673.606
G01 X564.445 Y692.299
G01 X592.904 Y719.002
G01 X615.471 Y752.573
G01 X630.628 Y791.459
G01 X637.272 Y833.785
G01 X634.781 Y877.464
G01 X623.049 Y920.316
G01 X602.498 Y960.202
G01 X574.045 Y995.141
G01 X539.059 Y1023.429
G01 X499.271 Y1043.741
G01 X456.682 Y1055.201
G01 X413.440 Y1057.440
G01 X371.718 Y1050.612
G01 X333.585 Y1035.388
G01 X300.888 Y1012.912
G01 X275.140 Y984.736
G01 X257.436 Y952.728
G01 X248.390 Y918.959
G01 X248.095 Y885.585
G01 X256.123 Y854.717
G01 X271.551 Y828.298
G01 X293.014 Y807.987
G01 X318.787 Y795.062
G01 X346.889 Y790.347
G01 X375.197 Y794.159
G01 X401.577 Y806.292
G01 X424.005 Y826.029
G01 X440.691 Y852.183
G01 X450.183 Y883.167
G01 X451.453 Y917.089
G01 X443.963 Y951.860
G01 X427.691 Y985.321
G01 X403.137 Y1015.366
G01 X371.297 Y1040.069
G01 X333.600 Y1057.795
G01 X291.830 Y1067.300
G01 X248.018 Y1067.800
G01 X204.329 Y1059.022
G01 X162.929 Y1041.217
G01 X125.864 Y1015.147
G01 X94.941 Y982.042
G01 X71.618 Y943.527
G01 X56.923 Y901.529
G01 X51.392 Y858.161
G01 X55.043 Y815.602
G01 X67.369 Y775.969
G01 X87.375 Y741.194
G01 X113.630 Y712.909
G01 X144.359 Y692.353
G01 X177.543 Y680.300
G01 X211.042 Y677.015
G01 X242.715 Y682.238
G01 X270.553 Y695.200
G01 X292.795 Y714.674
G01 X308.028 Y739.040
G01 X315.278 Y766.388
G01 X314.060 Y794.629
G01 X304.411 Y821.619
G01 X286.886 Y845.285
G01 X262.528 Y863.750
G01 X232.802 Y875.443
G01 X199.514 Y879.192
G01 X164.703 Y874.295
G01 X130.519 Y860.563
G01 X99.100 Y838.330
G01 X72.442 Y808.437
G01 X52.285 Y772.181
G01 X40.010 Y731.244
G01 X36.556 Y687.589
G01 X42.365 Y643.352
G01 X57.354 Y600.713
G01 X80.923 Y561.773
G01 X111.987 Y528.428
G01 X149.038 Y502.259
G01 X190.236 Y484.443
G01 X233.514 Y475.680
G01 X276.700 Y476.157
G01 X317.643 Y485.536
G01 X354.339 Y502.975
G01 X385.046 Y527.177
G01 X408.389 Y556.467
G01 X423.437 Y588.895
G01 X429.756 Y622.345
G01 X427.438 Y654.664
G01 X417.088 Y683.788
G01 X399.794 Y707.862
G01 X377.056 Y725.352
G01 X350.702 Y735.136
G01 X322.775 Y736.564
G01 X295.416 Y729.506
G01 X270.732 Y714.351
G01 X250.678 Y691.989
G01 X236.933 Y663.759
G01 X230.807 Y631.367
G01 X233.158 Y596.790
G01 X244.343 Y562.154
G01 X264.197 Y529.617
G01 X292.038 Y501.233
G01 X326.707 Y478.839
G01 X366.639 Y463.940
G01 X409.947 Y457.626
G01 X454.537 Y460.504
G01 X498.229 Y472.662
G01 X538.882 Y493.664
G01 X574.521 Y522.576
G01 X603.451 Y558.019
G01 X624.354 Y598.249
G01 X636.371 Y641.259
G01 X639.144 Y684.897
G01 X632.842 Y726.991
G01 X618.148 Y765.475
G01 X596.219 Y798.511
G01 X568.615 Y824.595
G01 X537.211 Y842.645
G01 X504.081 Y852.061
G01 X471.379 Y852.765
G01 X441.212 Y845.197
G01 X415.514 Y830.294
G01 X395.933 Y809.432
G01 X383.732 Y784.344
G01 X379.720 Y757.014
G01 X384.196 Y729.565
G01 X396.938 Y704.129
G01 X417.212 Y682.721
G01 X443.818 Y667.123
G01 X475.158 Y658.771
G01 X509.330 Y658.676
G01 X544.241 Y667.361
G01 X577.732 Y684.829
G01 X607.700 Y710.561
G01 X632.226 Y743.547
G01 X649.685 Y782.341
G01 X658.847 Y825.151
G01 X658.942 Y869.935
G01 X649.712 Y914.526
G01 X631.426 Y956.756
G01 X604.860 Y994.582
G01 X571.259 Y1026.207
G01 X532.259 Y1050.180
G01 X489.793 Y1065.486
G01 X445.981 Y1071.602
G01 X403.002 Y1068.524
G01 X362.971 Y1056.773
G01 X327.812 Y1037.357
G01 X299.148 Y1011.716
G01 X278.206 Y981.631
G01 X265.747 Y949.126
G01 X262.022 Y916.342
G01 X266.755 Y885.414
G01 X279.166 Y858.345
G01 X298.014 Y836.887
G01 X321.672 Y822.436
G01 X348.225 Y815.953
G01 X375.581 Y817.906
G01 X401.599 Y828.240
G01 X424.213 Y846.384
G01 X441.553 Y871.281
G01 X452.063 Y901.452
G01 X454.586 Y935.083
G01 X448.438 Y970.128
G01 X433.446 Y1004.435
G01 X409.963 Y1035.870
G01 X378.848 Y1062.440
G01 X341.411 Y1082.415
G01 X299.347 Y1094.427
G01 X254.628 Y1097.551
G01 X209.397 Y1091.361
G01 X165.834 Y1075.955
G01 X126.038 Y1051.949
G01 X91.899 Y1020.444
G01 X64.990 Y982.958
G01 X46.475 Y941.340
G01 X37.043 Y897.664
G01 X36.867 Y854.103
G01 X45.594 Y812.807
G01 X62.369 Y775.775
G01 X85.885 Y744.738
G01 X114.460 Y721.063
G01 X146.137 Y705.666
G01 X178.801 Y698.966
G01 X210.299 Y700.859
G01 X238.575 Y710.724
G01 X261.783 Y727.462
G01 X278.403 Y749.562
G01 X287.326 Y775.192
G01 X287.921 Y802.304
G01 X280.072 Y828.758
G01 X264.187 Y852.452
G01 X241.171 Y871.441
G01 X212.376 Y884.057
G01 X179.519 Y889.004
G01 X144.584 Y885.441
G01 X109.700 Y873.028
G01 X77.025 Y851.950
G01 X48.609 Y822.906
G01 X26.279 Y787.068
G01 X11.531 Y746.018
G01 X5.439 Y701.651
G01 X8.597 Y656.068
G01 X21.075 Y611.452
G01 X42.422 Y569.943
G01 X71.690 Y533.512
G01 X107.487 Y503.845
G01 X148.057 Y482.250
G01 X191.389 Y469.574
G01 X235.326 Y466.160
G01 X277.698 Y471.826
G01 X316.442 Y485.876
G01 X349.729 Y507.141
G01 X376.064 Y534.051
G01 X394.378 Y564.729
G01 X404.086 Y597.094
G01 X405.123 Y628.996
G01 X397.944 Y658.333
G01 X383.500 Y683.179
G01 X363.176 Y701.898
G01 X338.712 Y713.241
G01 X312.098 Y716.416
G01 X285.456 Y711.140
G01 X260.916 Y697.654
G01 X240.484 Y676.705
G01 X225.931 Y649.510
G01 X218.681 Y617.678
G01 X219.728 Y583.119
G01 X229.577 Y547.929
G01 X248.213 Y514.271
G01 X275.099 Y484.243
G01 X309.210 Y459.757
G01 X349.085 Y442.428
G01 X392.920 Y433.474
G01 X438.667 Y433.649
G01 X484.153 Y443.195
G01 X527.210 Y461.828
G01 X565.800 Y488.755
G01 X598.131 Y522.721
G01 X622.764 Y562.077
G01 X638.694 Y604.881
G01 X645.411 Y649.011
G01 X642.928 Y692.286
G01 X631.776 Y732.596
G01 X612.976 Y768.021
G01 X587.978 Y796.949
G01 X558.571 Y818.165
G01 X526.780 Y830.921
G01 X494.749 Y834.983
G01 X464.607 Y830.639
G01 X438.350 Y818.683
G01 X417.718 Y800.368
G01 X404.094 Y777.328
G01 X398.424 Y751.485
G01 X401.158 Y724.932
G01 X412.225 Y699.808
G01 X431.036 Y678.173
G01 X456.521 Y661.886
G01 X487.186 Y652.492
G01 X521.208 Y651.132
G01 X556.536 Y658.472
G01 X591.016 Y674.668
G01 X622.515 Y699.347
G01 X649.046 Y731.636
G01 X668.889 Y770.208
G01 X680.686 Y813.358
G01 X683.528 Y859.101
G01 X677.005 Y905.293
G01 X661.229 Y949.750
G01 X636.833 Y990.375
G01 X604.931 Y1025.285
G01 X567.053 Y1052.916
G01 X525.058 Y1072.114
G01 X481.023 Y1082.204
G01 X437.124 Y1083.028
G01 X395.509 Y1074.951
G01 X358.172 Y1058.839
G01 X326.836 Y1036.012
G01 X302.853 Y1008.160
G01 X287.129 Y977.242
G01 X280.068 Y945.378
G01 X281.550 Y914.715
G01 X290.940 Y887.303
G01 X307.129 Y864.979
G01 X328.596 Y849.249
G01 X353.500 Y841.208
G01 X379.792 Y841.470
G01 X405.335 Y850.132
G01 X428.028 Y866.772
G01 X445.936 Y890.466
G01 X457.402 Y919.852
G01 X461.148 Y953.199
G01 X456.347 Y988.519
G01 X442.677 Y1023.676
G01 X420.342 Y1056.516
G01 X390.057 Y1084.992
G01 X353.011 Y1107.284
G01 X310.798 Y1121.909
G01 X265.324 Y1127.804
G01 X218.696 Y1124.394
G01 X173.101 Y1111.621
G01 X130.677 Y1089.952
G01 X93.390 Y1060.352
G01 X62.919 Y1024.225
G01 X40.560 Y983.335
G01 X27.149 Y939.701
G01 X23.015 Y895.481
G01 X27.961 Y852.847
G01 X41.279 Y813.855
G01 X61.789 Y780.328
G01 X87.913 Y753.749
G01 X117.766 Y735.175
G01 X149.268 Y725.175
G01 X180.268 Y723.801
G01 X208.670 Y730.582
G01 X232.557 Y744.557
G01 X250.306 Y764.329
G01 X260.681 Y788.150
G01 X262.908 Y814.026
G01 X256.721 Y839.835
G01 X242.376 Y863.451
G01 X220.640 Y882.873
G01 X192.742 Y896.344
G01 X160.302 Y902.453
G01 X125.240 Y900.222
G01 X89.657 Y889.162
G01 X55.715 Y869.308
G01 X25.510 Y841.214
G01 X5.000 Y811.744
G01 X5.000 Y580.910
G01 X30.881 Y543.354
G01 X65.097 Y510.233
G01 X104.696 Y484.853
G01 X147.728 Y468.208
G01 X192.067 Y460.792
G01 X235.531 Y462.582
G01 X276.014 Y473.032
G01 X311.603 Y491.108
G01 X340.696 Y515.353
G01 X362.090 Y543.970
G01 X375.052 Y574.929
G01 X379.361 Y606.089
G01 X375.320 Y635.324
G01 X363.737 Y660.647
G01 X345.876 Y680.328
G01 X323.380 Y692.998
G01 X298.176 Y697.727
G01 X272.358 Y694.082
G01 X248.064 Y682.153
G01 X227.348 Y662.544
G01 X212.058 Y636.341
G01 X203.727 Y605.050
G01 X203.478 Y570.504
G01 X211.964 Y534.759
G01 X229.319 Y499.972
G01 X255.156 Y468.276
G01 X288.583 Y441.649
G01 X328.257 Y421.805
G01 X372.463 Y410.088
G01 X419.206 Y407.394
G01 X466.337 Y414.117
G01 X511.670 Y430.129
G01 X553.111 Y454.783
G01 X588.783 Y486.951
G01 X617.130 Y525.091
G01 X637.010 Y567.336
G01 X647.762 Y611.602
G01 X649.239 Y655.713
G01 X641.821 Y697.524
G01 X626.387 Y735.046
G01 X604.267 Y766.565
G01 X577.157 Y790.741
G01 X547.023 Y806.681
G01 X515.984 Y813.997
G01 X486.184 Y812.822
G01 X459.668 Y803.805
G01 X438.260 Y788.069
G01 X423.455 Y767.143
G01 X416.332 Y742.875
G01 X417.488 Y717.317
G01 X427.002 Y692.606
G01 X444.435 Y670.835
G01 X468.849 Y653.933
G01 X498.865 Y643.544
G01 X532.745 Y640.933
G01 X568.491 Y646.908
G01 X603.965 Y661.774
G01 X637.012 Y685.309
G01 X665.591 Y716.781
G01 X687.889 Y754.986
G01 X702.434 Y798.315
G01 X708.176 Y844.854
G01 X704.556 Y892.488
G01 X691.531 Y939.028
G01 X669.585 Y982.338
G01 X639.695 Y1020.454
G01 X603.278 Y1051.708
G01 X562.107 Y1074.812
G01 X518.208 Y1088.945
G01 X473.742 Y1093.791
G01 X430.879 Y1089.558
G01 X391.671 Y1076.970
G01 X357.932 Y1057.216
G01 X331.134 Y1031.884
G01 X312.321 Y1002.863
G01 X302.049 Y972.237
G01 X300.353 Y942.153
G01 X306.750 Y914.703
G01 X320.264 Y891.793
G01 X339.488 Y875.035
G01 X362.667 Y865.650
G01 X387.802 Y864.395
G01 X412.772 Y871.520
G01 X435.453 Y886.749
G01 X453.854 Y909.300
G01 X466.225 Y937.931
G01 X471.173 Y971.007
G01 X467.732 Y1006.603
G01 X455.435 Y1042.611
G01 X434.332 Y1076.868
G01 X404.995 Y1107.281
G01 X368.482 Y1131.952
G01 X326.282 Y1149.288
G01 X280.221 Y1158.094
G01 X232.364 Y1157.646
G01 X184.889 Y1147.733
G01 X139.966 Y1128.670
G01 X99.627 Y1101.280
G01 X65.649 Y1066.845
G01 X39.452 Y1027.033
G01 X22.016 Y983.802
G01 X13.824 Y939.281
G01 X14.838 Y895.653
G01 X24.498 Y855.020
G01 X41.761 Y819.287
G01 X65.158 Y790.047
G01 X92.886 Y768.490
G01 X122.914 Y755.335
G01 X153.100 Y750.788
G01 X181.322 Y754.530
G01 X205.602 Y765.742
G01 X224.221 Y783.147
G01 X235.824 Y805.094
G01 X239.498 Y829.650
G01 X234.828 Y854.719
G01 X221.919 Y878.167
G01 X201.393 Y897.945
G01 X174.353 Y912.216
G01 X142.315 Y919.459
G01 X107.123 Y918.565
G01 X70.840 Y908.901
G01 X35.625 Y890.349
G01 X5.000 Y864.491
G01 X5.000 Y541.179
G01 X22.378 Y521.545
G01 X60.657 Y492.407
G01 X103.029 Y471.765
G01 X147.407 Y460.270
G01 X191.612 Y458.052
G01 X233.501 Y464.719
G01 X271.094 Y479.380
G01 X302.685 Y500.695
G01 X326.945 Y526.960
G01 X342.995 Y556.205
G01 X350.463 Y586.311
G01 X349.496 Y615.137
G01 X340.757 Y640.644
G01 X325.381 Y661.020
G01 X304.907 Y674.782
G01 X281.189 Y680.868
