; file trimmed by trimify2x.pl
; Created by Sandify
; 
;   https://sandify.org
; 
;   Sandify Version: 0.1.4
; 
;   Machine Type: Rectangular
;     MinX: 5 MaxX: 710 MinY: 5 MaxY: 1600
;   Content Type: Shapes
;     Starting Size: 608
;     Offset: X: 35 Y: 630
;     Selected Shape: None
;     Number of Loops: 353
;     Spin: true
;       Spin Value: 1.3
;       Spin Switchbacks: 18
;     Grow: true
;       Grow Value: -4
;     Track: true
;       Track Count: 80
;       Track Size: 80
;       Track Grow: false
;   Path Reversed: true
; 
; filename: 'heart3'

; BEGIN PRE
G28  Y
G28 X
G01 F30000; END PRE
G01 X616.260 Y5.000
G01 X617.404 Y13.223
G01 X617.919 Y7.975
G01 X617.993 Y5.000
G01 X632.120 Y5.000
G01 X634.162 Y25.085
G01 X634.366 Y19.717
G01 X634.863 Y5.000
G01 X647.980 Y5.000
G01 X648.981 Y13.832
G01 X650.475 Y37.288
G01 X650.374 Y31.792
G01 X651.517 Y5.000
G01 X663.902 Y5.000
G01 X665.756 Y26.719
G01 X666.339 Y49.816
G01 X665.936 Y44.186
G01 X667.625 Y11.402
G01 X668.397 Y5.000
G01 X680.061 Y5.000
G01 X682.061 Y39.937
G01 X681.746 Y62.657
G01 X681.046 Y56.887
G01 X683.012 Y24.270
G01 X685.632 Y5.000
G01 X696.488 Y5.000
G01 X697.889 Y53.472
G01 X696.690 Y75.795
G01 X695.699 Y69.878
G01 X697.937 Y37.434
G01 X702.844 Y5.000
G01 X710.000 Y5.000
G01 X710.000 Y83.678
G01 X709.888 Y83.147
G01 X710.000 Y81.709
G01 X710.000 Y149.173
G01 X709.821 Y148.463
G01 X710.000 Y146.107
G01 X710.000 Y5.000
G01 X690.779 Y5.000
G01 X691.788 Y14.174
G01 X696.173 Y89.307
G01 X696.042 Y136.704
G01 X693.921 Y156.497
G01 X692.505 Y149.662
G01 X694.601 Y117.961
G01 X703.068 Y63.862
G01 X710.000 Y35.066
G01 X710.000 Y5.000
G01 X668.377 Y5.000
G01 X669.900 Y16.236
G01 X676.332 Y91.080
G01 X677.699 Y138.357
G01 X676.492 Y158.130
G01 X675.384 Y151.306
G01 X677.177 Y119.577
G01 X684.744 Y65.343
G01 X698.008 Y5.000
G01 X646.025 Y5.000
G01 X648.256 Y18.847
G01 X656.716 Y93.354
G01 X659.571 Y140.475
G01 X659.273 Y160.207
G01 X658.470 Y153.387
G01 X659.961 Y121.638
G01 X666.630 Y67.290
G01 X679.037 Y5.000
G01 X623.693 Y5.000
G01 X626.870 Y21.996
G01 X637.338 Y96.121
G01 X641.668 Y143.051
G01 X642.272 Y162.720
G01 X641.774 Y155.896
G01 X642.965 Y124.134
G01 X648.738 Y69.695
G01 X660.307 Y5.000
G01 X601.354 Y5.000
G01 X605.755 Y25.674
G01 X618.210 Y99.370
G01 X624.003 Y146.075
G01 X625.502 Y165.659
G01 X625.307 Y158.825
G01 X626.198 Y127.057
G01 X631.078 Y72.549
G01 X641.799 Y5.000
G01 X578.980 Y5.000
G01 X584.923 Y29.869
G01 X599.344 Y103.092
G01 X606.586 Y149.538
G01 X608.973 Y169.017
G01 X609.079 Y162.164
G01 X609.673 Y130.398
G01 X613.663 Y75.843
G01 X623.496 Y5.000
G01 X556.542 Y5.000
G01 X564.387 Y34.571
G01 X580.752 Y107.275
G01 X589.427 Y153.430
G01 X592.695 Y172.783
G01 X593.099 Y165.905
G01 X593.397 Y134.148
G01 X596.502 Y79.566
G01 X605.385 Y5.000
G01 X534.012 Y5.000
G01 X544.160 Y39.768
G01 X562.444 Y111.911
G01 X572.538 Y157.741
G01 X576.679 Y176.947
G01 X577.379 Y170.037
G01 X577.383 Y138.295
G01 X579.607 Y83.710
G01 X587.061 Y8.880
G01 X587.724 Y5.000
G01 X511.360 Y5.000
G01 X524.253 Y45.450
G01 X544.431 Y116.987
G01 X555.928 Y162.461
G01 X560.933 Y181.500
G01 X561.926 Y174.551
G01 X561.639 Y142.832
G01 X562.987 Y88.263
G01 X568.999 Y13.377
G01 X570.247 Y5.000
G01 X488.556 Y5.000
G01 X504.677 Y51.603
G01 X526.725 Y122.494
G01 X539.607 Y167.579
G01 X545.467 Y186.432
G01 X546.752 Y179.437
G01 X546.175 Y147.747
G01 X546.652 Y93.216
G01 X551.229 Y18.308
G01 X552.925 Y5.000
G01 X465.569 Y5.000
G01 X485.444 Y58.216
G01 X509.334 Y128.419
G01 X523.585 Y173.085
G01 X530.290 Y191.732
G01 X531.863 Y184.684
G01 X530.999 Y153.031
G01 X530.612 Y98.558
G01 X533.762 Y23.662
G01 X535.742 Y5.000
G01 X442.368 Y5.000
G01 X466.564 Y65.276
G01 X492.269 Y134.751
G01 X507.870 Y178.967
G01 X515.411 Y197.389
G01 X517.269 Y190.282
G01 X516.120 Y158.672
G01 X514.876 Y104.277
G01 X516.608 Y29.429
G01 X518.683 Y5.000
G01 X418.920 Y5.000
G01 X448.048 Y72.771
G01 X475.539 Y141.479
G01 X492.472 Y185.215
G01 X500.837 Y203.393
G01 X502.978 Y196.220
G01 X501.547 Y164.659
G01 X499.452 Y110.364
G01 X499.775 Y35.597
G01 X501.732 Y5.000
G01 X395.190 Y5.000
G01 X429.905 Y80.688
G01 X459.154 Y148.590
G01 X477.399 Y191.817
G01 X486.578 Y209.733
G01 X488.997 Y202.488
G01 X487.288 Y170.983
G01 X484.350 Y116.807
G01 X483.275 Y42.153
G01 X484.877 Y5.000
G01 X371.142 Y5.000
G01 X412.146 Y89.014
G01 X443.122 Y156.072
G01 X462.658 Y198.762
G01 X472.640 Y216.397
G01 X475.335 Y209.074
G01 X473.350 Y177.632
G01 X469.576 Y123.594
G01 X467.114 Y49.088
G01 X468.102 Y5.000
G01 X376.719 Y5.000
G01 X378.420 Y8.308
G01 X421.314 Y97.945
G01 X451.506 Y164.703
G01 X470.511 Y207.138
G01 X480.243 Y224.600
G01 X482.991 Y217.221
G01 X481.372 Y185.876
G01 X478.282 Y132.126
G01 X476.815 Y58.132
G01 X478.764 Y5.000
G01 X391.892 Y5.000
G01 X398.125 Y17.769
G01 X438.634 Y107.339
G01 X466.931 Y173.927
G01 X484.568 Y216.157
G01 X493.476 Y233.447
G01 X495.949 Y225.997
G01 X494.593 Y194.748
G01 X492.277 Y141.318
G01 X492.052 Y67.923
G01 X495.533 Y5.000
G01 X406.913 Y5.000
G01 X417.398 Y27.673
G01 X455.538 Y117.118
G01 X481.956 Y183.490
G01 X498.237 Y225.483
G01 X506.331 Y242.583
G01 X508.532 Y235.057
G01 X507.435 Y203.908
G01 X505.880 Y150.816
G01 X506.876 Y78.045
G01 X512.283 Y5.000
G01 X421.797 Y5.000
G01 X436.228 Y38.003
G01 X472.017 Y127.268
G01 X496.574 Y193.380
G01 X511.513 Y235.104
G01 X518.802 Y251.995
G01 X520.735 Y244.386
G01 X519.893 Y213.345
G01 X519.085 Y160.605
G01 X521.279 Y88.486
G01 X529.027 Y5.000
G01 X436.564 Y5.000
G01 X454.607 Y48.745
G01 X488.063 Y137.773
G01 X510.776 Y203.582
G01 X524.389 Y245.007
G01 X530.883 Y261.670
G01 X532.552 Y253.973
G01 X531.960 Y223.044
G01 X531.887 Y170.674
G01 X535.256 Y99.231
G01 X545.045 Y11.555
G01 X546.291 Y5.000
G01 X451.229 Y5.000
G01 X472.526 Y59.884
G01 X503.669 Y148.620
G01 X524.557 Y214.084
G01 X536.859 Y255.178
G01 X542.568 Y271.597
G01 X543.976 Y263.805
G01 X543.631 Y232.994
G01 X544.279 Y181.009
G01 X548.799 Y110.266
G01 X560.111 Y23.645
G01 X564.051 Y5.000
G01 X465.808 Y5.000
G01 X489.976 Y71.405
G01 X518.828 Y159.795
G01 X537.910 Y224.870
G01 X548.917 Y265.605
G01 X553.853 Y281.761
G01 X555.004 Y273.870
G01 X554.901 Y243.181
G01 X556.257 Y191.596
G01 X561.903 Y121.576
G01 X574.703 Y36.040
G01 X581.927 Y5.000
G01 X480.317 Y5.000
G01 X506.949 Y83.291
G01 X533.533 Y171.282
G01 X550.830 Y235.928
G01 X560.559 Y276.274
G01 X564.732 Y292.151
G01 X565.631 Y284.153
G01 X565.765 Y253.593
G01 X567.814 Y202.422
G01 X574.563 Y133.149
G01 X588.815 Y48.727
G01 X599.938 Y5.000
G01 X494.770 Y5.000
G01 X523.437 Y95.528
G01 X547.777 Y183.067
G01 X563.312 Y247.243
G01 X571.780 Y287.171
G01 X575.202 Y302.752
G01 X575.852 Y294.643
G01 X576.219 Y264.215
G01 X578.947 Y213.474
G01 X586.773 Y144.968
G01 X602.441 Y61.689
G01 X618.104 Y5.000
G01 X509.184 Y5.000
G01 X539.434 Y108.099
G01 X561.555 Y195.134
G01 X575.349 Y258.800
G01 X582.575 Y298.284
G01 X585.259 Y313.551
G01 X585.664 Y305.326
G01 X586.259 Y275.036
G01 X589.651 Y224.737
G01 X598.529 Y157.021
G01 X615.577 Y74.911
G01 X636.447 Y5.000
G01 X523.255 Y5.000
G01 X525.646 Y12.670
G01 X554.933 Y120.989
G01 X574.862 Y207.469
G01 X586.939 Y270.587
G01 X592.941 Y309.597
G01 X594.898 Y324.536
G01 X595.064 Y316.189
G01 X595.881 Y286.041
G01 X599.923 Y236.198
G01 X609.826 Y169.292
G01 X628.216 Y88.378
G01 X654.988 Y5.000
G01 X537.057 Y5.000
G01 X543.251 Y26.411
G01 X569.928 Y134.180
G01 X587.692 Y220.056
G01 X598.077 Y282.587
G01 X602.875 Y321.098
G01 X604.117 Y335.692
G01 X604.048 Y327.218
G01 X605.083 Y297.217
G01 X609.759 Y247.843
G01 X620.662 Y181.767
G01 X640.356 Y102.073
G01 X671.297 Y12.138
G01 X674.580 Y5.000
G01 X550.840 Y5.000
G01 X560.315 Y40.499
G01 X584.414 Y147.658
G01 X600.041 Y232.881
G01 X608.758 Y294.787
G01 X612.372 Y332.772
G01 X612.913 Y347.007
G01 X612.613 Y338.401
G01 X613.862 Y308.552
G01 X619.156 Y259.658
G01 X631.031 Y194.432
G01 X651.992 Y115.982
G01 X684.422 Y27.704
G01 X695.488 Y5.000
G01 X564.616 Y5.000
G01 X576.833 Y54.915
G01 X598.384 Y161.406
G01 X611.904 Y245.928
G01 X618.981 Y307.172
G01 X621.430 Y344.607
G01 X621.284 Y358.467
G01 X620.758 Y349.725
G01 X622.215 Y320.030
G01 X628.111 Y271.630
G01 X640.933 Y207.270
G01 X663.121 Y130.088
G01 X696.991 Y43.492
G01 X710.000 Y18.258
G01 X710.000 Y5.000
G01 X578.397 Y5.000
G01 X592.798 Y69.642
G01 X611.835 Y175.407
G01 X623.280 Y259.181
G01 X628.741 Y319.729
G01 X630.048 Y356.587
G01 X629.228 Y370.058
G01 X628.480 Y361.175
G01 X630.140 Y331.640
G01 X636.623 Y283.744
G01 X650.363 Y220.269
G01 X673.740 Y144.376
G01 X709.000 Y59.487
G01 X710.000 Y57.649
G01 X710.000 Y5.000
G01 X592.196 Y5.000
G01 X608.205 Y84.663
G01 X624.762 Y189.645
G01 X634.163 Y272.625
G01 X638.038 Y332.441
G01 X638.223 Y368.699
G01 X636.742 Y381.768
G01 X635.779 Y372.739
G01 X637.637 Y343.367
G01 X644.690 Y295.987
G01 X659.321 Y233.413
G01 X683.847 Y158.829
G01 X710.000 Y99.403
G01 X710.000 Y5.000
G01 X606.024 Y5.000
G01 X623.050 Y99.960
G01 X637.162 Y204.103
G01 X644.552 Y286.245
G01 X646.868 Y345.295
G01 X645.954 Y380.930
G01 X643.827 Y393.582
G01 X642.652 Y384.403
G01 X644.703 Y355.198
G01 X652.310 Y308.344
G01 X667.803 Y246.687
G01 X693.439 Y173.433
G01 X710.000 Y137.847
G01 X710.000 Y5.000
G01 X619.894 Y5.000
G01 X637.327 Y115.515
G01 X649.031 Y218.765
G01 X654.443 Y300.025
G01 X655.230 Y358.276
G01 X653.240 Y393.264
G01 X650.481 Y405.488
G01 X649.100 Y396.154
G01 X651.337 Y367.120
G01 X659.482 Y320.802
G01 X675.810 Y260.077
G01 X702.516 Y188.170
G01 X710.000 Y172.935
G01 X710.000 Y5.000
G01 X627.830 Y5.000
G01 X628.147 Y6.712
G01 X645.449 Y129.210
G01 X655.346 Y231.487
G01 X659.312 Y311.838
G01 X658.999 Y369.296
G01 X656.227 Y403.654
G01 X652.974 Y415.450
G01 X651.343 Y405.918
G01 X653.528 Y376.935
G01 X661.766 Y330.926
G01 X678.281 Y270.765
G01 X705.210 Y199.666
G01 X710.000 Y190.093
G01 X710.000 Y5.000
G01 X603.663 Y5.000
G01 X604.896 Y10.921
G01 X624.964 Y132.581
G01 X637.330 Y234.289
G01 X643.404 Y314.294
G01 X644.784 Y371.582
G01 X643.251 Y405.890
G01 X640.751 Y417.698
G01 X639.372 Y408.187
G01 X641.309 Y379.170
G01 X648.812 Y333.020
G01 X664.130 Y272.556
G01 X689.442 Y200.942
G01 X710.000 Y157.243
G01 X710.000 Y5.000
G01 X579.500 Y5.000
G01 X581.984 Y15.729
G01 X604.778 Y136.489
G01 X619.582 Y237.571
G01 X627.741 Y317.182
G01 X630.800 Y374.258
G01 X630.494 Y408.486
G01 X628.743 Y420.289
G01 X627.616 Y410.790
G01 X629.306 Y381.747
G01 X636.075 Y335.474
G01 X650.196 Y274.738
G01 X673.889 Y202.653
G01 X709.240 Y122.561
G01 X710.000 Y121.245
G01 X710.000 Y5.000
G01 X555.316 Y5.000
G01 X559.425 Y21.123
G01 X584.905 Y140.922
G01 X602.115 Y241.323
G01 X612.335 Y320.490
G01 X617.055 Y377.315
G01 X617.968 Y411.433
G01 X616.960 Y423.213
G01 X616.084 Y413.720
G01 X617.528 Y384.657
G01 X623.564 Y338.280
G01 X636.491 Y277.304
G01 X658.563 Y204.791
G01 X691.918 Y124.037
G01 X710.000 Y90.811
G01 X710.000 Y5.000
G01 X531.085 Y5.000
G01 X537.233 Y27.090
G01 X565.358 Y145.868
G01 X584.941 Y245.532
G01 X597.197 Y324.209
G01 X603.561 Y380.744
G01 X605.681 Y414.723
G01 X605.410 Y426.461
G01 X604.783 Y416.968
G01 X605.983 Y387.891
G01 X611.289 Y341.430
G01 X623.023 Y280.244
G01 X643.476 Y207.345
G01 X674.832 Y125.982
G01 X710.000 Y57.280
G01 X710.000 Y5.000
G01 X506.780 Y5.000
G01 X515.424 Y33.615
G01 X546.150 Y151.314
G01 X568.071 Y250.189
G01 X582.338 Y328.329
G01 X590.327 Y384.535
G01 X593.642 Y418.346
G01 X594.103 Y430.024
G01 X593.724 Y420.525
G01 X594.680 Y391.440
G01 X599.259 Y344.913
G01 X609.804 Y283.548
G01 X628.639 Y210.306
G01 X657.995 Y128.388
G01 X699.924 Y41.124
G01 X710.000 Y25.147
G01 X710.000 Y5.000
G01 X482.375 Y5.000
G01 X494.011 Y40.684
G01 X527.293 Y157.248
G01 X551.517 Y255.281
G01 X567.767 Y332.837
G01 X577.363 Y388.677
G01 X581.861 Y422.292
G01 X583.046 Y433.892
G01 X582.913 Y424.382
G01 X583.627 Y395.295
G01 X587.482 Y348.719
G01 X596.841 Y287.207
G01 X614.061 Y213.664
G01 X641.417 Y131.244
G01 X681.017 Y43.233
G01 X703.756 Y5.000
G01 X457.844 Y5.000
G01 X473.006 Y48.283
G01 X508.799 Y163.656
G01 X535.289 Y260.797
G01 X553.495 Y337.725
G01 X564.677 Y393.161
G01 X570.345 Y426.551
G01 X572.248 Y438.057
G01 X572.358 Y428.529
G01 X572.832 Y399.446
G01 X575.968 Y352.841
G01 X584.146 Y291.210
G01 X599.754 Y217.408
G01 X625.112 Y134.539
G01 X662.380 Y45.844
G01 X685.252 Y5.000
G01 X433.158 Y5.000
G01 X452.424 Y56.397
G01 X490.681 Y170.525
G01 X519.399 Y266.723
G01 X539.531 Y342.979
G01 X552.278 Y397.976
G01 X559.102 Y431.114
G01 X561.716 Y442.508
G01 X562.067 Y432.956
G01 X562.303 Y403.883
G01 X564.723 Y357.266
G01 X571.726 Y295.548
G01 X585.728 Y221.529
G01 X609.090 Y138.263
G01 X644.026 Y48.946
G01 X667.154 Y5.000
G01 X408.289 Y5.000
G01 X432.276 Y65.010
G01 X472.949 Y177.841
G01 X503.857 Y273.049
G01 X525.884 Y348.589
G01 X540.174 Y403.110
G01 X548.140 Y435.970
G01 X551.458 Y447.236
G01 X552.048 Y437.654
G01 X552.047 Y408.596
G01 X553.757 Y361.986
G01 X559.590 Y300.209
G01 X571.991 Y226.014
G01 X593.362 Y142.404
G01 X625.967 Y52.527
G01 X649.425 Y5.000
G01 X383.209 Y5.000
G01 X412.575 Y74.107
G01 X455.614 Y185.591
G01 X488.672 Y279.760
G01 X512.563 Y354.543
G01 X528.374 Y408.554
G01 X537.467 Y441.109
G01 X541.480 Y452.230
G01 X542.307 Y442.613
G01 X542.071 Y413.576
G01 X543.076 Y366.989
G01 X547.746 Y305.184
G01 X558.554 Y230.854
G01 X577.938 Y146.951
G01 X608.215 Y56.576
G01 X632.031 Y5.000
G01 X357.887 Y5.000
G01 X393.332 Y83.671
G01 X438.687 Y193.759
G01 X473.853 Y286.844
G01 X499.578 Y360.830
G01 X516.886 Y414.296
G01 X527.090 Y446.520
G01 X531.789 Y457.480
G01 X532.850 Y447.822
G01 X532.382 Y418.812
G01 X532.687 Y372.266
G01 X536.202 Y310.461
G01 X545.424 Y236.036
G01 X562.830 Y151.892
G01 X590.782 Y61.080
G01 X614.940 Y5.000
G01 X332.291 Y5.000
G01 X374.557 Y93.688
G01 X422.178 Y202.332
G01 X459.411 Y294.288
G01 X486.935 Y367.436
G01 X505.716 Y420.324
G01 X517.016 Y452.193
G01 X522.392 Y462.975
G01 X523.685 Y453.271
G01 X522.987 Y424.294
G01 X522.598 Y377.806
G01 X524.966 Y316.029
G01 X532.612 Y241.550
G01 X548.046 Y157.215
G01 X573.680 Y66.027
G01 X598.124 Y5.000
G01 X306.390 Y5.000
G01 X356.262 Y104.140
G01 X406.096 Y211.294
G01 X445.352 Y302.078
G01 X474.643 Y374.350
G01 X494.872 Y426.627
G01 X507.250 Y458.116
G01 X513.294 Y468.706
G01 X514.816 Y458.949
G01 X513.890 Y430.010
G01 X512.814 Y383.597
G01 X514.044 Y321.878
G01 X520.123 Y247.383
G01 X533.597 Y162.908
G01 X556.919 Y71.404
G01 X581.555 Y5.000
G01 X280.150 Y5.000
G01 X338.456 Y115.011
G01 X390.450 Y220.631
G01 X431.686 Y310.200
G01 X462.708 Y381.558
G01 X484.360 Y433.194
G01 X497.799 Y464.278
G01 X504.502 Y474.660
G01 X506.250 Y464.846
G01 X505.099 Y435.950
G01 X503.343 Y389.629
G01 X503.445 Y327.994
G01 X507.968 Y253.524
G01 X519.491 Y168.958
G01 X540.511 Y77.198
G01 X565.209 Y5.000
G01 X253.342 Y5.000
G01 X255.923 Y9.285
G01 X321.149 Y126.284
G01 X375.249 Y230.327
G01 X418.420 Y318.642
G01 X451.139 Y389.049
G01 X474.187 Y440.013
G01 X488.670 Y470.668
G01 X496.021 Y480.827
G01 X497.991 Y470.951
G01 X496.619 Y442.104
G01 X494.189 Y395.890
G01 X493.173 Y334.368
G01 X496.153 Y259.960
G01 X505.737 Y175.353
G01 X524.465 Y83.397
G01 X549.062 Y5.000
G01 X225.696 Y5.000
G01 X236.983 Y22.894
G01 X304.350 Y137.942
G01 X360.501 Y240.367
G01 X405.562 Y327.389
G01 X439.941 Y396.810
G01 X464.358 Y447.071
G01 X479.866 Y477.275
G01 X487.856 Y487.197
G01 X490.045 Y477.253
G01 X488.454 Y448.460
G01 X485.358 Y402.370
G01 X483.235 Y340.987
G01 X484.684 Y266.680
G01 X492.343 Y182.080
G01 X508.791 Y89.986
G01 X533.093 Y5.000
G01 X197.570 Y5.000
G01 X218.624 Y36.910
G01 X288.066 Y149.968
G01 X346.214 Y250.735
G01 X393.118 Y336.426
G01 X429.120 Y404.827
G01 X454.879 Y454.356
G01 X471.394 Y484.088
G01 X480.011 Y493.758
G01 X482.417 Y483.741
G01 X480.609 Y455.007
G01 X476.856 Y409.056
G01 X473.638 Y347.840
G01 X473.570 Y273.671
G01 X479.317 Y189.126
G01 X493.498 Y96.951
G01 X517.279 Y5.000
G01 X168.919 Y5.000
G01 X200.854 Y51.313
G01 X272.307 Y162.344
G01 X332.394 Y261.417
G01 X381.096 Y345.740
G01 X418.683 Y413.088
G01 X445.755 Y461.857
G01 X463.257 Y491.094
G01 X472.492 Y500.498
G01 X475.110 Y490.403
G01 X473.089 Y461.733
G01 X468.687 Y415.937
G01 X464.385 Y354.913
G01 X462.815 Y280.919
G01 X466.667 Y196.478
G01 X478.596 Y104.280
G01 X501.119 Y7.091
G01 X501.863 Y5.000
G01 X164.908 Y5.000
G01 X204.653 Y62.658
G01 X275.605 Y172.974
G01 X335.242 Y271.382
G01 X383.552 Y355.103
G01 X420.820 Y421.927
G01 X447.653 Y470.266
G01 X465.006 Y499.181
G01 X474.190 Y508.387
G01 X476.864 Y498.233
G01 X475.007 Y469.654
G01 X470.877 Y424.113
G01 X466.955 Y363.517
G01 X465.864 Y290.134
G01 X470.282 Y206.492
G01 X482.852 Y115.287
G01 X506.068 Y19.285
G01 X511.330 Y5.000
G01 X179.899 Y5.000
G01 X224.091 Y71.853
G01 X292.241 Y182.462
G01 X349.337 Y280.950
G01 X395.422 Y364.591
G01 X430.821 Y431.227
G01 X456.177 Y479.324
G01 X472.467 Y508.000
G01 X481.014 Y517.024
G01 X483.476 Y506.799
G01 X481.818 Y478.310
G01 X478.277 Y433.063
G01 X475.296 Y373.008
G01 X475.451 Y300.442
G01 X481.370 Y217.922
G01 X495.628 Y128.159
G01 X520.656 Y33.930
G01 X532.107 Y5.000
G01 X194.583 Y5.000
G01 X243.049 Y81.506
G01 X308.410 Y192.334
G01 X362.983 Y290.839
G01 X406.861 Y374.345
G01 X440.410 Y440.747
G01 X464.305 Y488.567
G01 X479.547 Y516.978
G01 X487.466 Y525.806
G01 X489.719 Y515.505
G01 X488.258 Y487.109
G01 X485.294 Y442.170
G01 X483.232 Y382.674
G01 X484.605 Y310.952
G01 X491.983 Y229.582
G01 X507.881 Y141.293
G01 X534.662 Y48.869
G01 X553.262 Y5.000
G01 X208.981 Y5.000
G01 X261.515 Y91.599
G01 X324.104 Y202.574
G01 X376.172 Y301.033
G01 X417.862 Y384.349
G01 X449.582 Y450.472
G01 X472.035 Y497.980
G01 X486.243 Y526.102
G01 X493.544 Y534.719
G01 X495.591 Y524.337
G01 X494.323 Y496.040
G01 X491.923 Y451.420
G01 X490.760 Y392.503
G01 X493.319 Y321.648
G01 X502.117 Y241.456
G01 X519.606 Y154.672
G01 X548.081 Y64.083
G01 X574.836 Y5.000
G01 X223.110 Y5.000
G01 X279.480 Y102.115
G01 X339.313 Y213.166
G01 X388.898 Y311.515
G01 X428.422 Y394.587
G01 X458.332 Y460.388
G01 X479.363 Y507.550
G01 X492.551 Y535.360
G01 X499.244 Y543.752
G01 X501.090 Y533.285
G01 X500.010 Y505.089
G01 X498.162 Y460.801
G01 X497.876 Y402.480
G01 X501.592 Y332.516
G01 X511.769 Y253.530
G01 X530.798 Y168.278
G01 X560.908 Y79.553
G01 X596.879 Y5.000
G01 X236.988 Y5.000
G01 X296.935 Y113.036
G01 X354.031 Y224.093
G01 X401.154 Y322.271
G01 X438.534 Y405.046
G01 X466.658 Y470.481
G01 X486.285 Y517.264
G01 X498.470 Y544.738
G01 X504.565 Y552.892
G01 X506.213 Y542.335
G01 X505.318 Y514.245
G01 X504.008 Y470.300
G01 X504.579 Y412.593
G01 X509.419 Y343.541
G01 X520.934 Y265.786
G01 X541.453 Y182.094
G01 X573.138 Y95.261
G01 X617.889 Y8.027
G01 X620.002 Y5.000
G01 X250.632 Y5.000
G01 X313.869 Y124.343
G01 X368.251 Y235.338
G01 X412.934 Y333.283
G01 X448.195 Y415.711
G01 X474.555 Y480.737
G01 X492.799 Y527.108
G01 X503.997 Y554.223
G01 X509.505 Y562.126
G01 X510.958 Y551.475
G01 X510.244 Y523.495
G01 X509.461 Y479.903
G01 X510.864 Y422.827
G01 X516.797 Y354.710
G01 X529.609 Y278.210
G01 X551.567 Y196.103
G01 X584.768 Y111.186
G01 X631.041 Y26.191
G01 X646.668 Y5.000
G01 X263.594 Y5.000
G01 X269.049 Y14.880
G01 X330.275 Y136.021
G01 X381.964 Y246.884
G01 X424.233 Y344.537
G01 X457.401 Y426.565
G01 X482.021 Y491.142
G01 X498.903 Y537.070
G01 X509.130 Y563.804
G01 X514.062 Y571.442
G01 X515.325 Y560.693
G01 X514.787 Y532.826
G01 X514.517 Y489.598
G01 X516.732 Y433.170
G01 X523.725 Y366.007
G01 X537.791 Y290.785
G01 X561.137 Y210.288
G01 X595.793 Y127.311
G01 X643.521 Y44.576
G01 X674.328 Y5.000
G01 X276.275 Y5.000
G01 X287.819 Y26.903
G01 X346.145 Y148.049
G01 X395.166 Y258.714
G01 X435.047 Y356.016
G01 X466.147 Y437.595
G01 X489.053 Y501.681
G01 X504.595 Y547.134
G01 X513.869 Y573.466
G01 X518.236 Y580.826
G01 X519.312 Y569.975
G01 X518.946 Y542.225
G01 X519.176 Y499.372
G01 X522.179 Y443.606
G01 X530.200 Y377.417
G01 X545.479 Y303.496
G01 X570.161 Y224.630
G01 X606.211 Y143.615
G01 X655.324 Y63.160
G01 X703.092 Y5.000
G01 X288.771 Y5.000
G01 X306.023 Y39.332
G01 X361.471 Y160.411
G01 X407.850 Y270.810
G01 X445.371 Y367.703
G01 X474.432 Y448.784
G01 X495.648 Y512.340
G01 X509.873 Y557.289
G01 X518.211 Y583.197
G01 X522.025 Y590.268
G01 X522.919 Y579.310
G01 X522.720 Y551.681
G01 X523.437 Y509.212
G01 X527.205 Y454.123
G01 X536.222 Y388.927
G01 X552.670 Y316.326
G01 X578.636 Y239.113
G01 X616.020 Y160.079
G01 X666.450 Y81.922
G01 X710.000 Y31.649
G01 X710.000 Y5.000
G01 X301.092 Y5.000
G01 X323.653 Y52.149
G01 X376.247 Y173.087
G01 X420.011 Y283.156
G01 X455.201 Y379.583
G01 X482.251 Y460.118
G01 X501.806 Y523.105
G01 X514.736 Y567.519
G01 X522.157 Y592.983
G01 X525.429 Y599.753
G01 X526.145 Y588.686
G01 X526.109 Y561.180
G01 X527.299 Y519.104
G01 X531.809 Y464.707
G01 X541.788 Y400.521
G01 X559.363 Y329.259
G01 X586.561 Y253.720
G01 X625.217 Y176.685
G01 X676.895 Y100.840
G01 X710.000 Y64.603
G01 X710.000 Y5.000
G01 X313.251 Y5.000
G01 X340.699 Y65.333
G01 X390.466 Y186.058
G01 X431.645 Y295.734
G01 X464.534 Y391.639
G01 X489.604 Y471.581
G01 X507.524 Y533.961
G01 X519.184 Y577.813
G01 X525.707 Y602.813
G01 X528.448 Y609.270
G01 X528.990 Y598.089
G01 X529.114 Y570.710
G01 X530.763 Y529.037
G01 X535.991 Y475.344
G01 X546.898 Y412.184
G01 X565.558 Y342.280
G01 X593.934 Y268.431
G01 X633.801 Y193.413
G01 X686.659 Y119.893
G01 X710.000 Y95.666
G01 X710.000 Y5.000
G01 X325.256 Y5.000
G01 X357.155 Y78.865
G01 X404.123 Y199.307
G01 X442.748 Y308.526
G01 X473.368 Y403.855
G01 X496.488 Y483.158
G01 X512.802 Y544.895
G01 X523.217 Y588.155
G01 X528.860 Y612.672
G01 X531.084 Y618.806
G01 X531.456 Y607.507
G01 X531.734 Y580.258
G01 X533.828 Y538.996
G01 X539.750 Y486.021
G01 X551.552 Y423.902
G01 X571.252 Y355.373
G01 X600.756 Y283.231
G01 X641.773 Y210.244
G01 X695.740 Y139.061
G01 X710.000 Y125.028
G01 X710.000 Y5.000
G01 X337.119 Y5.000
G01 X373.013 Y92.724
G01 X417.213 Y212.814
G01 X453.315 Y321.515
G01 X481.700 Y416.214
G01 X502.902 Y494.834
G01 X517.640 Y555.891
G01 X526.834 Y598.533
G01 X531.617 Y622.548
G01 X533.335 Y628.347
G01 X533.542 Y616.928
G01 X533.970 Y589.812
G01 X536.495 Y548.968
G01 X543.088 Y496.723
G01 X555.751 Y435.661
G01 X576.448 Y368.521
G01 X607.025 Y298.102
G01 X649.131 Y227.158
G01 X704.140 Y158.321
G01 X710.000 Y152.855
G01 X710.000 Y5.000
G01 X348.848 Y5.000
G01 X388.269 Y106.891
G01 X429.730 Y226.561
G01 X463.345 Y334.683
G01 X489.527 Y428.700
G01 X508.845 Y506.592
G01 X522.037 Y566.935
G01 X530.036 Y608.933
G01 X533.979 Y632.428
G01 X535.205 Y637.883
G01 X535.251 Y626.340
G01 X535.823 Y599.359
G01 X538.765 Y558.942
G01 X546.004 Y507.437
G01 X559.494 Y447.444
G01 X581.144 Y381.710
G01 X612.742 Y313.026
G01 X655.876 Y244.137
G01 X710.000 Y179.860
G01 X710.000 Y5.000
G01 X360.452 Y5.000
G01 X402.915 Y121.345
G01 X441.672 Y240.528
G01 X472.833 Y348.012
G01 X496.850 Y441.296
G01 X514.317 Y518.419
G01 X525.994 Y578.014
G01 X532.825 Y619.342
G01 X535.947 Y642.300
G01 X536.693 Y647.400
G01 X536.583 Y635.730
G01 X537.296 Y608.887
G01 X540.640 Y568.904
G01 X548.501 Y518.150
G01 X562.784 Y459.240
G01 X585.343 Y394.922
G01 X617.909 Y327.986
G01 X662.009 Y261.161
G01 X710.000 Y207.065
G01 X710.000 Y5.000
G01 X371.779 Y5.000
G01 X373.141 Y8.504
G01 X416.946 Y136.067
G01 X453.034 Y254.696
G01 X481.779 Y361.484
G01 X503.666 Y453.986
G01 X519.317 Y530.298
G01 X529.511 Y589.112
G01 X535.201 Y629.746
G01 X537.523 Y652.150
G01 X537.803 Y656.886
G01 X537.540 Y645.086
G01 X538.389 Y618.384
G01 X542.121 Y578.841
G01 X550.580 Y528.848
G01 X565.621 Y471.031
G01 X589.046 Y408.142
G01 X622.526 Y342.964
G01 X667.532 Y278.212
G01 X710.000 Y232.774
G01 X710.000 Y5.000
G01 X382.473 Y5.000
G01 X389.404 Y23.900
G01 X430.360 Y151.034
G01 X463.814 Y269.047
G01 X490.180 Y375.083
G01 X509.976 Y466.754
G01 X523.848 Y542.215
G01 X532.590 Y600.216
G01 X537.166 Y640.131
G01 X538.710 Y661.966
G01 X538.536 Y666.329
G01 X538.126 Y654.396
G01 X539.105 Y627.837
G01 X543.211 Y588.740
G01 X552.243 Y539.518
G01 X568.008 Y482.805
G01 X592.254 Y421.355
G01 X626.596 Y357.944
G01 X672.447 Y295.271
G01 X710.000 Y257.137
G01 X710.000 Y5.000
G01 X393.077 Y5.000
G01 X405.009 Y39.592
G01 X443.151 Y166.228
G01 X474.010 Y283.561
G01 X498.036 Y388.789
G01 X515.674 Y479.543
G01 X527.709 Y554.065
G01 X534.983 Y611.182
G01 X538.449 Y650.324
G01 X539.225 Y671.548
G01 X538.597 Y675.506
G01 X538.010 Y663.408
G01 X539.047 Y636.948
G01 X543.397 Y598.232
G01 X552.805 Y549.675
G01 X569.026 Y493.908
G01 X593.750 Y433.672
G01 X628.538 Y371.717
G01 X674.750 Y310.711
G01 X710.000 Y276.160
G01 X710.000 Y5.000
G01 X367.890 Y5.000
G01 X384.566 Y50.843
G01 X424.641 Y175.826
G01 X457.491 Y291.763
G01 X483.497 Y395.853
G01 X503.137 Y485.756
G01 X517.013 Y559.668
G01 X525.869 Y616.370
G01 X530.614 Y655.262
G01 X532.330 Y676.358
G01 X532.278 Y680.273
G01 X531.886 Y668.170
G01 X532.732 Y641.703
G01 X536.511 Y602.932
G01 X544.987 Y554.229
G01 X559.939 Y498.186
G01 X583.095 Y437.505
G01 X616.061 Y374.903
G01 X660.248 Y313.022
G01 X710.000 Y261.394
G01 X710.000 Y5.000
G01 X341.524 Y5.000
G01 X363.745 Y62.512
G01 X406.071 Y185.815
G01 X441.154 Y300.349
G01 X469.311 Y403.305
G01 X490.961 Y492.326
G01 X506.646 Y565.585
G01 X517.061 Y621.836
G01 X523.067 Y660.445
G01 X525.712 Y681.391
G01 X526.229 Y685.247
G01 X526.030 Y673.135
G01 X526.688 Y646.666
G01 X529.900 Y607.854
G01 X537.447 Y559.031
G01 X551.134 Y502.747
G01 X572.724 Y441.665
G01 X603.866 Y378.471
G01 X646.023 Y315.773
G01 X700.392 Y256.030
G01 X710.000 Y248.259
G01 X710.000 Y5.000
G01 X314.972 Y5.000
G01 X343.501 Y74.705
G01 X388.014 Y196.284
G01 X425.275 Y309.370
G01 X455.536 Y411.145
G01 X479.156 Y499.239
G01 X496.618 Y571.804
G01 X508.565 Y627.567
G01 X515.816 Y665.863
G01 X519.378 Y686.635
G01 X520.458 Y690.419
G01 X520.450 Y678.293
G01 X520.920 Y651.826
G01 X523.570 Y612.989
G01 X530.193 Y564.072
G01 X542.619 Y507.581
G01 X562.646 Y446.143
G01 X591.965 Y382.408
G01 X632.087 Y318.954
G01 X684.267 Y258.214
G01 X710.000 Y236.175
G01 X710.000 Y5.000
G01 X288.207 Y5.000
G01 X323.847 Y87.404
G01 X370.483 Y207.216
G01 X409.865 Y318.809
G01 X442.182 Y419.359
G01 X467.730 Y506.482
G01 X486.936 Y578.312
G01 X500.391 Y633.552
G01 X508.866 Y671.505
G01 X513.333 Y692.082
G01 X514.970 Y695.778
G01 X515.151 Y683.634
G01 X515.435 Y657.174
G01 X517.526 Y618.327
G01 X523.231 Y569.339
G01 X534.402 Y512.677
G01 X552.870 Y450.927
G01 X580.367 Y386.703
G01 X618.452 Y322.552
G01 X668.436 Y260.881
G01 X710.000 Y223.197
G01 X710.000 Y5.000
G01 X261.203 Y5.000
G01 X304.794 Y100.586
G01 X353.490 Y218.592
G01 X394.936 Y328.650
G01 X429.259 Y427.931
G01 X456.693 Y514.042
G01 X477.609 Y585.098
G01 X492.544 Y639.779
G01 X502.225 Y677.361
G01 X507.584 Y697.720
G01 X509.770 Y701.315
G01 X510.139 Y689.148
G01 X510.238 Y662.700
G01 X511.775 Y623.857
G01 X516.568 Y574.824
G01 X526.490 Y518.024
G01 X543.404 Y456.005
G01 X569.082 Y391.344
G01 X605.131 Y326.556
G01 X652.913 Y264.018
G01 X710.000 Y209.236
G01 X710.000 Y5.000
G01 X233.932 Y5.000
G01 X286.354 Y114.231
G01 X337.045 Y230.393
G01 X380.497 Y338.874
G01 X416.775 Y436.846
G01 X446.053 Y521.904
G01 X468.644 Y592.148
G01 X485.032 Y646.236
G01 X495.898 Y683.418
G01 X502.135 Y703.538
G01 X504.863 Y707.020
G01 X505.417 Y694.824
G01 X505.335 Y668.393
G01 X506.322 Y629.569
G01 X510.210 Y580.514
G01 X518.891 Y523.611
G01 X534.257 Y461.366
G01 X558.120 Y396.319
G01 X592.133 Y330.952
G01 X637.710 Y267.614
G01 X695.951 Y208.453
G01 X710.000 Y198.042
G01 X710.000 Y5.000
G01 X206.100 Y5.000
G01 X208.774 Y9.781
G01 X268.540 Y128.319
G01 X321.159 Y242.599
G01 X366.558 Y349.466
G01 X404.740 Y446.089
G01 X435.818 Y530.054
G01 X460.048 Y599.449
G01 X477.861 Y652.913
G01 X489.891 Y689.667
G01 X496.993 Y709.527
G01 X500.255 Y712.881
G01 X500.992 Y700.653
G01 X500.729 Y674.243
G01 X501.173 Y635.452
G01 X504.162 Y586.400
G01 X511.610 Y529.426
G01 X525.437 Y466.997
G01 X547.491 Y401.616
G01 X579.471 Y335.729
G01 X622.841 Y271.655
G01 X678.757 Y211.518
G01 X710.000 Y187.008
G01 X710.000 Y5.000
G01 X177.270 Y5.000
G01 X189.818 Y26.461
G01 X251.360 Y142.827
G01 X305.842 Y255.193
G01 X353.129 Y360.408
G01 X393.162 Y455.643
G01 X425.996 Y538.478
G01 X451.827 Y606.989
G01 X471.036 Y659.795
G01 X484.209 Y696.095
G01 X492.162 Y715.675
G01 X495.950 Y718.888
G01 X496.867 Y706.623
G01 X496.427 Y680.238
G01 X496.332 Y641.495
G01 X498.431 Y592.469
G01 X504.655 Y535.458
G01 X516.950 Y472.888
G01 X537.203 Y407.222
G01 X567.154 Y340.873
G01 X608.317 Y276.127
G01 X661.904 Y215.083
G01 X710.000 Y175.164
G01 X710.000 Y5.000
G01 X148.026 Y5.000
G01 X171.579 Y43.568
G01 X234.825 Y157.735
G01 X291.102 Y268.153
G01 X340.217 Y371.682
G01 X382.049 Y465.492
G01 X416.592 Y547.162
G01 X443.989 Y614.754
G01 X464.564 Y666.872
G01 X478.858 Y702.691
G01 X487.646 Y721.970
G01 X491.952 Y725.031
G01 X493.046 Y712.724
G01 X492.430 Y686.370
G01 X491.804 Y647.687
G01 X493.021 Y598.710
G01 X498.031 Y541.694
G01 X508.805 Y479.025
G01 X527.265 Y413.125
G01 X555.193 Y346.371
G01 X594.151 Y281.017
G01 X645.404 Y219.136
G01 X709.845 Y162.566
G01 X710.000 Y162.468
G01 X710.000 Y5.000
G01 X118.334 Y5.000
G01 X154.068 Y61.077
G01 X218.944 Y173.020
G01 X276.949 Y281.462
G01 X327.830 Y383.270
G01 X371.407 Y475.621
G01 X407.615 Y556.090
G01 X436.538 Y622.730
G01 X458.450 Y674.130
G01 X473.841 Y709.444
G01 X483.449 Y728.403
G01 X488.265 Y731.298
G01 X489.534 Y718.945
G01 X488.745 Y692.625
G01 X487.593 Y654.017
G01 X487.938 Y605.113
G01 X491.743 Y548.124
G01 X501.008 Y485.396
G01 X517.685 Y419.311
G01 X543.596 Y352.209
G01 X580.354 Y286.312
G01 X629.272 Y223.663
G01 X691.301 Y166.077
G01 X710.000 Y153.482
G01 X710.000 Y5.000
G01 X88.154 Y5.000
G01 X137.292 Y78.965
G01 X203.725 Y188.661
G01 X263.391 Y295.097
G01 X315.977 Y395.154
G01 X361.245 Y486.013
G01 X399.070 Y565.248
G01 X429.481 Y630.904
G01 X452.697 Y681.557
G01 X469.164 Y716.340
G01 X479.576 Y734.961
G01 X484.892 Y737.679
G01 X486.334 Y725.275
G01 X485.374 Y698.995
G01 X483.703 Y660.474
G01 X483.185 Y611.664
G01 X485.798 Y554.735
G01 X493.565 Y491.988
G01 X508.469 Y425.767
G01 X532.374 Y358.374
G01 X566.936 Y291.997
G01 X613.521 Y228.647
G01 X673.132 Y170.119
G01 X710.000 Y143.851
G01 X710.000 Y5.000
G01 X57.446 Y5.000
G01 X121.261 Y97.208
G01 X189.176 Y204.635
G01 X250.434 Y309.040
G01 X304.664 Y407.317
G01 X351.568 Y496.652
G01 X390.963 Y574.620
G01 X422.822 Y639.262
G01 X447.312 Y689.140
G01 X464.830 Y723.370
G01 X476.030 Y741.633
G01 X481.836 Y744.162
G01 X483.448 Y731.704
G01 X482.320 Y705.466
G01 X480.137 Y667.047
G01 X478.766 Y618.353
G01 X480.200 Y561.514
G01 X486.482 Y498.789
G01 X499.627 Y432.480
G01 X521.535 Y364.852
G01 X553.908 Y298.056
G01 X598.162 Y234.076
G01 X655.353 Y174.678
G01 X710.000 Y133.521
G01 X710.000 Y5.000
G01 X25.662 Y5.000
G01 X30.575 Y11.117
G01 X105.980 Y115.780
G01 X175.305 Y220.920
G01 X238.086 Y323.270
G01 X293.897 Y419.738
G01 X342.382 Y507.520
G01 X383.300 Y584.193
G01 X416.566 Y647.791
G01 X442.297 Y696.866
G01 X460.842 Y730.519
G01 X472.813 Y748.408
G01 X479.102 Y750.737
G01 X480.879 Y738.220
G01 X479.586 Y712.030
G01 X476.898 Y673.723
G01 X474.686 Y625.168
G01 X474.954 Y568.449
G01 X479.765 Y505.785
G01 X491.163 Y439.437
G01 X511.087 Y371.628
G01 X541.280 Y304.477
G01 X583.207 Y239.933
G01 X637.977 Y179.737
G01 X706.278 Y125.390
G01 X710.000 Y123.247
G01 X710.000 Y5.000
G01 X5.000 Y5.000
G01 X5.000 Y20.659
G01 X14.888 Y32.504
G01 X91.457 Y134.658
G01 X162.117 Y237.494
G01 X226.353 Y337.767
G01 X283.682 Y432.401
G01 X333.692 Y518.602
G01 X376.084 Y593.949
G01 X410.718 Y656.476
G01 X437.657 Y704.724
G01 X457.204 Y737.777
G01 X469.929 Y755.274
G01 X476.690 Y757.392
G01 X478.631 Y744.813
G01 X477.175 Y718.673
G01 X473.990 Y680.492
G01 X470.948 Y632.096
G01 X470.063 Y575.529
G01 X473.418 Y512.964
G01 X483.086 Y446.622
G01 X501.039 Y378.688
G01 X529.062 Y311.242
G01 X568.669 Y246.202
G01 X621.018 Y185.281
G01 X686.852 Y129.956
G01 X710.000 Y115.852
G01 X710.000 Y5.000
G01 X5.000 Y5.000
G01 X5.000 Y60.539
G01 X77.697 Y153.816
G01 X149.618 Y254.333
G01 X215.241 Y352.509
G01 X274.025 Y445.286
G01 X325.503 Y529.879
G01 X369.320 Y603.874
G01 X405.280 Y665.302
G01 X433.394 Y712.698
G01 X453.918 Y745.131
G01 X467.380 Y762.220
G01 X474.603 Y764.115
G01 X476.704 Y751.470
G01 X475.088 Y725.385
G01 X471.414 Y687.343
G01 X467.555 Y639.127
G01 X465.532 Y582.739
G01 X467.447 Y520.312
G01 X475.400 Y454.024
G01 X491.397 Y386.018
G01 X517.263 Y318.338
G01 X554.557 Y252.869
G01 X604.488 Y191.293
G01 X667.852 Y135.066
G01 X710.000 Y107.925
G01 X710.000 Y5.000
G01 X5.000 Y5.000
G01 X5.000 Y99.518
G01 X64.705 Y173.229
G01 X137.815 Y271.416
G01 X204.754 Y367.477
G01 X264.931 Y458.374
G01 X317.820 Y541.336
G01 X363.012 Y613.953
G01 X400.256 Y674.257
G01 X429.512 Y720.777
G01 X450.987 Y752.569
G01 X465.168 Y769.233
G01 X472.842 Y770.896
G01 X475.101 Y758.181
G01 X473.328 Y732.155
G01 X469.174 Y694.262
G01 X464.508 Y646.246
G01 X461.363 Y590.068
G01 X461.856 Y527.816
G01 X468.111 Y461.626
G01 X482.168 Y393.602
G01 X505.891 Y325.749
G01 X540.883 Y259.916
G01 X588.401 Y197.756
G01 X649.293 Y140.702
G01 X710.000 Y99.426
G01 X710.000 Y5.000
G01 X5.000 Y5.000
G01 X5.000 Y136.439
G01 X52.487 Y192.873
G01 X126.710 Y288.719
G01 X194.897 Y382.650
G01 X256.402 Y471.648
G01 X310.646 Y552.954
G01 X357.163 Y624.169
G01 X395.650 Y683.326
G01 X426.013 Y728.947
G01 X448.413 Y760.079
G01 X463.295 Y776.303
G01 X471.410 Y777.724
G01 X473.822 Y764.935
G01 X471.896 Y738.971
G01 X467.270 Y701.239
G01 X461.812 Y653.444
G01 X457.560 Y597.503
G01 X456.648 Y535.462
G01 X461.224 Y469.416
G01 X473.359 Y401.426
G01 X494.954 Y333.458
G01 X527.655 Y267.327
G01 X572.768 Y204.655
G01 X631.189 Y146.847
G01 X703.350 Y95.080
G01 X710.000 Y91.612
G01 X710.000 Y5.000
G01 X5.000 Y5.000
G01 X5.000 Y171.474
G01 X41.045 Y212.722
G01 X116.308 Y306.219
G01 X185.673 Y398.006
G01 X248.444 Y485.086
G01 X303.985 Y564.717
G01 X351.777 Y634.508
G01 X391.463 Y692.494
G01 X422.899 Y737.195
G01 X446.197 Y767.648
G01 X461.762 Y783.417
G01 X470.308 Y784.586
G01 X472.870 Y771.720
G01 X470.793 Y745.822
G01 X465.703 Y708.263
G01 X459.466 Y660.707
G01 X454.125 Y605.030
G01 X451.828 Y543.238
G01 X454.745 Y477.379
G01 X464.976 Y409.474
G01 X484.460 Y341.450
G01 X514.884 Y275.085
G01 X557.600 Y211.970
G01 X613.553 Y153.483
G01 X683.227 Y100.780
G01 X710.000 Y86.014
G01 X710.000 Y5.000
G01 X5.000 Y5.000
G01 X5.000 Y187.584
G01 X41.047 Y228.362
G01 X116.144 Y320.585
G01 X185.405 Y411.171
G01 X248.121 Y497.136
G01 X303.647 Y575.752
G01 X351.452 Y644.639
G01 X391.170 Y701.845
G01 X422.647 Y745.898
G01 X445.990 Y775.843
G01 X461.594 Y791.250
G01 X470.172 Y792.206
G01 X472.752 Y779.278
G01 X470.675 Y753.467
G01 X465.565 Y716.141
G01 X459.285 Y668.961
G01 X453.873 Y613.796
G01 X451.476 Y552.640
G01 X454.260 Y487.534
G01 X464.320 Y420.486
G01 X483.590 Y353.410
G01 X513.752 Y288.070
G01 X556.152 Y226.043
G01 X611.728 Y168.690
G01 X680.959 Y117.154
G01 X710.000 Y101.452
G01 X710.000 Y5.000
G01 X5.000 Y5.000
G01 X5.000 Y175.284
G01 X57.763 Y237.436
G01 X130.394 Y330.212
G01 X197.271 Y421.119
G01 X257.733 Y507.203
G01 X311.177 Y585.770
G01 X357.112 Y654.479
G01 X395.204 Y711.417
G01 X425.329 Y755.157
G01 X447.611 Y784.786
G01 X462.458 Y799.918
G01 X470.585 Y800.680
G01 X473.015 Y787.679
G01 X471.076 Y761.952
G01 X466.370 Y724.897
G01 X460.727 Y678.200
G01 X456.152 Y623.750
G01 X454.749 Y563.556
G01 X458.634 Y499.665
G01 X469.855 Y434.086
G01 X490.291 Y368.726
G01 X521.572 Y305.338
G01 X564.991 Y245.478
G01 X621.437 Y190.487
G01 X691.342 Y141.476
G01 X710.000 Y132.037
G01 X710.000 Y5.000
G01 X5.000 Y5.000
G01 X5.000 Y162.378
G01 X73.939 Y246.949
G01 X144.114 Y340.204
G01 X208.622 Y431.364
G01 X266.847 Y517.505
G01 X318.230 Y595.967
G01 X362.317 Y664.448
G01 X398.808 Y721.077
G01 X427.601 Y764.470
G01 X448.841 Y793.757
G01 X462.946 Y808.595
G01 X470.632 Y809.153
G01 X472.916 Y796.077
G01 X471.111 Y770.436
G01 X466.796 Y733.660
G01 X461.772 Y687.459
G01 X458.007 Y633.741
G01 X457.560 Y574.527
G01 X462.504 Y511.868
G01 X474.834 Y447.775
G01 X496.379 Y384.147
G01 X528.715 Y322.721
G01 X573.084 Y265.037
G01 X630.327 Y212.408
G01 X700.831 Y165.917
G01 X710.000 Y161.588
G01 X710.000 Y5.000
G01 X5.000 Y5.000
G01 X5.000 Y150.283
G01 X16.846 Y163.960
G01 X89.566 Y256.879
G01 X157.295 Y350.542
G01 X219.449 Y441.888
G01 X275.458 Y528.024
G01 X324.803 Y606.326
G01 X367.067 Y674.531
G01 X401.979 Y730.811
G01 X429.463 Y773.823
G01 X449.681 Y802.743
G01 X463.058 Y817.270
G01 X470.313 Y817.614
G01 X472.454 Y804.458
G01 X470.780 Y778.907
G01 X466.845 Y742.418
G01 X462.420 Y696.725
G01 X459.437 Y643.754
G01 X459.911 Y585.535
G01 X465.870 Y524.127
G01 X479.257 Y461.536
G01 X501.852 Y399.652
G01 X535.179 Y340.200
G01 X580.429 Y284.695
G01 X638.398 Y234.428
G01 X709.426 Y190.449
G01 X710.000 Y190.197
G01 X710.000 Y5.000
G01 X5.000 Y5.000
G01 X5.000 Y138.304
G01 X34.398 Y173.708
G01 X104.632 Y267.207
G01 X169.927 Y361.207
G01 X229.746 Y452.673
G01 X283.560 Y538.743
G01 X330.892 Y616.830
G01 X371.357 Y684.712
G01 X404.716 Y740.602
G01 X430.915 Y783.202
G01 X450.129 Y811.730
G01 X462.795 Y825.930
G01 X469.628 Y826.050
G01 X471.631 Y812.812
G01 X470.083 Y787.352
G01 X466.517 Y751.158
G01 X462.672 Y705.985
G01 X460.441 Y653.774
G01 X461.801 Y596.567
G01 X468.729 Y536.425
G01 X483.123 Y475.350
G01 X506.710 Y415.223
G01 X540.964 Y357.751
G01 X587.028 Y304.430
G01 X645.649 Y256.521
G01 X710.000 Y219.179
G01 X710.000 Y5.000
G01 X5.000 Y5.000
G01 X5.000 Y125.644
G01 X51.370 Y183.907
G01 X119.127 Y277.913
G01 X182.004 Y372.179
G01 X239.507 Y463.699
G01 X291.150 Y549.644
G01 X336.493 Y627.464
G01 X375.186 Y694.976
G01 X407.018 Y750.437
G01 X431.955 Y792.593
G01 X450.187 Y820.706
G01 X462.157 Y834.561
G01 X468.579 Y834.448
G01 X470.447 Y821.125
G01 X469.022 Y795.760
G01 X465.812 Y759.868
G01 X462.527 Y715.225
G01 X461.021 Y663.788
G01 X463.229 Y607.607
G01 X471.083 Y548.745
G01 X486.432 Y489.199
G01 X510.953 Y430.839
G01 X546.070 Y375.354
G01 X592.879 Y324.217
G01 X652.082 Y278.660
G01 X710.000 Y247.235
G01 X710.000 Y5.000
G01 X5.000 Y5.000
G01 X5.000 Y112.255
G01 X67.753 Y194.538
G01 X133.044 Y288.976
G01 X193.518 Y383.439
G01 X248.726 Y474.949
G01 X298.222 Y560.710
G01 X341.604 Y638.209
G01 X378.553 Y705.307
G01 X408.884 Y760.301
G01 X432.584 Y801.983
G01 X449.856 Y829.657
G01 X461.146 Y843.153
G01 X467.168 Y842.798
G01 X468.903 Y829.386
G01 X467.598 Y804.118
G01 X464.733 Y768.534
G01 X461.987 Y724.432
G01 X461.177 Y673.781
G01 X464.197 Y618.640
G01 X472.933 Y561.071
G01 X489.184 Y503.065
G01 X514.581 Y446.480
G01 X550.499 Y392.986
G01 X597.985 Y344.032
G01 X657.699 Y300.821
G01 X710.000 Y274.357
G01 X710.000 Y5.000
G01 X5.000 Y5.000
G01 X5.000 Y99.882
G01 X16.333 Y113.594
G01 X83.535 Y205.577
G01 X146.372 Y300.376
G01 X204.462 Y394.967
G01 X257.399 Y486.403
G01 X304.775 Y571.922
G01 X346.223 Y649.050
G01 X381.457 Y715.689
G01 X410.315 Y770.180
G01 X432.804 Y811.357
G01 X449.136 Y838.571
G01 X459.764 Y851.691
G01 X465.395 Y851.085
G01 X467.003 Y837.582
G01 X465.812 Y812.414
G01 X463.280 Y777.145
G01 X461.053 Y733.593
G01 X460.912 Y683.740
G01 X464.706 Y629.651
G01 X474.278 Y573.386
G01 X491.381 Y516.930
G01 X517.596 Y462.126
G01 X554.251 Y410.626
G01 X602.347 Y363.852
G01 X662.502 Y322.978
G01 X710.000 Y300.635
G01 X710.000 Y5.000
G01 X5.000 Y5.000
G01 X5.000 Y87.825
G01 X33.977 Y124.480
G01 X98.707 Y217.003
G01 X159.104 Y312.090
G01 X214.831 Y406.742
G01 X265.520 Y498.042
G01 X310.804 Y583.263
G01 X350.349 Y659.970
G01 X383.897 Y726.106
G01 X411.311 Y780.058
G01 X432.614 Y820.703
G01 X448.029 Y847.435
G01 X458.011 Y860.165
G01 X463.264 Y859.299
G01 X464.747 Y845.702
G01 X463.668 Y820.636
G01 X461.457 Y785.688
G01 X459.728 Y742.695
G01 X460.225 Y693.651
G01 X464.757 Y640.624
G01 X475.122 Y585.673
G01 X493.024 Y530.776
G01 X519.999 Y477.759
G01 X557.328 Y428.253
G01 X605.968 Y383.654
G01 X666.494 Y345.105
G01 X710.000 Y326.149
G01 X710.000 Y5.000
G01 X5.000 Y5.000
G01 X5.000 Y74.962
G01 X50.992 Y135.805
G01 X113.259 Y228.794
G01 X171.233 Y324.098
G01 X224.618 Y418.745
G01 X273.086 Y509.848
G01 X316.307 Y594.715
G01 X353.980 Y670.952
G01 X385.874 Y736.544
G01 X411.873 Y789.921
G01 X432.017 Y830.005
G01 X446.538 Y856.235
G01 X455.892 Y868.560
G01 X460.776 Y867.428
G01 X462.139 Y853.734
G01 X461.167 Y828.772
G01 X459.264 Y794.151
G01 X458.013 Y751.725
G01 X459.120 Y703.499
G01 X464.353 Y651.544
G01 X475.465 Y597.917
G01 X494.116 Y544.584
G01 X521.793 Y493.357
G01 X559.734 Y445.844
G01 X608.851 Y403.413
G01 X669.679 Y367.177
G01 X710.000 Y350.975
G01 X710.000 Y5.000
G01 X5.000 Y5.000
G01 X5.000 Y61.229
G01 X67.366 Y147.547
G01 X127.182 Y240.927
G01 X182.752 Y336.380
G01 X233.819 Y430.955
G01 X280.095 Y521.800
G01 X321.284 Y606.259
G01 X357.116 Y681.979
G01 X387.387 Y746.985
G01 X412.002 Y799.754
G01 X431.015 Y839.252
G01 X444.664 Y864.958
G01 X453.407 Y876.866
G01 X457.935 Y875.459
G01 X459.181 Y861.667
G01 X458.312 Y836.809
G01 X456.706 Y802.521
G01 X455.912 Y760.670
G01 X457.600 Y713.270
G01 X463.496 Y662.397
G01 X475.310 Y610.101
G01 X494.658 Y558.338
G01 X522.981 Y508.902
G01 X561.471 Y463.378
G01 X611.000 Y423.108
G01 X672.063 Y389.169
G01 X710.000 Y375.182
G01 X710.000 Y5.000
G01 X5.000 Y5.000
G01 X5.000 Y49.922
G01 X21.683 Y70.722
G01 X83.090 Y159.682
G01 X140.470 Y253.381
G01 X193.655 Y348.912
G01 X242.430 Y443.352
G01 X286.543 Y533.880
G01 X325.731 Y617.879
G01 X359.756 Y693.034
G01 X388.438 Y757.416
G01 X411.700 Y809.544
G01 X429.609 Y848.428
G01 X442.411 Y873.593
G01 X450.561 Y885.070
G01 X454.743 Y883.380
G01 X455.877 Y869.487
G01 X455.107 Y844.737
G01 X453.785 Y810.786
G01 X453.427 Y769.517
G01 X455.666 Y722.952
G01 X462.189 Y673.167
G01 X474.661 Y622.209
G01 X494.654 Y572.019
G01 X523.566 Y524.374
G01 X562.544 Y480.835
G01 X612.419 Y442.714
G01 X673.650 Y411.056
G01 X710.000 Y398.835
G01 X710.000 Y5.000
G01 X5.000 Y5.000
G01 X5.000 Y38.036
G01 X39.187 Y82.720
G01 X98.155 Y172.187
G01 X153.114 Y266.133
G01 X203.937 Y361.674
G01 X250.447 Y455.915
G01 X292.428 Y546.069
G01 X329.650 Y629.555
G01 X361.902 Y704.100
G01 X389.028 Y767.819
G01 X410.969 Y819.274
G01 X427.803 Y857.521
G01 X439.781 Y882.125
G01 X447.357 Y893.159
G01 X451.205 Y891.181
G01 X452.230 Y877.185
G01 X451.555 Y852.544
G01 X450.504 Y818.934
G01 X450.562 Y778.253
G01 X453.324 Y732.530
G01 X460.435 Y683.840
G01 X473.521 Y634.224
G01 X494.108 Y585.610
G01 X523.552 Y539.754
G01 X562.956 Y498.193
G01 X613.114 Y462.209
G01 X674.447 Y432.813
G01 X710.000 Y421.993
G01 X710.000 Y5.000
G01 X5.000 Y5.000
G01 X5.000 Y25.209
G01 X56.013 Y95.140
G01 X112.552 Y185.037
G01 X165.108 Y279.160
G01 X213.593 Y374.644
G01 X257.867 Y468.624
G01 X297.748 Y558.347
G01 X333.039 Y641.269
G01 X363.554 Y715.161
G01 X389.159 Y778.180
G01 X409.812 Y828.932
G01 X425.600 Y866.517
G01 X436.779 Y890.543
G01 X443.798 Y901.123
G01 X447.324 Y898.849
G01 X448.244 Y884.747
G01 X447.661 Y860.217
G01 X446.869 Y826.953
G01 X447.321 Y786.866
G01 X450.575 Y741.990
G01 X458.239 Y694.401
G01 X471.894 Y646.130
G01 X493.025 Y599.092
G01 X522.943 Y555.023
G01 X562.714 Y515.432
G01 X613.091 Y481.570
G01 X674.460 Y454.415
G01 X710.000 Y444.714
G01 X710.000 Y5.000
G01 X5.000 Y5.000
G01 X5.000 Y13.549
G01 X14.070 Y24.406
G01 X72.150 Y107.955
G01 X126.273 Y198.210
G01 X176.447 Y292.438
G01 X222.620 Y387.800
G01 X264.688 Y481.458
G01 X302.504 Y570.694
G01 X335.899 Y653.005
G01 X364.713 Y726.201
G01 X388.833 Y788.483
G01 X408.231 Y838.503
G01 X423.003 Y875.403
G01 X433.407 Y898.834
G01 X439.889 Y908.948
G01 X443.105 Y906.372
G01 X443.924 Y892.164
G01 X443.428 Y867.745
G01 X442.882 Y834.831
G01 X443.707 Y795.343
G01 X447.426 Y751.320
G01 X455.604 Y704.836
G01 X469.783 Y657.913
G01 X491.408 Y612.450
G01 X521.746 Y570.161
G01 X561.823 Y532.530
G01 X612.356 Y500.775
G01 X673.697 Y475.839
G01 X710.000 Y467.051
G01 X710.000 Y5.000
G01 X6.449 Y5.000
G01 X31.912 Y37.040
G01 X87.589 Y121.140
G01 X139.312 Y211.681
G01 X187.125 Y305.946
G01 X231.013 Y401.120
G01 X270.908 Y494.397
G01 X306.694 Y583.092
G01 X338.231 Y664.743
G01 X365.382 Y737.202
G01 X388.054 Y798.712
G01 X406.231 Y847.972
G01 X420.017 Y884.166
G01 X429.671 Y906.986
G01 X435.635 Y916.623
G01 X438.552 Y913.740
G01 X439.275 Y899.423
G01 X438.861 Y875.118
G01 X438.549 Y842.557
G01 X439.726 Y803.671
G01 X443.879 Y760.506
G01 X452.535 Y715.130
G01 X467.196 Y669.555
G01 X489.262 Y625.664
G01 X519.965 Y585.150
G01 X560.290 Y549.466
G01 X610.917 Y519.801
G01 X672.166 Y497.060
G01 X710.000 Y489.055
G01 X710.000 Y5.000
G01 X14.961 Y5.000
G01 X49.039 Y50.095
G01 X102.323 Y134.672
G01 X151.663 Y225.426
G01 X197.137 Y319.659
G01 X238.771 Y414.582
G01 X276.527 Y507.419
G01 X310.320 Y595.522
G01 X340.036 Y676.466
G01 X365.564 Y748.147
G01 X386.824 Y808.853
G01 X403.814 Y857.325
G01 X416.646 Y892.792
G01 X425.575 Y914.986
G01 X431.040 Y924.137
G01 X433.670 Y920.941
G01 X434.300 Y906.513
G01 X433.965 Y882.323
G01 X433.874 Y850.117
G01 X435.383 Y811.839
G01 X439.941 Y769.534
G01 X449.038 Y725.268
G01 X464.135 Y681.041
G01 X486.595 Y638.720
G01 X517.607 Y599.971
G01 X558.121 Y566.222
G01 X608.781 Y538.627
G01 X669.877 Y518.055
G01 X710.000 Y510.774
G01 X710.000 Y5.000
G01 X23.394 Y5.000
G01 X65.440 Y63.545
G01 X116.344 Y148.525
G01 X163.318 Y239.421
G01 X206.482 Y333.556
G01 X245.891 Y428.164
G01 X281.543 Y520.505
G01 X313.381 Y607.963
G01 X341.317 Y688.157
G01 X365.260 Y759.022
G01 X385.147 Y818.891
G01 X400.986 Y866.549
G01 X412.893 Y901.268
G01 X421.125 Y922.822
G01 X426.109 Y931.478
G01 X428.464 Y927.965
G01 X429.007 Y913.424
G01 X428.746 Y889.349
G01 X428.864 Y857.502
G01 X430.682 Y819.834
G01 X435.616 Y778.393
G01 X445.118 Y735.237
G01 X460.608 Y692.357
G01 X483.412 Y651.599
G01 X514.679 Y614.606
G01 X555.323 Y582.777
G01 X605.956 Y557.231
G01 X666.838 Y538.800
G01 X710.000 Y532.255
G01 X710.000 Y5.000
G01 X31.751 Y5.000
G01 X81.108 Y77.363
G01 X129.644 Y162.672
G01 X174.275 Y253.641
G01 X215.154 Y347.611
G01 X252.372 Y441.845
G01 X285.957 Y533.633
G01 X315.880 Y620.398
G01 X342.076 Y699.796
G01 X364.474 Y769.808
G01 X383.027 Y828.809
G01 X397.752 Y875.629
G01 X408.766 Y909.582
G01 X416.325 Y930.483
G01 X420.848 Y938.635
G01 X422.940 Y934.799
G01 X423.399 Y920.145
G01 X423.209 Y896.186
G01 X423.522 Y864.700
G01 X425.630 Y827.645
G01 X430.911 Y787.068
G01 X440.780 Y745.023
G01 X456.621 Y703.486
G01 X479.719 Y664.285
G01 X511.188 Y629.037
G01 X551.906 Y599.110
G01 X602.453 Y575.590
G01 X663.061 Y559.273
G01 X710.000 Y553.543
G01 X710.000 Y5.000
G01 X5.000 Y5.000
G01 X5.000 Y5.395
G01 X20.330 Y23.179
G01 X72.524 Y98.743
G01 X120.849 Y182.415
G01 X165.498 Y271.754
G01 X206.608 Y364.135
G01 X244.248 Y456.849
G01 X278.419 Y547.212
G01 X309.061 Y632.672
G01 X336.074 Y710.903
G01 X359.344 Y779.899
G01 X378.784 Y838.045
G01 X394.369 Y884.172
G01 X406.174 Y917.594
G01 X414.416 Y938.114
G01 X419.476 Y946.022
G01 X421.928 Y942.061
G01 X422.540 Y927.375
G01 X422.278 Y903.450
G01 X422.281 Y872.030
G01 X423.831 Y835.039
G01 X428.313 Y794.491
G01 X437.148 Y752.402
G01 X451.739 Y710.713
G01 X473.397 Y671.216
G01 X503.266 Y635.498
G01 X542.263 Y604.900
G01 X591.010 Y580.484
G01 X649.785 Y563.026
G01 X710.000 Y554.258
G01 X710.000 Y5.000
G01 X5.000 Y5.000
G01 X5.000 Y48.838
G01 X5.419 Y49.306
G01 X57.985 Y122.526
G01 X106.929 Y203.946
G01 X152.417 Y291.154
G01 X194.555 Y381.546
G01 X233.376 Y472.435
G01 X268.839 Y561.152
G01 X300.841 Y645.155
G01 X329.236 Y722.125
G01 X353.866 Y790.058
G01 X374.598 Y847.334
G01 X391.365 Y892.777
G01 X404.201 Y925.686
G01 X413.288 Y945.850
G01 X418.979 Y953.536
G01 X421.821 Y949.461
G01 X422.568 Y934.745
G01 X422.175 Y910.841
G01 X421.778 Y879.464
G01 X422.666 Y842.507
G01 X426.235 Y801.950
G01 X433.928 Y759.780
G01 X447.173 Y717.907
G01 X467.311 Y678.097
G01 X495.526 Y641.914
G01 X532.773 Y610.676
G01 X579.717 Y585.432
G01 X636.680 Y566.945
G01 X703.605 Y555.705
G01 X710.000 Y555.391
G01 X710.000 Y5.000
G01 X5.000 Y5.000
G01 X5.000 Y93.765
G01 X44.413 Y146.617
G01 X93.904 Y225.793
G01 X140.160 Y310.867
G01 X183.256 Y399.263
G01 X223.191 Y488.312
G01 X259.884 Y575.362
G01 X293.188 Y657.884
G01 X322.914 Y733.567
G01 X348.858 Y800.407
G01 X370.843 Y856.785
G01 X388.757 Y901.516
G01 X402.599 Y933.889
G01 X412.512 Y953.675
G01 X418.820 Y961.122
G01 X422.045 Y956.924
G01 X422.925 Y942.173
G01 X422.402 Y918.294
G01 X421.611 Y886.973
G01 X421.845 Y850.068
G01 X424.511 Y809.529
G01 X431.072 Y767.312
G01 X442.979 Y725.297
G01 X461.606 Y685.222
G01 X488.171 Y648.627
G01 X523.668 Y616.809
G01 X568.804 Y590.798
G01 X623.945 Y571.347
G01 X689.077 Y558.937
G01 X710.000 Y557.497
G01 X710.000 Y5.000
G01 X5.000 Y5.000
G01 X5.000 Y136.350
G01 X31.816 Y170.987
G01 X81.780 Y247.926
G01 X128.733 Y330.867
G01 X172.719 Y417.259
G01 X213.701 Y504.455
G01 X251.560 Y589.821
G01 X286.109 Y670.840
G01 X317.113 Y745.210
G01 X344.325 Y810.931
G01 X367.522 Y866.384
G01 X386.552 Y910.377
G01 X401.372 Y942.189
G01 X412.091 Y961.577
G01 X419.001 Y968.770
G01 X422.603 Y964.439
G01 X423.612 Y949.650
G01 X422.961 Y925.800
G01 X421.783 Y894.544
G01 X421.371 Y857.710
G01 X423.145 Y817.216
G01 X428.584 Y774.986
G01 X439.165 Y732.870
G01 X456.289 Y692.578
G01 X481.210 Y655.624
G01 X514.959 Y623.283
G01 X558.285 Y596.568
G01 X611.595 Y576.216
G01 X674.918 Y562.702
G01 X710.000 Y559.599
G01 X710.000 Y5.000
G01 X5.000 Y5.000
G01 X5.000 Y176.684
G01 X20.197 Y195.601
G01 X70.564 Y270.314
G01 X118.142 Y351.126
G01 X162.949 Y435.510
G01 X204.912 Y520.843
G01 X243.876 Y604.508
G01 X279.611 Y684.003
G01 X311.840 Y757.037
G01 X340.272 Y821.614
G01 X364.641 Y876.115
G01 X384.752 Y919.346
G01 X400.523 Y950.575
G01 X412.027 Y969.545
G01 X419.527 Y976.468
G01 X423.495 Y971.994
G01 X424.632 Y957.164
G01 X423.857 Y933.346
G01 X422.296 Y902.167
G01 X421.249 Y865.422
G01 X422.142 Y824.999
G01 X426.471 Y782.789
G01 X435.737 Y740.612
G01 X451.368 Y700.150
G01 X474.652 Y662.890
G01 X506.657 Y630.085
G01 X548.171 Y602.726
G01 X599.644 Y581.539
G01 X661.147 Y566.985
G01 X710.000 Y561.703
G01 X710.000 Y5.000
G01 X5.000 Y5.000
G01 X5.000 Y214.954
G01 X9.563 Y220.430
G01 X60.261 Y292.929
G01 X108.395 Y371.616
G01 X153.953 Y453.990
G01 X196.831 Y537.451
G01 X236.836 Y619.401
G01 X273.699 Y697.354
G01 X307.100 Y769.029
G01 X336.704 Y832.439
G01 X362.204 Y885.964
G01 X383.361 Y928.408
G01 X400.055 Y959.032
G01 X412.324 Y977.566
G01 X420.398 Y984.205
G01 X424.726 Y979.579
G01 X425.987 Y964.703
G01 X425.089 Y940.922
G01 X423.153 Y909.829
G01 X421.480 Y873.192
G01 X421.503 Y832.865
G01 X424.736 Y790.708
G01 X432.699 Y748.510
G01 X446.850 Y707.925
G01 X468.506 Y670.411
G01 X498.772 Y637.198
G01 X538.476 Y609.257
G01 X588.107 Y587.298
G01 X647.777 Y571.771
G01 X710.000 Y563.813
G01 X710.000 Y5.000
G01 X5.000 Y5.000
G01 X5.000 Y252.455
G01 X50.875 Y315.740
G01 X99.495 Y392.309
G01 X145.735 Y472.673
G01 X189.462 Y554.255
G01 X230.446 Y634.478
G01 X268.378 Y710.873
G01 X302.897 Y781.169
G01 X333.627 Y843.389
G01 X360.215 Y895.916
G01 X382.383 Y937.551
G01 X399.972 Y967.548
G01 X412.983 Y985.628
G01 X421.617 Y991.969
G01 X426.295 Y987.181
G01 X427.678 Y972.257
G01 X426.661 Y948.515
G01 X424.357 Y917.519
G01 X422.067 Y881.007
G01 X421.234 Y840.801
G01 X423.384 Y798.729
G01 X430.058 Y756.551
G01 X442.741 Y715.887
G01 X462.779 Y678.171
G01 X491.314 Y644.607
G01 X529.210 Y616.145
G01 X576.996 Y593.477
G01 X634.826 Y577.044
G01 X702.446 Y567.053
G01 X710.000 Y566.704
G01 X710.000 Y5.000
G01 X5.000 Y5.000
G01 X5.000 Y288.901
G01 X42.410 Y338.718
G01 X91.446 Y413.178
G01 X138.302 Y491.534
G01 X182.811 Y571.232
G01 X224.710 Y649.718
G01 X263.653 Y724.539
G01 X299.236 Y793.439
G01 X331.042 Y854.448
G01 X358.676 Y905.954
G01 X381.820 Y946.759
G01 X400.275 Y976.110
G01 X414.007 Y993.718
G01 X423.185 Y999.747
G01 X428.206 Y994.789
G01 X429.708 Y979.814
G01 X428.573 Y956.114
G01 X425.907 Y925.225
G01 X423.012 Y888.855
G01 X421.336 Y848.795
G01 X422.418 Y806.841
G01 X427.819 Y764.719
G01 X439.047 Y724.023
G01 X457.480 Y686.156
G01 X484.292 Y652.296
G01 X520.384 Y623.373
G01 X566.326 Y600.061
G01 X622.308 Y582.786
G01 X688.119 Y571.748
G01 X710.000 Y570.350
G01 X710.000 Y5.000
G01 X5.000 Y5.000
G01 X5.000 Y323.415
G01 X34.868 Y361.832
G01 X84.252 Y434.194
G01 X131.655 Y510.545
G01 X176.881 Y588.357
G01 X219.633 Y665.098
G01 X259.527 Y738.333
G01 X296.120 Y805.820
G01 X328.954 Y865.599
G01 X357.592 Y916.065
G01 X381.675 Y956.018
G01 X400.967 Y984.704
G01 X415.397 Y1001.824
G01 X425.104 Y1007.528
G01 X430.458 Y1002.392
G01 X432.076 Y987.362
G01 X430.826 Y963.707
G01 X427.807 Y932.936
G01 X424.317 Y896.725
G01 X421.811 Y856.834
G01 X421.841 Y815.028
G01 X425.984 Y773.002
G01 X435.773 Y732.317
G01 X452.615 Y694.349
G01 X477.715 Y660.250
G01 X512.010 Y630.926
G01 X556.108 Y607.033
G01 X610.238 Y588.982
G01 X674.228 Y576.964
G01 X710.000 Y574.042
G01 X710.000 Y5.000
G01 X5.000 Y5.000
G01 X5.000 Y356.150
G01 X28.251 Y385.052
G01 X77.915 Y455.330
G01 X125.798 Y529.682
G01 X171.675 Y605.608
G01 X215.217 Y680.597
G01 X256.003 Y752.234
G01 X293.553 Y818.293
G01 X327.364 Y876.825
G01 X356.964 Y926.232
G01 X381.950 Y965.315
G01 X402.048 Y993.317
G01 X417.155 Y1009.933
G01 X427.374 Y1015.301
G01 X433.052 Y1009.977
G01 X434.784 Y994.891
G01 X433.422 Y971.284
G01 X430.056 Y940.639
G01 X425.983 Y904.603
G01 X422.663 Y864.905
G01 X421.656 Y823.277
G01 X424.560 Y781.384
G01 X432.926 Y740.754
G01 X448.191 Y702.735
G01 X471.591 Y668.452
G01 X504.097 Y638.786
G01 X546.354 Y614.374
G01 X598.630 Y595.613
G01 X660.789 Y582.681
G01 X710.000 Y577.791
G01 X710.000 Y5.000
G01 X5.000 Y5.000
G01 X5.000 Y387.244
G01 X22.559 Y408.349
G01 X72.436 Y476.557
G01 X120.732 Y548.919
G01 X167.196 Y622.959
G01 X211.466 Y696.193
G01 X253.085 Y766.223
G01 X291.535 Y830.840
G01 X326.277 Y888.110
G01 X356.793 Y936.439
G01 X382.646 Y974.635
G01 X403.521 Y1001.937
G01 X419.280 Y1018.034
G01 X429.997 Y1023.053
G01 X435.989 Y1017.534
G01 X437.831 Y1002.388
G01 X436.360 Y978.832
G01 X432.655 Y948.323
G01 X428.012 Y912.478
G01 X423.892 Y872.995
G01 X421.866 Y831.576
G01 X423.548 Y789.851
G01 X430.510 Y749.320
G01 X444.214 Y711.299
G01 X465.927 Y676.885
G01 X496.655 Y646.937
G01 X537.075 Y622.069
G01 X587.496 Y602.661
G01 X647.818 Y588.883
G01 X710.000 Y581.605
G01 X710.000 Y5.000
G01 X5.000 Y5.000
G01 X5.000 Y416.817
G01 X17.793 Y431.692
G01 X67.817 Y497.847
G01 X116.460 Y568.228
G01 X163.446 Y640.387
G01 X208.381 Y711.862
G01 X250.774 Y780.278
G01 X290.071 Y843.443
G01 X325.692 Y899.436
G01 X357.082 Y946.672
G01 X383.764 Y983.963
G01 X405.386 Y1010.549
G01 X421.774 Y1026.113
G01 X432.971 Y1030.771
G01 X439.268 Y1025.051
G01 X441.218 Y1009.842
G01 X439.640 Y986.339
G01 X435.605 Y955.975
G01 X430.403 Y920.336
G01 X425.499 Y881.092
G01 X422.473 Y839.910
G01 X422.951 Y798.390
G01 X428.529 Y757.999
G01 X440.690 Y720.024
G01 X460.732 Y685.533
G01 X489.692 Y655.360
G01 X528.284 Y630.098
G01 X576.850 Y610.109
G01 X635.329 Y595.550
G01 X703.243 Y586.405
G01 X710.000 Y586.062
G01 X710.000 Y5.000
G01 X5.000 Y5.000
G01 X5.000 Y444.978
G01 X13.951 Y455.051
G01 X64.057 Y519.173
G01 X112.982 Y587.585
G01 X160.425 Y657.868
G01 X205.963 Y727.584
G01 X249.071 Y794.380
G01 X289.160 Y856.083
G01 X325.612 Y910.786
G01 X357.832 Y956.915
G01 X385.305 Y993.286
G01 X407.642 Y1019.141
G01 X424.636 Y1034.158
G01 X436.297 Y1038.445
G01 X442.889 Y1032.515
G01 X444.943 Y1017.241
G01 X443.262 Y993.795
G01 X438.905 Y963.584
G01 X433.157 Y928.167
G01 X427.486 Y889.181
G01 X423.478 Y848.265
G01 X422.774 Y806.985
G01 X426.986 Y766.776
G01 X437.624 Y728.894
G01 X456.011 Y694.379
G01 X483.217 Y664.039
G01 X519.989 Y638.443
G01 X566.704 Y617.938
G01 X623.338 Y602.664
G01 X689.447 Y592.599
G01 X710.000 Y591.221
G01 X710.000 Y5.000
G01 X5.000 Y5.000
G01 X5.000 Y471.825
G01 X11.031 Y478.397
G01 X61.155 Y540.506
G01 X110.298 Y606.963
G01 X158.134 Y675.377
G01 X204.213 Y743.335
G01 X247.978 Y808.508
G01 X288.804 Y868.742
G01 X326.036 Y922.143
G01 X359.043 Y967.151
G01 X387.269 Y1002.589
G01 X410.291 Y1027.699
G01 X427.867 Y1042.156
G01 X439.975 Y1046.062
G01 X446.852 Y1039.916
G01 X449.007 Y1024.574
G01 X447.225 Y1001.187
G01 X442.554 Y971.137
G01 X436.275 Y935.956
G01 X429.853 Y897.251
G01 X424.883 Y856.628
G01 X423.017 Y815.622
G01 X425.886 Y775.636
G01 X435.020 Y737.893
G01 X451.772 Y703.406
G01 X477.238 Y672.955
G01 X512.200 Y647.087
G01 X557.070 Y626.128
G01 X611.857 Y610.206
G01 X676.154 Y599.287
G01 X710.000 Y596.472
G01 X710.000 Y5.000
G01 X5.000 Y5.000
G01 X5.000 Y497.444
G01 X9.031 Y501.700
G01 X59.109 Y561.818
G01 X108.405 Y626.337
G01 X156.572 Y692.891
G01 X203.131 Y759.095
G01 X247.495 Y822.642
G01 X289.003 Y881.399
G01 X326.966 Y933.491
G01 X360.714 Y977.366
G01 X389.656 Y1011.857
G01 X413.332 Y1036.209
G01 X431.464 Y1050.096
G01 X444.003 Y1053.610
G01 X451.155 Y1047.242
G01 X453.408 Y1031.829
G01 X451.528 Y1008.504
G01 X446.553 Y978.623
G01 X439.754 Y943.692
G01 X432.599 Y905.288
G01 X426.688 Y864.985
G01 X423.682 Y824.286
G01 X425.230 Y784.562
G01 X432.883 Y747.005
G01 X448.018 Y712.596
G01 X471.763 Y682.091
G01 X504.927 Y656.010
G01 X547.958 Y634.661
G01 X600.900 Y618.156
G01 X663.379 Y606.451
G01 X710.000 Y601.826
G01 X710.000 Y5.000
G01 X5.000 Y5.000
G01 X5.000 Y521.914
G01 X7.947 Y524.930
G01 X57.917 Y583.082
G01 X107.304 Y645.679
G01 X155.739 Y710.384
G01 X202.716 Y774.839
G01 X247.620 Y836.761
G01 X289.756 Y894.038
G01 X328.400 Y944.811
G01 X362.846 Y987.544
G01 X392.465 Y1021.076
G01 X416.763 Y1044.659
G01 X435.428 Y1057.963
G01 X448.379 Y1061.078
G01 X455.797 Y1054.480
G01 X458.144 Y1038.995
G01 X456.170 Y1015.734
G01 X450.898 Y986.030
G01 X443.595 Y951.362
G01 X435.726 Y913.278
G01 X428.893 Y873.322
G01 X424.771 Y832.962
G01 X425.021 Y793.539
G01 X431.216 Y756.212
G01 X444.757 Y721.933
G01 X466.797 Y691.427
G01 X498.179 Y665.194
G01 X539.380 Y643.517
G01 X590.479 Y626.495
G01 X651.136 Y614.069
G01 X710.000 Y607.296
G01 X710.000 Y5.000
G01 X5.000 Y5.000
G01 X5.000 Y545.304
G01 X7.775 Y548.057
G01 X57.575 Y604.269
G01 X106.991 Y664.965
G01 X155.631 Y727.834
G01 X202.967 Y790.547
G01 X248.353 Y850.846
G01 X291.063 Y906.639
G01 X330.338 Y956.088
G01 X365.437 Y997.669
G01 X395.696 Y1030.232
G01 X420.584 Y1053.034
G01 X439.757 Y1065.746
G01 X453.103 Y1068.452
G01 X460.776 Y1061.620
G01 X463.214 Y1046.060
G01 X461.149 Y1022.865
G01 X455.590 Y993.346
G01 X447.797 Y958.954
G01 X439.231 Y921.210
G01 X431.499 Y881.625
G01 X426.284 Y841.637
G01 X425.262 Y802.551
G01 X430.023 Y765.498
G01 X441.991 Y731.397
G01 X462.347 Y700.946
G01 X491.962 Y674.619
G01 X531.345 Y652.677
G01 X580.606 Y635.201
G01 X639.440 Y622.122
G01 X707.124 Y613.268
G01 X710.000 Y613.083
G01 X710.000 Y5.000
G01 X5.000 Y5.000
G01 X5.000 Y567.677
G01 X8.508 Y571.052
G01 X58.079 Y625.354
G01 X107.462 Y684.168
G01 X156.248 Y745.217
G01 X203.883 Y806.196
G01 X249.693 Y864.875
G01 X292.923 Y919.184
G01 X332.779 Y967.303
G01 X368.486 Y1007.725
G01 X399.346 Y1039.311
G01 X424.792 Y1061.322
G01 X444.449 Y1073.432
G01 X458.173 Y1075.722
G01 X466.089 Y1068.650
G01 X468.615 Y1053.013
G01 X466.462 Y1029.887
G01 X460.626 Y1000.559
G01 X452.356 Y966.456
G01 X443.113 Y929.069
G01 X434.505 Y889.880
G01 X428.222 Y850.293
G01 X425.953 Y811.584
G01 X429.306 Y774.847
G01 X439.726 Y740.973
G01 X458.419 Y710.630
G01 X486.284 Y684.265
G01 X523.861 Y662.119
G01 X571.292 Y644.254
G01 X628.303 Y630.588
G01 X694.204 Y620.940
G01 X710.000 Y619.684
G01 X710.000 Y5.000
G01 X5.000 Y5.000
G01 X5.000 Y584.843
G01 X11.889 Y591.358
G01 X60.915 Y644.193
G01 X109.880 Y701.553
G01 X158.366 Y761.181
G01 X205.804 Y820.794
G01 X251.506 Y878.179
G01 X294.699 Y931.288
G01 X334.574 Y978.315
G01 X370.336 Y1017.768
G01 X401.271 Y1048.522
G01 X426.796 Y1069.847
G01 X446.517 Y1081.424
G01 X460.276 Y1083.337
G01 X468.187 Y1076.046
G01 X470.653 Y1060.344
G01 X468.377 Y1037.302
G01 X462.346 Y1008.200
G01 X453.803 Y974.451
G01 X444.203 Y937.533
G01 X435.152 Y898.912
G01 X428.337 Y859.974
G01 X425.449 Y821.973
G01 X428.096 Y785.987
G01 X437.727 Y752.884
G01 X455.551 Y723.311
G01 X482.472 Y697.698
G01 X519.035 Y676.265
G01 X565.390 Y659.058
G01 X621.269 Y645.978
G01 X685.990 Y636.834
G01 X710.000 Y635.027
G01 X710.000 Y5.000
G01 X5.000 Y5.000
G01 X5.000 Y585.182
G01 X21.974 Y602.096
G01 X69.173 Y655.405
G01 X116.316 Y713.044
G01 X163.014 Y772.770
G01 X208.731 Y832.318
G01 X252.806 Y889.501
G01 X294.492 Y942.296
G01 X333.002 Y988.929
G01 X367.562 Y1027.939
G01 X397.471 Y1058.234
G01 X422.158 Y1079.117
G01 X441.234 Y1090.301
G01 X454.542 Y1091.900
G01 X462.188 Y1084.402
G01 X464.568 Y1068.627
G01 X462.368 Y1045.663
G01 X456.554 Y1016.808
G01 X448.346 Y983.488
G01 X439.171 Y947.187
G01 X430.606 Y909.371
G01 X424.305 Y871.424
G01 X421.924 Y834.592
G01 X425.039 Y799.938
G01 X435.066 Y768.314
G01 X453.182 Y740.347
G01 X480.263 Y716.440
G01 X516.829 Y696.787
G01 X563.008 Y681.404
G01 X618.515 Y670.166
G01 X682.659 Y662.846
G01 X710.000 Y661.444
G01 X710.000 Y5.000
G01 X5.000 Y5.000
G01 X5.000 Y585.441
G01 X31.430 Y613.185
G01 X76.808 Y666.905
G01 X122.141 Y724.760
G01 X167.070 Y784.523
G01 X211.088 Y843.951
G01 X253.561 Y900.881
G01 X293.768 Y953.317
G01 X330.942 Y999.516
G01 X364.328 Y1038.049
G01 X393.240 Y1067.857
G01 X417.113 Y1088.275
G01 X435.565 Y1099.050
G01 X448.436 Y1100.324
G01 X455.828 Y1092.614
G01 X458.124 Y1076.762
G01 X455.995 Y1053.878
G01 X450.388 Y1025.275
G01 X442.498 Y992.390
G01 X433.723 Y956.711
G01 X425.612 Y919.707
G01 X419.785 Y882.757
G01 X417.868 Y847.096
G01 X421.402 Y813.775
G01 X431.772 Y783.626
G01 X450.124 Y757.254
G01 X477.308 Y735.037
G01 X513.818 Y717.144
G01 X559.763 Y703.559
G01 X614.843 Y694.127
G01 X678.355 Y688.591
G01 X710.000 Y687.723
G01 X710.000 Y5.000
G01 X5.000 Y5.000
G01 X5.000 Y585.626
G01 X40.246 Y624.604
G01 X83.811 Y678.669
G01 X127.349 Y736.678
G01 X170.529 Y796.420
G01 X212.872 Y855.674
G01 X253.770 Y912.300
G01 X292.526 Y964.333
G01 X328.395 Y1010.059
G01 X360.637 Y1048.082
G01 X388.578 Y1077.376
G01 X411.663 Y1097.308
G01 X429.511 Y1107.657
G01 X441.961 Y1108.596
G01 X449.109 Y1100.668
G01 X451.326 Y1084.738
G01 X449.265 Y1061.935
G01 X443.853 Y1033.588
G01 X436.262 Y1001.143
G01 X427.863 Y966.093
G01 X420.173 Y929.906
G01 X414.783 Y893.956
G01 X413.284 Y859.468
G01 X417.189 Y827.477
G01 X427.848 Y798.796
G01 X446.382 Y774.009
G01 X473.611 Y753.467
G01 X510.009 Y737.310
G01 X555.663 Y725.494
G01 X610.261 Y717.833
G01 X673.091 Y714.040
G01 X710.000 Y713.902
G01 X710.000 Y5.000
G01 X5.000 Y5.000
G01 X5.000 Y586.071
G01 X6.789 Y587.828
G01 X48.413 Y636.328
G01 X90.176 Y690.674
G01 X131.934 Y748.776
G01 X173.386 Y808.439
G01 X214.079 Y867.465
G01 X253.432 Y923.740
G01 X290.768 Y975.326
G01 X325.362 Y1020.541
G01 X356.490 Y1058.023
G01 X383.489 Y1086.776
G01 X405.811 Y1106.203
G01 X423.076 Y1116.111
G01 X435.122 Y1116.705
G01 X442.036 Y1108.552
G01 X444.176 Y1092.542
G01 X442.180 Y1069.823
G01 X436.953 Y1041.734
G01 X429.643 Y1009.734
G01 X421.594 Y975.318
G01 X414.293 Y939.952
G01 X409.301 Y905.005
G01 X408.178 Y871.690
G01 X412.404 Y841.026
G01 X423.301 Y813.806
G01 X441.961 Y790.590
G01 X469.179 Y771.704
G01 X505.407 Y757.259
G01 X550.716 Y747.183
G01 X604.779 Y741.255
G01 X666.877 Y739.161
G01 X710.000 Y740.019
G01 X710.000 Y5.000
G01 X5.000 Y5.000
G01 X5.000 Y587.868
G01 X16.089 Y599.418
G01 X55.923 Y648.335
G01 X95.894 Y702.898
G01 X135.891 Y761.032
G01 X175.637 Y820.560
G01 X214.708 Y879.306
G01 X252.545 Y935.181
G01 X288.493 Y986.279
G01 X321.845 Y1030.947
G01 X351.890 Y1067.855
G01 X377.977 Y1096.043
G01 X399.561 Y1114.944
G01 X416.265 Y1124.399
G01 X427.923 Y1124.637
G01 X434.612 Y1116.256
G01 X436.679 Y1100.164
G01 X434.744 Y1077.528
G01 X429.692 Y1049.702
G01 X422.645 Y1018.150
G01 X414.920 Y984.372
G01 X407.976 Y949.832
G01 X403.344 Y915.889
G01 X402.552 Y883.745
G01 X407.052 Y854.402
G01 X418.135 Y828.634
G01 X436.867 Y806.976
G01 X464.019 Y789.726
G01 X500.023 Y776.967
G01 X544.932 Y768.597
G01 X598.408 Y764.365
G01 X659.725 Y763.926
G01 X710.000 Y766.110
G01 X710.000 Y5.000
G01 X5.000 Y5.000
G01 X5.000 Y589.555
G01 X24.716 Y611.331
G01 X62.765 Y660.599
G01 X100.960 Y715.318
G01 X139.214 Y773.424
G01 X177.280 Y832.761
G01 X214.757 Y891.175
G01 X251.109 Y946.605
G01 X285.702 Y997.173
G01 X317.845 Y1041.258
G01 X346.840 Y1077.565
G01 X372.043 Y1105.163
G01 X392.916 Y1123.520
G01 X409.082 Y1132.506
G01 X420.368 Y1132.381
G01 X426.843 Y1123.766
G01 X428.841 Y1107.591
G01 X426.964 Y1085.040
G01 X422.074 Y1057.479
G01 X415.272 Y1026.379
G01 X407.846 Y993.242
G01 X401.227 Y959.529
G01 X396.916 Y926.591
G01 X396.413 Y895.616
G01 X401.138 Y867.588
G01 X412.356 Y843.261
G01 X431.107 Y823.143
G01 X458.139 Y807.508
G01 X493.863 Y796.408
G01 X538.320 Y789.710
G01 X591.160 Y787.134
G01 X651.649 Y788.304
G01 X710.000 Y792.211
G01 X710.000 Y5.000
G01 X5.000 Y5.000
G01 X5.000 Y591.133
G01 X32.659 Y623.543
G01 X68.933 Y673.098
G01 X105.367 Y727.910
G01 X141.900 Y785.929
G01 X178.313 Y845.021
G01 X214.226 Y903.053
G01 X249.126 Y957.993
G01 X282.398 Y1007.991
G01 X313.365 Y1051.460
G01 X341.342 Y1087.135
G01 X365.693 Y1114.121
G01 X385.882 Y1131.917
G01 X401.531 Y1140.422
G01 X412.462 Y1139.925
G01 X418.734 Y1131.071
G01 X420.666 Y1114.811
G01 X418.842 Y1092.346
G01 X414.105 Y1065.052
G01 X407.529 Y1034.408
G01 X400.377 Y1001.915
G01 X394.051 Y969.030
G01 X390.024 Y937.095
G01 X389.766 Y907.285
G01 X394.669 Y880.565
G01 X405.972 Y857.665
G01 X424.688 Y839.071
G01 X451.546 Y825.027
G01 X486.939 Y815.557
G01 X530.892 Y810.496
G01 X583.046 Y809.535
G01 X642.663 Y812.266
G01 X708.648 Y818.234
G01 X710.000 Y818.401
G01 X710.000 Y5.000
G01 X5.000 Y5.000
G01 X5.000 Y592.722
G01 X5.459 Y593.176
G01 X39.910 Y636.030
G01 X74.420 Y685.807
G01 X109.110 Y740.650
G01 X143.947 Y798.526
G01 X178.733 Y857.318
G01 X213.114 Y914.919
G01 X246.596 Y969.325
G01 X278.582 Y1018.715
G01 X308.408 Y1061.535
G01 X335.402 Y1096.552
G01 X358.931 Y1122.903
G01 X378.463 Y1140.120
G01 X393.617 Y1148.133
G01 X404.210 Y1147.256
G01 X410.289 Y1138.159
G01 X412.159 Y1121.814
G01 X410.386 Y1099.436
G01 X405.790 Y1072.411
G01 X399.422 Y1042.224
G01 X392.518 Y1010.377
G01 X386.454 Y978.320
G01 X382.673 Y947.386
G01 X382.617 Y918.735
G01 X387.651 Y893.313
G01 X398.988 Y871.828
G01 X417.619 Y854.738
G01 X444.251 Y842.260
G01 X479.260 Y834.389
G01 X522.658 Y830.929
G01 X574.079 Y831.540
G01 X632.781 Y835.784
G01 X697.670 Y843.178
G01 X710.000 Y844.960
G01 X710.000 Y5.000
G01 X5.000 Y5.000
G01 X5.000 Y596.268
G01 X13.760 Y605.552
G01 X46.460 Y648.764
G01 X79.220 Y698.701
G01 X112.186 Y753.515
G01 X145.350 Y811.190
G01 X178.540 Y869.631
G01 X211.421 Y926.754
G01 X243.521 Y980.582
G01 X274.256 Y1029.328
G01 X302.978 Y1071.466
G01 X329.022 Y1105.799
G01 X351.761 Y1131.496
G01 X370.664 Y1148.118
G01 X385.347 Y1155.627
G01 X395.618 Y1154.363
G01 X401.515 Y1145.020
G01 X403.327 Y1128.588
G01 X401.600 Y1106.297
G01 X397.135 Y1079.543
G01 X390.956 Y1049.815
G01 X384.276 Y1018.614
G01 X378.441 Y987.385
G01 X374.868 Y957.450
G01 X374.972 Y929.951
G01 X380.091 Y905.816
G01 X391.414 Y885.729
G01 X409.908 Y870.123
G01 X436.262 Y859.185
G01 X470.837 Y852.880
G01 X513.632 Y850.983
G01 X564.275 Y853.121
G01 X622.020 Y858.829
G01 X685.776 Y867.594
G01 X710.000 Y871.605
G01 X710.000 Y5.000
G01 X5.000 Y5.000
G01 X5.000 Y599.675
G01 X21.346 Y618.216
G01 X52.303 Y661.722
G01 X83.327 Y711.756
G01 X114.590 Y766.482
G01 X146.109 Y823.900
G01 X177.733 Y881.937
G01 X209.149 Y938.536
G01 X239.903 Y991.747
G01 X269.425 Y1039.811
G01 X297.079 Y1081.239
G01 X322.208 Y1114.862
G01 X344.189 Y1139.884
G01 X362.491 Y1155.898
G01 X376.725 Y1162.892
G01 X386.693 Y1161.235
G01 X392.418 Y1151.641
G01 X394.175 Y1135.121
G01 X392.492 Y1112.918
G01 X388.145 Y1086.437
G01 X382.138 Y1057.169
G01 X375.656 Y1026.615
G01 X370.019 Y996.212
G01 X366.617 Y967.269
G01 X366.839 Y940.915
G01 X371.997 Y918.054
G01 X383.257 Y899.349
G01 X401.564 Y885.204
G01 X427.590 Y875.778
G01 X461.681 Y871.006
G01 X503.827 Y870.632
G01 X553.647 Y874.254
G01 X610.396 Y881.374
G01 X672.985 Y891.454
G01 X710.000 Y898.363
G01 X710.000 Y5.000
G01 X5.000 Y5.000
G01 X5.000 Y602.942
G01 X28.207 Y631.142
G01 X57.431 Y674.878
G01 X86.736 Y724.946
G01 X116.320 Y779.525
G01 X146.222 Y836.633
G01 X176.313 Y894.217
G01 X206.300 Y950.246
G01 X235.744 Y1002.799
G01 X264.092 Y1050.149
G01 X290.716 Y1090.836
G01 X314.965 Y1123.726
G01 X336.220 Y1148.055
G01 X353.950 Y1163.445
G01 X367.759 Y1169.915
G01 X377.440 Y1167.859
G01 X383.004 Y1158.012
G01 X384.710 Y1141.404
G01 X383.066 Y1119.289
G01 X378.828 Y1093.081
G01 X372.974 Y1064.274
G01 X366.665 Y1034.365
G01 X361.195 Y1004.785
G01 X357.927 Y976.830
G01 X358.225 Y951.610
G01 X363.378 Y930.011
G01 X374.526 Y912.668
G01 X392.598 Y899.961
G01 X418.247 Y892.018
G01 X451.806 Y888.744
G01 X493.256 Y889.852
G01 X542.212 Y894.910
G01 X597.927 Y903.392
G01 X659.316 Y914.731
G01 X710.000 Y925.259
G01 X710.000 Y5.000
G01 X5.000 Y5.000
G01 X5.000 Y606.614
G01 X6.576 Y608.119
G01 X34.335 Y644.304
G01 X61.839 Y688.205
G01 X89.444 Y738.248
G01 X117.374 Y792.622
G01 X145.688 Y849.366
G01 X174.280 Y906.448
G01 X202.875 Y961.864
G01 X231.049 Y1013.720
G01 X258.261 Y1060.322
G01 X283.892 Y1100.241
G01 X307.298 Y1132.376
G01 X327.861 Y1155.994
G01 X345.047 Y1170.749
G01 X358.454 Y1176.686
G01 X367.866 Y1174.225
G01 X373.280 Y1164.122
G01 X374.938 Y1147.424
G01 X373.330 Y1125.398
G01 X369.190 Y1099.463
G01 X363.470 Y1071.117
G01 X357.309 Y1041.853
G01 X351.975 Y1013.092
G01 X348.806 Y986.118
G01 X349.139 Y962.022
G01 X354.241 Y941.669
G01 X365.232 Y925.669
G01 X383.020 Y914.373
G01 X408.244 Y907.882
G01 X441.224 Y906.070
G01 X481.934 Y908.618
G01 X529.984 Y915.065
G01 X584.629 Y924.856
G01 X644.789 Y937.396
G01 X709.091 Y952.109
G01 X710.000 Y952.332
G01 X710.000 Y5.000
G01 X5.000 Y5.000
G01 X5.000 Y612.218
G01 X13.674 Y621.188
G01 X39.724 Y657.675
G01 X65.521 Y701.679
G01 X91.448 Y751.635
G01 X117.750 Y805.749
G01 X144.509 Y862.076
G01 X171.637 Y918.609
G01 X198.878 Y973.369
G01 X225.821 Y1024.492
G01 X251.937 Y1070.314
G01 X276.615 Y1109.439
G01 X299.215 Y1140.798
G01 X319.119 Y1163.689
G01 X335.789 Y1177.795
G01 X348.818 Y1183.191
G01 X357.978 Y1180.320
G01 X363.253 Y1169.960
G01 X364.868 Y1153.172
G01 X363.292 Y1131.234
G01 X359.237 Y1105.574
G01 X353.635 Y1077.688
G01 X347.598 Y1049.066
G01 X342.369 Y1021.119
G01 X339.261 Y995.117
G01 X339.589 Y972.134
G01 X344.596 Y953.010
G01 X355.383 Y938.331
G01 X372.841 Y928.421
G01 X397.593 Y923.350
G01 X429.949 Y922.961
G01 X469.876 Y926.906
G01 X516.982 Y934.694
G01 X570.523 Y945.739
G01 X629.425 Y959.423
G01 X692.324 Y975.144
G01 X710.000 Y979.806
G01 X710.000 Y5.000
G01 X5.000 Y5.000
G01 X5.000 Y617.668
G01 X20.017 Y634.505
G01 X44.367 Y671.228
G01 X68.475 Y715.272
G01 X92.746 Y765.083
G01 X117.448 Y818.880
G01 X142.684 Y874.740
G01 X168.386 Y930.678
G01 X194.312 Y984.741
G01 X220.065 Y1035.096
G01 X245.125 Y1080.108
G01 X268.890 Y1118.414
G01 X290.720 Y1148.976
G01 X309.999 Y1171.125
G01 X326.183 Y1184.573
G01 X338.858 Y1189.421
G01 X347.784 Y1186.136
G01 X352.931 Y1175.516
G01 X354.505 Y1158.636
G01 X352.958 Y1136.787
G01 X348.979 Y1111.401
G01 X343.476 Y1083.974
G01 X337.537 Y1055.991
G01 X332.383 Y1028.853
G01 X329.301 Y1003.814
G01 X329.584 Y981.930
G01 X334.454 Y964.018
G01 X344.992 Y950.638
G01 X362.073 Y942.084
G01 X386.307 Y938.399
G01 X417.996 Y939.395
G01 X457.099 Y944.693
G01 X503.224 Y953.771
G01 X555.628 Y966.018
G01 X613.245 Y980.787
G01 X674.722 Y997.453
G01 X710.000 Y1007.418
G01 X710.000 Y1600.000
G01 X5.000 Y1600.000
G01 X5.000 Y622.961
G01 X25.599 Y648.041
G01 X48.260 Y684.936
G01 X70.696 Y728.959
G01 X93.335 Y778.566
G01 X116.468 Y831.994
G01 X140.216 Y887.336
G01 X164.530 Y942.634
G01 X189.180 Y995.961
G01 X213.785 Y1045.513
G01 X237.832 Y1089.686
G01 X260.723 Y1127.150
G01 X281.822 Y1156.898
G01 X300.509 Y1178.290
G01 X316.237 Y1191.069
G01 X328.582 Y1195.363
G01 X337.291 Y1191.660
G01 X342.321 Y1180.778
G01 X343.859 Y1163.807
G01 X342.336 Y1142.047
G01 X338.422 Y1116.935
G01 X333.000 Y1089.965
G01 X327.136 Y1062.617
G01 X322.026 Y1036.280
G01 X318.935 Y1012.195
G01 X319.133 Y991.395
G01 X323.823 Y974.675
G01 X334.068 Y962.570
G01 X350.728 Y955.344
G01 X374.401 Y953.010
G01 X405.379 Y955.350
G01 X443.619 Y961.955
G01 X488.727 Y972.273
G01 X539.964 Y985.665
G01 X596.272 Y1001.460
G01 X656.310 Y1019.009
G01 X710.000 Y1035.177
G01 X710.000 Y1600.000
G01 X5.000 Y1600.000
G01 X5.000 Y629.819
G01 X8.672 Y632.953
G01 X30.412 Y661.769
G01 X51.397 Y698.772
G01 X72.182 Y742.713
G01 X93.216 Y792.060
G01 X114.810 Y845.064
G01 X137.107 Y899.842
G01 X160.071 Y954.456
G01 X183.489 Y1007.010
G01 X206.988 Y1055.726
G01 X230.064 Y1099.033
G01 X252.122 Y1135.632
G01 X272.527 Y1164.548
G01 X290.658 Y1185.171
G01 X305.959 Y1197.272
G01 X317.997 Y1201.005
G01 X326.508 Y1196.882
G01 X331.431 Y1185.737
G01 X332.936 Y1168.675
G01 X331.435 Y1147.004
G01 X327.574 Y1122.164
G01 X322.216 Y1095.649
G01 X316.403 Y1068.931
G01 X311.307 Y1043.389
G01 X308.172 Y1020.244
G01 X308.247 Y1000.513
G01 X312.716 Y984.966
G01 X322.624 Y974.109
G01 X338.819 Y968.181
G01 X361.887 Y967.162
G01 X392.115 Y970.805
G01 X429.453 Y978.670
G01 X473.510 Y990.177
G01 X523.552 Y1004.659
G01 X578.529 Y1021.419
G01 X637.111 Y1039.789
G01 X697.749 Y1059.175
G01 X710.000 Y1063.178
G01 X710.000 Y1600.000
G01 X5.000 Y1600.000
G01 X5.000 Y637.791
G01 X14.380 Y646.604
G01 X34.451 Y675.661
G01 X53.776 Y712.709
G01 X72.931 Y756.509
G01 X92.388 Y805.538
G01 X112.477 Y858.068
G01 X133.360 Y912.233
G01 X155.015 Y966.123
G01 X177.243 Y1017.866
G01 X199.679 Y1065.716
G01 X221.826 Y1108.131
G01 X243.094 Y1143.844
G01 X262.844 Y1171.912
G01 X280.453 Y1191.755
G01 X295.356 Y1203.171
G01 X307.112 Y1206.339
G01 X315.442 Y1201.792
G01 X320.269 Y1190.383
G01 X321.746 Y1173.229
G01 X320.263 Y1151.647
G01 X316.445 Y1127.078
G01 X311.133 Y1101.015
G01 X305.346 Y1074.922
G01 X300.235 Y1050.165
G01 X297.022 Y1027.950
G01 X296.936 Y1009.271
G01 X301.143 Y994.874
G01 X310.673 Y985.240
G01 X326.360 Y980.576
G01 X348.782 Y980.835
G01 X378.219 Y985.738
G01 X414.620 Y994.815
G01 X457.595 Y1007.458
G01 X506.415 Y1022.973
G01 X560.040 Y1040.639
G01 X617.153 Y1059.766
G01 X676.221 Y1079.743
G01 X710.000 Y1091.322
G01 X710.000 Y1600.000
G01 X5.000 Y1600.000
G01 X5.000 Y645.633
G01 X19.298 Y660.455
G01 X37.711 Y689.688
G01 X55.393 Y726.720
G01 X72.942 Y770.319
G01 X90.852 Y818.977
G01 X109.472 Y870.981
G01 X128.979 Y924.489
G01 X149.367 Y977.614
G01 X170.448 Y1028.511
G01 X191.866 Y1075.465
G01 X213.128 Y1116.964
G01 X233.646 Y1151.773
G01 X252.781 Y1178.978
G01 X269.902 Y1198.029
G01 X284.439 Y1208.753
G01 X295.937 Y1211.352
G01 X304.103 Y1206.380
G01 X308.845 Y1194.706
G01 X310.296 Y1177.461
G01 X308.828 Y1155.966
G01 X305.043 Y1131.668
G01 X299.759 Y1106.053
G01 X293.976 Y1080.579
G01 X288.820 Y1056.598
G01 X285.495 Y1035.298
G01 X285.211 Y1017.653
G01 X289.116 Y1004.384
G01 X298.226 Y995.944
G01 X313.364 Y992.512
G01 X335.100 Y994.010
G01 X363.708 Y1000.128
G01 X399.138 Y1010.369
G01 X441.000 Y1024.095
G01 X488.575 Y1040.586
G01 X540.829 Y1059.098
G01 X596.461 Y1078.918
G01 X653.955 Y1099.420
G01 X710.000 Y1119.515
G01 X710.000 Y1600.000
G01 X5.000 Y1600.000
G01 X5.000 Y664.524
G01 X22.143 Y682.906
G01 X39.469 Y711.403
G01 X56.198 Y747.572
G01 X72.941 Y790.200
G01 X90.199 Y837.804
G01 X108.323 Y888.697
G01 X127.490 Y941.061
G01 X147.689 Y993.036
G01 X168.719 Y1042.804
G01 X190.212 Y1088.675
G01 X211.656 Y1129.160
G01 X232.443 Y1163.044
G01 X251.911 Y1189.433
G01 X269.403 Y1207.790
G01 X284.325 Y1217.952
G01 X296.194 Y1220.127
G01 X304.693 Y1214.873
G01 X309.705 Y1203.054
G01 X311.340 Y1185.792
G01 X309.951 Y1164.399
G01 X306.125 Y1140.304
G01 X300.667 Y1114.975
G01 X294.567 Y1089.847
G01 X288.949 Y1066.247
G01 X285.017 Y1045.336
G01 X283.985 Y1028.060
G01 X287.012 Y1015.114
G01 X295.127 Y1006.923
G01 X309.170 Y1003.642
G01 X329.731 Y1005.169
G01 X357.108 Y1011.174
G01 X391.276 Y1021.143
G01 X431.872 Y1034.427
G01 X478.203 Y1050.296
G01 X529.265 Y1068.003
G01 X583.783 Y1086.840
G01 X640.266 Y1106.184
G01 X697.070 Y1125.547
G01 X710.000 Y1129.995
G01 X710.000 Y1600.000
G01 X5.000 Y1600.000
G01 X5.000 Y691.379
G01 X7.156 Y692.438
G01 X24.853 Y710.997
G01 X41.456 Y738.041
G01 X57.642 Y772.704
G01 X74.022 Y813.797
G01 X91.092 Y859.861
G01 X109.194 Y909.231
G01 X128.491 Y960.113
G01 X148.954 Y1010.667
G01 X170.362 Y1059.096
G01 X192.323 Y1103.726
G01 X214.299 Y1143.086
G01 X235.653 Y1175.972
G01 X255.695 Y1201.498
G01 X273.742 Y1219.135
G01 X289.168 Y1228.721
G01 X301.468 Y1230.462
G01 X310.298 Y1224.910
G01 X315.523 Y1212.922
G01 X317.235 Y1195.607
G01 X315.771 Y1174.261
G01 X311.712 Y1150.294
G01 X305.857 Y1125.154
G01 X299.195 Y1100.252
G01 X292.857 Y1076.892
G01 X288.052 Y1056.211
G01 X286.010 Y1039.129
G01 X287.903 Y1026.318
G01 X294.782 Y1018.180
G01 X307.508 Y1014.849
G01 X326.696 Y1016.205
G01 X352.669 Y1021.904
G01 X385.428 Y1031.419
G01 X424.638 Y1044.093
G01 X469.631 Y1059.193
G01 X519.427 Y1075.974
G01 X572.776 Y1093.729
G01 X628.206 Y1111.847
G01 X684.095 Y1129.852
G01 X710.000 Y1138.188
G01 X710.000 Y1587.541
G01 X709.565 Y1588.001
G01 X698.385 Y1600.000
G01 X5.000 Y1600.000
G01 X5.000 Y718.564
G01 X11.918 Y721.702
G01 X28.674 Y738.932
G01 X44.508 Y764.566
G01 X60.100 Y797.761
G01 X76.063 Y837.350
G01 X92.888 Y881.898
G01 X110.910 Y929.763
G01 X130.279 Y979.174
G01 X150.949 Y1028.313
G01 X172.681 Y1075.404
G01 X195.057 Y1118.790
G01 X217.516 Y1157.017
G01 X239.393 Y1188.894
G01 X259.971 Y1213.545
G01 X278.537 Y1230.448
G01 X294.441 Y1239.445
G01 X307.149 Y1240.741
G01 X316.297 Y1234.883
G01 X321.726 Y1222.720
G01 X323.511 Y1205.349
G01 X321.976 Y1184.052
G01 X317.691 Y1160.220
G01 X311.451 Y1135.281
G01 X304.243 Y1110.625
G01 X297.200 Y1087.530
G01 X291.542 Y1067.109
G01 X288.507 Y1050.258
G01 X289.284 Y1037.624
G01 X294.943 Y1029.585
G01 X306.366 Y1026.255
G01 X324.189 Y1027.495
G01 X348.762 Y1032.944
G01 X380.111 Y1042.064
G01 X417.927 Y1054.188
G01 X461.566 Y1068.579
G01 X510.076 Y1084.491
G01 X562.226 Y1101.222
G01 X616.570 Y1118.168
G01 X671.501 Y1134.864
G01 X710.000 Y1146.417
G01 X710.000 Y1567.042
G01 X706.618 Y1570.735
G01 X680.362 Y1600.000
G01 X5.000 Y1600.000
G01 X5.000 Y745.393
G01 X17.827 Y750.724
G01 X33.602 Y766.675
G01 X48.620 Y790.945
G01 X63.569 Y822.710
G01 X79.061 Y860.828
G01 X95.586 Y903.886
G01 X113.471 Y950.266
G01 X132.855 Y998.219
G01 X153.677 Y1045.951
G01 X175.676 Y1091.705
G01 X198.415 Y1133.845
G01 X221.308 Y1170.933
G01 X243.664 Y1201.792
G01 X264.738 Y1225.558
G01 X283.790 Y1241.715
G01 X300.144 Y1250.111
G01 X313.240 Y1250.950
G01 X322.690 Y1244.777
G01 X328.313 Y1232.433
G01 X330.168 Y1215.005
G01 X328.565 Y1193.758
G01 X324.062 Y1170.069
G01 X317.448 Y1145.345
G01 X309.710 Y1120.952
G01 X301.981 Y1098.146
G01 X295.488 Y1078.016
G01 X291.481 Y1061.432
G01 X291.162 Y1049.015
G01 X295.618 Y1041.121
G01 X305.750 Y1037.843
G01 X322.220 Y1039.020
G01 X345.399 Y1044.276
G01 X375.338 Y1053.059
G01 X411.753 Y1064.693
G01 X454.028 Y1078.435
G01 X501.230 Y1093.538
G01 X552.157 Y1109.301
G01 X605.380 Y1125.129
G01 X659.314 Y1140.569
G01 X710.000 Y1154.702
G01 X710.000 Y1546.275
G01 X703.114 Y1554.034
G01 X663.400 Y1599.993
G01 X663.394 Y1600.000
G01 X5.000 Y1600.000
G01 X5.000 Y773.988
G01 X8.804 Y773.418
G01 X24.873 Y779.466
G01 X39.629 Y794.191
G01 X53.787 Y817.142
G01 X68.044 Y847.518
G01 X83.014 Y884.199
G01 X99.185 Y925.795
G01 X116.877 Y970.711
G01 X136.220 Y1017.222
G01 X157.136 Y1063.557
G01 X179.349 Y1107.978
G01 X202.399 Y1148.872
G01 X225.677 Y1184.816
G01 X248.466 Y1214.649
G01 X269.997 Y1237.520
G01 X289.501 Y1252.921
G01 X306.277 Y1260.704
G01 X319.738 Y1261.077
G01 X329.475 Y1254.581
G01 X335.284 Y1242.050
G01 X337.207 Y1224.562
G01 X335.538 Y1203.369
G01 X330.825 Y1179.829
G01 X323.850 Y1155.331
G01 X315.596 Y1131.220
G01 X307.200 Y1108.727
G01 X299.893 Y1088.916
G01 X294.934 Y1072.633
G01 X293.539 Y1060.474
G01 X296.811 Y1052.771
G01 X305.670 Y1049.593
G01 X320.798 Y1050.761
G01 X342.590 Y1055.881
G01 X371.122 Y1064.385
G01 X406.133 Y1075.589
G01 X447.031 Y1088.742
G01 X492.910 Y1103.094
G01 X542.589 Y1117.949
G01 X594.660 Y1132.715
G01 X647.559 Y1146.950
G01 X699.635 Y1160.389
G01 X710.000 Y1163.016
G01 X710.000 Y1525.221
G01 X699.077 Y1537.914
G01 X661.147 Y1583.474
G01 X647.840 Y1600.000
G01 X5.000 Y1600.000
G01 X5.000 Y805.764
G01 X18.179 Y802.902
G01 X33.048 Y807.893
G01 X46.746 Y821.443
G01 X60.004 Y843.124
G01 X73.522 Y872.153
G01 X87.919 Y907.433
G01 X103.682 Y947.596
G01 X121.127 Y991.072
G01 X140.372 Y1036.158
G01 X161.327 Y1081.105
G01 X183.699 Y1124.200
G01 X207.008 Y1163.848
G01 X230.622 Y1198.645
G01 X253.801 Y1227.447
G01 X275.748 Y1249.414
G01 X295.671 Y1264.050
G01 X312.839 Y1271.211
G01 X326.645 Y1271.109
G01 X336.651 Y1264.281
G01 X342.637 Y1251.558
G01 X344.625 Y1234.008
G01 X342.893 Y1212.870
G01 X337.978 Y1189.487
G01 X330.655 Y1165.227
G01 X321.903 Y1141.414
G01 X312.859 Y1119.257
G01 X304.759 Y1099.795
G01 X298.870 Y1083.846
G01 X296.421 Y1071.985
G01 X298.528 Y1064.517
G01 X306.131 Y1061.488
G01 X319.932 Y1062.699
G01 X340.347 Y1067.738
G01 X367.475 Y1076.023
G01 X401.080 Y1086.856
G01 X440.594 Y1099.480
G01 X485.134 Y1113.142
G01 X533.542 Y1127.146
G01 X584.432 Y1140.907
G01 X636.260 Y1153.990
G01 X687.393 Y1166.145
G01 X710.000 Y1171.322
G01 X710.000 Y1503.866
G01 X694.533 Y1522.390
G01 X658.352 Y1567.486
G01 X633.305 Y1600.000
G01 X5.000 Y1600.000
G01 X5.000 Y842.413
G01 X13.316 Y836.472
G01 X28.700 Y831.975
G01 X42.340 Y835.967
G01 X54.946 Y848.398
G01 X67.262 Y868.856
G01 X79.996 Y896.582
G01 X93.771 Y930.498
G01 X109.075 Y969.259
G01 X126.217 Y1011.319
G01 X145.309 Y1054.999
G01 X166.249 Y1098.573
G01 X188.726 Y1140.349
G01 X212.242 Y1178.754
G01 X236.144 Y1212.404
G01 X259.668 Y1240.169
G01 X281.991 Y1261.226
G01 X302.297 Y1275.088
G01 X319.830 Y1281.618
G01 X333.957 Y1281.031
G01 X344.219 Y1273.865
G01 X350.372 Y1260.945
G01 X352.421 Y1243.331
G01 X350.629 Y1222.251
G01 X345.521 Y1199.030
G01 X337.862 Y1175.020
G01 X328.629 Y1151.522
G01 X318.957 Y1129.723
G01 X310.086 Y1110.636
G01 X303.291 Y1095.056
G01 X299.810 Y1083.530
G01 X300.775 Y1076.340
G01 X307.141 Y1073.509
G01 X319.630 Y1074.816
G01 X338.679 Y1079.829
G01 X364.409 Y1087.952
G01 X396.608 Y1098.473
G01 X434.732 Y1110.629
G01 X477.920 Y1123.661
G01 X525.036 Y1136.873
G01 X574.718 Y1149.685
G01 X625.441 Y1161.672
G01 X675.588 Y1172.594
G01 X710.000 Y1179.641
G01 X710.000 Y1482.199
G01 X689.505 Y1507.477
G01 X655.037 Y1552.044
G01 X622.047 Y1596.817
G01 X619.804 Y1600.000
G01 X5.000 Y1600.000
G01 X5.000 Y884.721
G01 X10.057 Y879.225
G01 X26.341 Y865.897
G01 X40.353 Y860.600
G01 X52.736 Y863.652
G01 X64.218 Y875.018
G01 X75.553 Y894.305
G01 X87.459 Y920.771
G01 X100.565 Y953.362
G01 X115.358 Y990.755
G01 X132.145 Y1031.426
G01 X151.030 Y1073.720
G01 X171.900 Y1115.935
G01 X194.429 Y1156.402
G01 X218.101 Y1193.569
G01 X242.242 Y1226.071
G01 X266.065 Y1252.798
G01 X288.726 Y1272.939
G01 X309.380 Y1286.019
G01 X327.249 Y1291.910
G01 X341.674 Y1290.831
G01 X352.175 Y1283.320
G01 X358.486 Y1270.199
G01 X360.593 Y1252.519
G01 X358.744 Y1231.498
G01 X353.451 Y1208.446
G01 X345.471 Y1184.696
G01 X335.774 Y1161.529
G01 X325.495 Y1140.108
G01 X315.876 Y1121.424
G01 X308.198 Y1106.245
G01 X303.710 Y1095.092
G01 X303.555 Y1088.224
G01 X308.704 Y1085.638
G01 X319.898 Y1087.091
G01 X337.595 Y1092.134
G01 X361.935 Y1100.151
G01 X392.731 Y1110.420
G01 X429.459 Y1122.168
G01 X471.284 Y1134.630
G01 X517.091 Y1147.111
G01 X565.539 Y1159.033
G01 X615.124 Y1169.977
G01 X664.248 Y1179.718
G01 X710.000 Y1187.996
G01 X710.000 Y1460.213
G01 X684.020 Y1493.188
G01 X651.226 Y1537.164
G01 X620.009 Y1581.470
G01 X607.641 Y1600.000
G01 X5.526 Y1600.000
G01 X5.000 Y1599.395
G01 X5.000 Y934.060
G01 X8.185 Y929.811
G01 X25.694 Y908.684
G01 X40.500 Y894.776
G01 X53.123 Y888.742
G01 X64.225 Y890.913
G01 X74.551 Y901.271
G01 X84.868 Y919.437
G01 X95.905 Y944.690
G01 X108.295 Y975.996
G01 X122.527 Y1012.055
G01 X138.908 Y1051.365
G01 X157.532 Y1092.296
G01 X178.278 Y1133.168
G01 X200.805 Y1172.337
G01 X224.582 Y1208.272
G01 X248.914 Y1239.629
G01 X272.993 Y1265.315
G01 X295.949 Y1284.536
G01 X316.918 Y1296.828
G01 X335.093 Y1302.074
G01 X349.795 Y1300.495
G01 X360.518 Y1292.633
G01 X366.978 Y1279.306
G01 X369.140 Y1261.560
G01 X367.237 Y1240.599
G01 X361.767 Y1217.721
G01 X353.479 Y1194.241
G01 X343.336 Y1171.421
G01 X332.472 Y1150.400
G01 X322.129 Y1132.144
G01 X313.593 Y1117.398
G01 X308.122 Y1106.655
G01 X306.871 Y1100.149
G01 X310.827 Y1097.855
G01 X320.745 Y1099.506
G01 X337.103 Y1104.631
G01 X360.064 Y1112.600
G01 X389.460 Y1122.676
G01 X424.791 Y1134.076
G01 X465.243 Y1146.029
G01 X509.725 Y1157.838
G01 X556.916 Y1168.928
G01 X605.333 Y1178.887
G01 X653.396 Y1187.499
G01 X699.513 Y1194.756
G01 X710.000 Y1196.257
G01 X710.000 Y1437.910
G01 X678.103 Y1479.537
G01 X646.943 Y1522.860
G01 X617.463 Y1566.632
G01 X596.386 Y1600.000
G01 X39.924 Y1600.000
G01 X35.663 Y1595.271
G01 X5.000 Y1566.680
G01 X5.000 Y990.282
G01 X7.533 Y986.554
G01 X26.495 Y958.971
G01 X42.458 Y937.495
G01 X55.776 Y923.071
G01 X66.994 Y916.364
G01 X76.792 Y917.715
G01 X85.933 Y927.121
G01 X95.196 Y944.219
G01 X105.323 Y968.306
G01 X116.952 Y998.369
G01 X130.576 Y1033.129
G01 X146.499 Y1071.108
G01 X164.811 Y1110.700
G01 X185.379 Y1150.248
G01 X207.853 Y1188.132
G01 X231.684 Y1222.843
G01 X256.158 Y1253.058
G01 X280.448 Y1277.704
G01 X303.661 Y1296.001
G01 X324.908 Y1307.501
G01 X343.361 Y1312.095
G01 X358.316 Y1310.011
G01 X369.246 Y1301.792
G01 X375.844 Y1288.256
G01 X378.058 Y1270.440
G01 X376.103 Y1249.541
G01 X370.466 Y1226.843
G01 X361.884 Y1203.644
G01 X351.314 Y1181.185
G01 X339.886 Y1160.583
G01 X328.844 Y1142.781
G01 X319.476 Y1128.497
G01 X313.049 Y1118.200
G01 X310.728 Y1112.099
G01 X313.514 Y1110.141
G01 X322.177 Y1112.039
G01 X337.213 Y1117.301
G01 X358.806 Y1125.278
G01 X386.808 Y1135.220
G01 X420.741 Y1146.331
G01 X459.814 Y1157.836
G01 X502.956 Y1169.034
G01 X548.869 Y1179.351
G01 X596.089 Y1188.382
G01 X643.056 Y1195.920
G01 X688.195 Y1201.970
G01 X710.000 Y1204.463
G01 X710.000 Y1415.949
G01 X702.338 Y1425.569
G01 X671.781 Y1466.535
G01 X642.212 Y1509.145
G01 X614.429 Y1552.319
G01 X589.000 Y1594.921
G01 X586.173 Y1600.000
G01 X75.098 Y1600.000
G01 X67.517 Y1591.873
G01 X27.356 Y1555.920
G01 X5.000 Y1538.985
G01 X5.000 Y1052.113
G01 X8.005 Y1047.531
G01 X28.520 Y1015.074
G01 X45.908 Y987.381
G01 X60.324 Y965.622
G01 X72.149 Y950.747
G01 X81.948 Y943.430
G01 X90.422 Y944.023
G01 X98.349 Y952.534
G01 X106.527 Y968.617
G01 X115.705 Y991.587
G01 X126.530 Y1020.450
G01 X139.499 Y1053.949
G01 X154.913 Y1090.629
G01 X172.861 Y1128.907
G01 X193.200 Y1167.151
G01 X215.569 Y1203.764
G01 X239.403 Y1237.261
G01 X263.972 Y1266.340
G01 X288.428 Y1289.946
G01 X311.857 Y1307.319
G01 X333.348 Y1318.022
G01 X352.050 Y1321.959
G01 X367.235 Y1319.364
G01 X378.355 Y1310.784
G01 X385.082 Y1297.034
G01 X387.344 Y1279.148
G01 X385.342 Y1258.313
G01 X379.546 Y1235.800
G01 X370.685 Y1212.891
G01 X359.706 Y1190.806
G01 X347.737 Y1170.643
G01 X336.020 Y1153.319
G01 X325.848 Y1139.527
G01 X318.493 Y1129.711
G01 X315.128 Y1124.053
G01 X316.768 Y1122.476
G01 X324.198 Y1124.670
G01 X337.932 Y1130.121
G01 X358.170 Y1138.163
G01 X384.786 Y1148.028
G01 X417.323 Y1158.912
G01 X455.011 Y1170.029
G01 X496.801 Y1180.676
G01 X541.417 Y1190.280
G01 X587.413 Y1198.440
G01 X633.251 Y1204.959
G01 X677.372 Y1209.854
G01 X710.000 Y1212.649
G01 X710.000 Y1393.960
G01 X694.214 Y1414.112
G01 X665.080 Y1454.193
G01 X637.057 Y1496.032
G01 X610.932 Y1538.544
G01 X587.255 Y1580.586
G01 X577.206 Y1600.000
G01 X111.108 Y1600.000
G01 X99.023 Y1587.479
G01 X59.367 Y1553.385
G01 X17.853 Y1523.439
G01 X5.000 Y1515.592
G01 X5.000 Y1117.651
G01 X9.610 Y1110.670
G01 X31.622 Y1075.071
G01 X50.575 Y1042.742
G01 X66.399 Y1015.004
G01 X79.272 Y993.028
G01 X89.599 Y977.770
G01 X97.967 Y969.907
G01 X105.098 Y969.803
G01 X111.788 Y977.478
G01 X118.848 Y992.600
G01 X127.040 Y1014.502
G01 X137.020 Y1042.209
G01 X149.287 Y1074.486
G01 X164.145 Y1109.899
G01 X181.678 Y1146.891
G01 X201.737 Y1183.853
G01 X223.949 Y1219.212
G01 X247.737 Y1251.505
G01 X272.353 Y1279.454
G01 X296.930 Y1302.024
G01 X320.537 Y1318.472
G01 X342.236 Y1328.377
G01 X361.157 Y1331.652
G01 X376.550 Y1328.542
G01 X387.842 Y1319.596
G01 X394.688 Y1305.629
G01 X396.996 Y1287.672
G01 X394.949 Y1266.902
G01 X389.004 Y1244.579
G01 X379.877 Y1221.968
G01 X368.510 Y1200.271
G01 X356.023 Y1180.565
G01 X343.657 Y1163.742
G01 X332.709 Y1150.471
G01 X324.453 Y1141.170
G01 X320.073 Y1135.993
G01 X320.594 Y1134.842
G01 X326.815 Y1137.380
G01 X339.265 Y1143.073
G01 X358.164 Y1151.234
G01 X383.404 Y1161.080
G01 X414.549 Y1171.795
G01 X450.849 Y1182.585
G01 X491.278 Y1192.742
G01 X534.578 Y1201.693
G01 X579.327 Y1209.042
G01 X624.004 Y1214.598
G01 X667.069 Y1218.391
G01 X707.039 Y1220.668
G01 X710.000 Y1220.769
G01 X710.000 Y1372.009
G01 X685.788 Y1403.376
G01 X658.026 Y1442.522
G01 X631.504 Y1483.533
G01 X606.993 Y1525.320
G01 X585.030 Y1566.735
G01 X569.077 Y1600.000
G01 X148.009 Y1600.000
G01 X130.154 Y1582.104
G01 X91.073 Y1549.831
G01 X50.152 Y1521.739
G01 X8.894 Y1498.070
G01 X5.000 Y1496.194
G01 X5.000 Y1184.746
G01 X12.462 Y1173.847
G01 X35.755 Y1136.899
G01 X56.259 Y1101.662
G01 X73.670 Y1069.526
G01 X87.942 Y1041.808
G01 X99.278 Y1019.681
G01 X108.104 Y1004.103
G01 X115.032 Y995.760
G01 X120.803 Y995.021
G01 X126.232 Y1001.918
G01 X132.145 Y1016.135
G01 X139.316 Y1037.019
G01 X148.411 Y1063.616
G01 X159.932 Y1094.710
G01 X174.187 Y1128.893
G01 X191.255 Y1164.627
G01 X210.983 Y1200.330
G01 X232.988 Y1234.452
G01 X256.680 Y1265.555
G01 X281.297 Y1292.383
G01 X305.952 Y1313.921
G01 X329.695 Y1329.445
G01 X351.569 Y1338.550
G01 X370.679 Y1341.161
G01 X386.256 Y1337.532
G01 X397.705 Y1328.216
G01 X404.659 Y1314.030
G01 X407.009 Y1295.999
G01 X404.920 Y1275.296
G01 X398.836 Y1253.167
G01 X389.458 Y1230.863
G01 X377.722 Y1209.567
G01 X364.740 Y1190.335
G01 X351.753 Y1174.035
G01 X340.057 Y1161.313
G01 X330.930 Y1152.558
G01 X325.565 Y1147.902
G01 X324.994 Y1147.218
G01 X330.031 Y1150.147
G01 X341.220 Y1156.132
G01 X358.797 Y1164.467
G01 X382.672 Y1174.353
G01 X412.430 Y1184.959
G01 X447.342 Y1195.482
G01 X486.401 Y1205.210
G01 X528.371 Y1213.569
G01 X571.850 Y1220.165
G01 X615.336 Y1224.815
G01 X657.309 Y1227.559
G01 X696.302 Y1228.660
G01 X710.000 Y1228.631
G01 X710.000 Y1350.841
G01 X703.940 Y1358.139
G01 X677.087 Y1393.368
G01 X650.647 Y1431.531
G01 X625.578 Y1471.659
G01 X602.637 Y1512.661
G01 X582.346 Y1553.383
G01 X564.971 Y1592.669
G01 X562.089 Y1600.000
G01 X185.858 Y1600.000
G01 X160.880 Y1575.761
G01 X122.447 Y1545.269
G01 X82.190 Y1518.991
G01 X41.595 Y1497.159
G01 X5.000 Y1480.958
G01 X5.000 Y1251.227
G01 X16.794 Y1234.990
G01 X40.983 Y1198.452
G01 X62.860 Y1162.088
G01 X81.885 Y1127.273
G01 X97.776 Y1095.391
G01 X110.510 Y1067.758
G01 X120.315 Y1045.546
G01 X127.642 Y1029.715
G01 X133.123 Y1020.954
G01 X137.519 Y1019.643
G01 X141.666 Y1025.822
G01 X146.404 Y1039.189
G01 X152.522 Y1059.108
G01 X160.692 Y1084.641
G01 X171.426 Y1114.595
G01 X185.031 Y1147.582
G01 X201.586 Y1182.089
G01 X220.934 Y1216.558
G01 X242.682 Y1249.464
G01 X266.229 Y1279.392
G01 X290.799 Y1305.108
G01 X315.489 Y1325.620
G01 X339.328 Y1340.223
G01 X361.341 Y1348.527
G01 X380.612 Y1350.472
G01 X396.349 Y1346.320
G01 X407.938 Y1336.631
G01 X414.991 Y1322.222
G01 X417.380 Y1304.118
G01 X415.253 Y1283.483
G01 X409.037 Y1261.552
G01 X399.425 Y1239.562
G01 X387.339 Y1218.679
G01 X373.887 Y1199.938
G01 X360.306 Y1184.183
G01 X347.891 Y1172.035
G01 X337.925 Y1163.860
G01 X331.604 Y1159.760
G01 X329.971 Y1159.586
G01 X333.851 Y1162.952
G01 X343.802 Y1169.279
G01 X360.075 Y1177.842
G01 X382.600 Y1187.823
G01 X410.979 Y1198.379
G01 X444.503 Y1208.697
G01 X482.186 Y1218.057
G01 X522.813 Y1225.884
G01 X565.002 Y1231.788
G01 X607.270 Y1235.589
G01 X648.116 Y1237.340
G01 X686.092 Y1237.315
G01 X710.000 Y1236.383
G01 X710.000 Y1330.600
G01 X693.872 Y1349.991
G01 X668.141 Y1384.096
G01 X642.970 Y1421.228
G01 X619.304 Y1460.420
G01 X597.886 Y1500.579
G01 X579.224 Y1540.543
G01 X563.566 Y1579.152
G01 X556.264 Y1600.000
G01 X224.704 Y1600.000
G01 X191.174 Y1568.467
G01 X153.458 Y1539.713
G01 X113.936 Y1515.206
G01 X74.075 Y1495.168
G01 X35.372 Y1479.524
G01 X5.000 Y1469.755
G01 X5.000 Y1314.992
G01 X22.941 Y1292.173
G01 X47.493 Y1257.682
G01 X70.394 Y1221.933
G01 X90.891 Y1186.207
G01 X108.468 Y1151.872
G01 X122.862 Y1120.307
G01 X134.076 Y1092.823
G01 X142.360 Y1070.591
G01 X148.190 Y1054.571
G01 X152.218 Y1045.458
G01 X155.228 Y1043.637
G01 X158.073 Y1049.158
G01 X161.611 Y1061.732
G01 X166.643 Y1080.738
G01 X173.852 Y1105.256
G01 X183.757 Y1134.112
G01 X196.667 Y1165.941
G01 X212.663 Y1199.253
G01 X231.582 Y1232.515
G01 X253.024 Y1264.225
G01 X276.378 Y1292.993
G01 X300.855 Y1317.609
G01 X325.536 Y1337.103
G01 X349.432 Y1350.788
G01 X371.550 Y1358.293
G01 X390.952 Y1359.570
G01 X406.826 Y1354.894
G01 X418.538 Y1344.829
G01 X425.680 Y1330.196
G01 X428.104 Y1312.017
G01 X425.941 Y1291.450
G01 X419.605 Y1269.721
G01 X409.773 Y1248.053
G01 X397.358 Y1227.595
G01 X383.461 Y1209.359
G01 X369.314 Y1194.170
G01 X356.210 Y1182.622
G01 X345.435 Y1175.056
G01 X338.190 Y1171.549
G01 X335.526 Y1171.924
G01 X338.277 Y1175.772
G01 X347.015 Y1182.492
G01 X362.005 Y1191.335
G01 X383.195 Y1201.468
G01 X410.204 Y1212.032
G01 X442.344 Y1222.204
G01 X478.648 Y1231.258
G01 X517.921 Y1238.615
G01 X558.801 Y1243.886
G01 X599.826 Y1246.898
G01 X639.513 Y1247.711
G01 X676.432 Y1246.612
G01 X709.279 Y1244.103
G01 X710.000 Y1244.019
G01 X710.000 Y1311.341
G01 X707.930 Y1313.579
G01 X683.644 Y1342.621
G01 X658.979 Y1375.564
G01 X635.023 Y1411.621
G01 X612.708 Y1449.826
G01 X592.765 Y1489.084
G01 X575.686 Y1528.229
G01 X561.703 Y1566.094
G01 X551.272 Y1600.000
G01 X262.587 Y1600.000
G01 X254.808 Y1591.074
G01 X221.009 Y1560.238
G01 X184.078 Y1533.178
G01 X145.359 Y1510.395
G01 X106.303 Y1492.104
G01 X68.385 Y1478.224
G01 X33.034 Y1468.385
G01 X5.000 Y1462.659
G01 X5.000 Y1373.765
G01 X7.334 Y1371.324
G01 X31.326 Y1343.707
G01 X55.577 Y1312.692
G01 X79.000 Y1279.173
G01 X100.658 Y1244.261
G01 X119.814 Y1209.227
G01 X135.974 Y1175.430
G01 X148.898 Y1144.242
G01 X158.610 Y1116.970
G01 X165.386 Y1094.782
G01 X169.722 Y1078.639
G01 X172.294 Y1069.238
G01 X173.908 Y1066.970
G01 X175.435 Y1071.895
G01 X177.749 Y1083.733
G01 X181.665 Y1101.879
G01 X187.879 Y1125.430
G01 X196.915 Y1153.233
G01 X209.087 Y1183.943
G01 X224.478 Y1216.094
G01 X242.919 Y1248.176
G01 X264.008 Y1278.714
G01 X287.122 Y1306.340
G01 X311.459 Y1329.869
G01 X336.088 Y1348.353
G01 X360.003 Y1361.125
G01 X382.190 Y1367.833
G01 X401.694 Y1368.443
G01 X417.682 Y1363.240
G01 X429.500 Y1352.797
G01 X436.720 Y1337.938
G01 X439.176 Y1319.683
G01 X436.981 Y1299.186
G01 X430.533 Y1277.663
G01 X420.497 Y1256.323
G01 X407.774 Y1236.299
G01 X393.457 Y1218.584
G01 X378.772 Y1203.980
G01 X365.012 Y1193.057
G01 X353.461 Y1186.129
G01 X345.325 Y1183.249
G01 X341.661 Y1184.213
G01 X343.313 Y1188.588
G01 X350.863 Y1195.748
G01 X364.594 Y1204.924
G01 X384.466 Y1215.265
G01 X410.117 Y1225.895
G01 X440.877 Y1235.981
G01 X475.800 Y1244.790
G01 X513.710 Y1251.738
G01 X553.264 Y1256.436
G01 X593.023 Y1258.718
G01 X631.520 Y1258.650
G01 X667.346 Y1256.532
G01 X699.213 Y1252.879
G01 X710.000 Y1251.072
G01 X710.000 Y1294.279
G01 X696.727 Y1308.265
G01 X673.287 Y1336.034
G01 X649.629 Y1367.778
G01 X626.832 Y1402.717
G01 X605.817 Y1439.886
G01 X587.298 Y1478.187
G01 X571.754 Y1516.452
G01 X559.401 Y1553.507
G01 X550.192 Y1588.238
G01 X547.811 Y1600.000
G01 X300.863 Y1600.000
G01 X283.345 Y1580.318
G01 X250.359 Y1551.092
G01 X214.277 Y1525.678
G01 X176.430 Y1504.572
G01 X138.246 Y1487.981
G01 X101.183 Y1475.816
G01 X66.647 Y1467.701
G01 X35.923 Y1463.000
G01 X10.106 Y1460.855
G01 X5.000 Y1460.700
G01 X5.000 Y1424.677
G01 X20.508 Y1410.464
G01 X42.425 Y1388.208
G01 X65.623 Y1361.830
G01 X88.933 Y1331.946
G01 X111.278 Y1299.440
G01 X131.737 Y1265.411
G01 X149.593 Y1231.120
G01 X164.370 Y1197.917
G01 X175.851 Y1167.166
G01 X184.083 Y1140.169
G01 X189.364 Y1118.089
G01 X192.213 Y1101.888
G01 X193.330 Y1092.264
G01 X193.540 Y1089.612
G01 X193.733 Y1094.000
G01 X194.801 Y1105.160
G01 X197.574 Y1122.501
G01 X202.759 Y1145.136
G01 X210.887 Y1171.931
G01 X222.281 Y1201.563
G01 X237.020 Y1232.588
G01 X254.939 Y1263.520
G01 X275.626 Y1292.908
G01 X298.453 Y1319.412
G01 X322.607 Y1341.869
G01 X347.140 Y1359.353
G01 X371.034 Y1371.219
G01 X393.256 Y1377.132
G01 X412.833 Y1377.076
G01 X428.912 Y1371.346
G01 X440.819 Y1360.524
G01 X448.107 Y1345.437
G01 X450.591 Y1327.105
G01 X448.368 Y1306.678
G01 X441.819 Y1285.364
G01 X431.593 Y1264.359
G01 X418.583 Y1244.780
