; file trimmed by trimify2x.pl
; Created by Sandify
; 
;   https://sandify.org
; 
;   Sandify Version: 0.1.4
; 
;   Machine Type: Rectangular
;     MinX: 5 MaxX: 710 MinY: 5 MaxY: 1600
;   Content Type: Shapes
;     Starting Size: 661
;     Offset: X: -358 Y: -345
;     Selected Shape: None
;     Number of Loops: 192
;     Spin: true
;       Spin Value: 2.4
;       Spin Switchbacks: 5
;     Grow: true
;       Grow Value: -2
;     Track: false
;   Path Reversed: true
; 
; filename: 'hearts_2'

; BEGIN PRE
G28 Y
G28 X
G01 F30000; END PRE
G01 X5.000 Y5.000
G01 X710.000 Y5.000
G01 X710.000 Y1535.170
G01 X649.176 Y1586.320
G01 X633.361 Y1600.000
G01 X710.000 Y1600.000
G01 X710.000 Y1513.928
G01 X611.888 Y1589.653
G01 X598.862 Y1600.000
G01 X710.000 Y1600.000
G01 X710.000 Y1496.017
G01 X681.375 Y1515.929
G01 X574.840 Y1591.253
G01 X562.827 Y1600.000
G01 X710.000 Y1600.000
G01 X710.000 Y1480.791
G01 X646.921 Y1520.857
G01 X538.111 Y1591.146
G01 X524.814 Y1600.000
G01 X710.000 Y1600.000
G01 X710.000 Y1467.897
G01 X612.630 Y1524.165
G01 X501.778 Y1589.361
G01 X484.251 Y1600.000
G01 X710.000 Y1600.000
G01 X710.000 Y1457.124
G01 X694.867 Y1465.023
G01 X578.577 Y1525.876
G01 X465.917 Y1585.932
G01 X440.389 Y1600.000
G01 X710.000 Y1600.000
G01 X710.000 Y1448.276
G01 X662.700 Y1470.496
G01 X544.834 Y1526.015
G01 X430.601 Y1580.895
G01 X392.213 Y1600.000
G01 X710.000 Y1600.000
G01 X710.000 Y1441.167
G01 X630.675 Y1474.452
G01 X511.473 Y1524.613
G01 X395.902 Y1574.291
G01 X338.315 Y1600.000
G01 X710.000 Y1600.000
G01 X710.000 Y1435.662
G01 X598.860 Y1476.911
G01 X478.564 Y1521.701
G01 X361.888 Y1566.162
G01 X276.673 Y1600.000
G01 X710.000 Y1600.000
G01 X710.000 Y1431.519
G01 X690.886 Y1437.842
G01 X567.324 Y1477.900
G01 X446.173 Y1517.314
G01 X328.624 Y1556.554
G01 X215.794 Y1595.972
G01 X204.962 Y1600.000
G01 X710.000 Y1600.000
G01 X710.000 Y1428.704
G01 X660.321 Y1442.861
G01 X536.135 Y1477.446
G01 X414.365 Y1511.493
G01 X296.176 Y1545.515
G01 X182.657 Y1579.912
G01 X120.824 Y1600.000
G01 X710.000 Y1600.000
G01 X710.000 Y1427.217
G01 X629.928 Y1446.449
G01 X505.356 Y1475.579
G01 X383.204 Y1504.276
G01 X264.602 Y1533.099
G01 X150.617 Y1562.486
G01 X42.225 Y1592.743
G01 X18.586 Y1600.000
G01 X710.000 Y1600.000
G01 X710.000 Y1426.994
G01 X599.771 Y1448.630
G01 X475.052 Y1472.334
G01 X352.749 Y1495.710
G01 X233.962 Y1519.357
G01 X119.728 Y1543.756
G01 X11.005 Y1569.251
G01 X5.000 Y1570.822
G01 X5.000 Y1600.000
G01 X710.000 Y1600.000
G01 X710.000 Y1427.786
G01 X695.846 Y1430.149
G01 X569.914 Y1449.431
G01 X445.282 Y1467.748
G01 X323.059 Y1485.840
G01 X204.310 Y1504.347
G01 X90.044 Y1523.789
G01 X5.000 Y1540.007
G01 X5.000 Y1600.000
G01 X710.000 Y1600.000
G01 X710.000 Y1429.541
G01 X666.063 Y1434.998
G01 X540.420 Y1448.879
G01 X416.105 Y1461.859
G01 X294.188 Y1474.715
G01 X175.698 Y1488.128
G01 X61.614 Y1502.653
G01 X5.000 Y1511.009
G01 X5.000 Y1600.000
G01 X710.000 Y1600.000
G01 X710.000 Y1432.451
G01 X636.474 Y1438.468
G01 X511.348 Y1447.008
G01 X387.577 Y1454.709
G01 X266.189 Y1462.388
G01 X148.175 Y1470.760
G01 X34.481 Y1480.418
G01 X5.000 Y1483.514
G01 X5.000 Y1600.000
G01 X710.000 Y1600.000
G01 X710.000 Y1436.493
G01 X607.140 Y1440.586
G01 X482.758 Y1443.852
G01 X359.753 Y1446.343
G01 X239.111 Y1448.910
G01 X121.785 Y1452.305
G01 X8.689 Y1457.155
G01 X5.000 Y1457.386
G01 X5.000 Y1600.000
G01 X710.000 Y1600.000
G01 X710.000 Y1441.486
G01 X701.983 Y1441.642
G01 X578.122 Y1441.379
G01 X454.704 Y1439.448
G01 X332.683 Y1436.806
G01 X213.001 Y1434.338
G01 X96.571 Y1432.829
G01 X5.000 Y1432.916
G01 X5.000 Y1600.000
G01 X710.000 Y1600.000
G01 X710.000 Y1447.130
G01 X672.227 Y1446.283
G01 X549.480 Y1440.876
G01 X427.240 Y1433.835
G01 X306.416 Y1426.148
G01 X187.902 Y1418.730
G01 X72.572 Y1412.396
G01 X5.000 Y1409.629
G01 X5.000 Y1600.000
G01 X710.000 Y1600.000
G01 X710.000 Y1453.905
G01 X642.692 Y1449.569
G01 X521.270 Y1439.112
G01 X400.419 Y1427.056
G01 X280.997 Y1414.418
G01 X163.854 Y1402.143
G01 X49.822 Y1391.076
G01 X5.000 Y1387.355
G01 X5.000 Y1600.000
G01 X710.000 Y1600.000
G01 X710.000 Y1461.823
G01 X613.437 Y1451.528
G01 X493.547 Y1436.121
G01 X374.288 Y1419.154
G01 X256.470 Y1401.670
G01 X140.896 Y1384.640
G01 X28.354 Y1368.935
G01 X5.000 Y1366.007
G01 X5.000 Y1600.000
G01 X710.000 Y1600.000
G01 X710.000 Y1470.682
G01 X702.615 Y1469.808
G01 X584.522 Y1452.188
G01 X466.363 Y1431.942
G01 X348.894 Y1410.175
G01 X232.875 Y1387.956
G01 X119.060 Y1366.281
G01 X8.195 Y1346.045
G01 X5.000 Y1345.507
G01 X5.000 Y1600.000
G01 X710.000 Y1600.000
G01 X710.000 Y1480.021
G01 X672.282 Y1473.945
G01 X556.004 Y1451.582
G01 X439.769 Y1426.614
G01 X324.281 Y1400.168
G01 X210.249 Y1373.334
G01 X98.378 Y1347.130
G01 X5.000 Y1326.010
G01 X5.000 Y1600.000
G01 X710.000 Y1600.000
G01 X710.000 Y1490.584
G01 X642.212 Y1476.730
G01 X527.937 Y1449.744
G01 X413.812 Y1420.179
G01 X300.490 Y1389.181
G01 X188.625 Y1357.859
G01 X78.876 Y1327.251
G01 X5.000 Y1307.255
G01 X5.000 Y1600.000
G01 X710.000 Y1600.000
G01 X710.000 Y1502.422
G01 X612.464 Y1478.191
G01 X500.373 Y1446.711
G01 X388.538 Y1412.681
G01 X277.558 Y1377.266
G01 X168.036 Y1341.590
G01 X60.580 Y1306.709
G01 X5.000 Y1289.136
G01 X5.000 Y1600.000
G01 X710.000 Y1600.000
G01 X710.000 Y1514.855
G01 X692.645 Y1510.503
G01 X583.095 Y1478.361
G01 X473.362 Y1442.521
G01 X363.989 Y1404.167
G01 X255.521 Y1364.475
G01 X148.508 Y1324.586
G01 X43.509 Y1285.570
G01 X5.000 Y1271.595
G01 X5.000 Y1600.000
G01 X710.000 Y1600.000
G01 X710.000 Y1528.054
G01 X661.341 Y1513.661
G01 X554.161 Y1477.274
G01 X446.953 Y1437.217
G01 X340.207 Y1394.683
G01 X234.412 Y1350.863
G01 X130.067 Y1306.907
G01 X27.680 Y1263.901
G01 X5.000 Y1254.577
G01 X5.000 Y1600.000
G01 X710.000 Y1600.000
G01 X710.000 Y1542.690
G01 X630.362 Y1515.457
G01 X525.714 Y1474.967
G01 X421.191 Y1430.840
G01 X317.227 Y1384.280
G01 X214.260 Y1336.484
G01 X112.734 Y1288.615
G01 X13.109 Y1241.767
G01 X5.000 Y1238.030
G01 X5.000 Y1600.000
G01 X710.000 Y1600.000
G01 X710.000 Y1558.384
G01 X701.620 Y1555.592
G01 X599.768 Y1515.925
G01 X497.805 Y1471.478
G01 X396.118 Y1423.436
G01 X295.086 Y1373.006
G01 X195.091 Y1321.395
G01 X96.528 Y1269.771
G01 X5.000 Y1221.951
G01 X5.000 Y1600.000
G01 X710.000 Y1600.000
G01 X710.000 Y1574.269
G01 X668.834 Y1558.610
G01 X569.614 Y1515.099
G01 X470.484 Y1466.850
G01 X371.775 Y1415.051
G01 X273.814 Y1360.915
G01 X176.930 Y1305.653
G01 X81.464 Y1250.436
G01 X5.000 Y1206.315
G01 X5.000 Y1600.000
G01 X710.000 Y1600.000
G01 X710.000 Y1591.808
G01 X636.401 Y1560.223
G01 X539.955 Y1513.017
G01 X443.794 Y1461.124
G01 X348.198 Y1405.733
G01 X253.440 Y1348.059
G01 X159.796 Y1289.314
G01 X67.554 Y1230.674
G01 X5.000 Y1190.998
G01 X5.000 Y1600.000
G01 X686.797 Y1600.000
G01 X604.380 Y1560.464
G01 X510.841 Y1509.720
G01 X417.780 Y1454.346
G01 X325.424 Y1395.532
G01 X233.992 Y1334.492
G01 X143.707 Y1272.438
G01 X54.806 Y1210.546
G01 X5.000 Y1175.947
G01 X5.000 Y1600.000
G01 X684.904 Y1600.000
G01 X684.250 Y1599.717
G01 X592.566 Y1553.476
G01 X501.133 Y1501.647
G01 X410.171 Y1445.357
G01 X319.881 Y1385.787
G01 X230.458 Y1324.143
G01 X142.104 Y1261.625
G01 X55.038 Y1199.400
G01 X5.000 Y1163.816
G01 X5.000 Y1600.000
G01 X710.000 Y1600.000
G01 X710.000 Y1571.390
G01 X623.479 Y1532.206
G01 X530.807 Y1484.686
G01 X438.417 Y1432.731
G01 X346.556 Y1377.502
G01 X255.467 Y1320.183
G01 X165.400 Y1261.954
G01 X76.621 Y1203.962
G01 X5.000 Y1157.418
G01 X5.000 Y1600.000
G01 X710.000 Y1600.000
G01 X710.000 Y1532.663
G01 X653.023 Y1509.683
G01 X559.312 Y1466.486
G01 X465.695 Y1418.886
G01 X372.466 Y1368.023
G01 X279.916 Y1315.059
G01 X188.339 Y1261.152
G01 X98.047 Y1207.427
G01 X9.370 Y1154.944
G01 X5.000 Y1152.410
G01 X5.000 Y1600.000
G01 X710.000 Y1600.000
G01 X710.000 Y1496.238
G01 X681.150 Y1485.985
G01 X586.596 Y1447.112
G01 X491.954 Y1403.879
G01 X397.561 Y1357.398
G01 X303.751 Y1308.811
G01 X210.867 Y1259.250
G01 X119.262 Y1209.815
G01 X29.309 Y1161.543
G01 X5.000 Y1148.779
G01 X5.000 Y1600.000
G01 X710.000 Y1600.000
G01 X710.000 Y1461.866
G01 X707.811 Y1461.190
G01 X612.613 Y1426.637
G01 X517.145 Y1387.771
G01 X421.789 Y1345.681
G01 X326.924 Y1301.482
G01 X232.934 Y1256.281
G01 X140.216 Y1211.151
G01 X49.180 Y1167.104
G01 X5.000 Y1146.217
G01 X5.000 Y1600.000
G01 X710.000 Y1600.000
G01 X710.000 Y1428.117
G01 X637.317 Y1405.132
G01 X541.222 Y1370.626
G01 X445.104 Y1332.925
G01 X349.385 Y1293.117
G01 X254.490 Y1252.280
G01 X160.857 Y1211.462
G01 X68.934 Y1171.645
G01 X5.000 Y1144.633
G01 X5.000 Y1600.000
G01 X710.000 Y1600.000
G01 X710.000 Y1396.027
G01 X660.671 Y1382.671
G01 X564.144 Y1352.509
G01 X467.463 Y1319.187
G01 X371.089 Y1283.762
G01 X275.488 Y1247.285
G01 X181.137 Y1210.775
G01 X88.519 Y1175.185
G01 X5.000 Y1143.951
G01 X5.000 Y1600.000
G01 X710.000 Y1600.000
G01 X710.000 Y1365.520
G01 X682.637 Y1359.329
G01 X585.873 Y1333.486
G01 X488.824 Y1304.523
G01 X391.993 Y1273.466
G01 X295.884 Y1241.337
G01 X201.009 Y1209.122
G01 X107.888 Y1177.746
G01 X17.050 Y1148.047
G01 X5.000 Y1144.311
G01 X5.000 Y1600.000
G01 X710.000 Y1600.000
G01 X710.000 Y1336.428
G01 X703.183 Y1335.183
G01 X606.372 Y1313.625
G01 X509.151 Y1288.993
G01 X412.057 Y1262.280
G01 X315.634 Y1234.476
G01 X220.429 Y1206.537
G01 X126.994 Y1179.354
G01 X35.886 Y1153.736
G01 X5.000 Y1145.561
G01 X5.000 Y1600.000
G01 X710.000 Y1600.000
G01 X710.000 Y1308.110
G01 X625.612 Y1292.997
G01 X528.408 Y1272.658
G01 X431.245 Y1250.256
G01 X334.699 Y1226.747
G01 X239.353 Y1203.053
G01 X145.791 Y1180.035
G01 X54.595 Y1158.469
G01 X5.000 Y1147.540
G01 X5.000 Y1600.000
G01 X710.000 Y1600.000
G01 X710.000 Y1280.717
G01 X643.564 Y1271.671
G01 X546.565 Y1255.581
G01 X449.521 Y1237.448
G01 X353.042 Y1218.195
G01 X257.743 Y1198.710
G01 X164.235 Y1179.819
G01 X73.130 Y1162.265
G01 X5.000 Y1150.218
G01 X5.000 Y1600.000
G01 X710.000 Y1600.000
G01 X710.000 Y1254.386
G01 X660.204 Y1249.719
G01 X563.594 Y1237.824
G01 X466.855 Y1223.912
G01 X370.628 Y1208.868
G01 X275.558 Y1193.544
G01 X182.286 Y1178.735
G01 X91.445 Y1165.148
G01 X5.000 Y1153.572
G01 X5.000 Y5.000
G01 X702.016 Y5.000
G01 X699.511 Y8.344
G01 X686.728 Y23.358
G01 X678.347 Y31.998
G01 X675.208 Y34.698
G01 X677.999 Y32.059
G01 X687.242 Y24.830
G01 X703.278 Y13.893
G01 X710.000 Y9.900
G01 X710.000 Y1228.993
G01 X675.513 Y1227.213
G01 X579.471 Y1219.453
G01 X483.217 Y1209.703
G01 X387.424 Y1198.812
G01 X292.764 Y1187.597
G01 X199.903 Y1176.816
G01 X109.497 Y1167.145
G01 X22.186 Y1159.155
G01 X5.000 Y1157.953
G01 X5.000 Y5.000
G01 X657.213 Y5.000
G01 X650.752 Y13.265
G01 X642.820 Y22.157
G01 X639.825 Y24.958
G01 X642.474 Y22.232
G01 X651.313 Y14.700
G01 X664.329 Y5.000
G01 X710.000 Y5.000
G01 X710.000 Y1204.425
G01 X689.473 Y1204.226
G01 X594.174 Y1200.533
G01 X498.584 Y1194.879
G01 X403.402 Y1188.079
G01 X309.327 Y1180.912
G01 X217.049 Y1174.098
G01 X127.245 Y1168.280
G01 X40.571 Y1163.998
G01 X5.000 Y1163.002
G01 X5.000 Y5.000
G01 X614.360 Y5.000
G01 X607.036 Y13.935
G01 X604.189 Y16.829
G01 X606.694 Y14.024
G01 X615.120 Y6.211
G01 X616.610 Y5.000
G01 X710.000 Y5.000
G01 X710.000 Y1180.576
G01 X702.072 Y1180.831
G01 X607.687 Y1181.128
G01 X512.932 Y1179.499
G01 X418.534 Y1176.719
G01 X325.215 Y1173.530
G01 X233.688 Y1170.617
G01 X144.649 Y1168.585
G01 X58.769 Y1167.942
G01 X5.000 Y1168.689
G01 X5.000 Y5.000
G01 X572.826 Y5.000
G01 X571.070 Y7.335
G01 X568.373 Y10.315
G01 X570.731 Y7.439
G01 X573.149 Y5.000
G01 X710.000 Y5.000
G01 X710.000 Y1157.251
G01 X619.995 Y1161.306
G01 X526.244 Y1163.622
G01 X432.798 Y1164.784
G01 X340.401 Y1165.498
G01 X249.788 Y1166.410
G01 X161.672 Y1168.090
G01 X76.736 Y1171.012
G01 X5.000 Y1175.017
G01 X5.000 Y5.000
G01 X532.796 Y5.000
G01 X532.449 Y5.417
G01 X532.762 Y5.000
G01 X710.000 Y5.000
G01 X710.000 Y1134.259
G01 X631.088 Y1141.134
G01 X538.502 Y1147.306
G01 X446.170 Y1152.327
G01 X354.859 Y1156.860
G01 X265.318 Y1161.516
G01 X178.277 Y1166.827
G01 X94.432 Y1173.235
G01 X14.437 Y1181.071
G01 X5.000 Y1182.255
G01 X5.000 Y1600.000
G01 X710.000 Y1600.000
G01 X710.000 Y1111.736
G01 X640.958 Y1120.677
G01 X549.695 Y1130.614
G01 X458.635 Y1139.401
G01 X368.564 Y1147.665
G01 X280.248 Y1155.975
G01 X194.431 Y1164.831
G01 X111.818 Y1174.638
G01 X33.070 Y1185.697
G01 X5.000 Y1190.420
G01 X5.000 Y1600.000
G01 X710.000 Y1600.000
G01 X710.000 Y1089.594
G01 X649.602 Y1100.003
G01 X559.813 Y1113.604
G01 X470.177 Y1126.061
G01 X381.496 Y1137.959
G01 X294.553 Y1149.830
G01 X210.101 Y1162.137
G01 X128.857 Y1175.251
G01 X51.484 Y1189.443
G01 X5.000 Y1199.282
G01 X5.000 Y1600.000
G01 X710.000 Y1600.000
G01 X710.000 Y1067.745
G01 X657.019 Y1079.179
G01 X568.849 Y1096.338
G01 X480.783 Y1112.360
G01 X393.637 Y1127.791
G01 X308.208 Y1143.123
G01 X225.260 Y1158.783
G01 X145.514 Y1175.107
G01 X69.639 Y1192.336
G01 X5.000 Y1208.873
G01 X5.000 Y1600.000
G01 X710.000 Y1600.000
G01 X710.000 Y1046.102
G01 X663.214 Y1058.269
G01 X576.801 Y1078.876
G01 X490.444 Y1098.354
G01 X404.973 Y1117.210
G01 X321.193 Y1135.898
G01 X239.879 Y1154.806
G01 X161.757 Y1174.238
G01 X87.497 Y1194.405
G01 X17.701 Y1215.411
G01 X5.000 Y1219.692
G01 X5.000 Y1600.000
G01 X710.000 Y1600.000
G01 X710.000 Y1024.577
G01 X668.191 Y1037.341
G01 X583.668 Y1061.278
G01 X499.154 Y1084.098
G01 X415.489 Y1106.266
G01 X333.489 Y1128.198
G01 X253.934 Y1150.246
G01 X177.554 Y1172.680
G01 X105.020 Y1195.678
G01 X36.933 Y1219.321
G01 X5.000 Y1231.596
G01 X5.000 Y5.000
G01 X320.700 Y5.000
G01 X320.250 Y6.224
G01 X318.644 Y9.596
G01 X319.953 Y6.420
G01 X320.706 Y5.000
G01 X710.000 Y5.000
G01 X710.000 Y1003.080
G01 X671.962 Y1016.458
G01 X589.454 Y1043.604
G01 X506.910 Y1069.646
G01 X425.177 Y1095.009
G01 X345.079 Y1120.070
G01 X267.402 Y1145.143
G01 X192.877 Y1170.466
G01 X122.175 Y1196.188
G01 X55.892 Y1222.363
G01 X5.000 Y1244.414
G01 X5.000 Y5.000
G01 X287.766 Y5.000
G01 X285.402 Y12.362
G01 X283.954 Y15.759
G01 X285.114 Y12.570
G01 X288.725 Y5.000
G01 X710.000 Y5.000
G01 X710.000 Y981.518
G01 X674.539 Y995.685
G01 X594.166 Y1025.913
G01 X513.710 Y1055.053
G01 X434.029 Y1083.488
G01 X355.950 Y1111.557
G01 X280.262 Y1139.538
G01 X207.699 Y1167.636
G01 X138.929 Y1195.968
G01 X74.542 Y1224.566
G01 X15.040 Y1253.363
G01 X5.000 Y1258.704
G01 X5.000 Y5.000
G01 X254.811 Y5.000
G01 X253.818 Y9.814
G01 X251.006 Y20.014
G01 X249.714 Y23.431
G01 X250.726 Y20.234
G01 X254.759 Y10.780
G01 X257.687 Y5.000
G01 X710.000 Y5.000
G01 X710.000 Y959.794
G01 X675.938 Y975.084
G01 X597.811 Y1008.265
G01 X519.558 Y1040.373
G01 X442.041 Y1071.754
G01 X366.091 Y1102.706
G01 X292.499 Y1133.473
G01 X221.997 Y1164.226
G01 X155.252 Y1195.053
G01 X92.846 Y1225.960
G01 X35.274 Y1256.863
G01 X5.000 Y1274.633
G01 X5.000 Y5.000
G01 X221.762 Y5.000
G01 X219.483 Y18.963
G01 X217.127 Y29.154
G01 X215.991 Y32.583
G01 X216.856 Y29.385
G01 X220.445 Y19.884
G01 X227.216 Y5.000
G01 X710.000 Y5.000
G01 X710.000 Y937.800
G01 X676.180 Y954.718
G01 X600.404 Y990.716
G01 X524.459 Y1025.661
G01 X449.210 Y1059.856
G01 X375.492 Y1093.564
G01 X304.095 Y1126.991
G01 X235.749 Y1160.275
G01 X171.115 Y1193.478
G01 X110.770 Y1226.581
G01 X55.197 Y1259.478
G01 X5.000 Y1291.842
G01 X5.000 Y5.000
G01 X188.207 Y5.000
G01 X187.760 Y12.791
G01 X185.734 Y29.591
G01 X183.828 Y39.751
G01 X182.847 Y43.185
G01 X183.567 Y39.994
G01 X186.716 Y30.465
G01 X192.955 Y15.068
G01 X197.792 Y5.000
G01 X710.000 Y5.000
G01 X710.000 Y915.424
G01 X675.286 Y934.646
G01 X601.958 Y973.324
G01 X528.421 Y1010.968
G01 X455.539 Y1047.844
G01 X384.149 Y1084.176
G01 X315.038 Y1120.133
G01 X248.935 Y1155.824
G01 X186.493 Y1191.281
G01 X128.282 Y1226.460
G01 X74.773 Y1261.240
G01 X26.336 Y1295.422
G01 X5.000 Y1311.911
G01 X5.000 Y5.000
G01 X154.252 Y5.000
G01 X153.942 Y24.992
G01 X152.636 Y41.663
G01 X151.173 Y51.774
G01 X150.344 Y55.206
G01 X150.921 Y52.027
G01 X153.634 Y42.491
G01 X159.155 Y27.034
G01 X168.084 Y6.260
G01 X168.723 Y5.000
G01 X710.000 Y5.000
G01 X710.000 Y892.538
G01 X673.283 Y914.928
G01 X602.493 Y956.144
G01 X531.454 Y996.349
G01 X461.030 Y1035.768
G01 X392.057 Y1074.588
G01 X325.318 Y1112.944
G01 X261.537 Y1150.912
G01 X201.362 Y1188.498
G01 X145.351 Y1225.635
G01 X93.966 Y1262.183
G01 X47.563 Y1297.930
G01 X6.384 Y1332.601
G01 X5.000 Y1333.886
G01 X5.000 Y5.000
G01 X119.267 Y5.000
G01 X120.254 Y15.987
G01 X120.850 Y38.633
G01 X120.249 Y55.143
G01 X119.221 Y65.186
G01 X118.544 Y68.610
G01 X118.980 Y65.449
G01 X121.261 Y55.926
G01 X126.070 Y40.442
G01 X134.023 Y19.568
G01 X140.660 Y5.000
G01 X710.000 Y5.000
G01 X710.000 Y869.002
G01 X670.199 Y895.620
G01 X602.029 Y939.231
G01 X533.572 Y981.854
G01 X465.690 Y1023.676
G01 X399.215 Y1064.846
G01 X334.927 Y1105.466
G01 X273.542 Y1145.581
G01 X215.700 Y1185.169
G01 X161.950 Y1224.141
G01 X112.743 Y1262.341
G01 X68.419 Y1299.545
G01 X29.207 Y1335.469
G01 X5.000 Y1359.905
G01 X5.000 Y5.000
G01 X83.538 Y5.000
G01 X87.021 Y31.346
G01 X88.544 Y53.673
G01 X88.632 Y69.994
G01 X88.032 Y79.950
G01 X87.503 Y83.359
G01 X87.802 Y80.223
G01 X89.658 Y70.731
G01 X93.762 Y55.252
G01 X100.746 Y34.324
G01 X111.170 Y8.639
G01 X112.932 Y5.000
G01 X710.000 Y5.000
G01 X710.000 Y844.654
G01 X666.064 Y876.778
G01 X600.590 Y922.638
G01 X534.791 Y967.535
G01 X469.528 Y1011.616
G01 X405.625 Y1054.996
G01 X343.859 Y1097.743
G01 X284.937 Y1139.871
G01 X229.489 Y1181.333
G01 X178.055 Y1222.017
G01 X131.072 Y1261.751
G01 X88.867 Y1300.300
G01 X51.654 Y1337.376
G01 X19.527 Y1372.643
G01 X5.000 Y1390.403
G01 X5.000 Y5.000
G01 X46.039 Y5.000
G01 X49.884 Y20.813
G01 X54.659 Y48.100
G01 X57.084 Y70.070
G01 X57.844 Y86.175
G01 X57.662 Y96.025
G01 X57.280 Y99.412
G01 X57.443 Y96.308
G01 X58.881 Y86.866
G01 X62.288 Y71.424
G01 X68.313 Y50.485
G01 X77.536 Y24.710
G01 X86.080 Y5.000
G01 X710.000 Y5.000
G01 X710.000 Y819.310
G01 X660.914 Y858.456
G01 X598.203 Y906.416
G01 X535.131 Y953.439
G01 X472.555 Y999.636
G01 X411.292 Y1045.084
G01 X352.111 Y1089.819
G01 X295.711 Y1133.825
G01 X242.712 Y1177.029
G01 X193.642 Y1219.302
G01 X148.923 Y1260.452
G01 X108.872 Y1300.235
G01 X73.684 Y1338.357
G01 X43.441 Y1374.485
G01 X18.102 Y1408.254
G01 X5.000 Y1427.997
G01 X5.000 Y5.000
G01 X7.212 Y5.000
G01 X8.418 Y8.320
G01 X17.388 Y39.477
G01 X23.226 Y66.203
G01 X26.526 Y87.781
G01 X27.940 Y103.641
G01 X28.166 Y113.369
G01 X27.928 Y116.729
G01 X27.959 Y113.660
G01 X28.986 Y104.288
G01 X31.708 Y88.913
G01 X36.784 Y68.007
G01 X44.817 Y42.197
G01 X56.333 Y12.250
G01 X59.706 Y5.000
G01 X710.000 Y5.000
G01 X710.000 Y792.755
G01 X654.785 Y840.705
G01 X594.896 Y890.616
G01 X534.613 Y939.616
G01 X474.785 Y987.781
G01 X416.222 Y1035.153
G01 X359.683 Y1081.735
G01 X305.858 Y1127.483
G01 X255.355 Y1172.300
G01 X208.690 Y1216.034
G01 X166.272 Y1258.481
G01 X128.401 Y1299.386
G01 X95.262 Y1338.452
G01 X66.917 Y1375.345
G01 X43.313 Y1409.709
G01 X24.279 Y1441.173
G01 X9.534 Y1469.369
G01 X5.000 Y1479.644
G01 X5.000 Y99.913
G01 X8.091 Y85.924
G01 X15.500 Y59.927
G01 X26.225 Y29.727
G01 X36.929 Y5.000
G01 X710.000 Y5.000
G01 X710.000 Y774.900
G01 X704.180 Y780.449
G01 X647.007 Y831.733
G01 X588.509 Y881.969
G01 X529.544 Y931.235
G01 X470.954 Y979.593
G01 X413.542 Y1027.078
G01 X358.058 Y1073.687
G01 X305.184 Y1119.374
G01 X255.523 Y1164.042
G01 X209.582 Y1207.544
G01 X167.767 Y1249.682
G01 X130.376 Y1290.211
G01 X97.590 Y1328.844
G01 X69.475 Y1365.262
G01 X45.979 Y1399.121
G01 X26.939 Y1430.067
G01 X12.078 Y1457.745
G01 X5.000 Y1473.155
G01 X5.000 Y19.351
G01 X5.510 Y20.673
G01 X14.862 Y50.786
G01 X21.110 Y76.600
G01 X24.839 Y97.410
G01 X26.697 Y112.652
G01 X27.372 Y121.922
G01 X27.582 Y124.984
G01 X28.055 Y121.781
G01 X29.510 Y112.436
G01 X32.641 Y97.244
G01 X38.101 Y76.672
G01 X46.484 Y51.337
G01 X58.312 Y21.993
G01 X66.530 Y5.000
G01 X710.000 Y5.000
G01 X710.000 Y778.099
G01 X695.973 Y790.391
G01 X637.467 Y838.605
G01 X577.696 Y885.731
G01 X517.507 Y931.880
G01 X457.724 Y977.150
G01 X399.139 Y1021.607
G01 X342.492 Y1065.279
G01 X288.458 Y1108.150
G01 X237.634 Y1150.148
G01 X190.528 Y1191.151
G01 X147.548 Y1230.979
G01 X108.997 Y1269.402
G01 X75.066 Y1306.146
G01 X45.834 Y1340.898
G01 X21.264 Y1373.318
G01 X5.000 Y1397.427
G01 X5.000 Y5.000
G01 X36.026 Y5.000
G01 X38.433 Y12.106
G01 X46.412 Y42.188
G01 X51.508 Y67.902
G01 X54.328 Y88.577
G01 X55.531 Y103.684
G01 X55.815 Y112.852
G01 X55.897 Y115.879
G01 X56.497 Y112.740
G01 X58.320 Y103.583
G01 X62.037 Y88.730
G01 X68.274 Y68.668
G01 X77.589 Y44.029
G01 X90.468 Y15.580
G01 X96.143 Y5.000
G01 X710.000 Y5.000
G01 X710.000 Y781.553
G01 X687.556 Y799.615
G01 X627.872 Y844.739
G01 X566.987 Y888.737
G01 X505.728 Y931.755
G01 X444.907 Y973.922
G01 X385.301 Y1015.336
G01 X327.638 Y1056.058
G01 X272.586 Y1096.096
G01 X220.735 Y1135.408
G01 X172.591 Y1173.890
G01 X128.565 Y1211.385
G01 X88.964 Y1247.677
G01 X53.989 Y1282.505
G01 X23.730 Y1315.563
G01 X5.000 Y1338.237
G01 X5.000 Y5.000
G01 X71.475 Y5.000
G01 X78.082 Y34.904
G01 X82.045 Y60.468
G01 X83.972 Y80.969
G01 X84.536 Y95.913
G01 X84.439 Y104.963
G01 X84.397 Y107.951
G01 X85.120 Y104.879
G01 X87.297 Y95.925
G01 X91.577 Y81.433
G01 X98.557 Y61.909
G01 X108.761 Y38.000
G01 X122.637 Y10.481
G01 X125.880 Y5.000
G01 X710.000 Y5.000
G01 X710.000 Y785.228
G01 X678.977 Y808.122
G01 X618.269 Y850.142
G01 X556.424 Y891.003
G01 X494.251 Y930.881
G01 X432.546 Y969.939
G01 X372.069 Y1008.305
G01 X313.538 Y1046.068
G01 X257.608 Y1083.265
G01 X204.865 Y1119.878
G01 X155.811 Y1155.826
G01 X110.857 Y1190.971
G01 X70.317 Y1225.113
G01 X34.397 Y1258.002
G01 X5.000 Y1287.533
G01 X5.000 Y5.000
G01 X105.570 Y5.000
G01 X109.816 Y28.931
G01 X112.669 Y54.294
G01 X113.724 Y74.583
G01 X113.663 Y89.338
G01 X113.195 Y98.254
G01 X113.032 Y101.197
G01 X113.873 Y98.198
G01 X116.391 Y89.460
G01 X121.211 Y75.350
G01 X128.900 Y56.391
G01 X139.949 Y33.242
G01 X154.766 Y6.687
G01 X155.862 Y5.000
G01 X710.000 Y5.000
G01 X710.000 Y789.097
G01 X670.278 Y815.915
G01 X608.701 Y854.826
G01 X546.051 Y892.547
G01 X483.118 Y929.286
G01 X420.681 Y965.235
G01 X359.483 Y1000.553
G01 X300.228 Y1035.357
G01 X243.560 Y1069.711
G01 X190.058 Y1103.620
G01 X140.221 Y1137.026
G01 X94.459 Y1169.810
G01 X53.088 Y1201.788
G01 X16.324 Y1232.721
G01 X5.000 Y1243.181
G01 X5.000 Y5.000
G01 X138.970 Y5.000
G01 X141.562 Y24.259
G01 X143.328 Y49.376
G01 X143.531 Y69.416
G01 X142.864 Y83.955
G01 X142.036 Y92.723
G01 X141.755 Y95.616
G01 X142.710 Y92.694
G01 X145.554 Y84.185
G01 X150.890 Y70.476
G01 X159.253 Y52.107
G01 X171.101 Y29.747
G01 X186.302 Y5.000
G01 X710.000 Y5.000
G01 X710.000 Y793.136
G01 X661.506 Y822.999
G01 X599.212 Y858.803
G01 X535.909 Y893.389
G01 X472.369 Y926.996
G01 X409.349 Y959.845
G01 X347.578 Y992.123
G01 X287.743 Y1023.974
G01 X230.477 Y1055.488
G01 X176.349 Y1086.695
G01 X125.854 Y1117.558
G01 X79.400 Y1147.975
G01 X37.309 Y1177.779
G01 X5.000 Y1202.729
G01 X5.000 Y5.000
G01 X171.802 Y5.000
G01 X173.267 Y20.881
G01 X173.971 Y45.704
G01 X173.345 Y65.460
G01 X172.089 Y79.759
G01 X170.913 Y88.365
G01 X170.518 Y91.203
G01 X171.582 Y88.362
G01 X174.738 Y80.094
G01 X180.563 Y66.805
G01 X189.565 Y49.047
G01 X202.166 Y27.502
G01 X217.323 Y5.000
G01 X710.000 Y5.000
G01 X710.000 Y797.328
G01 X652.702 Y829.382
G01 X589.842 Y862.088
G01 X526.038 Y893.552
G01 X462.041 Y924.041
G01 X398.588 Y953.805
G01 X336.389 Y983.057
G01 X276.116 Y1011.969
G01 X218.388 Y1040.655
G01 X163.766 Y1069.167
G01 X112.736 Y1097.491
G01 X65.709 Y1125.542
G01 X23.005 Y1153.169
G01 X5.000 Y1165.906
G01 X5.000 Y5.000
G01 X204.185 Y5.000
G01 X204.877 Y18.784
G01 X204.547 Y43.269
G01 X203.117 Y62.707
G01 X201.291 Y76.743
G01 X199.778 Y85.172
G01 X199.274 Y87.952
G01 X200.441 Y85.196
G01 X203.894 Y77.179
G01 X210.184 Y64.326
G01 X219.788 Y47.202
G01 X233.094 Y26.495
G01 X248.922 Y5.000
G01 X710.000 Y5.000
G01 X710.000 Y801.433
G01 X705.581 Y803.893
G01 X643.911 Y835.075
G01 X580.633 Y864.699
G01 X516.477 Y893.060
G01 X452.171 Y920.453
G01 X388.431 Y947.153
G01 X325.948 Y973.402
G01 X265.376 Y999.395
G01 X207.322 Y1025.270
G01 X152.334 Y1051.102
G01 X100.894 Y1076.896
G01 X53.408 Y1102.587
G01 X10.198 Y1128.039
G01 X5.000 Y1131.399
G01 X5.000 Y5.000
G01 X236.234 Y5.000
G01 X236.342 Y17.954
G01 X235.008 Y42.059
G01 X232.798 Y61.147
G01 X230.422 Y74.897
G01 X228.586 Y83.138
G01 X227.976 Y85.854
G01 X229.242 Y83.187
G01 X232.976 Y75.432
G01 X239.704 Y63.031
G01 X249.873 Y46.558
G01 X263.837 Y26.710
G01 X281.272 Y5.000
G01 X710.000 Y5.000
G01 X710.000 Y805.489
G01 X697.204 Y811.924
G01 X635.174 Y840.091
G01 X571.625 Y866.655
G01 X507.262 Y891.940
G01 X442.793 Y916.265
G01 X378.910 Y939.931
G01 X316.283 Y963.205
G01 X255.550 Y986.304
G01 X197.302 Y1009.392
G01 X142.076 Y1032.563
G01 X90.346 Y1055.844
G01 X42.516 Y1079.186
G01 X5.000 Y1099.217
G01 X5.000 Y5.000
G01 X268.059 Y5.000
G01 X267.611 Y18.376
G01 X265.304 Y42.061
G01 X262.342 Y60.768
G01 X259.436 Y74.211
G01 X257.290 Y82.251
G01 X256.579 Y84.900
G01 X257.937 Y82.325
G01 X261.937 Y74.841
G01 X269.077 Y62.905
G01 X279.774 Y47.102
G01 X294.348 Y28.130
G01 X313.017 Y6.781
G01 X314.800 Y5.000
G01 X710.000 Y5.000
G01 X710.000 Y809.688
G01 X688.779 Y819.268
G01 X626.532 Y844.444
G01 X562.854 Y867.980
G01 X498.430 Y890.221
G01 X433.939 Y911.513
G01 X370.054 Y932.181
G01 X307.422 Y952.513
G01 X246.662 Y972.752
G01 X188.350 Y993.081
G01 X133.011 Y1013.619
G01 X81.110 Y1034.408
G01 X33.047 Y1055.419
G01 X5.000 Y1068.915
G01 X5.000 Y5.000
G01 X299.769 Y5.000
G01 X298.635 Y20.032
G01 X295.389 Y43.258
G01 X291.702 Y61.555
G01 X288.287 Y74.671
G01 X285.844 Y82.498
G01 X285.037 Y85.077
G01 X286.483 Y82.598
G01 X290.732 Y75.393
G01 X298.257 Y63.935
G01 X309.444 Y48.815
G01 X324.578 Y30.736
G01 X343.844 Y10.485
G01 X349.814 Y5.000
G01 X710.000 Y5.000
G01 X710.000 Y814.018
G01 X680.349 Y825.935
G01 X618.024 Y848.152
G01 X554.359 Y868.695
G01 X490.012 Y887.933
G01 X425.640 Y906.234
G01 X361.890 Y923.944
G01 X299.388 Y941.376
G01 X238.732 Y958.793
G01 X180.484 Y976.401
G01 X125.153 Y994.336
G01 X73.199 Y1012.660
G01 X25.013 Y1031.361
G01 X5.000 Y1039.979
G01 X5.000 Y5.000
G01 X331.473 Y5.000
G01 X329.366 Y22.902
G01 X325.214 Y45.632
G01 X320.831 Y63.493
G01 X316.931 Y76.263
G01 X314.205 Y83.868
G01 X313.307 Y86.373
G01 X314.834 Y83.991
G01 X319.316 Y77.074
G01 X327.199 Y66.104
G01 X338.837 Y51.681
G01 X354.484 Y34.507
G01 X374.287 Y15.367
G01 X386.566 Y5.000
G01 X710.000 Y5.000
G01 X710.000 Y818.469
G01 X671.954 Y831.938
G01 X609.689 Y851.235
G01 X546.175 Y868.828
G01 X482.042 Y885.109
G01 X417.924 Y900.465
G01 X354.442 Y915.266
G01 X292.201 Y929.845
G01 X231.779 Y944.486
G01 X173.718 Y959.413
G01 X118.516 Y974.782
G01 X66.621 Y990.675
G01 X18.421 Y1007.093
G01 X5.000 Y1012.217
G01 X5.000 Y5.000
G01 X363.279 Y5.000
G01 X359.757 Y26.966
G01 X354.735 Y49.166
G01 X349.687 Y66.563
G01 X345.324 Y78.971
G01 X342.329 Y86.342
G01 X341.343 Y88.770
G01 X342.947 Y86.489
G01 X347.646 Y79.866
G01 X355.859 Y69.394
G01 X367.910 Y55.679
G01 X384.020 Y39.421
G01 X404.302 Y21.400
G01 X425.466 Y5.000
G01 X710.000 Y5.000
G01 X710.000 Y823.034
G01 X663.636 Y837.292
G01 X601.564 Y853.713
G01 X538.333 Y868.405
G01 X474.549 Y881.781
G01 X410.816 Y894.248
G01 X347.733 Y906.194
G01 X285.881 Y917.972
G01 X225.816 Y929.886
G01 X168.063 Y942.180
G01 X113.107 Y955.026
G01 X61.383 Y968.524
G01 X13.274 Y982.691
G01 X5.000 Y985.459
G01 X5.000 Y5.000
G01 X395.221 Y5.000
G01 X395.071 Y6.118
G01 X389.763 Y32.199
G01 X383.908 Y53.836
G01 X378.225 Y70.746
G01 X373.422 Y82.776
G01 X370.173 Y89.905
G01 X369.105 Y92.254
G01 X370.779 Y90.075
G01 X375.678 Y83.751
G01 X384.194 Y73.785
G01 X396.620 Y60.787
G01 X413.144 Y45.454
G01 X433.846 Y28.558
G01 X458.695 Y10.919
G01 X468.435 Y5.000
G01 X710.000 Y5.000
G01 X710.000 Y827.707
G01 X655.433 Y842.014
G01 X593.684 Y855.610
G01 X530.867 Y867.457
G01 X467.559 Y877.985
G01 X404.340 Y887.621
G01 X341.782 Y896.772
G01 X280.442 Y905.808
G01 X220.856 Y915.052
G01 X163.528 Y924.765
G01 X108.930 Y935.136
G01 X57.485 Y946.282
G01 X9.570 Y958.235
G01 X5.000 Y959.554
G01 X5.000 Y5.000
G01 X427.075 Y5.000
G01 X425.633 Y13.138
G01 X419.338 Y38.576
G01 X412.688 Y59.621
G01 X406.403 Y76.022
G01 X401.184 Y87.658
G01 X397.696 Y94.537
G01 X396.551 Y96.804
G01 X398.290 Y94.729
G01 X403.372 Y88.710
G01 X412.162 Y79.257
G01 X424.924 Y66.982
G01 X441.814 Y52.580
G01 X462.878 Y36.812
G01 X488.053 Y20.484
G01 X516.122 Y5.000
G01 X710.000 Y5.000
G01 X710.000 Y832.332
G01 X707.155 Y833.102
G01 X647.382 Y846.125
G01 X586.083 Y856.952
G01 X523.805 Y866.014
G01 X461.099 Y873.759
G01 X398.517 Y880.629
G01 X336.606 Y887.050
G01 X275.898 Y893.408
G01 X216.906 Y900.043
G01 X160.118 Y907.231
G01 X105.986 Y915.181
G01 X54.926 Y924.022
G01 X7.303 Y933.803
G01 X5.000 Y934.364
G01 X5.000 Y5.000
G01 X459.278 Y5.000
G01 X455.678 Y21.312
G01 X448.441 Y46.072
G01 X441.035 Y66.495
G01 X434.179 Y82.367
G01 X428.569 Y93.596
G01 X424.857 Y100.219
G01 X423.640 Y102.400
G01 X425.438 Y100.431
G01 X430.686 Y94.721
G01 X439.723 Y85.787
G01 X452.783 Y74.240
G01 X469.990 Y60.772
G01 X491.359 Y46.133
G01 X516.793 Y31.112
G01 X546.090 Y16.517
G01 X574.399 Y5.000
G01 X710.000 Y5.000
G01 X710.000 Y836.779
G01 X698.839 Y839.304
G01 X639.521 Y849.646
G01 X578.794 Y857.765
G01 X517.175 Y864.108
G01 X455.191 Y869.138
G01 X393.366 Y873.314
G01 X332.219 Y877.075
G01 X272.258 Y880.824
G01 X213.973 Y884.916
G01 X157.832 Y889.643
G01 X104.274 Y895.228
G01 X53.699 Y901.816
G01 X6.466 Y909.471
G01 X5.000 Y909.763
G01 X5.000 Y5.000
G01 X491.949 Y5.000
G01 X485.164 Y30.610
G01 X477.029 Y54.657
G01 X468.908 Y74.434
G01 X461.515 Y89.758
G01 X455.538 Y100.568
G01 X451.618 Y106.927
G01 X450.333 Y109.022
G01 X452.184 Y107.160
G01 X457.582 Y101.762
G01 X466.839 Y93.349
G01 X480.158 Y82.534
G01 X497.634 Y70.001
G01 X519.250 Y56.488
G01 X544.879 Y42.767
G01 X574.289 Y29.623
G01 X607.150 Y17.834
G01 X643.043 Y8.145
G01 X660.573 Y5.000
G01 X710.000 Y5.000
G01 X710.000 Y841.341
G01 X690.628 Y844.877
G01 X631.884 Y852.600
G01 X571.845 Y858.078
G01 X511.004 Y861.774
G01 X449.858 Y864.164
G01 X388.903 Y865.721
G01 X328.632 Y866.897
G01 X269.528 Y868.111
G01 X212.058 Y869.730
G01 X156.671 Y872.063
G01 X103.787 Y875.346
G01 X53.795 Y879.738
G01 X7.045 Y885.315
G01 X5.000 Y885.635
G01 X5.000 Y5.000
G01 X524.544 Y5.000
G01 X522.498 Y13.759
G01 X514.049 Y40.998
G01 X505.064 Y64.303
G01 X496.267 Y83.409
G01 X488.371 Y98.169
G01 X482.052 Y108.549
G01 X477.939 Y114.638
G01 X476.592 Y116.645
G01 X478.491 Y114.891
G01 X484.022 Y109.807
G01 X493.469 Y101.919
G01 X507.010 Y91.837
G01 X524.708 Y80.237
G01 X546.515 Y67.844
G01 X572.276 Y55.413
G01 X601.729 Y43.705
G01 X634.519 Y33.471
G01 X670.202 Y25.425
G01 X708.263 Y20.232
G01 X710.000 Y20.155
G01 X710.000 Y846.014
G01 X682.561 Y849.842
G01 X624.504 Y855.012
G01 X565.266 Y857.922
G01 X505.314 Y859.047
G01 X445.116 Y858.876
G01 X385.141 Y857.894
G01 X325.854 Y856.566
G01 X267.712 Y855.322
G01 X211.161 Y854.545
G01 X156.627 Y854.555
G01 X104.514 Y855.602
G01 X55.199 Y857.858
G01 X9.022 Y861.413
G01 X5.000 Y861.870
G01 X5.000 Y5.000
G01 X557.563 Y5.000
G01 X551.717 Y26.022
G01 X542.293 Y52.444
G01 X532.505 Y74.977
G01 X523.076 Y93.392
G01 X514.710 Y107.572
G01 X508.075 Y117.513
G01 X503.784 Y123.328
G01 X502.380 Y125.245
G01 X504.321 Y123.600
G01 X509.968 Y118.832
G01 X519.580 Y111.470
G01 X533.304 Y102.119
G01 X551.176 Y91.449
G01 X573.120 Y80.169
G01 X598.950 Y69.013
G01 X628.379 Y58.721
G01 X661.025 Y50.015
G01 X696.426 Y43.579
G01 X710.000 Y42.303
G01 X710.000 Y850.795
G01 X674.673 Y854.222
G01 X617.412 Y856.910
G01 X559.084 Y857.328
G01 X500.128 Y855.964
G01 X440.983 Y853.315
G01 X382.092 Y849.878
G01 X323.891 Y846.130
G01 X266.812 Y842.513
G01 X211.277 Y839.419
G01 X157.692 Y837.181
G01 X106.445 Y836.062
G01 X57.896 Y836.247
G01 X12.378 Y837.837
G01 X5.000 Y838.364
G01 X5.000 Y5.000
G01 X590.893 Y5.000
G01 X589.629 Y10.227
G01 X580.204 Y39.340
G01 X569.859 Y64.912
G01 X559.317 Y86.648
G01 X549.297 Y104.353
G01 X540.496 Y117.940
G01 X533.571 Y127.434
G01 X529.118 Y132.971
G01 X527.662 Y134.796
G01 X529.638 Y133.260
G01 X535.385 Y128.809
G01 X545.134 Y121.972
G01 X559.005 Y113.351
G01 X577.005 Y103.604
G01 X599.031 Y93.426
G01 X624.869 Y83.530
G01 X654.207 Y74.631
G01 X686.642 Y67.422
G01 X710.000 Y64.180
G01 X710.000 Y855.681
G01 X666.998 Y858.041
G01 X610.637 Y858.322
G01 X553.322 Y856.331
G01 X495.463 Y852.561
G01 X437.473 Y847.523
G01 X379.763 Y841.721
G01 X322.746 Y835.641
G01 X266.825 Y829.736
G01 X212.400 Y824.409
G01 X159.855 Y820.004
G01 X109.561 Y816.793
G01 X61.864 Y814.974
G01 X17.087 Y814.661
G01 X5.000 Y815.017
G01 X5.000 Y5.000
G01 X624.241 Y5.000
G01 X618.377 Y25.467
G01 X607.923 Y53.675
G01 X596.712 Y78.366
G01 X585.465 Y99.282
G01 X574.897 Y116.259
G01 X565.696 Y129.243
G01 X558.505 Y138.283
G01 X553.906 Y143.538
G01 X552.403 Y145.272
G01 X554.410 Y143.845
G01 X560.240 Y139.710
G01 X570.099 Y133.397
G01 X584.080 Y125.501
G01 X602.163 Y116.670
G01 X624.217 Y107.580
G01 X650.004 Y98.925
G01 X679.188 Y91.393
G01 X710.000 Y85.888
G01 X710.000 Y860.673
G01 X659.569 Y861.324
G01 X604.208 Y859.279
G01 X548.003 Y854.963
G01 X491.338 Y848.878
G01 X434.596 Y841.542
G01 X378.162 Y833.467
G01 X322.419 Y825.149
G01 X267.746 Y817.047
G01 X214.518 Y809.574
G01 X163.100 Y803.083
G01 X113.842 Y797.859
G01 X67.079 Y794.109
G01 X23.121 Y791.957
G01 X5.000 Y791.731
G01 X5.000 Y5.000
G01 X657.915 Y5.000
G01 X656.378 Y11.280
G01 X646.263 Y41.716
G01 X634.840 Y68.984
G01 X622.818 Y92.768
G01 X610.916 Y112.843
G01 X599.842 Y129.079
G01 X590.276 Y141.450
G01 X582.845 Y150.031
G01 X578.115 Y155.003
G01 X576.571 Y156.644
G01 X578.602 Y155.326
G01 X584.499 Y151.506
G01 X594.442 Y145.713
G01 X608.497 Y138.537
G01 X626.618 Y130.610
G01 X648.649 Y122.593
G01 X674.327 Y115.157
G01 X703.294 Y108.963
G01 X710.000 Y108.053
G01 X710.000 Y865.503
G01 X705.597 Y865.642
G01 X652.417 Y864.099
G01 X598.149 Y859.812
G01 X543.147 Y853.261
G01 X487.767 Y844.954
G01 X432.362 Y835.415
G01 X377.291 Y825.165
G01 X322.908 Y814.703
G01 X269.567 Y804.497
G01 X217.620 Y794.969
G01 X167.408 Y786.481
G01 X119.267 Y779.324
G01 X73.514 Y773.717
G01 X30.449 Y769.795
G01 X5.000 Y768.409
G01 X5.000 Y5.000
G01 X691.517 Y5.000
G01 X684.433 Y29.467
G01 X673.254 Y58.929
G01 X660.921 Y85.226
G01 X648.144 Y108.080
G01 X635.637 Y127.296
G01 X624.102 Y142.779
G01 X614.204 Y154.529
G01 X606.560 Y162.647
G01 X601.715 Y167.334
G01 X600.134 Y168.882
G01 X602.184 Y167.672
G01 X608.132 Y164.166
G01 X618.133 Y158.890
G01 X632.226 Y152.424
G01 X650.342 Y145.390
G01 X672.299 Y138.428
G01 X697.813 Y132.186
G01 X710.000 Y130.109
G01 X710.000 Y870.225
G01 X697.700 Y870.099
G01 X645.569 Y866.396
G01 X592.485 Y859.955
G01 X538.773 Y851.261
G01 X484.761 Y840.829
G01 X430.778 Y829.187
G01 X377.150 Y816.859
G01 X324.208 Y804.353
G01 X272.278 Y792.142
G01 X221.688 Y780.653
G01 X172.759 Y770.255
G01 X125.807 Y761.249
G01 X81.136 Y753.863
G01 X39.034 Y748.242
G01 X5.000 Y744.953
G01 X5.000 Y5.000
G01 X710.000 Y5.000
G01 X710.000 Y52.105
G01 X699.317 Y77.060
G01 X686.136 Y102.359
G01 X672.660 Y124.261
G01 X659.599 Y142.604
G01 X647.645 Y157.324
G01 X637.452 Y168.448
G01 X629.619 Y176.101
G01 X624.675 Y180.501
G01 X623.062 Y181.956
G01 X625.126 Y180.854
G01 X631.109 Y177.659
G01 X641.142 Y172.894
G01 X655.240 Y167.130
G01 X673.308 Y160.973
G01 X695.142 Y155.045
G01 X710.000 Y152.064
G01 X710.000 Y875.065
G01 X690.049 Y874.022
G01 X639.054 Y868.244
G01 X587.236 Y859.740
G01 X534.895 Y849.001
G01 X482.332 Y836.543
G01 X429.847 Y822.899
G01 X377.739 Y808.598
G01 X326.311 Y794.149
G01 X275.865 Y780.032
G01 X226.703 Y766.678
G01 X179.127 Y754.463
G01 X133.434 Y743.696
G01 X89.912 Y734.612
G01 X48.839 Y727.364
G01 X10.475 Y722.027
G01 X5.000 Y721.496
G01 X5.000 Y5.000
G01 X710.000 Y5.000
G01 X710.000 Y121.016
G01 X696.339 Y141.271
G01 X682.775 Y158.730
G01 X670.445 Y172.678
G01 X659.991 Y183.172
G01 X651.995 Y190.359
G01 X646.966 Y194.473
G01 X645.326 Y195.834
G01 X647.399 Y194.839
G01 X653.402 Y191.952
G01 X663.442 Y187.691
G01 X677.510 Y182.617
G01 X695.490 Y177.321
G01 X710.000 Y174.029
G01 X710.000 Y880.021
G01 X682.675 Y877.442
G01 X632.896 Y869.677
G01 X582.422 Y859.205
G01 X531.528 Y846.518
G01 X480.486 Y832.138
G01 X429.570 Y816.597
G01 X379.052 Y800.427
G01 X329.206 Y784.140
G01 X280.310 Y768.219
G01 X232.644 Y753.100
G01 X186.485 Y739.163
G01 X142.114 Y726.723
G01 X99.804 Y716.023
G01 X59.821 Y707.226
G01 X22.416 Y700.414
G01 X5.000 Y697.983
G01 X5.000 Y169.443
G01 X14.178 Y118.416
G01 X24.269 Y66.353
G01 X35.434 Y14.744
G01 X37.853 Y5.000
G01 X710.000 Y5.000
G01 X710.000 Y169.885
G01 X705.137 Y175.633
G01 X692.475 Y188.806
G01 X681.794 Y198.668
G01 X673.660 Y205.387
G01 X668.562 Y209.216
G01 X666.900 Y210.485
G01 X668.977 Y209.596
G01 X674.984 Y207.012
G01 X685.007 Y203.247
G01 X699.013 Y198.851
G01 X710.000 Y196.110
G01 X710.000 Y885.096
G01 X675.604 Y880.388
G01 X627.117 Y870.728
G01 X578.059 Y858.385
G01 X528.682 Y843.853
G01 X479.229 Y827.655
G01 X429.947 Y810.324
G01 X381.081 Y792.392
G01 X332.881 Y774.375
G01 X285.596 Y756.754
G01 X239.484 Y739.970
G01 X194.803 Y724.408
G01 X151.813 Y710.388
G01 X110.772 Y698.158
G01 X71.934 Y687.889
G01 X35.544 Y679.672
G01 X5.000 Y674.095
G01 X5.000 Y317.737
G01 X7.715 Y306.496
G01 X18.548 Y258.705
G01 X29.297 Y209.512
G01 X40.195 Y159.367
G01 X51.512 Y108.741
G01 X63.549 Y58.115
G01 X76.619 Y7.979
G01 X77.493 Y5.000
G01 X710.000 Y5.000
G01 X710.000 Y208.819
G01 X702.837 Y214.899
G01 X694.590 Y221.153
G01 X689.437 Y224.698
G01 X687.759 Y225.874
G01 X689.833 Y225.089
G01 X695.831 Y222.805
G01 X705.812 Y219.527
G01 X710.000 Y218.403
G01 X710.000 Y890.289
G01 X668.864 Y882.891
G01 X621.738 Y871.430
G01 X574.164 Y857.316
G01 X526.365 Y841.044
G01 X478.563 Y823.135
G01 X430.974 Y804.123
G01 X383.819 Y784.540
G01 X337.318 Y764.900
G01 X291.700 Y745.686
G01 X247.197 Y727.341
G01 X204.047 Y710.252
G01 X162.490 Y694.744
G01 X122.772 Y681.071
G01 X85.132 Y669.411
G01 X49.806 Y659.862
G01 X17.020 Y652.445
G01 X5.000 Y650.305
G01 X5.000 Y401.137
G01 X12.128 Y379.982
G01 X25.203 Y337.580
G01 X37.977 Y292.989
G01 X50.561 Y246.598
G01 X63.120 Y198.829
G01 X75.864 Y150.135
G01 X89.040 Y100.985
G01 X102.920 Y51.866
G01 X117.263 Y5.000
G01 X710.000 Y5.000
G01 X710.000 Y240.612
G01 X709.568 Y240.884
G01 X707.878 Y241.969
G01 X709.945 Y241.286
G01 X710.000 Y241.268
G01 X710.000 Y895.430
G01 X707.640 Y895.078
G01 X662.478 Y884.986
G01 X616.777 Y871.821
G01 X570.747 Y856.038
G01 X524.586 Y838.131
G01 X478.488 Y818.621
G01 X432.645 Y798.039
G01 X387.251 Y776.915
G01 X342.501 Y755.762
G01 X298.598 Y735.063
G01 X255.752 Y715.262
G01 X214.180 Y696.747
G01 X174.106 Y679.846
G01 X135.756 Y664.819
G01 X99.361 Y651.849
G01 X65.147 Y641.043
G01 X33.334 Y632.429
G01 X5.000 Y626.150
G01 X5.000 Y450.283
G01 X10.005 Y439.517
G01 X25.035 Y403.809
G01 X39.835 Y365.307
G01 X54.391 Y324.304
G01 X68.740 Y281.145
G01 X82.978 Y236.215
G01 X97.247 Y189.935
G01 X111.736 Y142.755
G01 X126.665 Y95.147
G01 X142.284 Y47.599
G01 X157.304 Y5.000
G01 X710.000 Y5.000
G01 X710.000 Y900.312
G01 X700.283 Y898.445
G01 X656.467 Y886.706
G01 X612.250 Y871.935
G01 X567.818 Y854.587
G01 X523.346 Y835.154
G01 X479.002 Y814.153
G01 X434.951 Y792.113
G01 X391.363 Y769.560
G01 X348.407 Y747.006
G01 X306.262 Y724.932
G01 X265.116 Y703.780
G01 X225.165 Y683.941
G01 X186.614 Y665.744
G01 X149.677 Y649.452
G01 X114.569 Y635.256
G01 X81.508 Y623.269
G01 X50.709 Y613.528
G01 X22.376 Y605.990
G01 X5.000 Y602.303
G01 X5.000 Y480.697
G01 X19.662 Y455.030
G01 X35.881 Y423.659
G01 X52.070 Y389.308
G01 X68.149 Y352.211
G01 X84.090 Y312.657
G01 X99.918 Y270.982
G01 X115.710 Y227.568
G01 X131.588 Y182.834
G01 X147.717 Y137.228
G01 X164.295 Y91.222
G01 X181.546 Y45.302
G01 X197.688 Y5.000
G01 X710.000 Y5.000
G01 X710.000 Y905.327
G01 X693.264 Y901.377
G01 X650.851 Y888.086
G01 X608.171 Y871.811
G01 X565.387 Y853.004
G01 X522.648 Y832.153
G01 X480.100 Y809.773
G01 X437.882 Y786.388
G01 X396.137 Y762.521
G01 X355.013 Y738.678
G01 X314.663 Y715.338
G01 X275.253 Y692.943
G01 X236.959 Y671.881
G01 X199.970 Y652.485
G01 X164.481 Y635.021
G01 X130.698 Y619.683
G01 X98.829 Y606.592
G01 X69.082 Y595.792
G01 X41.658 Y587.251
G01 X16.747 Y580.864
G01 X5.000 Y578.534
G01 X5.000 Y498.904
G01 X11.814 Y490.107
G01 X28.349 Y466.335
G01 X45.289 Y439.377
G01 X62.457 Y409.334
G01 X79.719 Y376.374
G01 X96.985 Y340.721
G01 X114.217 Y302.657
G01 X131.426 Y262.513
G01 X148.669 Y220.665
G01 X166.051 Y177.529
G01 X183.715 Y133.550
G01 X201.835 Y89.198
G01 X220.609 Y44.959
G01 X238.595 Y5.000
G01 X710.000 Y5.000
G01 X710.000 Y910.478
G01 X686.605 Y903.910
G01 X645.648 Y889.164
G01 X604.552 Y871.486
G01 X563.457 Y851.326
G01 X522.491 Y829.169
G01 X481.775 Y805.523
G01 X441.423 Y780.907
G01 X401.555 Y755.838
G01 X362.293 Y730.819
G01 X323.768 Y706.325
G01 X286.125 Y682.793
G01 X249.520 Y660.613
G01 X214.122 Y640.116
G01 X180.115 Y621.571
G01 X147.690 Y605.177
G01 X117.046 Y591.061
G01 X88.384 Y579.273
G01 X61.903 Y569.791
G01 X37.793 Y562.520
G01 X16.229 Y557.295
G01 X5.000 Y555.268
G01 X5.000 Y509.236
G01 X20.350 Y492.979
G01 X36.770 Y473.527
G01 X53.929 Y450.946
G01 X71.615 Y425.263
G01 X89.651 Y396.573
G01 X107.898 Y365.031
G01 X126.259 Y330.855
G01 X144.686 Y294.319
G01 X163.174 Y255.746
G01 X181.767 Y215.509
G01 X200.548 Y174.017
G01 X219.639 Y131.712
G01 X239.192 Y89.061
G01 X259.380 Y46.547
G01 X280.221 Y5.000
G01 X710.000 Y5.000
G01 X710.000 Y915.767
G01 X680.327 Y906.079
G01 X640.871 Y889.975
G01 X601.399 Y870.998
G01 X562.031 Y849.593
G01 X522.872 Y826.240
G01 X484.017 Y801.441
G01 X445.560 Y775.709
G01 X407.594 Y749.554
G01 X370.218 Y723.472
G01 X333.544 Y697.935
G01 X297.692 Y673.374
G01 X262.800 Y650.178
G01 X229.021 Y628.679
G01 X196.522 Y609.146
G01 X165.482 Y591.783
G01 X136.092 Y576.720
G01 X108.545 Y564.016
G01 X83.037 Y553.657
G01 X59.757 Y545.557
G01 X38.885 Y539.564
G01 X20.579 Y535.461
G01 X5.000 Y532.979
G01 X5.000 Y512.585
G01 X15.388 Y504.696
G01 X29.844 Y492.208
G01 X45.626 Y476.844
G01 X62.488 Y458.494
G01 X80.201 Y437.113
G01 X98.557 Y412.720
G01 X117.378 Y385.400
G01 X136.521 Y355.301
G01 X155.885 Y322.630
G01 X175.409 Y287.653
G01 X195.077 Y250.688
G01 X214.915 Y212.099
G01 X234.989 Y172.291
G01 X255.399 Y131.701
G01 X276.275 Y90.791
G01 X297.766 Y50.042
G01 X320.035 Y9.943
G01 X322.979 Y5.000
G01 X710.000 Y5.000
G01 X710.000 Y911.640
G01 X676.971 Y900.005
G01 X638.690 Y883.407
G01 X600.416 Y864.048
G01 X562.254 Y842.365
G01 X524.296 Y818.829
G01 X486.625 Y793.933
G01 X449.323 Y768.177
G01 X412.473 Y742.063
G01 X376.166 Y716.076
G01 X340.505 Y690.676
G01 X305.607 Y666.288
G01 X271.603 Y643.291
G01 X238.643 Y622.008
G01 X206.892 Y602.703
G01 X176.526 Y585.573
G01 X147.736 Y570.746
G01 X120.715 Y558.277
G01 X95.660 Y548.150
G01 X72.761 Y540.278
G01 X52.197 Y534.507
G01 X34.131 Y530.623
G01 X18.699 Y528.354
G01 X6.012 Y527.381
G01 X5.000 Y527.378
G01 X5.000 Y518.709
G01 X14.491 Y512.496
G01 X26.870 Y503.102
G01 X40.768 Y491.036
G01 X55.932 Y476.130
G01 X72.117 Y458.277
G01 X89.091 Y437.432
G01 X106.645 Y413.614
G01 X124.600 Y386.904
G01 X142.812 Y357.450
G01 X161.179 Y325.453
G01 X179.637 Y291.175
G01 X198.172 Y254.926
G01 X216.807 Y217.062
G01 X235.608 Y177.978
G01 X254.678 Y138.101
G01 X274.147 Y97.880
G01 X294.168 Y57.783
G01 X314.906 Y18.284
G01 X322.381 Y5.000
G01 X710.000 Y5.000
G01 X710.000 Y884.625
G01 X678.746 Y875.065
G01 X640.651 Y860.408
G01 X602.452 Y843.054
G01 X564.267 Y823.424
G01 X526.205 Y801.975
G01 X488.369 Y779.184
G01 X450.858 Y755.540
G01 X413.774 Y731.526
G01 X377.228 Y707.615
G01 X341.336 Y684.251
G01 X306.232 Y661.845
G01 X272.059 Y640.761
G01 X238.976 Y621.310
G01 X207.155 Y603.743
G01 X176.778 Y588.245
G01 X148.036 Y574.932
G01 X121.119 Y563.852
G01 X96.219 Y554.979
G01 X73.518 Y548.222
G01 X53.186 Y543.423
G01 X35.371 Y540.365
G01 X20.198 Y538.778
G01 X7.759 Y538.345
G01 X5.000 Y538.450
G01 X5.000 Y530.865
G01 X5.344 Y530.655
G01 X15.426 Y523.431
G01 X27.136 Y513.743
G01 X40.221 Y501.381
G01 X54.428 Y486.193
G01 X69.510 Y468.084
G01 X85.241 Y447.018
G01 X101.416 Y423.024
G01 X117.865 Y396.188
G01 X134.454 Y366.660
G01 X151.088 Y334.642
G01 X167.718 Y300.391
G01 X184.342 Y264.212
G01 X200.998 Y226.451
G01 X217.767 Y187.491
G01 X234.765 Y147.745
G01 X252.139 Y107.648
G01 X270.057 Y67.649
G01 X288.700 Y28.205
G01 X300.506 Y5.000
G01 X710.000 Y5.000
G01 X710.000 Y858.250
G01 X678.995 Y850.167
G01 X641.182 Y837.407
G01 X603.156 Y822.016
G01 X565.051 Y804.402
G01 X526.993 Y785.006
G01 X489.100 Y764.291
G01 X451.490 Y742.729
G01 X414.283 Y720.789
G01 X377.605 Y698.926
G01 X341.590 Y677.573
G01 X306.382 Y657.122
G01 X272.139 Y637.925
G01 X239.028 Y620.278
G01 X207.227 Y604.420
G01 X176.921 Y590.524
G01 X148.301 Y578.696
G01 X121.556 Y568.973
G01 X96.871 Y561.324
G01 X74.421 Y555.651
G01 X54.365 Y551.794
G01 X36.839 Y549.534
G01 X21.953 Y548.602
G01 X9.785 Y548.686
G01 X5.000 Y549.068
G01 X5.000 Y542.667
G01 X7.103 Y541.256
G01 X16.653 Y533.786
G01 X27.692 Y523.842
G01 X39.965 Y511.232
G01 X53.216 Y495.815
G01 X67.203 Y477.509
G01 X81.703 Y456.289
G01 X96.517 Y432.192
G01 X111.482 Y405.309
G01 X126.472 Y375.790
G01 X141.405 Y343.838
G01 X156.243 Y309.706
G01 X170.995 Y273.691
G01 X185.714 Y236.131
G01 X200.494 Y197.395
G01 X215.466 Y157.883
G01 X230.790 Y118.012
G01 X246.649 Y78.216
G01 X263.239 Y38.932
G01 X278.748 Y5.000
G01 X710.000 Y5.000
G01 X710.000 Y832.383
G01 X677.727 Y825.395
G01 X640.286 Y814.482
G01 X602.529 Y801.009
G01 X564.605 Y785.369
G01 X526.654 Y767.988
G01 X488.811 Y749.313
G01 X451.209 Y729.798
G01 X413.986 Y709.899
G01 X377.282 Y690.054
G01 X341.246 Y670.679
G01 X306.037 Y652.152
G01 X271.820 Y634.810
G01 X238.772 Y618.935
G01 X207.077 Y604.753
G01 X176.921 Y592.425
G01 X148.497 Y582.047
G01 X121.989 Y573.647
G01 X97.577 Y567.188
G01 X75.428 Y562.566
G01 X55.690 Y559.619
G01 X38.488 Y558.128
G01 X23.917 Y557.825
G01 X12.042 Y558.402
G01 X5.000 Y559.261
G01 X5.000 Y554.257
G01 X9.110 Y551.240
G01 X18.125 Y543.555
G01 X28.493 Y533.395
G01 X39.955 Y520.582
G01 X52.258 Y504.989
G01 X65.161 Y486.545
G01 X78.444 Y465.238
G01 X91.917 Y441.108
G01 X105.423 Y414.253
G01 X118.846 Y384.825
G01 X132.113 Y353.024
G01 X145.198 Y319.100
G01 X158.123 Y283.341
G01 X170.951 Y246.076
G01 X183.791 Y207.661
G01 X196.786 Y168.481
G01 X210.110 Y128.937
G01 X223.960 Y89.443
G01 X238.544 Y50.421
G01 X254.073 Y12.290
G01 X257.376 Y5.000
G01 X710.000 Y5.000
G01 X710.000 Y264.741
G01 X703.237 Y268.627
G01 X698.522 Y270.917
G01 X696.767 Y271.541
G01 X698.165 Y270.840
G01 X702.820 Y269.191
G01 X710.000 Y267.205
G01 X710.000 Y806.900
G01 X674.954 Y800.833
G01 X637.971 Y791.713
G01 X600.576 Y780.108
G01 X562.930 Y766.395
G01 X525.186 Y750.985
G01 X487.495 Y734.308
G01 X450.005 Y716.802
G01 X412.870 Y698.906
G01 X376.244 Y681.041
G01 X340.289 Y663.608
G01 X305.175 Y646.969
G01 X271.079 Y631.445
G01 X238.183 Y617.305
G01 X206.677 Y604.762
G01 X176.749 Y593.964
G01 X148.590 Y584.998
G01 X122.382 Y577.885
G01 X98.298 Y572.578
G01 X76.498 Y568.973
G01 X57.119 Y566.902
G01 X40.273 Y566.148
G01 X26.044 Y566.446
G01 X14.480 Y567.493
G01 X5.594 Y568.954
G01 X5.000 Y569.098
G01 X5.000 Y565.666
G01 X11.316 Y560.607
G01 X19.796 Y552.739
G01 X29.494 Y542.401
G01 X40.150 Y529.429
G01 X51.514 Y513.711
G01 X63.346 Y495.189
G01 X75.432 Y473.857
G01 X87.588 Y449.763
G01 X99.664 Y423.011
G01 X111.553 Y393.751
G01 X123.194 Y362.184
G01 X134.571 Y328.553
G01 X145.715 Y293.139
G01 X156.704 Y256.259
G01 X167.657 Y218.259
G01 X178.730 Y179.505
G01 X190.110 Y140.383
G01 X202.003 Y101.290
G01 X214.632 Y62.627
G01 X228.221 Y24.795
G01 X236.204 Y5.000
G01 X710.000 Y5.000
G01 X710.000 Y230.495
G01 X703.949 Y236.219
G01 X692.965 Y245.317
G01 X683.742 Y252.008
G01 X676.697 Y256.454
G01 X672.188 Y258.879
G01 X670.497 Y259.559
G01 X671.827 Y258.817
G01 X676.296 Y257.018
G01 X683.931 Y254.555
G01 X694.673 Y251.846
G01 X708.378 Y249.318
G01 X710.000 Y249.129
G01 X710.000 Y781.393
G01 X706.450 Y781.223
G01 X670.691 Y776.563
G01 X634.250 Y769.178
G01 X597.306 Y759.386
G01 X560.030 Y747.550
G01 X522.591 Y734.062
G01 X485.151 Y719.337
G01 X447.875 Y703.795
G01 X410.928 Y687.859
G01 X374.479 Y671.933
G01 X338.703 Y656.400
G01 X303.780 Y641.607
G01 X269.895 Y627.861
G01 X237.238 Y615.415
G01 X206.000 Y604.468
G01 X176.374 Y595.160
G01 X148.547 Y587.566
G01 X122.699 Y581.698
G01 X98.997 Y577.506
G01 X77.591 Y574.879
G01 X58.608 Y573.649
G01 X42.150 Y573.600
G01 X28.286 Y574.470
G01 X17.052 Y575.961
G01 X8.445 Y577.746
G01 X5.000 Y578.739
G01 X5.000 Y576.666
G01 X7.075 Y575.116
G01 X13.674 Y569.358
G01 X21.619 Y561.337
G01 X30.650 Y550.859
G01 X40.509 Y537.773
G01 X50.945 Y521.982
G01 X61.723 Y503.437
G01 X72.633 Y482.142
G01 X83.499 Y458.153
G01 X94.178 Y431.574
G01 X104.572 Y402.559
G01 X114.630 Y371.304
G01 X124.346 Y338.048
G01 X133.762 Y303.064
G01 X142.967 Y266.657
G01 X152.091 Y229.159
G01 X161.301 Y190.923
G01 X170.795 Y152.315
G01 X180.791 Y113.715
G01 X191.522 Y75.504
G01 X203.221 Y38.064
G01 X214.970 Y5.000
G01 X710.000 Y5.000
G01 X710.000 Y183.723
G01 X699.138 Y198.584
G01 X686.994 Y212.913
G01 X675.502 Y224.728
G01 X665.163 Y234.045
G01 X656.441 Y240.943
G01 X649.751 Y245.564
G01 X645.450 Y248.111
G01 X643.825 Y248.842
G01 X645.087 Y248.064
G01 X649.365 Y246.127
G01 X656.702 Y243.414
G01 X667.058 Y240.334
G01 X680.309 Y237.309
G01 X696.252 Y234.765
G01 X710.000 Y233.532
G01 X710.000 Y755.809
G01 X700.005 Y755.750
G01 X664.960 Y752.666
G01 X629.139 Y746.954
G01 X592.730 Y738.917
G01 X555.915 Y728.902
G01 X518.873 Y717.284
G01 X481.780 Y704.459
G01 X444.814 Y690.833
G01 X408.153 Y676.808
G01 X371.978 Y662.774
G01 X336.476 Y649.095
G01 X301.835 Y636.103
G01 X268.249 Y624.088
G01 X235.912 Y613.290
G01 X205.021 Y603.896
G01 X175.768 Y596.033
G01 X148.338 Y589.767
G01 X122.907 Y585.102
G01 X99.636 Y581.983
G01 X78.667 Y580.294
G01 X60.116 Y579.869
G01 X44.074 Y580.491
G01 X30.598 Y581.903
G01 X19.710 Y583.812
G01 X11.394 Y585.901
G01 X5.598 Y587.835
G01 X5.000 Y588.090
G01 X5.000 Y587.379
G01 X5.224 Y587.224
G01 X9.943 Y583.380
G01 X16.136 Y577.497
G01 X23.548 Y569.355
G01 X31.919 Y558.773
G01 X40.990 Y545.618
G01 X50.512 Y529.802
G01 X60.255 Y511.289
G01 X70.015 Y490.092
G01 X79.620 Y466.271
G01 X88.939 Y439.935
G01 X97.880 Y411.237
G01 X106.402 Y380.370
G01 X114.509 Y347.568
G01 X122.253 Y313.095
G01 X129.733 Y277.244
G01 X137.090 Y240.334
G01 X144.500 Y202.701
G01 X152.171 Y164.695
G01 X160.332 Y126.676
G01 X169.225 Y89.007
G01 X179.093 Y52.051
G01 X190.173 Y16.164
G01 X194.225 Y5.000
G01 X710.000 Y5.000
G01 X710.000 Y103.645
G01 X708.896 Y107.872
G01 X700.553 Y130.957
G01 X690.746 Y152.188
G01 X679.953 Y171.327
G01 X668.676 Y188.189
G01 X657.426 Y202.643
G01 X646.709 Y214.621
G01 X637.013 Y224.119
G01 X628.792 Y231.195
G01 X622.460 Y235.969
G01 X618.369 Y238.626
G01 X616.812 Y239.404
G01 X618.005 Y238.593
G01 X622.088 Y236.531
G01 X629.119 Y233.588
G01 X639.077 Y230.164
G01 X651.857 Y226.676
G01 X667.278 Y223.546
G01 X685.091 Y221.193
G01 X704.981 Y220.018
G01 X710.000 Y220.107
G01 X710.000 Y730.155
G01 X692.047 Y730.799
G01 X657.784 Y729.223
G01 X622.658 Y725.119
G01 X586.865 Y718.775
G01 X550.596 Y710.520
G01 X514.040 Y700.714
G01 X477.387 Y689.735
G01 X440.824 Y677.970
G01 X404.543 Y665.805
G01 X368.735 Y653.610
G01 X333.597 Y641.735
G01 X299.326 Y630.493
G01 X266.123 Y620.160
G01 X234.187 Y610.962
G01 X203.716 Y603.072
G01 X174.903 Y596.605
G01 X147.931 Y591.620
G01 X122.972 Y588.113
G01 X100.179 Y586.022
G01 X79.687 Y585.232
G01 X61.602 Y585.573
G01 X46.003 Y586.831
G01 X32.934 Y588.754
G01 X22.407 Y591.055
G01 X14.393 Y593.426
G01 X8.826 Y595.544
G01 X5.602 Y597.078
G01 X5.000 Y597.445
G01 X5.000 Y597.448
G01 X5.593 Y597.092
G01 X8.430 Y594.955
G01 X12.866 Y591.016
G01 X18.655 Y585.033
G01 X25.539 Y576.799
G01 X33.257 Y566.151
G01 X41.552 Y552.967
G01 X50.177 Y537.176
G01 X58.907 Y518.749
G01 X67.544 Y497.707
G01 X75.923 Y474.117
G01 X83.920 Y448.090
G01 X91.454 Y419.778
G01 X98.490 Y389.372
G01 X105.043 Y357.099
G01 X111.175 Y323.213
G01 X116.993 Y287.998
G01 X122.648 Y251.756
G01 X128.326 Y214.808
G01 X134.242 Y177.488
G01 X140.635 Y140.135
G01 X147.754 Y103.093
G01 X155.852 Y66.705
G01 X165.174 Y31.310
G01 X173.492 Y5.000
G01 X680.745 Y5.000
G01 X682.477 Y23.660
G01 X682.097 Y49.798
G01 X679.118 Y75.181
G01 X673.851 Y99.445
G01 X666.666 Y122.260
G01 X657.979 Y143.330
G01 X648.248 Y162.404
G01 X637.952 Y179.279
G01 X627.584 Y193.810
G01 X617.635 Y205.908
G01 X608.578 Y215.550
G01 X600.859 Y222.773
G01 X594.884 Y227.679
G01 X591.005 Y230.432
G01 X589.516 Y231.252
G01 X590.640 Y230.414
G01 X594.525 Y228.240
G01 X601.246 Y225.087
G01 X610.795 Y221.348
G01 X623.088 Y217.431
G01 X637.968 Y213.754
G01 X655.207 Y210.736
G01 X674.516 Y208.781
G01 X695.552 Y208.269
G01 X710.000 Y209.093
G01 X710.000 Y704.320
G01 X682.611 Y706.451
G01 X649.193 Y706.312
G01 X614.832 Y703.747
G01 X579.731 Y699.030
G01 X544.089 Y692.472
G01 X508.105 Y684.416
G01 X471.979 Y675.223
G01 X435.909 Y665.262
G01 X400.097 Y654.899
G01 X364.745 Y644.488
G01 X330.059 Y634.361
G01 X296.242 Y624.816
G01 X263.503 Y616.111
G01 X232.043 Y608.459
G01 X202.062 Y602.021
G01 X173.754 Y596.900
G01 X147.298 Y593.146
G01 X122.861 Y590.749
G01 X100.592 Y589.642
G01 X80.614 Y589.706
G01 X63.025 Y590.773
G01 X47.893 Y592.632
G01 X35.251 Y595.034
G01 X25.098 Y597.701
G01 X17.393 Y600.333
G01 X12.060 Y602.619
G01 X8.984 Y604.240
G01 X8.015 Y604.884
G01 X8.972 Y604.250
G01 X11.644 Y602.052
G01 X15.799 Y598.036
G01 X21.186 Y591.975
G01 X27.548 Y583.679
G01 X34.623 Y573.000
G01 X42.154 Y559.830
G01 X49.902 Y544.109
G01 X57.643 Y525.819
G01 X65.188 Y504.989
G01 X72.378 Y481.689
G01 X79.096 Y456.034
G01 X85.270 Y428.175
G01 X90.875 Y398.299
G01 X95.933 Y366.626
G01 X100.516 Y333.401
G01 X104.739 Y298.895
G01 X108.761 Y263.398
G01 X112.777 Y227.213
G01 X117.009 Y190.656
G01 X121.704 Y154.049
G01 X127.118 Y117.715
G01 X133.512 Y81.978
G01 X141.136 Y47.158
G01 X150.226 Y13.565
G01 X153.100 Y5.000
G01 X642.203 Y5.000
G01 X644.045 Y18.640
G01 X644.735 Y44.086
G01 X642.867 Y68.903
G01 X638.727 Y92.725
G01 X632.661 Y115.215
G01 X625.064 Y136.068
G01 X616.369 Y155.021
G01 X607.036 Y171.859
G01 X597.537 Y186.418
G01 X588.345 Y198.594
G01 X579.922 Y208.343
G01 X572.703 Y215.684
G01 X567.085 Y220.701
G01 X563.419 Y223.537
G01 X561.999 Y224.395
G01 X563.053 Y223.534
G01 X566.739 Y221.260
G01 X573.144 Y217.919
G01 X582.275 Y213.892
G01 X594.070 Y209.580
G01 X608.390 Y205.397
G01 X625.032 Y201.758
G01 X643.730 Y199.069
G01 X664.167 Y197.713
G01 X685.978 Y198.042
G01 X708.767 Y200.367
G01 X710.000 Y200.609
G01 X710.000 Y677.525
G01 X703.024 Y679.031
G01 X671.734 Y682.786
G01 X639.219 Y684.010
G01 X605.689 Y682.914
G01 X571.351 Y679.754
G01 X536.413 Y674.826
G01 X501.082 Y668.455
G01 X465.567 Y660.983
G01 X430.075 Y652.763
G01 X394.818 Y644.141
G01 X360.007 Y635.455
G01 X325.855 Y627.017
G01 X292.574 Y619.109
G01 X260.374 Y611.976
G01 X229.462 Y605.814
G01 X200.039 Y600.772
G01 X172.296 Y596.944
G01 X146.411 Y594.369
G01 X122.545 Y593.031
G01 X100.840 Y592.860
G01 X81.411 Y593.735
G01 X64.346 Y595.487
G01 X49.704 Y597.909
G01 X37.506 Y600.758
G01 X27.738 Y603.763
G01 X20.351 Y606.635
G01 X15.255 Y609.073
G01 X12.328 Y610.773
G01 X11.410 Y611.437
G01 X12.313 Y610.778
G01 X14.820 Y608.530
G01 X18.694 Y604.453
G01 X23.685 Y598.336
G01 X29.531 Y590.008
G01 X35.973 Y579.332
G01 X42.759 Y566.216
G01 X49.649 Y550.611
G01 X56.430 Y532.507
G01 X62.916 Y511.942
G01 X68.955 Y488.991
G01 X74.440 Y463.768
G01 X79.306 Y436.424
G01 X83.536 Y407.143
G01 X87.162 Y376.137
G01 X90.261 Y343.641
G01 X92.959 Y309.916
G01 X95.421 Y275.234
G01 X97.849 Y239.886
G01 X100.472 Y204.166
G01 X103.543 Y168.379
G01 X107.324 Y132.829
G01 X112.082 Y97.820
G01 X118.074 Y63.653
G01 X125.540 Y30.620
G01 X132.959 Y5.000
G01 X603.913 Y5.000
G01 X605.772 Y15.458
G01 X607.475 Y40.170
G01 X606.664 Y64.373
G01 X603.605 Y87.703
G01 X598.618 Y109.815
G01 X592.077 Y130.398
G01 X584.391 Y149.178
G01 X575.998 Y165.927
G01 X567.352 Y180.468
G01 X558.907 Y192.680
G01 X551.111 Y202.501
G01 X544.386 Y209.932
G01 X539.124 Y215.038
G01 X535.671 Y217.944
G01 X534.320 Y218.837
G01 X535.305 Y217.957
G01 X538.791 Y215.595
G01 X544.875 Y212.087
G01 X553.583 Y207.800
G01 X564.867 Y203.128
G01 X578.612 Y198.478
G01 X594.636 Y194.263
G01 X612.697 Y190.887
G01 X632.502 Y188.737
G01 X653.712 Y188.169
G01 X675.952 Y189.501
G01 X698.824 Y193.003
G01 X710.000 Y195.853
G01 X710.000 Y649.688
G01 X689.720 Y654.959
G01 X659.456 Y659.881
G01 X627.899 Y662.393
G01 X595.261 Y662.690
G01 X561.754 Y661.015
G01 X527.592 Y657.647
G01 X492.990 Y652.891
G01 X458.164 Y647.074
G01 X423.332 Y640.528
G01 X388.711 Y633.583
G01 X354.522 Y626.557
G01 X320.984 Y619.745
G01 X288.314 Y613.413
G01 X256.726 Y607.790
G01 X226.431 Y603.058
G01 X197.628 Y599.354
G01 X170.508 Y596.762
G01 X145.244 Y595.312
G01 X121.994 Y594.982
G01 X100.890 Y595.698
G01 X82.043 Y597.337
G01 X65.529 Y599.733
G01 X51.396 Y602.681
G01 X39.655 Y605.944
G01 X30.284 Y609.259
G01 X23.220 Y612.349
G01 X18.365 Y614.923
G01 X15.588 Y616.692
G01 X14.721 Y617.372
G01 X15.569 Y616.693
G01 X17.911 Y614.404
G01 X21.508 Y610.282
G01 X26.106 Y604.133
G01 X31.446 Y595.800
G01 X37.269 Y585.161
G01 X43.326 Y572.138
G01 X49.384 Y556.692
G01 X55.233 Y538.823
G01 X60.695 Y518.574
G01 X65.627 Y496.024
G01 X69.927 Y471.291
G01 X73.539 Y444.522
G01 X76.454 Y415.898
G01 X78.712 Y385.621
G01 X80.398 Y353.920
G01 X81.643 Y321.040
G01 X82.621 Y287.241
G01 X83.537 Y252.795
G01 X84.629 Y217.982
G01 X86.152 Y183.086
G01 X88.376 Y148.391
G01 X91.571 Y114.183
G01 X95.999 Y80.742
G01 X101.906 Y48.344
G01 X109.510 Y17.256
G01 X113.447 Y5.000
G01 X565.735 Y5.000
G01 X567.745 Y14.092
G01 X570.399 Y38.031
G01 X570.592 Y61.577
G01 X568.564 Y84.366
G01 X564.615 Y106.050
G01 X559.093 Y126.312
G01 X552.386 Y144.870
G01 X544.909 Y161.482
G01 X537.097 Y175.960
G01 X529.385 Y188.167
G01 X522.206 Y198.025
G01 X515.972 Y205.517
G01 X511.063 Y210.691
G01 X507.822 Y213.655
G01 X506.541 Y214.577
G01 X507.456 Y213.683
G01 X510.741 Y211.248
G01 X516.503 Y207.592
G01 X524.781 Y203.074
G01 X535.547 Y198.077
G01 X548.703 Y193.001
G01 X564.090 Y188.255
G01 X581.490 Y184.241
G01 X600.634 Y181.346
G01 X621.206 Y179.931
G01 X642.857 Y180.320
G01 X665.208 Y182.792
G01 X687.867 Y187.571
G01 X710.000 Y194.684
G01 X710.000 Y620.272
G01 X702.655 Y623.373
G01 X675.021 Y631.802
G01 X645.823 Y637.812
G01 X615.273 Y641.533
G01 X583.584 Y643.148
G01 X550.970 Y642.883
G01 X517.652 Y640.999
G01 X483.851 Y637.787
G01 X449.789 Y633.553
G01 X415.692 Y628.612
G01 X381.785 Y623.274
G01 X348.294 Y617.840
G01 X315.443 Y612.588
G01 X283.456 Y607.767
G01 X252.550 Y603.590
G01 X222.935 Y600.226
G01 X194.811 Y597.800
G01 X168.367 Y596.384
G01 X143.773 Y596.002
G01 X121.179 Y596.626
G01 X100.714 Y598.177
G01 X82.476 Y600.534
G01 X66.535 Y603.530
G01 X52.929 Y606.966
G01 X41.660 Y610.610
G01 X32.692 Y614.209
G01 X25.957 Y617.494
G01 X21.346 Y620.189
G01 X18.719 Y622.017
G01 X17.902 Y622.710
G01 X18.696 Y622.014
G01 X20.875 Y619.694
G01 X24.197 Y615.543
G01 X28.409 Y609.384
G01 X33.252 Y601.073
G01 X38.471 Y590.505
G01 X43.820 Y577.612
G01 X49.070 Y562.365
G01 X54.020 Y544.776
G01 X58.497 Y524.892
G01 X62.365 Y502.796
G01 X65.531 Y478.606
G01 X67.946 Y452.468
G01 X69.609 Y424.557
G01 X70.566 Y395.069
G01 X70.910 Y364.221
G01 X70.779 Y332.248
G01 X70.350 Y299.393
G01 X69.835 Y265.914
G01 X69.476 Y232.071
G01 X69.533 Y198.130
G01 X70.277 Y164.357
G01 X71.984 Y131.017
G01 X74.920 Y98.373
G01 X79.333 Y66.681
G01 X85.448 Y36.192
G01 X93.451 Y7.149
G01 X94.239 Y5.000
G01 X527.524 Y5.000
G01 X530.047 Y14.516
G01 X533.592 Y37.646
G01 X534.731 Y60.495
G01 X533.684 Y82.699
G01 X530.727 Y103.908
G01 X526.186 Y123.801
G01 X520.426 Y142.087
G01 X513.839 Y158.517
G01 X506.839 Y172.888
G01 X499.846 Y185.050
G01 X493.273 Y194.911
G01 X487.521 Y202.438
G01 X482.962 Y207.660
G01 X479.931 Y210.669
G01 X478.720 Y211.616
G01 X479.567 Y210.711
G01 X482.650 Y208.215
G01 X488.089 Y204.433
G01 X495.934 Y199.712
G01 X506.174 Y194.424
G01 X518.730 Y188.963
G01 X533.465 Y183.732
G01 X550.184 Y179.129
G01 X568.639 Y175.542
G01 X588.542 Y173.332
G01 X609.563 Y172.830
G01 X631.350 Y174.320
G01 X653.528 Y178.037
G01 X675.713 Y184.157
G01 X697.520 Y192.794
G01 X710.000 Y199.435
G01 X710.000 Y588.742
G01 X685.458 Y600.333
G01 X658.979 Y609.634
G01 X630.885 Y616.651
G01 X601.387 Y621.502
G01 X570.697 Y624.355
G01 X539.035 Y625.422
G01 X506.623 Y624.947
G01 X473.689 Y623.203
G01 X440.462 Y620.478
G01 X407.171 Y617.068
G01 X374.049 Y613.265
G01 X341.328 Y609.353
G01 X309.236 Y605.590
G01 X278.000 Y602.211
G01 X247.838 Y599.413
G01 X218.963 Y597.352
G01 X191.574 Y596.139
G01 X165.856 Y595.839
G01 X141.975 Y596.467
G01 X120.076 Y597.988
G01 X100.280 Y600.324
G01 X82.678 Y603.350
G01 X67.332 Y606.903
G01 X54.268 Y610.788
G01 X43.480 Y614.779
G01 X34.924 Y618.633
G01 X28.520 Y622.092
G01 X24.154 Y624.892
G01 X21.677 Y626.770
G01 X20.911 Y627.474
G01 X21.650 Y626.764
G01 X23.667 Y624.422
G01 X26.719 Y620.258
G01 X30.552 Y614.109
G01 X34.910 Y605.847
G01 X39.541 Y595.380
G01 X44.203 Y582.653
G01 X48.674 Y567.647
G01 X52.758 Y550.381
G01 X56.290 Y530.907
G01 X59.141 Y509.314
G01 X61.226 Y485.717
G01 X62.504 Y460.262
G01 X62.979 Y433.117
G01 X62.706 Y404.472
G01 X61.783 Y374.533
G01 X60.353 Y343.522
G01 X58.599 Y311.669
G01 X56.736 Y279.214
G01 X55.009 Y246.400
G01 X53.681 Y213.475
G01 X53.028 Y180.684
G01 X53.325 Y148.276
G01 X54.843 Y116.492
G01 X57.833 Y85.573
G01 X62.522 Y55.752
G01 X69.101 Y27.257
G01 X76.219 Y5.000
G01 X489.132 Y5.000
G01 X492.761 Y16.699
G01 X497.134 Y38.989
G01 X499.161 Y61.104
G01 X499.043 Y82.682
G01 X497.032 Y103.372
G01 X493.431 Y122.850
G01 X488.582 Y140.820
G01 X482.856 Y157.022
G01 X476.646 Y171.244
G01 X470.353 Y183.324
G01 X464.374 Y193.154
G01 X459.097 Y200.688
G01 X454.882 Y205.938
G01 X452.060 Y208.980
G01 X450.919 Y209.949
G01 X451.697 Y209.038
G01 X454.581 Y206.492
G01 X459.695 Y202.605
G01 X467.105 Y197.708
G01 X476.814 Y192.165
G01 X488.763 Y186.361
G01 X502.833 Y180.690
G01 X518.851 Y175.548
G01 X536.596 Y171.320
G01 X555.798 Y168.370
G01 X576.156 Y167.029
G01 X597.336 Y167.590
G01 X618.985 Y170.294
G01 X640.739 Y175.328
G01 X662.227 Y182.817
G01 X683.086 Y192.823
G01 X702.960 Y205.339
G01 X710.000 Y211.014
G01 X710.000 Y552.867
G01 X690.399 Y566.141
G01 X666.953 Y578.435
G01 X641.652 Y588.526
G01 X614.694 Y596.468
G01 X586.286 Y602.368
G01 X556.643 Y606.379
G01 X525.985 Y608.698
G01 X494.538 Y609.552
G01 X462.533 Y609.198
G01 X430.205 Y607.904
G01 X397.787 Y605.948
G01 X365.519 Y603.606
G01 X333.634 Y601.140
G01 X302.366 Y598.795
G01 X271.943 Y596.787
G01 X242.587 Y595.297
G01 X214.508 Y594.470
G01 X187.904 Y594.406
G01 X162.957 Y595.158
G01 X139.829 Y596.734
G01 X118.660 Y599.097
G01 X99.562 Y602.164
G01 X82.619 Y605.810
G01 X67.884 Y609.876
G01 X55.376 Y614.170
G01 X45.078 Y618.475
G01 X36.939 Y622.556
G01 X30.869 Y626.167
G01 X26.748 Y629.056
G01 X24.421 Y630.976
G01 X23.704 Y631.686
G01 X24.389 Y630.966
G01 X26.247 Y628.612
G01 X29.033 Y624.450
G01 X32.496 Y618.332
G01 X36.382 Y610.145
G01 X40.442 Y599.810
G01 X44.441 Y587.283
G01 X48.163 Y572.555
G01 X51.417 Y555.652
G01 X54.046 Y536.632
G01 X55.930 Y515.586
G01 X56.989 Y492.630
G01 X57.191 Y467.905
G01 X56.546 Y441.576
G01 X55.115 Y413.824
G01 X53.002 Y384.845
G01 X50.353 Y354.847
G01 X47.356 Y324.047
G01 X44.229 Y292.668
G01 X41.220 Y260.937
G01 X38.593 Y229.081
G01 X36.625 Y197.330
G01 X35.595 Y165.911
G01 X35.772 Y135.048
G01 X37.411 Y104.963
G01 X40.741 Y75.875
G01 X45.957 Y47.994
G01 X53.212 Y21.529
G01 X59.466 Y5.000
G01 X450.405 Y5.000
G01 X455.968 Y20.607
G01 X461.105 Y42.029
G01 X463.961 Y63.377
G01 X464.717 Y84.291
G01 X463.603 Y104.422
G01 X460.899 Y123.443
G01 X456.924 Y141.052
G01 X452.029 Y156.984
G01 X446.584 Y171.017
G01 X440.971 Y182.978
G01 X435.573 Y192.746
G01 X430.759 Y200.261
G01 X426.884 Y205.520
G01 X424.267 Y208.582
G01 X423.195 Y209.568
G01 X423.907 Y208.655
G01 X426.591 Y206.072
G01 X431.383 Y202.099
G01 X438.358 Y197.056
G01 X447.533 Y191.293
G01 X458.867 Y185.185
G01 X472.262 Y179.121
G01 X487.566 Y173.490
G01 X504.579 Y168.675
G01 X523.056 Y165.039
G01 X542.716 Y162.915
G01 X563.251 Y162.599
G01 X584.327 Y164.341
G01 X605.598 Y168.336
G01 X626.712 Y174.720
G01 X647.317 Y183.567
G01 X667.071 Y194.886
G01 X685.646 Y208.622
G01 X702.735 Y224.656
G01 X710.000 Y233.265
G01 X710.000 Y510.065
G01 X707.492 Y513.092
G01 X689.575 Y529.981
G01 X669.424 Y544.888
G01 X647.206 Y557.746
G01 X623.103 Y568.545
G01 X597.307 Y577.331
G01 X570.025 Y584.197
G01 X541.469 Y589.283
G01 X511.862 Y592.772
G01 X481.433 Y594.874
G01 X450.414 Y595.828
G01 X419.044 Y595.885
G01 X387.562 Y595.306
G01 X356.209 Y594.345
G01 X325.223 Y593.249
G01 X294.839 Y592.246
G01 X265.289 Y591.533
G01 X236.792 Y591.281
G01 X209.560 Y591.618
G01 X183.788 Y592.633
G01 X159.655 Y594.372
G01 X137.317 Y596.836
G01 X116.907 Y599.982
G01 X98.533 Y603.725
G01 X82.270 Y607.942
G01 X68.162 Y612.476
G01 X56.220 Y617.140
G01 X46.419 Y621.725
G01 X38.699 Y626.006
G01 X32.965 Y629.747
G01 X29.089 Y632.709
G01 X26.911 Y634.660
G01 X26.243 Y635.376
G01 X26.874 Y634.648
G01 X28.575 Y632.292
G01 X31.101 Y628.145
G01 X34.204 Y622.078
G01 X37.631 Y613.991
G01 X41.141 Y603.816
G01 X44.502 Y591.522
G01 X47.505 Y577.107
G01 X49.967 Y560.606
G01 X51.738 Y542.081
G01 X52.705 Y521.624
G01 X52.796 Y499.352
G01 X51.985 Y475.402
G01 X50.289 Y449.933
G01 X47.774 Y423.119
G01 X44.549 Y395.145
G01 X40.765 Y366.207
G01 X36.610 Y336.506
G01 X32.306 Y306.251
G01 X28.102 Y275.650
G01 X24.263 Y244.914
G01 X21.067 Y214.253
G01 X18.791 Y183.875
G01 X17.707 Y153.988
G01 X18.071 Y124.795
G01 X20.112 Y96.499
G01 X24.028 Y69.296
G01 X29.976 Y43.381
G01 X38.067 Y18.943
G01 X44.368 Y5.000
G01 X411.037 Y5.000
G01 X411.603 Y6.047
G01 X419.747 Y26.202
G01 X425.582 Y46.733
G01 X429.208 Y67.284
G01 X430.781 Y87.500
G01 X430.514 Y107.034
G01 X428.662 Y125.557
G01 X425.523 Y142.765
G01 X421.425 Y158.387
G01 X416.718 Y172.193
G01 X411.765 Y183.999
G01 X406.930 Y193.675
G01 X402.570 Y201.145
G01 X399.026 Y206.394
G01 X396.612 Y209.466
G01 X395.609 Y210.465
G01 X396.255 Y209.553
G01 X398.743 Y206.946
G01 X403.213 Y202.907
G01 X409.754 Y197.744
G01 X418.394 Y191.795
G01 X429.111 Y185.426
G01 X441.823 Y179.014
G01 X456.400 Y172.946
G01 X472.664 Y167.597
G01 X490.392 Y163.330
G01 X509.328 Y160.478
G01 X529.182 Y159.342
G01 X549.643 Y160.174
G01 X570.384 Y163.179
G01 X591.070 Y168.502
G01 X611.363 Y176.230
G01 X630.932 Y186.385
G01 X649.457 Y198.926
G01 X666.637 Y213.751
G01 X682.193 Y230.700
G01 X695.871 Y249.558
G01 X707.450 Y270.064
G01 X710.000 Y276.064
G01 X710.000 Y451.004
G01 X708.894 Y453.606
G01 X697.115 Y473.908
G01 X682.836 Y492.681
G01 X666.175 Y509.750
G01 X647.273 Y524.990
G01 X626.288 Y538.332
G01 X603.395 Y549.758
G01 X578.783 Y559.303
G01 X552.656 Y567.052
G01 X525.224 Y573.130
G01 X496.712 Y577.705
G01 X467.347 Y580.972
G01 X437.367 Y583.151
G01 X407.010 Y584.477
G01 X376.520 Y585.190
G01 X346.139 Y585.531
G01 X316.109 Y585.726
G01 X286.666 Y585.985
G01 X258.041 Y586.492
G01 X230.455 Y587.402
G01 X204.117 Y588.831
G01 X179.219 Y590.856
G01 X155.936 Y593.516
G01 X134.420 Y596.804
G01 X114.799 Y600.673
G01 X97.170 Y605.037
G01 X81.604 Y609.775
G01 X68.136 Y614.731
G01 X56.768 Y619.726
G01 X47.469 Y624.557
G01 X40.171 Y629.010
G01 X34.772 Y632.859
G01 X31.140 Y635.880
G01 X29.108 Y637.854
G01 X28.488 Y638.571
G01 X29.067 Y637.840
G01 X30.613 Y635.489
G01 X32.887 Y631.373
G01 X35.639 Y625.376
G01 X38.624 Y617.412
G01 X41.603 Y607.425
G01 X44.353 Y595.394
G01 X46.670 Y581.327
G01 X48.380 Y565.263
G01 X49.339 Y547.271
G01 X49.442 Y527.442
G01 X48.624 Y505.892
G01 X46.865 Y482.757
G01 X44.190 Y458.190
G01 X40.667 Y432.354
G01 X36.410 Y405.425
G01 X31.573 Y377.587
G01 X26.347 Y349.028
G01 X20.955 Y319.938
G01 X15.645 Y290.511
G01 X10.683 Y260.938
G01 X6.345 Y231.412
G01 X5.000 Y219.941
G01 X5.000 Y82.049
G01 X8.019 Y65.794
G01 X14.851 Y41.833
G01 X23.881 Y19.389
G01 X31.672 Y5.000
G01 X369.964 Y5.000
G01 X375.486 Y14.281
G01 X384.173 Y33.444
G01 X390.641 Y53.064
G01 X394.974 Y72.792
G01 X397.309 Y92.279
G01 X397.836 Y111.182
G01 X396.790 Y129.170
G01 X394.446 Y145.939
G01 X391.111 Y161.213
G01 X387.113 Y174.755
G01 X382.796 Y186.373
G01 X378.507 Y195.927
G01 X374.588 Y203.328
G01 X371.368 Y208.548
G01 X369.153 Y211.618
G01 X368.217 Y212.626
G01 X368.799 Y211.719
G01 X371.093 Y209.099
G01 X375.246 Y205.015
G01 X381.355 Y199.759
G01 X389.462 Y193.659
G01 X399.559 Y187.068
G01 X411.583 Y180.357
G01 X425.425 Y173.900
G01 X440.926 Y168.072
G01 X457.887 Y163.230
G01 X476.071 Y159.708
G01 X495.213 Y157.806
G01 X515.022 Y157.784
G01 X535.188 Y159.850
G01 X555.395 Y164.161
G01 X575.319 Y170.812
G01 X594.641 Y179.838
G01 X613.051 Y191.213
G01 X630.253 Y204.851
G01 X645.969 Y220.607
G01 X659.948 Y238.284
G01 X671.964 Y257.640
G01 X681.820 Y278.391
G01 X689.353 Y300.225
G01 X694.432 Y322.808
G01 X696.958 Y345.794
G01 X696.867 Y368.836
G01 X694.127 Y391.596
G01 X688.738 Y413.752
G01 X680.728 Y435.012
G01 X670.156 Y455.114
G01 X657.105 Y473.838
G01 X641.683 Y491.011
G01 X624.021 Y506.508
G01 X604.269 Y520.253
G01 X582.596 Y532.224
G01 X559.186 Y542.447
G01 X534.238 Y550.993
G01 X507.962 Y557.979
G01 X480.581 Y563.554
G01 X452.324 Y567.900
G01 X423.428 Y571.219
G01 X394.135 Y573.729
G01 X364.688 Y575.652
G01 X335.332 Y577.211
G01 X306.309 Y578.614
G01 X277.857 Y580.056
G01 X250.207 Y581.704
G01 X223.577 Y583.699
G01 X198.175 Y586.145
G01 X174.189 Y589.110
G01 X151.791 Y592.622
G01 X131.126 Y596.669
G01 X112.315 Y601.202
G01 X95.451 Y606.132
G01 X80.595 Y611.339
G01 X67.777 Y616.673
G01 X56.990 Y621.959
G01 X48.196 Y627.003
G01 X41.320 Y631.599
G01 X36.256 Y635.536
G01 X32.864 Y638.601
G01 X30.978 Y640.588
G01 X30.405 Y641.304
G01 X30.931 Y640.572
G01 X32.327 Y638.235
G01 X34.354 Y634.164
G01 X36.767 Y628.256
G01 X39.326 Y620.437
G01 X41.798 Y610.664
G01 X43.964 Y598.925
G01 X45.631 Y585.236
G01 X46.629 Y569.644
G01 X46.824 Y552.217
G01 X46.117 Y533.052
G01 X44.450 Y512.261
G01 X41.811 Y489.978
G01 X38.227 Y466.347
G01 X33.774 Y441.525
G01 X28.567 Y415.678
G01 X22.763 Y388.977
G01 X16.554 Y361.594
G01 X10.164 Y333.706
G01 X5.000 Y310.671
G01 X5.000 Y34.607
G01 X10.804 Y22.725
G01 X22.289 Y5.000
G01 X327.354 Y5.000
G01 X328.865 Y6.822
G01 X340.159 Y24.124
G01 X349.319 Y42.286
G01 X356.356 Y60.979
G01 X361.334 Y79.863
G01 X364.372 Y98.595
G01 X365.640 Y116.834
G01 X365.352 Y134.254
G01 X363.761 Y150.548
G01 X361.151 Y165.438
G01 X357.832 Y178.682
G01 X354.126 Y190.081
G01 X350.364 Y199.484
G01 X346.873 Y206.793
G01 X343.968 Y211.967
G01 X341.947 Y215.023
G01 X341.078 Y216.037
G01 X341.597 Y215.140
G01 X343.701 Y212.518
G01 X347.541 Y208.407
G01 X353.221 Y203.086
G01 X360.798 Y196.869
G01 X370.276 Y190.097
G01 X381.611 Y183.130
G01 X394.711 Y176.337
G01 X409.439 Y170.083
G01 X425.615 Y164.722
G01 X443.028 Y160.587
G01 X461.429 Y157.978
G01 X480.550 Y157.157
G01 X500.102 Y158.339
G01 X519.782 Y161.686
G01 X539.284 Y167.305
G01 X558.300 Y175.241
G01 X576.530 Y185.483
G01 X593.685 Y197.958
G01 X609.491 Y212.539
G01 X623.696 Y229.045
G01 X636.074 Y247.251
G01 X646.422 Y266.891
G01 X654.571 Y287.671
G01 X660.380 Y309.273
G01 X663.741 Y331.367
G01 X664.576 Y353.620
G01 X662.843 Y375.708
G01 X658.527 Y397.320
G01 X651.644 Y418.172
G01 X642.241 Y438.009
G01 X630.389 Y456.616
G01 X616.185 Y473.821
G01 X599.750 Y489.498
G01 X581.227 Y503.568
G01 X560.778 Y516.002
G01 X538.581 Y526.818
G01 X514.832 Y536.079
G01 X489.738 Y543.885
G01 X463.521 Y550.375
G01 X436.409 Y555.713
G01 X408.638 Y560.085
G01 X380.452 Y563.692
G01 X352.095 Y566.740
G01 X323.810 Y569.431
G01 X295.842 Y571.959
G01 X268.427 Y574.500
G01 X241.795 Y577.209
G01 X216.162 Y580.211
G01 X191.734 Y583.599
G01 X168.694 Y587.430
G01 X147.209 Y591.725
G01 X127.419 Y596.467
G01 X109.440 Y601.602
G01 X93.356 Y607.042
G01 X79.222 Y612.668
G01 X67.060 Y618.334
G01 X56.858 Y623.871
G01 X48.569 Y629.094
G01 X42.115 Y633.807
G01 X37.382 Y637.810
G01 X34.229 Y640.904
G01 X32.485 Y642.897
G01 X31.958 Y643.609
G01 X32.433 Y642.879
G01 X33.683 Y640.565
G01 X35.471 Y636.552
G01 X37.558 Y630.749
G01 X39.708 Y623.097
G01 X41.695 Y613.562
G01 X43.308 Y602.142
G01 X44.359 Y588.862
G01 X44.689 Y573.770
G01 X44.168 Y556.942
G01 X42.707 Y538.471
G01 X40.255 Y518.472
G01 X36.802 Y497.071
G01 X32.384 Y474.409
G01 X27.079 Y450.633
G01 X21.005 Y425.898
G01 X14.320 Y400.363
G01 X7.217 Y374.188
G01 X5.000 Y366.089
G01 X5.000 Y20.918
G01 X11.997 Y11.860
G01 X18.836 Y5.000
G01 X281.215 Y5.000
G01 X294.102 Y19.285
G01 X305.692 Y35.526
G01 X315.258 Y52.683
G01 X322.796 Y70.437
G01 X328.357 Y88.458
G01 X332.039 Y106.410
G01 X333.994 Y123.958
G01 X334.414 Y140.779
G01 X333.531 Y156.566
G01 X331.610 Y171.039
G01 X328.937 Y183.953
G01 X325.816 Y195.102
G01 X322.561 Y204.327
G01 X319.482 Y211.522
G01 X316.884 Y216.633
G01 X315.051 Y219.665
G01 X314.248 Y220.680
G01 X314.706 Y219.796
G01 X316.623 Y217.184
G01 X320.155 Y213.065
G01 X325.414 Y207.705
G01 X332.465 Y201.403
G01 X341.327 Y194.490
G01 X351.973 Y187.314
G01 X364.328 Y180.234
G01 X378.275 Y173.609
G01 X393.655 Y167.787
G01 X410.276 Y163.097
G01 X427.913 Y159.840
G01 X446.316 Y158.277
G01 X465.214 Y158.630
G01 X484.324 Y161.065
G01 X503.354 Y165.699
G01 X522.008 Y172.588
G01 X539.997 Y181.732
G01 X557.038 Y193.073
G01 X572.864 Y206.499
G01 X587.223 Y221.847
G01 X599.888 Y238.908
G01 X610.653 Y257.434
G01 X619.343 Y277.147
G01 X625.810 Y297.748
G01 X629.935 Y318.921
G01 X631.631 Y340.350
G01 X630.843 Y361.723
G01 X627.545 Y382.741
G01 X621.741 Y403.129
G01 X613.465 Y422.640
G01 X602.778 Y441.064
G01 X589.767 Y458.230
G01 X574.543 Y474.012
G01 X557.240 Y488.328
G01 X538.014 Y501.145
G01 X517.038 Y512.472
G01 X494.502 Y522.361
G01 X470.612 Y530.903
G01 X445.585 Y538.219
G01 X419.650 Y544.462
G01 X393.041 Y549.800
G01 X366.001 Y554.416
G01 X338.773 Y558.500
G01 X311.602 Y562.236
G01 X284.730 Y565.803
G01 X258.393 Y569.360
G01 X232.817 Y573.048
G01 X208.218 Y576.977
G01 X184.795 Y581.229
G01 X162.731 Y585.853
G01 X142.184 Y590.861
G01 X123.290 Y596.231
G01 X106.158 Y601.908
G01 X90.867 Y607.801
G01 X77.463 Y613.795
G01 X65.962 Y619.747
G01 X56.346 Y625.496
G01 X48.562 Y630.865
G01 X42.526 Y635.668
G01 X38.122 Y639.717
G01 X35.203 Y642.825
G01 X33.599 Y644.815
G01 X33.116 Y645.521
G01 X33.541 Y644.796
G01 X34.649 Y642.513
G01 X36.207 Y638.570
G01 X37.982 Y632.890
G01 X39.741 Y625.424
G01 X41.268 Y616.151
G01 X42.358 Y605.075
G01 X42.831 Y592.229
G01 X42.535 Y577.666
G01 X41.350 Y561.464
G01 X39.192 Y543.717
G01 X36.016 Y524.537
G01 X31.820 Y504.047
G01 X26.642 Y482.380
G01 X20.565 Y459.676
G01 X13.707 Y436.079
G01 X6.229 Y411.736
G01 X5.000 Y407.860
G01 X5.000 Y19.841
G01 X17.791 Y8.991
G01 X23.875 Y5.000
G01 X228.305 Y5.000
G01 X231.280 Y6.877
G01 X246.671 Y19.309
G01 X260.334 Y33.246
G01 X272.152 Y48.432
G01 X282.057 Y64.581
G01 X290.032 Y81.388
G01 X296.111 Y98.532
G01 X300.378 Y115.685
G01 X302.963 Y132.518
G01 X304.041 Y148.712
G01 X303.822 Y163.962
G01 X302.549 Y177.988
G01 X300.488 Y190.541
G01 X297.926 Y201.412
G01 X295.156 Y210.434
G01 X292.474 Y217.493
G01 X290.170 Y222.525
G01 X288.521 Y225.522
G01 X287.782 Y226.535
G01 X288.181 Y225.667
G01 X289.917 Y223.076
G01 X293.147 Y218.968
G01 X297.990 Y213.594
G01 X304.522 Y207.241
G01 X312.775 Y200.226
G01 X322.734 Y192.886
G01 X334.344 Y185.569
G01 X347.505 Y178.626
G01 X362.080 Y172.400
G01 X377.895 Y167.214
G01 X394.746 Y163.367
G01 X412.404 Y161.123
G01 X430.615 Y160.702
G01 X449.114 Y162.280
G01 X467.624 Y165.978
G01 X485.863 Y171.864
G01 X503.552 Y179.949
G01 X520.416 Y190.189
G01 X536.193 Y202.485
G01 X550.635 Y216.692
G01 X563.514 Y232.617
G01 X574.622 Y250.029
G01 X583.779 Y268.668
G01 X590.830 Y288.251
G01 X595.648 Y308.481
G01 X598.137 Y329.054
G01 X598.231 Y349.672
G01 X595.894 Y370.050
G01 X591.117 Y389.922
G01 X583.925 Y409.049
G01 X574.366 Y427.225
G01 X562.518 Y444.283
G01 X548.484 Y460.098
G01 X532.389 Y474.584
G01 X514.381 Y487.704
G01 X494.628 Y499.459
G01 X473.316 Y509.893
G01 X450.645 Y519.082
G01 X426.830 Y527.138
G01 X402.098 Y534.196
G01 X376.681 Y540.409
G01 X350.820 Y545.946
G01 X324.758 Y550.977
G01 X298.737 Y555.671
G01 X272.997 Y560.189
G01 X247.773 Y564.677
G01 X223.287 Y569.259
G01 X199.752 Y574.034
G01 X177.364 Y579.073
G01 X156.299 Y584.415
G01 X136.711 Y590.066
G01 X118.731 Y595.998
G01 X102.459 Y602.153
G01 X87.968 Y608.444
G01 X75.300 Y614.755
G01 X64.462 Y620.949
G01 X55.431 Y626.871
G01 X48.149 Y632.352
G01 X42.528 Y637.219
G01 X38.446 Y641.293
G01 X35.758 Y644.402
G01 X34.291 Y646.380
G01 X33.850 Y647.078
G01 X34.226 Y646.361
G01 X35.197 Y644.117
G01 X36.535 Y640.256
G01 X38.010 Y634.714
G01 X39.399 Y627.454
G01 X40.491 Y618.463
G01 X41.089 Y607.755
G01 X41.023 Y595.367
G01 X40.147 Y581.358
G01 X38.348 Y565.807
G01 X35.551 Y548.809
G01 X31.716 Y530.472
G01 X26.846 Y510.916
G01 X20.984 Y490.267
G01 X14.214 Y468.656
G01 X6.657 Y446.218
G01 X5.000 Y441.534
G01 X5.000 Y26.622
G01 X9.442 Y23.436
G01 X26.964 Y13.808
G01 X45.598 Y6.243
G01 X50.062 Y5.000
G01 X156.854 Y5.000
G01 X163.910 Y7.107
G01 X181.876 Y14.814
G01 X198.616 Y24.430
G01 X213.922 Y35.777
G01 X227.626 Y48.642
G01 X239.605 Y62.784
G01 X249.781 Y77.929
G01 X258.127 Y93.784
G01 X264.662 Y110.040
G01 X269.453 Y126.377
G01 X272.613 Y142.474
G01 X274.297 Y158.016
G01 X274.695 Y172.702
G01 X274.029 Y186.253
G01 X272.546 Y198.418
G01 X270.513 Y208.984
G01 X268.205 Y217.780
G01 X265.903 Y224.682
G01 X263.883 Y229.620
G01 X262.410 Y232.573
G01 X261.734 Y233.580
G01 X262.077 Y232.732
G01 X263.636 Y230.172
G01 X266.571 Y226.092
G01 X271.007 Y220.730
G01 X277.029 Y214.357
G01 X284.679 Y207.278
G01 X293.958 Y199.818
G01 X304.826 Y192.315
G01 X317.200 Y185.109
G01 X330.963 Y178.534
G01 X345.961 Y172.911
G01 X362.009 Y168.535
G01 X378.897 Y165.667
G01 X396.392 Y164.532
G01 X414.243 Y165.308
G01 X432.189 Y168.123
G01 X449.963 Y173.053
G01 X467.295 Y180.120
G01 X483.922 Y189.294
G01 X499.585 Y200.489
G01 X514.040 Y213.575
G01 X527.060 Y228.377
G01 X538.438 Y244.680
G01 X547.987 Y262.243
G01 X555.549 Y280.797
G01 X560.989 Y300.062
G01 X564.203 Y319.752
G01 X565.115 Y339.581
G01 X563.678 Y359.277
G01 X559.875 Y378.584
G01 X553.718 Y397.270
G01 X545.248 Y415.138
G01 X534.532 Y432.023
G01 X521.662 Y447.799
G01 X506.757 Y462.381
G01 X489.958 Y475.724
G01 X471.426 Y487.826
G01 X451.342 Y498.719
G01 X429.901 Y508.470
G01 X407.315 Y517.177
G01 X383.807 Y524.961
G01 X359.607 Y531.961
G01 X334.954 Y538.327
G01 X310.086 Y544.214
G01 X285.246 Y549.776
G01 X260.670 Y555.158
G01 X236.588 Y560.490
G01 X213.221 Y565.882
G01 X190.777 Y571.421
G01 X169.447 Y577.168
G01 X149.401 Y583.153
G01 X130.789 Y589.374
G01 X113.734 Y595.802
G01 X98.331 Y602.376
G01 X84.647 Y609.007
G01 X72.716 Y615.584
G01 X62.541 Y621.975
G01 X54.092 Y628.031
G01 X47.308 Y633.594
G01 X42.095 Y638.497
G01 X38.331 Y642.577
G01 X35.868 Y645.673
G01 X34.533 Y647.633
G01 X34.133 Y648.320
G01 X34.462 Y647.613
G01 X35.301 Y645.415
G01 X36.428 Y641.647
G01 X37.618 Y636.259
G01 X38.658 Y629.221
G01 X39.341 Y620.532
G01 X39.481 Y610.213
G01 X38.914 Y598.305
G01 X37.503 Y584.872
G01 X35.144 Y569.995
G01 X31.766 Y553.766
G01 X27.337 Y536.293
G01 X21.864 Y517.690
G01 X15.393 Y498.077
G01 X8.011 Y477.576
G01 X5.000 Y469.742
G01 X5.000 Y38.530
G01 X19.462 Y31.943
G01 X37.940 Y25.959
G01 X57.006 Y22.079
G01 X76.361 Y20.347
G01 X95.702 Y20.781
G01 X114.731 Y23.363
G01 X133.162 Y28.042
G01 X150.732 Y34.730
G01 X167.199 Y43.302
G01 X182.358 Y53.594
G01 X196.039 Y65.410
G01 X208.112 Y78.520
G01 X218.494 Y92.668
G01 X227.145 Y107.572
G01 X234.072 Y122.932
G01 X239.327 Y138.441
G01 X243.006 Y153.784
G01 X245.243 Y168.654
G01 X246.210 Y182.752
G01 X246.109 Y195.801
G01 X245.168 Y207.552
G01 X243.633 Y217.789
G01 X241.763 Y226.336
G01 X239.823 Y233.064
G01 X238.075 Y237.892
G01 X236.773 Y240.792
G01 X236.157 Y241.790
G01 X236.446 Y240.964
G01 X237.834 Y238.445
G01 X240.483 Y234.411
G01 X244.523 Y229.085
G01 X250.044 Y222.724
G01 X257.101 Y215.619
G01 X265.708 Y208.083
G01 X275.838 Y200.441
G01 X287.428 Y193.024
G01 X300.376 Y186.159
G01 X314.549 Y180.158
G01 X329.781 Y175.312
G01 X345.880 Y171.882
G01 X362.630 Y170.091
G01 X379.799 Y170.122
G01 X397.142 Y172.107
G01 X414.404 Y176.131
G01 X431.327 Y182.226
G01 X447.657 Y190.371
G01 X463.142 Y200.498
G01 X477.543 Y212.488
G01 X490.635 Y226.184
G01 X502.209 Y241.388
G01 X512.078 Y257.873
G01 X520.077 Y275.392
G01 X526.067 Y293.678
G01 X529.936 Y312.461
G01 X531.599 Y331.470
G01 X531.002 Y350.445
G01 X528.117 Y369.141
G01 X522.947 Y387.336
G01 X515.522 Y404.838
G01 X505.900 Y421.485
G01 X494.167 Y437.153
G01 X480.431 Y451.757
G01 X464.827 Y465.248
G01 X447.509 Y477.615
G01 X428.652 Y488.884
G01 X408.447 Y499.110
G01 X387.101 Y508.380
G01 X364.833 Y516.801
G01 X341.870 Y524.496
G01 X318.446 Y531.600
G01 X294.798 Y538.254
G01 X271.164 Y544.594
G01 X247.777 Y550.750
G01 X224.862 Y556.838
G01 X202.638 Y562.955
G01 X181.305 Y569.176
G01 X161.051 Y575.551
G01 X142.040 Y582.103
G01 X124.416 Y588.824
G01 X108.295 Y595.681
G01 X93.767 Y602.611
G01 X80.892 Y609.526
G01 X69.698 Y616.320
G01 X60.182 Y622.863
G01 X52.310 Y629.016
G01 X46.017 Y634.628
G01 X41.205 Y639.544
G01 X37.752 Y643.610
G01 X35.508 Y646.679
G01 X34.301 Y648.613
G01 X33.941 Y649.287
G01 X34.224 Y648.594
G01 X34.937 Y646.448
G01 X35.863 Y642.785
G01 X36.785 Y637.563
G01 X37.495 Y630.764
G01 X37.797 Y622.395
G01 X37.512 Y612.483
G01 X36.485 Y601.075
G01 X34.586 Y588.238
G01 X31.719 Y574.052
G01 X27.819 Y558.611
G01 X22.862 Y542.018
G01 X16.856 Y524.383
G01 X9.853 Y505.819
G01 X5.000 Y493.935
G01 X5.000 Y54.680
G01 X12.403 Y51.936
G01 X30.537 Y47.452
G01 X49.033 Y45.019
G01 X67.602 Y44.663
G01 X85.958 Y46.382
G01 X103.825 Y50.136
G01 X120.944 Y55.852
G01 X137.082 Y63.419
G01 X152.034 Y72.690
G01 X165.628 Y83.481
G01 X177.732 Y95.579
G01 X188.254 Y108.740
G01 X197.146 Y122.694
G01 X204.403 Y137.157
G01 X210.061 Y151.828
G01 X214.200 Y166.404
G01 X216.937 Y180.582
G01 X218.425 Y194.071
G01 X218.846 Y206.597
G01 X218.409 Y217.911
G01 X217.342 Y227.797
G01 X215.886 Y236.074
G01 X214.288 Y242.609
G01 X212.799 Y247.314
G01 X211.660 Y250.152
G01 X211.103 Y251.137
G01 X211.341 Y250.337
G01 X212.564 Y247.869
G01 X214.936 Y243.897
G01 X218.589 Y238.630
G01 X223.623 Y232.311
G01 X230.099 Y225.217
G01 X238.043 Y217.648
G01 X247.445 Y209.915
G01 X258.255 Y202.341
G01 X270.390 Y195.240
G01 X283.733 Y188.920
G01 X298.138 Y183.665
G01 X313.431 Y179.733
G01 X329.414 Y177.347
G01 X345.872 Y176.691
G01 X362.575 Y177.903
G01 X379.281 Y181.072
G01 X395.746 Y186.241
G01 X411.723 Y193.400
G01 X426.969 Y202.492
G01 X441.251 Y213.416
G01 X454.345 Y226.026
G01 X466.044 Y240.144
G01 X476.159 Y255.558
G01 X484.523 Y272.038
G01 X490.991 Y289.334
G01 X495.445 Y307.191
G01 X497.794 Y325.354
G01 X497.973 Y343.574
G01 X495.948 Y361.617
G01 X491.711 Y379.272
G01 X485.286 Y396.352
G01 X476.719 Y412.701
G01 X466.090 Y428.196
G01 X453.498 Y442.750
G01 X439.070 Y456.312
G01 X422.955 Y468.865
G01 X405.320 Y480.427
G01 X386.352 Y491.043
G01 X366.253 Y500.788
G01 X345.235 Y509.755
G01 X323.523 Y518.055
G01 X301.345 Y525.807
G01 X278.936 Y533.135
G01 X256.528 Y540.162
G01 X234.349 Y547.003
G01 X212.622 Y553.759
G01 X191.557 Y560.515
G01 X171.353 Y567.335
G01 X152.189 Y574.259
G01 X134.224 Y581.302
G01 X117.596 Y588.452
G01 X102.414 Y595.671
G01 X88.762 Y602.896
G01 X76.695 Y610.041
G01 X66.233 Y617.000
G01 X57.371 Y623.653
G01 X50.069 Y629.865
G01 X44.258 Y635.495
G01 X39.840 Y640.398
G01 X36.690 Y644.433
G01 X34.658 Y647.463
G01 X33.574 Y649.363
G01 X33.252 Y650.022
G01 X33.491 Y649.345
G01 X34.084 Y647.258
G01 X34.819 Y643.709
G01 X35.489 Y638.666
G01 X35.892 Y632.122
G01 X35.841 Y624.089
G01 X35.165 Y614.600
G01 X33.718 Y603.709
G01 X31.379 Y591.484
G01 X28.057 Y578.005
G01 X23.697 Y563.365
G01 X18.275 Y547.665
G01 X11.809 Y531.009
G01 X5.000 Y515.030
G01 X5.000 Y73.844
G01 X5.655 Y73.653
G01 X23.269 Y70.586
G01 X41.036 Y69.506
G01 X58.681 Y70.422
G01 X75.939 Y73.308
G01 X92.560 Y78.102
G01 X108.314 Y84.707
G01 X123.000 Y92.992
G01 X136.446 Y102.788
G01 X148.518 Y113.895
G01 X159.117 Y126.082
G01 X168.187 Y139.095
G01 X175.710 Y152.659
G01 X181.711 Y166.487
G01 X186.253 Y180.285
G01 X189.437 Y193.757
G01 X191.396 Y206.620
G01 X192.296 Y218.603
G01 X192.325 Y229.459
G01 X191.693 Y238.972
G01 X190.624 Y246.961
G01 X189.350 Y253.286
G01 X188.106 Y257.855
G01 X187.122 Y260.622
G01 X186.622 Y261.592
G01 X186.811 Y260.821
G01 X187.876 Y258.413
G01 X189.981 Y254.519
G01 X193.261 Y249.333
G01 X197.820 Y243.086
G01 X203.729 Y236.039
G01 X211.024 Y228.477
G01 X219.707 Y220.702
G01 X229.745 Y213.021
G01 X241.071 Y205.741
G01 X253.584 Y199.160
G01 X267.156 Y193.556
G01 X281.630 Y189.183
G01 X296.827 Y186.263
G01 X312.548 Y184.980
G01 X328.577 Y185.475
G01 X344.687 Y187.844
G01 X360.646 Y192.137
G01 X376.218 Y198.354
G01 X391.168 Y206.450
G01 X405.267 Y216.338
G01 X418.296 Y227.888
G01 X430.051 Y240.936
G01 X440.341 Y255.290
G01 X448.997 Y270.732
G01 X455.871 Y287.031
G01 X460.840 Y303.948
G01 X463.806 Y321.241
G01 X464.697 Y338.675
G01 X463.472 Y356.029
G01 X460.115 Y373.098
G01 X454.639 Y389.705
G01 X447.086 Y405.698
G01 X437.524 Y420.955
G01 X426.047 Y435.391
G01 X412.774 Y448.950
G01 X397.845 Y461.611
G01 X381.423 Y473.384
G01 X363.688 Y484.305
G01 X344.835 Y494.438
G01 X325.073 Y503.862
G01 X304.620 Y512.676
G01 X283.701 Y520.984
G01 X262.544 Y528.896
G01 X241.375 Y536.519
G01 X220.420 Y543.954
G01 X199.894 Y551.290
G01 X180.003 Y558.599
G01 X160.938 Y565.935
G01 X142.873 Y573.328
G01 X125.961 Y580.787
G01 X110.332 Y588.294
G01 X96.090 Y595.809
G01 X83.313 Y603.268
G01 X72.049 Y610.587
G01 X62.314 Y617.665
G01 X54.098 Y624.384
G01 X47.356 Y630.618
G01 X42.018 Y636.236
G01 X37.983 Y641.103
G01 X35.126 Y645.088
G01 X33.299 Y648.067
G01 X32.334 Y649.927
G01 X32.047 Y650.568
G01 X32.244 Y649.910
G01 X32.723 Y647.889
G01 X33.280 Y644.463
G01 X33.713 Y639.611
G01 X33.832 Y633.334
G01 X33.456 Y625.651
G01 X32.425 Y616.601
G01 X30.600 Y606.241
G01 X27.867 Y594.640
G01 X24.146 Y581.881
G01 X19.383 Y568.054
G01 X13.565 Y553.255
G01 X6.708 Y537.583
G01 X5.000 Y534.001
G01 X5.000 Y96.355
G01 X16.033 Y95.224
G01 X32.934 Y95.400
G01 X49.543 Y97.474
G01 X65.619 Y101.398
G01 X80.938 Y107.088
G01 X95.303 Y114.427
G01 X108.544 Y123.259
G01 X120.522 Y133.399
G01 X131.136 Y144.630
G01 X140.321 Y156.712
G01 X148.049 Y169.382
G01 X154.333 Y182.366
G01 X159.220 Y195.377
G01 X162.796 Y208.133
G01 X165.177 Y220.354
G01 X166.510 Y231.776
G01 X166.966 Y242.156
G01 X166.736 Y251.278
G01 X166.028 Y258.962
G01 X165.057 Y265.063
G01 X164.044 Y269.484
G01 X163.209 Y272.172
G01 X162.762 Y273.124
G01 X162.905 Y272.384
G01 X163.820 Y270.044
G01 X165.669 Y266.243
G01 X168.589 Y261.161
G01 X172.688 Y255.013
G01 X178.045 Y248.047
G01 X184.707 Y240.534
G01 X192.686 Y232.762
G01 X201.963 Y225.025
G01 X212.485 Y217.621
G01 X224.171 Y210.837
G01 X236.907 Y204.944
G01 X250.554 Y200.192
G01 X264.949 Y196.800
G01 X279.909 Y194.950
G01 X295.235 Y194.786
G01 X310.714 Y196.411
G01 X326.124 Y199.878
G01 X341.241 Y205.200
G01 X355.838 Y212.343
G01 X369.694 Y221.231
G01 X382.594 Y231.749
G01 X394.336 Y243.749
G01 X404.730 Y257.054
G01 X413.607 Y271.464
G01 X420.816 Y286.764
G01 X426.229 Y302.730
G01 X429.743 Y319.135
G01 X431.282 Y335.757
G01 X430.796 Y352.387
G01 X428.261 Y368.830
G01 X423.684 Y384.915
G01 X417.099 Y400.496
G01 X408.566 Y415.456
G01 X398.170 Y429.706
G01 X386.024 Y443.190
G01 X372.262 Y455.883
G01 X357.038 Y467.786
G01 X340.526 Y478.929
G01 X322.916 Y489.362
G01 X304.410 Y499.156
G01 X285.220 Y508.393
G01 X265.565 Y517.166
G01 X245.667 Y525.570
G01 X225.748 Y533.698
G01 X206.026 Y541.638
G01 X186.710 Y549.466
G01 X168.000 Y557.242
G01 X150.080 Y565.011
G01 X133.118 Y572.794
G01 X117.261 Y580.594
G01 X102.631 Y588.388
G01 X89.327 Y596.133
G01 X77.419 Y603.767
G01 X66.950 Y611.206
G01 X57.933 Y618.352
G01 X50.351 Y625.096
G01 X44.159 Y631.318
G01 X39.281 Y636.894
G01 X35.619 Y641.702
G01 X33.046 Y645.619
G01 X31.416 Y648.536
G01 X30.564 Y650.348
G01 X30.311 Y650.971
G01 X30.468 Y650.333
G01 X30.839 Y648.384
G01 X31.229 Y645.089
G01 X31.444 Y640.439
G01 X31.301 Y634.441
G01 X30.630 Y627.120
G01 X29.279 Y618.522
G01 X27.117 Y608.705
G01 X24.040 Y597.740
G01 X19.972 Y585.709
G01 X14.868 Y572.700
G01 X8.717 Y558.807
G01 X5.000 Y551.202
G01 X5.000 Y121.345
G01 X8.746 Y121.228
G01 X24.670 Y122.550
G01 X40.158 Y125.659
G01 X54.996 Y130.483
G01 X68.988 Y136.916
G01 X81.966 Y144.820
G01 X93.792 Y154.021
G01 X104.360 Y164.318
G01 X113.598 Y175.483
G01 X121.471 Y187.267
G01 X127.977 Y199.407
G01 X133.153 Y211.630
G01 X137.067 Y223.660
G01 X139.820 Y235.227
G01 X141.541 Y246.075
G01 X142.384 Y255.963
G01 X142.523 Y264.678
G01 X142.147 Y272.040
G01 X141.458 Y277.903
G01 X140.662 Y282.165
G01 X139.965 Y284.767
G01 X139.571 Y285.698
G01 X139.671 Y284.991
G01 X140.443 Y282.729
G01 X142.047 Y279.035
G01 X144.622 Y274.077
G01 X148.278 Y268.055
G01 X153.102 Y261.204
G01 X159.146 Y253.779
G01 X166.437 Y246.054
G01 X174.967 Y238.312
G01 X184.697 Y230.837
G01 X195.561 Y223.907
G01 X207.461 Y217.785
G01 X220.276 Y212.715
G01 X233.857 Y208.911
G01 X248.039 Y206.556
G01 X262.636 Y205.794
G01 X277.450 Y206.731
G01 X292.272 Y209.428
G01 X306.887 Y213.904
G01 X321.080 Y220.137
G01 X334.634 Y228.063
G01 X347.343 Y237.581
G01 X359.005 Y248.558
G01 X369.435 Y260.832
G01 X378.462 Y274.221
G01 X385.935 Y288.523
G01 X391.721 Y303.532
G01 X395.716 Y319.034
G01 X397.835 Y334.822
G01 X398.024 Y350.698
G01 X396.254 Y366.477
G01 X392.523 Y381.996
G01 X386.857 Y397.114
G01 X379.309 Y411.716
G01 X369.959 Y425.717
G01 X358.910 Y439.057
G01 X346.290 Y451.707
G01 X332.245 Y463.662
G01 X316.943 Y474.944
G01 X300.566 Y485.593
G01 X283.310 Y495.668
G01 X265.381 Y505.239
G01 X246.991 Y514.386
G01 X228.356 Y523.191
G01 X209.689 Y531.733
G01 X191.204 Y540.088
G01 X173.102 Y548.320
G01 X155.575 Y556.478
G01 X138.803 Y564.597
G01 X122.944 Y572.692
G01 X108.138 Y580.757
G01 X94.502 Y588.768
G01 X82.129 Y596.680
G01 X71.082 Y604.429
G01 X61.398 Y611.934
G01 X53.087 Y619.103
G01 X46.127 Y625.831
G01 X40.469 Y632.005
G01 X36.040 Y637.512
G01 X32.737 Y642.238
G01 X30.437 Y646.072
G01 X28.995 Y648.914
G01 X28.251 Y650.674
G01 X28.030 Y651.276
G01 X28.149 Y650.662
G01 X28.420 Y648.788
G01 X28.654 Y645.634
G01 X28.668 Y641.194
G01 X28.287 Y635.485
G01 X27.351 Y628.538
G01 X25.715 Y620.402
G01 X23.259 Y611.136
G01 X19.885 Y600.815
G01 X15.525 Y589.517
G01 X10.140 Y577.331
G01 X5.000 Y566.931
G01 X5.000 Y149.030
G01 X16.211 Y150.802
G01 X30.522 Y154.810
G01 X44.092 Y160.384
G01 X56.755 Y167.397
G01 X68.372 Y175.691
G01 X78.835 Y185.078
G01 X88.067 Y195.343
G01 X96.023 Y206.252
G01 X102.693 Y217.554
G01 X108.100 Y228.987
G01 X112.298 Y240.287
G01 X115.373 Y251.192
G01 X117.437 Y261.453
G01 X118.626 Y270.836
G01 X119.099 Y279.130
G01 X119.028 Y286.156
G01 X118.599 Y291.769
G01 X118.004 Y295.862
G01 X117.439 Y298.372
G01 X117.093 Y299.279
G01 X117.153 Y298.608
G01 X117.791 Y296.430
G01 X119.163 Y292.857
G01 X121.408 Y288.042
G01 X124.639 Y282.173
G01 X128.948 Y275.468
G01 X134.396 Y268.168
G01 X141.017 Y260.534
G01 X148.816 Y252.835
G01 X157.767 Y245.342
G01 X167.818 Y238.323
G01 X178.888 Y232.031
G01 X190.868 Y226.704
G01 X203.628 Y222.551
G01 X217.016 Y219.752
G01 X230.863 Y218.453
G01 X244.982 Y218.760
G01 X259.179 Y220.742
G01 X273.250 Y224.424
G01 X286.988 Y229.794
G01 X300.187 Y236.799
G01 X312.643 Y245.353
G01 X324.163 Y255.335
G01 X334.561 Y266.600
G01 X343.670 Y278.980
G01 X351.335 Y292.292
G01 X357.425 Y306.341
G01 X361.830 Y320.931
G01 X364.464 Y335.866
G01 X365.264 Y350.962
G01 X364.198 Y366.043
G01 X361.256 Y380.954
G01 X356.459 Y395.561
G01 X349.852 Y409.751
G01 X341.508 Y423.441
G01 X331.521 Y436.570
G01 X320.013 Y449.105
G01 X307.124 Y461.036
G01 X293.013 Y472.375
G01 X277.855 Y483.156
G01 X261.840 Y493.425
G01 X245.165 Y503.242
G01 X228.035 Y512.673
G01 X210.659 Y521.789
G01 X193.243 Y530.656
G01 X175.993 Y539.337
G01 X159.103 Y547.885
G01 X142.758 Y556.341
G01 X127.129 Y564.728
G01 X112.368 Y573.056
G01 X98.607 Y581.314
G01 X85.958 Y589.473
G01 X74.504 Y597.487
G01 X64.305 Y605.293
G01 X55.394 Y612.813
G01 X47.773 Y619.958
G01 X41.419 Y626.630
G01 X36.282 Y632.723
G01 X32.286 Y638.134
G01 X29.329 Y642.756
G01 X27.291 Y646.491
G01 X26.028 Y649.249
G01 X25.386 Y650.950
G01 X25.194 Y651.531
G01 X25.277 Y650.941
G01 X25.454 Y649.149
G01 X25.546 Y646.141
G01 X25.377 Y641.921
G01 X24.782 Y636.510
G01 X23.610 Y629.945
G01 X21.726 Y622.278
G01 X19.018 Y613.571
G01 X15.395 Y603.897
G01 X10.797 Y593.336
G01 X5.190 Y581.972
G01 X5.000 Y581.625
G01 X5.000 Y179.387
G01 X7.549 Y179.989
G01 X20.650 Y184.750
G01 X32.947 Y190.914
G01 X44.301 Y198.335
G01 X54.603 Y206.839
G01 X63.770 Y216.226
G01 X71.752 Y226.274
G01 X78.527 Y236.746
G01 X84.108 Y247.393
G01 X88.537 Y257.961
G01 X91.882 Y268.198
G01 X94.243 Y277.864
G01 X95.738 Y286.730
G01 X96.510 Y294.592
G01 X96.715 Y301.270
G01 X96.524 Y306.622
G01 X96.116 Y310.537
G01 X95.671 Y312.948
G01 X95.372 Y313.828
G01 X95.395 Y313.195
G01 X95.907 Y311.109
G01 X97.060 Y307.669
G01 X98.992 Y303.017
G01 X101.819 Y297.324
G01 X105.634 Y290.796
G01 X110.506 Y283.659
G01 X116.479 Y276.157
G01 X123.566 Y268.547
G01 X131.755 Y261.088
G01 X141.006 Y254.034
G01 X151.251 Y247.632
G01 X162.399 Y242.107
G01 X174.334 Y237.667
G01 X186.917 Y234.487
G01 X199.995 Y232.711
G01 X213.395 Y232.449
G01 X226.934 Y233.773
G01 X240.421 Y236.715
G01 X253.659 Y241.271
G01 X266.449 Y247.400
G01 X278.597 Y255.028
G01 X289.911 Y264.048
G01 X300.213 Y274.329
G01 X309.334 Y285.719
G01 X317.124 Y298.049
G01 X323.448 Y311.140
G01 X328.195 Y324.812
G01 X331.274 Y338.881
G01 X332.622 Y353.174
G01 X332.198 Y367.527
G01 X329.988 Y381.793
G01 X326.006 Y395.843
G01 X320.292 Y409.571
G01 X312.909 Y422.891
G01 X303.948 Y435.744
G01 X293.520 Y448.094
G01 X281.759 Y459.925
G01 X268.815 Y471.244
G01 X254.858 Y482.073
G01 X240.067 Y492.452
G01 X224.633 Y502.427
G01 X208.753 Y512.054
G01 X192.628 Y521.391
G01 X176.457 Y530.494
G01 X160.435 Y539.413
G01 X144.751 Y548.192
G01 X129.580 Y556.860
G01 X115.086 Y565.436
G01 X101.413 Y573.920
G01 X88.687 Y582.297
G01 X77.010 Y590.536
G01 X66.463 Y598.590
G01 X57.097 Y606.396
G01 X48.940 Y613.881
G01 X41.993 Y620.957
G01 X36.228 Y627.535
G01 X31.595 Y633.515
G01 X28.015 Y638.803
G01 X25.390 Y643.301
G01 X23.600 Y646.923
G01 X22.507 Y649.587
G01 X21.960 Y651.224
G01 X21.796 Y651.781
G01 X21.845 Y651.218
G01 X21.936 Y649.512
G01 X21.897 Y646.656
G01 X21.564 Y642.663
G01 X20.780 Y637.557
G01 X19.402 Y631.382
G01 X17.307 Y624.190
G01 X14.388 Y616.045
G01 X10.566 Y607.022
G01 X5.783 Y597.197
G01 X5.000 Y595.766
G01 X5.000 Y212.778
G01 X10.576 Y215.292
G01 X21.617 Y221.877
G01 X31.702 Y229.529
G01 X40.748 Y238.062
G01 X48.697 Y247.268
G01 X55.521 Y256.922
G01 X61.221 Y266.789
G01 X65.826 Y276.626
G01 X69.393 Y286.194
G01 X72.004 Y295.258
G01 X73.764 Y303.599
G01 X74.799 Y311.018
G01 X75.251 Y317.339
G01 X75.276 Y322.419
G01 X75.037 Y326.149
G01 X74.705 Y328.455
G01 X74.450 Y329.307
G01 X74.439 Y328.714
G01 X74.834 Y326.725
G01 X75.781 Y323.431
G01 X77.418 Y318.958
G01 X79.860 Y313.466
G01 X83.205 Y307.143
G01 X87.525 Y300.202
G01 X92.872 Y292.874
G01 X99.270 Y285.399
G01 X106.716 Y278.023
G01 X115.182 Y270.989
G01 X124.615 Y264.532
G01 X134.936 Y258.871
G01 X146.044 Y254.205
G01 X157.816 Y250.705
G01 X170.110 Y248.515
G01 X182.769 Y247.745
G01 X195.622 Y248.469
G01 X208.489 Y250.726
G01 X221.184 Y254.521
G01 X233.517 Y259.821
G01 X245.300 Y266.564
G01 X256.351 Y274.657
G01 X266.492 Y283.983
G01 X275.561 Y294.404
G01 X283.406 Y305.766
G01 X289.896 Y317.908
G01 X294.915 Y330.659
G01 X298.374 Y343.852
G01 X300.202 Y357.324
G01 X300.357 Y370.924
G01 X298.821 Y384.511
G01 X295.599 Y397.963
G01 X290.726 Y411.178
G01 X284.259 Y424.074
G01 X276.281 Y436.590
G01 X266.897 Y448.687
G01 X256.231 Y460.346
G01 X244.428 Y471.567
G01 X231.647 Y482.365
G01 X218.060 Y492.769
G01 X203.850 Y502.816
G01 X189.206 Y512.552
G01 X174.318 Y522.023
G01 X159.379 Y531.273
G01 X144.574 Y540.344
G01 X130.083 Y549.268
G01 X116.074 Y558.067
G01 X102.702 Y566.751
G01 X90.103 Y575.315
G01 X78.396 Y583.740
G01 X67.676 Y591.994
G01 X58.016 Y600.026
G01 X49.465 Y607.778
G01 X42.044 Y615.176
G01 X35.750 Y622.142
G01 X30.555 Y628.588
G01 X26.406 Y634.425
G01 X23.226 Y639.564
G01 X20.917 Y643.920
G01 X19.362 Y647.414
G01 X18.428 Y649.974
G01 X17.970 Y651.543
G01 X17.831 Y652.076
G01 X17.849 Y651.541
G01 X17.861 Y649.924
G01 X17.705 Y647.227
G01 X17.226 Y643.466
G01 X16.276 Y638.672
