; file trimmed by trimify2x.pl
; Created by Sandify
; 
;   https://jeffeb3.github.io/sandify/
; 
;   Sandify Version: 0.1.3
; 
;   Machine Type: Rectangular
;     MinX: 5 MaxX: 710 MinY: 5 MaxY: 1570
;   Content Type: Shapes
;     Starting Size: 331
;     Offset: X: -1 Y: 81
;     Selected Shape: None
;     Number of Loops: 156
;     Spin: true
;       Spin Value: 0.4
;       Spin Switchbacks: 7
;     Grow: true
;       Grow Value: -6
;     Track: true
;       Track Count: 8
;       Track Size: 804
;       Track Grow: false
;   Path Reversed: true
; 
; filename: 'heartfuzz1.gcode'

; BEGIN PRE
G28 Y
G28 X
G01 F30000; END PRE
G01 X350.624 Y5.000
G01 X365.398 Y5.000
G01 X366.619 Y7.714
G01 X364.399 Y5.000
G01 X359.562 Y5.000
G01 X357.355 Y7.817
G01 X358.657 Y5.000
G01 X370.962 Y5.000
G01 X359.269 Y16.236
G01 X373.997 Y12.890
G01 X372.874 Y5.000
G01 X369.230 Y5.000
G01 X367.338 Y7.888
G01 X372.524 Y30.528
G01 X378.058 Y8.001
G01 X376.256 Y5.000
G01 X374.835 Y5.000
G01 X371.318 Y25.521
G01 X385.690 Y28.855
G01 X372.034 Y15.641
G01 X382.010 Y5.000
G01 X375.403 Y5.000
G01 X387.701 Y33.190
G01 X382.770 Y27.217
G01 X378.412 Y33.313
G01 X392.357 Y5.000
G01 X383.495 Y5.000
G01 X384.792 Y16.848
G01 X393.997 Y28.402
G01 X379.761 Y41.613
G01 X394.700 Y38.527
G01 X390.369 Y5.000
G01 X393.257 Y5.000
G01 X399.489 Y17.459
G01 X387.712 Y33.644
G01 X392.664 Y56.041
G01 X398.407 Y33.776
G01 X388.980 Y17.910
G01 X396.891 Y5.000
G01 X397.740 Y5.000
G01 X398.483 Y14.598
G01 X391.337 Y51.411
G01 X405.479 Y54.501
G01 X392.027 Y41.550
G01 X403.543 Y30.694
G01 X408.220 Y5.000
G01 X400.267 Y5.000
G01 X393.879 Y27.381
G01 X407.363 Y59.211
G01 X402.206 Y52.992
G01 X398.050 Y59.352
G01 X414.508 Y27.899
G01 X410.620 Y5.000
G01 X401.341 Y5.000
G01 X404.795 Y43.702
G01 X413.303 Y54.550
G01 X398.844 Y67.513
G01 X413.981 Y64.693
G01 X409.770 Y28.640
G01 X416.419 Y5.751
G01 X416.727 Y5.000
G01 X401.532 Y5.000
G01 X401.376 Y7.677
G01 X419.124 Y44.441
G01 X406.661 Y59.916
G01 X411.393 Y82.063
G01 X417.330 Y60.066
G01 X408.445 Y45.023
G01 X432.042 Y9.247
G01 X432.336 Y5.000
G01 X413.350 Y5.000
G01 X417.041 Y18.461
G01 X417.749 Y41.705
G01 X409.926 Y77.802
G01 X423.853 Y80.641
G01 X410.591 Y67.958
G01 X422.639 Y57.929
G01 X433.190 Y5.755
G01 X433.273 Y5.000
G01 X421.576 Y5.000
G01 X425.591 Y14.897
G01 X412.776 Y54.608
G01 X425.594 Y85.718
G01 X420.224 Y79.247
G01 X416.255 Y85.876
G01 X433.234 Y55.252
G01 X427.222 Y16.671
G01 X434.972 Y5.000
G01 X421.323 Y5.000
G01 X419.666 Y18.381
G01 X423.322 Y71.045
G01 X431.173 Y81.168
G01 X416.505 Y93.878
G01 X431.826 Y91.328
G01 X428.125 Y56.107
G01 X435.536 Y34.633
G01 X448.541 Y5.000
G01 X423.359 Y5.000
G01 X420.661 Y36.272
G01 X437.280 Y71.898
G01 X424.171 Y86.643
G01 X428.697 Y108.535
G01 X434.814 Y86.809
G01 X426.429 Y72.601
G01 X450.769 Y38.243
G01 X453.651 Y5.000
G01 X425.209 Y5.000
G01 X435.938 Y47.174
G01 X435.534 Y69.271
G01 X427.075 Y104.633
G01 X440.800 Y107.217
G01 X427.714 Y94.806
G01 X440.250 Y85.613
G01 X451.527 Y34.861
G01 X455.679 Y5.000
G01 X429.360 Y5.000
G01 X444.100 Y43.723
G01 X430.189 Y82.279
G01 X442.381 Y112.650
G01 X436.812 Y105.921
G01 X433.016 Y112.824
G01 X450.473 Y83.039
G01 X445.168 Y45.883
G01 X471.964 Y8.828
G01 X473.129 Y5.000
G01 X443.332 Y5.000
G01 X444.428 Y7.915
G01 X437.786 Y47.316
G01 X440.362 Y98.818
G01 X447.598 Y108.198
G01 X432.735 Y120.649
G01 X448.224 Y118.373
G01 X444.991 Y83.994
G01 X453.090 Y63.947
G01 X480.215 Y6.046
G01 X480.385 Y5.000
G01 X445.277 Y5.000
G01 X438.392 Y65.313
G01 X453.947 Y99.768
G01 X440.232 Y113.765
G01 X444.568 Y135.398
G01 X450.850 Y113.947
G01 X442.920 Y100.582
G01 X467.932 Y67.655
G01 X473.898 Y10.127
G01 X477.044 Y5.000
G01 X435.391 Y5.000
G01 X434.168 Y15.901
G01 X448.496 Y75.718
G01 X447.209 Y96.623
G01 X438.231 Y131.232
G01 X451.747 Y133.550
G01 X438.701 Y121.396
G01 X451.458 Y113.005
G01 X463.062 Y63.602
G01 X468.661 Y27.796
G01 X483.905 Y5.000
G01 X429.234 Y5.000
G01 X431.863 Y33.099
G01 X446.371 Y71.127
G01 X432.089 Y108.479
G01 X444.074 Y138.107
G01 X438.401 Y131.121
G01 X434.543 Y138.264
G01 X451.919 Y109.216
G01 X446.451 Y73.273
G01 X472.941 Y37.875
G01 X483.001 Y5.000
G01 X424.484 Y5.000
G01 X436.495 Y35.881
G01 X429.956 Y73.600
G01 X432.666 Y123.885
G01 X440.002 Y132.532
G01 X425.138 Y144.734
G01 X440.466 Y142.684
G01 X436.854 Y108.976
G01 X444.307 Y90.009
G01 X470.475 Y33.542
G01 X474.582 Y5.000
G01 X420.180 Y5.000
G01 X426.758 Y31.868
G01 X420.649 Y90.496
G01 X436.834 Y123.723
G01 X423.521 Y136.997
G01 X427.957 Y158.390
G01 X433.980 Y137.147
G01 X425.380 Y124.392
G01 X449.270 Y92.412
G01 X453.638 Y36.101
G01 X471.786 Y5.000
G01 X413.745 Y5.000
G01 X410.277 Y42.365
G01 X425.812 Y100.419
G01 X425.477 Y120.097
G01 X417.121 Y153.995
G01 X430.859 Y156.085
G01 X417.580 Y144.144
G01 X429.603 Y136.344
G01 X439.944 Y87.844
G01 X443.737 Y53.172
G01 X474.691 Y5.000
G01 X402.072 Y5.000
G01 X408.357 Y59.747
G01 X424.047 Y96.005
G01 X410.701 Y132.123
G01 X423.297 Y161.035
G01 X417.844 Y153.821
G01 X413.755 Y161.178
G01 X430.406 Y132.728
G01 X423.690 Y97.698
G01 X448.393 Y63.452
G01 X464.673 Y5.000
G01 X388.780 Y5.000
G01 X413.374 Y62.709
G01 X407.994 Y98.651
G01 X411.623 Y147.696
G01 X419.560 Y155.623
G01 X404.912 Y167.596
G01 X420.012 Y165.761
G01 X415.685 Y132.657
G01 X421.905 Y114.614
G01 X446.304 Y59.314
G01 X451.865 Y5.965
G01 X452.585 Y5.000
G01 X388.169 Y5.000
G01 X391.820 Y16.586
G01 X404.024 Y58.873
G01 X399.050 Y115.717
G01 X416.137 Y147.697
G01 X403.415 Y160.248
G01 X408.063 Y181.409
G01 X413.862 Y160.384
G01 X404.556 Y148.238
G01 X427.228 Y117.193
G01 X429.846 Y62.064
G01 X451.432 Y22.503
G01 X459.752 Y5.000
G01 X387.168 Y5.000
G01 X392.013 Y14.396
G01 X387.932 Y69.541
G01 X404.577 Y125.805
G01 X405.127 Y144.231
G01 X397.352 Y177.401
G01 X411.299 Y179.258
G01 X397.798 Y167.536
G01 X409.125 Y160.352
G01 X418.263 Y112.797
G01 X420.325 Y79.323
G01 X454.798 Y23.524
G01 X458.583 Y5.000
G01 X374.793 Y5.000
G01 X376.744 Y15.944
G01 X386.400 Y87.092
G01 X403.177 Y121.553
G01 X390.699 Y156.414
G01 X403.866 Y184.594
G01 X398.618 Y177.145
G01 X394.312 Y184.723
G01 X410.276 Y156.893
G01 X402.371 Y122.819
G01 X425.363 Y89.786
G01 X442.699 Y20.897
G01 X448.577 Y5.000
G01 X363.289 Y5.000
G01 X365.278 Y33.101
G01 X391.808 Y90.217
G01 X387.491 Y124.357
G01 X391.971 Y172.139
G01 X400.468 Y179.330
G01 X386.022 Y191.066
G01 X400.908 Y189.454
G01 X395.904 Y156.977
G01 X400.949 Y139.900
G01 X423.657 Y85.828
G01 X427.005 Y33.887
G01 X447.700 Y5.000
G01 X355.242 Y5.000
G01 X369.486 Y46.600
G01 X382.851 Y86.541
G01 X378.916 Y141.577
G01 X396.836 Y172.288
G01 X384.664 Y184.099
G01 X389.511 Y205.022
G01 X395.098 Y184.222
G01 X385.124 Y172.709
G01 X406.637 Y142.640
G01 X407.584 Y88.754
G01 X426.980 Y50.620
G01 X447.450 Y5.000
G01 X347.810 Y5.000
G01 X370.103 Y44.570
G01 X367.151 Y97.365
G01 X384.811 Y151.815
G01 X386.178 Y168.967
G01 X378.943 Y201.394
G01 X393.085 Y203.012
G01 X379.377 Y191.516
G01 X390.045 Y184.970
G01 X398.038 Y138.400
G01 X398.448 Y106.184
G01 X430.756 Y51.832
G01 X438.729 Y5.000
G01 X346.553 Y5.000
G01 X355.259 Y46.275
G01 X366.015 Y115.067
G01 X383.782 Y147.709
G01 X372.103 Y181.291
G01 X385.800 Y208.724
G01 X380.744 Y201.035
G01 X376.233 Y208.840
G01 X391.548 Y181.654
G01 X382.513 Y148.575
G01 X403.874 Y116.814
G01 X419.067 Y49.393
G01 X433.572 Y5.000
G01 X338.995 Y5.000
G01 X344.219 Y63.583
G01 X371.818 Y118.340
G01 X368.468 Y150.655
G01 X373.728 Y197.154
G01 X382.745 Y203.595
G01 X368.488 Y215.089
G01 X383.173 Y213.705
G01 X377.528 Y181.877
G01 X381.460 Y165.804
G01 X402.556 Y113.020
G01 X403.785 Y62.565
G01 X439.701 Y10.373
G01 X441.438 Y5.000
G01 X322.136 Y5.000
G01 X348.854 Y77.229
G01 X363.257 Y114.806
G01 X360.264 Y168.013
G01 X378.948 Y197.437
G01 X367.286 Y208.494
G01 X372.319 Y229.174
G01 X377.708 Y208.604
G01 X367.103 Y197.744
G01 X387.517 Y168.689
G01 X386.873 Y116.104
G01 X404.175 Y79.476
G01 X434.902 Y6.838
G01 X435.379 Y5.000
G01 X312.917 Y5.000
G01 X317.745 Y22.945
G01 X349.899 Y75.343
G01 X347.955 Y125.770
G01 X366.533 Y178.385
G01 X368.647 Y194.246
G01 X361.911 Y225.916
G01 X376.235 Y227.289
G01 X362.331 Y216.025
G01 X372.379 Y210.137
G01 X379.288 Y164.590
G01 X378.128 Y133.690
G01 X408.365 Y80.863
G01 X417.600 Y13.196
G01 X423.048 Y5.000
G01 X309.459 Y5.000
G01 X323.961 Y30.059
G01 X335.484 Y77.186
G01 X347.217 Y143.606
G01 X365.879 Y174.410
G01 X354.929 Y206.697
G01 X369.114 Y233.369
G01 X364.237 Y225.434
G01 X359.534 Y233.473
G01 X374.238 Y206.950
G01 X364.135 Y174.903
G01 X383.946 Y144.471
G01 X397.094 Y78.593
G01 X410.254 Y32.213
G01 X426.920 Y5.000
G01 X303.754 Y5.000
G01 X317.680 Y27.362
G01 X324.874 Y94.628
G01 X353.420 Y147.010
G01 X350.939 Y177.483
G01 X356.912 Y222.682
G01 X366.407 Y228.359
G01 X352.325 Y239.606
G01 X366.821 Y238.458
G01 X360.576 Y207.298
G01 X363.455 Y192.266
G01 X383.021 Y140.823
G01 X382.230 Y91.930
G01 X415.634 Y41.432
G01 X426.300 Y5.000
G01 X294.633 Y5.000
G01 X301.673 Y37.309
G01 X329.940 Y108.404
G01 X345.259 Y143.603
G01 X343.112 Y194.963
G01 X362.491 Y223.084
G01 X351.296 Y233.374
G01 X356.500 Y253.806
G01 X361.764 Y233.472
G01 X350.632 Y223.286
G01 X370.080 Y195.282
G01 X368.009 Y144.056
G01 X383.412 Y109.017
G01 X411.769 Y38.113
G01 X419.063 Y5.000
G01 X293.833 Y5.000
G01 X308.205 Y56.474
G01 X340.530 Y106.248
G01 X338.873 Y154.477
G01 X357.793 Y205.356
G01 X360.241 Y219.969
G01 X353.773 Y250.891
G01 X368.238 Y252.019
G01 X354.297 Y240.995
G01 X364.077 Y235.808
G01 X370.448 Y191.381
G01 X368.440 Y161.971
G01 X397.494 Y110.940
G01 X405.190 Y45.308
G01 X431.623 Y5.000
G01 X290.874 Y5.000
G01 X324.956 Y63.034
G01 X335.821 Y107.811
G01 X347.130 Y172.217
G01 X365.558 Y201.396
G01 X354.520 Y232.491
G01 X368.714 Y258.436
G01 X363.890 Y250.256
G01 X359.234 Y258.541
G01 X373.927 Y232.745
G01 X363.703 Y201.887
G01 X383.234 Y173.072
G01 X395.901 Y109.195
G01 X408.338 Y65.145
G01 X445.695 Y5.000
G01 X296.169 Y5.000
G01 X298.772 Y10.603
G01 X328.980 Y59.791
G01 X334.704 Y124.975
G01 X362.127 Y175.524
G01 X358.849 Y204.482
G01 X364.319 Y248.544
G01 X373.569 Y253.513
G01 X359.455 Y264.519
G01 X374.081 Y263.620
G01 X368.074 Y233.213
G01 X371.241 Y219.436
G01 X391.086 Y169.736
G01 X390.502 Y123.044
G01 X423.982 Y75.166
G01 X445.225 Y5.000
G01 X308.205 Y5.000
G01 X312.669 Y11.008
G01 X323.047 Y69.202
G01 X349.048 Y138.477
G01 X362.561 Y172.020
G01 X359.064 Y221.974
G01 X377.534 Y249.012
G01 X365.845 Y258.613
G01 X370.932 Y278.805
G01 X376.349 Y258.725
G01 X365.637 Y249.317
G01 X385.703 Y222.632
G01 X384.373 Y173.267
G01 X400.561 Y140.616
G01 X429.664 Y72.599
G01 X443.479 Y16.080
G01 X452.674 Y5.000
G01 X307.145 Y5.000
G01 X310.445 Y11.655
G01 X329.614 Y88.494
G01 X359.589 Y136.444
G01 X356.055 Y183.009
G01 X373.563 Y232.474
G01 X375.047 Y245.998
G01 X368.030 Y276.227
G01 X382.322 Y277.114
G01 X368.530 Y266.345
G01 X378.720 Y261.939
G01 X385.691 Y218.835
G01 X384.400 Y191.287
G01 X414.209 Y142.646
G01 X422.615 Y79.900
G01 X455.690 Y33.697
G01 X470.690 Y5.000
G01 X302.938 Y5.000
G01 X308.296 Y28.345
G01 X345.910 Y95.211
G01 X354.455 Y138.141
G01 X363.912 Y200.867
G01 X380.949 Y228.620
G01 X368.963 Y258.618
G01 X382.619 Y283.866
G01 X377.625 Y275.444
G01 X373.115 Y283.985
G01 X388.206 Y258.972
G01 X378.565 Y229.439
G01 X398.790 Y202.489
G01 X412.180 Y141.003
G01 X425.292 Y99.838
G01 X467.970 Y35.337
G01 X477.621 Y5.000
G01 X304.633 Y5.000
G01 X322.023 Y44.880
G01 X349.479 Y92.119
G01 X352.912 Y155.435
G01 X378.509 Y204.288
G01 X373.862 Y231.808
G01 X378.400 Y274.767
G01 X387.122 Y279.034
G01 X372.841 Y289.796
G01 X387.609 Y289.154
G01 X381.990 Y259.533
G01 X385.723 Y247.083
G01 X406.237 Y199.250
G01 X406.346 Y154.949
G01 X440.464 Y109.955
G01 X464.122 Y36.802
G01 X484.392 Y5.000
G01 X306.508 Y5.000
G01 X335.432 Y45.458
G01 X343.090 Y101.676
G01 X366.829 Y169.062
G01 X378.543 Y200.894
G01 X373.698 Y249.398
G01 X391.251 Y275.325
G01 X379.044 Y284.220
G01 X383.968 Y304.168
G01 X389.523 Y284.345
G01 X379.189 Y275.725
G01 X399.804 Y250.370
G01 X399.118 Y202.874
G01 X415.969 Y172.614
G01 X445.674 Y107.478
G01 X459.950 Y54.286
G01 X503.749 Y5.000
G01 X313.979 Y5.000
G01 X332.718 Y46.272
G01 X349.199 Y121.110
G01 X376.942 Y167.151
G01 X371.634 Y211.988
G01 X387.817 Y259.992
G01 X388.400 Y272.398
G01 X380.875 Y301.918
G01 X395.008 Y302.558
G01 X381.350 Y292.048
G01 X391.907 Y288.431
G01 X399.409 Y246.659
G01 X398.739 Y220.982
G01 X429.180 Y174.732
G01 X438.152 Y114.866
G01 X471.648 Y71.984
G01 X508.567 Y5.000
G01 X318.926 Y5.000
G01 X330.078 Y63.124
G01 X365.037 Y127.963
G01 X371.380 Y168.964
G01 X379.089 Y229.947
G01 X394.822 Y256.228
G01 X381.952 Y285.101
G01 X395.110 Y309.636
G01 X389.960 Y300.967
G01 X385.581 Y309.767
G01 X401.029 Y285.545
G01 X391.901 Y257.346
G01 X412.722 Y232.268
G01 X426.714 Y173.173
G01 X440.355 Y134.885
G01 X483.414 Y73.700
G01 X505.492 Y8.495
G01 X509.199 Y5.000
G01 X312.755 Y5.000
G01 X343.314 Y79.816
G01 X368.146 Y125.004
G01 X369.408 Y186.370
G01 X393.284 Y233.465
G01 X387.354 Y259.502
G01 X391.024 Y301.329
G01 X399.257 Y304.880
G01 X384.824 Y315.394
G01 X399.720 Y315.011
G01 X394.447 Y286.183
G01 X398.676 Y275.069
G01 X419.761 Y229.109
G01 X420.442 Y187.199
G01 X455.053 Y145.078
G01 X479.052 Y75.235
G01 X510.152 Y30.304
G01 X531.124 Y5.000
G01 X310.459 Y5.000
G01 X315.948 Y22.057
G01 X356.229 Y80.546
G01 X361.297 Y134.688
G01 X382.895 Y200.104
G01 X392.913 Y230.164
G01 X386.807 Y277.174
G01 X403.509 Y301.962
G01 X390.824 Y310.138
G01 X395.599 Y329.836
G01 X401.278 Y310.274
G01 X391.280 Y302.448
G01 X412.373 Y278.431
G01 X412.235 Y232.809
G01 X429.627 Y204.938
G01 X459.790 Y142.673
G01 X474.366 Y92.783
G01 X524.823 Y39.757
G01 X542.082 Y5.000
G01 X315.875 Y5.000
G01 X332.833 Y32.568
G01 X353.021 Y81.506
G01 X366.945 Y154.244
G01 X392.577 Y198.296
G01 X385.601 Y241.346
G01 X400.544 Y287.846
G01 X400.292 Y299.107
G01 X392.300 Y327.904
G01 X406.287 Y328.294
G01 X392.750 Y318.045
G01 X403.632 Y315.224
G01 X411.595 Y274.790
G01 X411.448 Y250.988
G01 X442.399 Y207.127
G01 X451.793 Y150.127
G01 X485.549 Y110.540
G01 X526.986 Y39.070
G01 X547.665 Y5.000
G01 X320.078 Y5.000
G01 X339.434 Y30.752
G01 X349.886 Y98.499
G01 X382.321 Y161.214
G01 X386.584 Y200.207
G01 X392.651 Y259.390
G01 X407.167 Y284.157
G01 X393.478 Y311.878
G01 X406.178 Y335.686
G01 X400.886 Y326.767
G01 X396.624 Y335.828
G01 X412.387 Y312.404
G01 X403.702 Y285.544
G01 X425.022 Y262.341
G01 X439.495 Y205.633
G01 X453.522 Y170.207
G01 X496.800 Y112.310
G01 X518.859 Y50.759
G01 X570.515 Y5.709
G01 X571.036 Y5.000
G01 X322.768 Y5.000
G01 X333.534 Y39.126
G01 X362.625 Y115.328
G01 X384.968 Y158.368
G01 X384.179 Y217.708
G01 X406.441 Y262.987
G01 X399.316 Y287.501
G01 X402.183 Y328.170
G01 X409.970 Y330.991
G01 X395.397 Y341.253
G01 X410.407 Y341.133
G01 X405.438 Y313.103
G01 X410.093 Y303.330
G01 X431.653 Y259.245
G01 X432.784 Y219.720
G01 X467.746 Y180.457
G01 X491.923 Y113.894
G01 X522.960 Y72.605
G01 X579.567 Y7.790
G01 X581.295 Y5.000
G01 X321.834 Y5.000
G01 X337.650 Y59.905
G01 X375.043 Y116.188
G01 X377.655 Y168.159
G01 X397.234 Y231.532
G01 X405.665 Y259.762
G01 X398.386 Y305.239
G01 X414.302 Y328.864
G01 X401.180 Y336.306
G01 X405.819 Y355.752
G01 X411.609 Y336.453
G01 X401.903 Y329.427
G01 X423.404 Y306.751
G01 X423.718 Y263.003
G01 X441.530 Y237.516
G01 X472.008 Y178.104
G01 X486.722 Y131.486
G01 X537.072 Y82.089
G01 X572.816 Y13.185
G01 X582.695 Y5.000
G01 X315.427 Y5.000
G01 X354.001 Y70.570
G01 X371.337 Y117.275
G01 X382.839 Y187.819
G01 X406.483 Y229.808
G01 X397.947 Y271.016
G01 X411.739 Y315.974
G01 X410.718 Y326.065
G01 X402.299 Y354.125
G01 X416.153 Y354.262
G01 X402.723 Y344.277
G01 X413.888 Y342.257
G01 X422.241 Y303.165
G01 X422.521 Y281.237
G01 X453.863 Y239.756
G01 X463.537 Y185.604
G01 X497.390 Y149.282
G01 X538.677 Y81.427
G01 X569.228 Y34.233
G01 X605.721 Y5.000
G01 X317.349 Y5.000
G01 X323.678 Y18.402
G01 X360.068 Y68.902
G01 X367.703 Y134.388
G01 X397.750 Y194.887
G01 X400.056 Y231.800
G01 X404.590 Y289.127
G01 X417.978 Y312.342
G01 X403.536 Y338.889
G01 X415.820 Y361.958
G01 X410.399 Y352.784
G01 X406.240 Y362.109
G01 X422.275 Y339.487
G01 X413.963 Y313.970
G01 X435.686 Y292.641
G01 X450.519 Y238.310
G01 X464.791 Y205.727
G01 X508.127 Y151.085
G01 X529.992 Y93.136
G01 X581.142 Y51.966
G01 X617.111 Y5.000
G01 X324.839 Y5.000
G01 X338.769 Y22.430
G01 X353.632 Y77.418
G01 X379.943 Y151.332
G01 X399.932 Y192.133
G01 X397.218 Y249.377
G01 X417.973 Y292.787
G01 X409.742 Y315.741
G01 X411.873 Y355.229
G01 X419.254 Y357.308
G01 X404.556 Y367.315
G01 X419.665 Y367.460
G01 X414.958 Y340.232
G01 X419.968 Y331.803
G01 X441.907 Y289.591
G01 X443.368 Y252.440
G01 X478.540 Y216.013
G01 X502.736 Y152.696
G01 X533.536 Y114.997
G01 X589.591 Y54.042
G01 X621.394 Y5.000
G01 X321.323 Y5.000
G01 X333.525 Y23.325
G01 X352.970 Y98.311
G01 X387.911 Y152.151
G01 X388.479 Y201.766
G01 X406.413 Y262.958
G01 X413.578 Y289.265
G01 X405.383 Y333.153
G01 X420.693 Y355.583
G01 X407.228 Y362.280
G01 X411.735 Y381.467
G01 X417.541 Y362.421
G01 X407.939 Y356.168
G01 X429.562 Y334.780
G01 X429.949 Y292.814
G01 X447.720 Y269.566
G01 X477.979 Y212.804
G01 X492.236 Y169.186
G01 X541.838 Y123.069
G01 X576.495 Y57.647
G01 X624.182 Y20.524
G01 X641.502 Y5.000
G01 X308.482 Y5.000
G01 X319.008 Y40.094
G01 X359.283 Y109.059
G01 X375.015 Y153.011
G01 X385.256 Y220.975
G01 X407.952 Y260.636
G01 X398.745 Y299.834
G01 X412.099 Y343.161
G01 X410.821 Y352.049
G01 X402.272 Y379.371
G01 X416.065 Y379.256
G01 X402.584 Y369.512
G01 X413.646 Y368.221
G01 X421.788 Y330.325
G01 X421.692 Y310.024
G01 X452.440 Y270.556
G01 X461.259 Y218.742
G01 X493.955 Y185.015
G01 X533.751 Y119.938
G01 X562.455 Y75.622
G01 X626.075 Y25.776
G01 X641.522 Y5.000
G01 X294.124 Y5.000
G01 X320.290 Y60.210
G01 X355.581 Y107.473
G01 X362.440 Y169.905
G01 X391.989 Y227.607
G01 X394.029 Y262.046
G01 X398.473 Y317.277
G01 X411.888 Y338.823
G01 X397.530 Y364.159
G01 X409.891 Y386.496
G01 X404.479 Y377.075
G01 X400.202 Y386.631
G01 X415.934 Y364.695
G01 X407.087 Y340.284
G01 X427.994 Y320.432
G01 X441.695 Y267.891
G01 X454.490 Y237.342
G01 X495.986 Y184.901
G01 X515.636 Y129.239
G01 X564.197 Y90.357
G01 X613.813 Y23.920
G01 X634.959 Y5.000
G01 X275.265 Y5.000
G01 X275.764 Y6.148
G01 X325.032 Y64.704
G01 X339.645 Y116.071
G01 X365.986 Y186.638
G01 X386.223 Y224.429
G01 X383.907 Y279.057
G01 X405.139 Y320.290
G01 X397.390 Y341.535
G01 X399.937 Y379.804
G01 X407.597 Y381.159
G01 X392.977 Y390.925
G01 X407.903 Y391.289
G01 X402.699 Y364.706
G01 X406.855 Y357.294
G01 X427.550 Y316.413
G01 X427.354 Y280.835
G01 X460.444 Y246.145
G01 X482.133 Y184.645
G01 X510.012 Y148.754
G01 X562.756 Y89.512
G01 X594.494 Y36.439
G01 X646.853 Y5.000
G01 X269.662 Y5.000
G01 X281.940 Y21.409
G01 X314.269 Y65.915
G01 X333.995 Y137.069
G01 X369.461 Y187.404
G01 X370.727 Y233.899
G01 X389.457 Y292.403
G01 X397.439 Y316.493
G01 X390.002 Y358.657
G01 X405.937 Y379.869
G01 X392.896 Y385.849
G01 X397.558 Y404.803
G01 X403.197 Y385.979
G01 X393.055 Y380.359
G01 X413.732 Y359.958
G01 X412.739 Y319.270
G01 X428.682 Y297.516
G01 X456.662 Y242.382
G01 X468.200 Y200.441
G01 X514.662 Y155.962
G01 X545.792 Y92.053
G01 X589.604 Y56.234
G01 X644.146 Y5.000
G01 X262.075 Y5.000
G01 X281.082 Y22.403
G01 X300.340 Y82.806
G01 X340.848 Y147.948
G01 X357.060 Y188.399
G01 X367.959 Y253.243
G01 X391.416 Y290.215
G01 X382.995 Y327.192
G01 X397.084 Y368.791
G01 X396.414 Y376.457
G01 X388.278 Y403.059
G01 X402.224 Y402.710
G01 X388.578 Y393.189
G01 X399.111 Y392.535
G01 X406.321 Y355.636
G01 X404.865 Y336.626
G01 X433.809 Y298.669
G01 X440.376 Y248.506
G01 X470.382 Y216.485
G01 X507.068 Y153.080
G01 X532.273 Y110.316
G01 X592.046 Y61.818
G01 X631.090 Y5.000
G01 X249.545 Y5.000
G01 X266.093 Y30.615
G01 X302.211 Y103.039
G01 X337.686 Y146.487
G01 X344.981 Y205.422
G01 X375.148 Y260.006
G01 X377.913 Y291.754
G01 X383.113 Y344.761
G01 X397.240 Y364.576
G01 X383.473 Y388.684
G01 X396.237 Y410.299
G01 X390.975 Y400.643
G01 X386.536 Y410.424
G01 X401.749 Y389.129
G01 X391.984 Y365.724
G01 X411.551 Y347.176
G01 X423.471 Y296.164
G01 X434.043 Y267.289
G01 X472.877 Y216.582
G01 X489.448 Y162.626
G01 X534.540 Y125.335
G01 X580.336 Y60.288
G01 X619.873 Y22.338
G01 X646.530 Y5.000
G01 X236.631 Y5.000
G01 X258.457 Y53.139
G01 X307.543 Y107.643
G01 X322.292 Y155.204
G01 X349.024 Y222.279
G01 X369.839 Y256.954
G01 X368.212 Y308.889
G01 X390.171 Y347.896
G01 X383.110 Y367.406
G01 X386.232 Y404.445
G01 X394.284 Y405.073
G01 X379.809 Y414.603
G01 X394.577 Y415.194
G01 X388.863 Y389.257
G01 X392.118 Y382.859
G01 X411.493 Y343.294
G01 X409.540 Y309.263
G01 X440.433 Y276.270
G01 X459.490 Y216.531
G01 X484.320 Y182.380
G01 X533.625 Y124.767
G01 X561.573 Y73.127
G01 X621.442 Y35.878
G01 X649.323 Y5.000
G01 X215.304 Y5.000
G01 X265.273 Y68.490
G01 X297.370 Y108.958
G01 X317.184 Y176.316
G01 X352.997 Y223.164
G01 X354.800 Y266.544
G01 X374.185 Y322.357
G01 X382.863 Y344.217
G01 X376.090 Y384.642
G01 X392.584 Y404.620
G01 X379.925 Y409.871
G01 X384.729 Y428.589
G01 X390.213 Y409.992
G01 X379.571 Y405.022
G01 X399.361 Y385.644
G01 X397.068 Y346.285
G01 X411.279 Y326.095
G01 X437.090 Y272.680
G01 X446.025 Y232.528
G01 X489.469 Y189.821
G01 X517.190 Y127.579
G01 X557.241 Y93.237
G01 X616.497 Y34.959
G01 X643.769 Y5.000
G01 X199.493 Y5.000
G01 X214.143 Y26.532
G01 X265.056 Y69.568
G01 X284.032 Y125.948
G01 X324.580 Y187.302
G01 X341.095 Y224.273
G01 X352.490 Y286.005
G01 X376.566 Y320.284
G01 X368.812 Y355.029
G01 X383.541 Y394.887
G01 X383.413 Y401.315
G01 X375.649 Y427.186
G01 X389.734 Y426.599
G01 X375.936 Y417.306
G01 X385.978 Y417.308
G01 X392.318 Y381.439
G01 X389.581 Y363.771
G01 X416.818 Y327.395
G01 X421.243 Y278.973
G01 X448.677 Y248.768
G01 X482.375 Y187.168
G01 X504.203 Y146.109
G01 X560.244 Y99.130
G01 X597.152 Y40.790
G01 X652.059 Y11.235
G01 X660.021 Y5.000
G01 X185.390 Y5.000
G01 X221.338 Y35.460
G01 X250.707 Y77.856
G01 X286.494 Y146.272
G01 X321.963 Y185.944
G01 X329.515 Y241.405
G01 X360.139 Y292.878
G01 X363.487 Y321.934
G01 X369.325 Y372.708
G01 X384.068 Y390.778
G01 X370.825 Y413.646
G01 X383.951 Y434.527
G01 X378.824 Y424.632
G01 X374.238 Y434.643
G01 X388.968 Y414.008
G01 X378.349 Y391.640
G01 X396.656 Y374.446
G01 X406.894 Y325.032
G01 X415.352 Y297.920
G01 X451.644 Y249.056
G01 X465.258 Y196.937
G01 X507.003 Y161.387
G01 X549.098 Y97.902
G01 X584.620 Y61.252
G01 X652.112 Y15.536
G01 X662.018 Y5.000
G01 X169.268 Y5.000
G01 X214.159 Y37.735
G01 X243.713 Y100.450
G01 X292.418 Y150.962
G01 X307.113 Y194.757
G01 X334.059 Y258.365
G01 X355.290 Y289.933
G01 X354.211 Y339.177
G01 X376.777 Y375.948
G01 X370.309 Y393.711
G01 X373.938 Y429.506
G01 X382.342 Y429.399
G01 X368.000 Y438.689
G01 X382.623 Y439.510
G01 X376.436 Y414.237
G01 X378.851 Y408.885
G01 X396.988 Y370.686
G01 X393.378 Y338.269
G01 X422.185 Y307.060
G01 X438.730 Y249.191
G01 X460.635 Y216.908
G01 X506.624 Y161.074
G01 X530.900 Y111.038
G01 X586.783 Y75.135
G01 X636.801 Y16.045
G01 X656.458 Y5.000
G01 X165.761 Y5.000
G01 X169.517 Y7.157
G01 X200.489 Y54.565
G01 X251.170 Y115.864
G01 X282.838 Y152.356
G01 X302.550 Y215.960
G01 X338.533 Y259.348
G01 X340.712 Y299.625
G01 X360.609 Y352.747
G01 X369.864 Y372.371
G01 X363.661 Y411.046
G01 X380.645 Y429.778
G01 X368.328 Y434.290
G01 X373.261 Y452.767
G01 X378.603 Y434.402
G01 X367.499 Y430.100
G01 X386.464 Y411.775
G01 X382.953 Y373.794
G01 X395.532 Y355.234
G01 X419.285 Y303.624
G01 X425.740 Y265.369
G01 X466.290 Y224.562
G01 X490.728 Y164.135
G01 X527.137 Y131.438
G01 X582.435 Y74.553
G01 X617.760 Y32.169
G01 X676.891 Y5.000
G01 X143.294 Y5.000
G01 X157.259 Y15.264
G01 X201.539 Y78.063
G01 X251.594 Y116.999
G01 X270.092 Y169.419
G01 X310.492 Y227.031
G01 X327.133 Y260.549
G01 X338.863 Y319.183
G01 X363.417 Y350.772
G01 X356.211 Y383.281
G01 X371.486 Y421.386
G01 X371.830 Y426.565
G01 X364.398 Y451.695
G01 X378.608 Y450.866
G01 X364.672 Y441.807
G01 X374.261 Y442.481
G01 X379.792 Y407.672
G01 X375.858 Y391.393
G01 X401.488 Y356.663
G01 X403.884 Y310.068
G01 X428.868 Y281.785
G01 X459.705 Y222.115
G01 X478.281 Y182.907
G01 X530.712 Y137.615
G01 X563.690 Y80.714
G01 X614.396 Y52.274
G01 X671.601 Y5.000
G01 X123.827 Y5.000
G01 X149.072 Y38.888
G01 X209.425 Y87.019
G01 X237.887 Y125.337
G01 X273.147 Y189.810
G01 X308.421 Y225.752
G01 X316.055 Y277.769
G01 X346.974 Y326.149
G01 X350.765 Y352.516
G01 X357.120 Y401.053
G01 X372.386 Y417.368
G01 X359.599 Y438.985
G01 X373.046 Y459.122
G01 X368.041 Y448.985
G01 X363.320 Y459.230
G01 X377.607 Y439.271
G01 X366.195 Y417.971
G01 X383.325 Y402.176
G01 X391.982 Y354.425
G01 X398.439 Y329.159
G01 X432.312 Y282.243
G01 X443.097 Y232.085
G01 X481.624 Y198.423
G01 X520.139 Y136.665
G01 X551.761 Y101.500
G01 X615.078 Y56.948
G01 X656.278 Y9.224
G01 X669.619 Y5.000
G01 X99.105 Y5.000
G01 X156.591 Y58.620
G01 X202.936 Y89.314
G01 X231.534 Y147.975
G01 X279.664 Y194.561
G01 X294.118 Y234.640
G01 X321.102 Y294.811
G01 X342.588 Y323.290
G01 X341.916 Y369.848
G01 X364.970 Y404.381
G01 X359.001 Y420.388
G01 X363.069 Y454.930
G01 X371.784 Y454.077
G01 X357.560 Y463.124
G01 X372.052 Y464.181
G01 X365.432 Y439.586
G01 X367.069 Y435.309
G01 X384.050 Y398.521
G01 X378.884 Y367.782
G01 X405.720 Y338.440
G01 X419.877 Y282.544
G01 X438.986 Y252.252
G01 X481.789 Y198.342
G01 X502.518 Y150.073
G01 X554.530 Y115.700
G01 X600.399 Y57.824
G01 X644.808 Y31.243
G01 X693.331 Y5.000
G01 X73.137 Y5.000
G01 X97.632 Y29.736
G01 X160.407 Y62.824
G01 X189.957 Y106.157
G01 X239.633 Y163.425
G01 X270.677 Y196.010
G01 X290.102 Y255.911
G01 X326.079 Y295.872
G01 X328.474 Y333.065
G01 X348.742 Y383.502
G01 X358.456 Y400.889
G01 X352.728 Y437.806
G01 X370.134 Y455.282
G01 X358.117 Y459.048
G01 X363.166 Y477.280
G01 X368.379 Y459.152
G01 X356.851 Y455.533
G01 X375.055 Y438.290
G01 X370.410 Y401.730
G01 X381.458 Y384.863
G01 X403.269 Y335.140
G01 X407.367 Y298.882
G01 X445.154 Y260.097
G01 X466.439 Y201.628
G01 X499.333 Y170.739
G01 X550.790 Y115.428
G01 X581.993 Y74.308
G01 X646.237 Y43.673
G01 X687.621 Y5.000
G01 X42.610 Y5.000
G01 X107.521 Y43.100
G01 X148.886 Y70.908
G01 X191.697 Y129.662
G01 X240.699 Y164.590
G01 X258.525 Y213.122
G01 X298.591 Y267.044
G01 X315.183 Y297.145
G01 X327.089 Y352.700
G01 X351.979 Y381.608
G01 X345.202 Y411.879
G01 X360.928 Y448.225
G01 X361.677 Y452.147
G01 X354.535 Y476.528
G01 X368.857 Y475.454
G01 X354.796 Y466.632
G01 X363.972 Y467.992
G01 X368.757 Y434.272
G01 X363.710 Y419.425
G01 X387.834 Y386.404
G01 X388.318 Y341.714
G01 X410.977 Y315.453
G01 X439.084 Y257.835
G01 X454.541 Y220.621
G01 X503.489 Y177.175
G01 X532.657 Y121.893
G01 X579.268 Y94.765
G01 X638.145 Y43.470
G01 X679.318 Y14.026
G01 X708.236 Y5.000
G01 X15.071 Y5.000
G01 X46.027 Y26.106
G01 X104.871 Y46.757
G01 X141.437 Y94.501
G01 X200.272 Y138.617
G01 X227.633 Y172.951
G01 X262.173 Y233.555
G01 X297.067 Y265.822
G01 X304.609 Y314.431
G01 X335.664 Y359.739
G01 X339.756 Y383.428
G01 X346.511 Y429.727
G01 X362.204 Y444.283
G01 X349.805 Y464.640
G01 X363.532 Y484.028
G01 X358.635 Y473.644
G01 X353.792 Y484.127
G01 X367.676 Y464.858
G01 X355.533 Y444.653
G01 X371.573 Y430.301
G01 X378.749 Y384.272
G01 X383.323 Y360.932
G01 X414.904 Y316.062
G01 X422.992 Y267.985
G01 X458.433 Y236.350
G01 X493.499 Y176.479
G01 X521.341 Y142.977
G01 X580.592 Y99.786
G01 X617.488 Y53.051
G01 X676.557 Y33.484
G01 X710.000 Y11.314
G01 X710.000 Y5.000
G01 X5.000 Y5.000
G01 X5.000 Y17.976
G01 X53.525 Y33.691
G01 X92.729 Y63.125
G01 X149.692 Y114.195
G01 X194.473 Y140.904
G01 X221.921 Y195.606
G01 X269.284 Y238.343
G01 X283.312 Y274.761
G01 X310.160 Y331.535
G01 X331.743 Y356.948
G01 X331.337 Y400.830
G01 X354.761 Y433.128
G01 X349.196 Y447.374
G01 X353.634 Y480.655
G01 X362.619 Y479.050
G01 X348.500 Y487.850
G01 X362.906 Y489.146
G01 X355.928 Y465.245
G01 X356.892 Y462.070
G01 X372.850 Y426.738
G01 X366.285 Y397.741
G01 X391.333 Y370.353
G01 X403.307 Y316.543
G01 X419.840 Y288.385
G01 X459.690 Y236.569
G01 X477.111 Y190.272
G01 X525.492 Y157.665
G01 X567.447 Y101.273
G01 X607.703 Y75.825
G01 X675.510 Y37.529
G01 X710.000 Y11.018
G01 X710.000 Y5.000
G01 X5.000 Y5.000
G01 X5.000 Y24.035
G01 X54.432 Y37.810
G01 X102.375 Y85.963
G01 X162.702 Y115.737
G01 X190.190 Y155.638
G01 X238.183 Y209.436
G01 X267.907 Y238.592
G01 X286.349 Y295.184
G01 X321.648 Y332.033
G01 X323.630 Y366.382
G01 X343.704 Y414.307
G01 X353.390 Y429.569
G01 X347.748 Y464.795
G01 X365.295 Y481.044
G01 X353.418 Y484.070
G01 X358.549 Y502.056
G01 X363.731 Y484.170
G01 X352.006 Y481.262
G01 X369.801 Y465.164
G01 X364.493 Y430.141
G01 X374.587 Y415.146
G01 X395.128 Y367.564
G01 X397.616 Y333.646
G01 X433.442 Y297.320
G01 X452.410 Y241.349
G01 X482.638 Y212.913
G01 X531.091 Y159.931
G01 X558.974 Y120.936
G01 X619.612 Y92.151
G01 X667.762 Y45.057
G01 X710.000 Y34.219
G01 X710.000 Y5.000
G01 X5.000 Y5.000
G01 X5.000 Y22.376
G01 X14.970 Y23.773
G01 X56.707 Y57.553
G01 X122.559 Y95.793
G01 X160.920 Y120.971
G01 X201.066 Y176.902
G01 X247.753 Y208.891
G01 X263.616 Y254.446
G01 X302.066 Y305.435
G01 X317.369 Y332.724
G01 X328.294 Y385.665
G01 X352.479 Y412.229
G01 X345.236 Y440.489
G01 X360.693 Y475.212
G01 X361.323 Y477.942
G01 X354.161 Y501.595
G01 X368.511 Y500.277
G01 X354.470 Y491.700
G01 X363.605 Y493.786
G01 X368.238 Y461.254
G01 X362.877 Y448.022
G01 X386.479 Y416.998
G01 X386.192 Y374.631
G01 X407.797 Y350.955
G01 X434.538 Y296.112
G01 X448.296 Y261.785
G01 X495.199 Y221.260
G01 X521.971 Y168.851
G01 X565.838 Y144.470
G01 X621.638 Y95.718
G01 X659.418 Y68.545
G01 X710.000 Y53.323
G01 X710.000 Y5.000
G01 X5.000 Y5.000
G01 X5.000 Y31.386
G01 X14.734 Y34.549
G01 X74.801 Y77.007
G01 X129.839 Y96.024
G01 X162.860 Y141.802
G01 X218.447 Y183.686
G01 X242.882 Y215.595
G01 X274.839 Y273.660
G01 X307.501 Y303.356
G01 X313.165 Y349.443
G01 X342.689 Y392.360
G01 X345.581 Y413.868
G01 X351.445 Y458.266
G01 X366.527 Y471.265
G01 X353.756 Y490.465
G01 X367.308 Y509.136
G01 X362.386 Y498.509
G01 X357.613 Y509.240
G01 X371.609 Y490.713
G01 X359.561 Y471.736
G01 X375.624 Y459.076
G01 X382.696 Y415.165
G01 X386.984 Y394.324
G01 X418.048 Y352.276
G01 X425.347 Y307.279
G01 X459.686 Y278.909
G01 X493.308 Y222.410
G01 X519.342 Y192.308
G01 X576.408 Y152.464
G01 X610.737 Y108.945
G01 X666.866 Y92.386
G01 X710.000 Y64.176
G01 X710.000 Y5.000
G01 X5.000 Y5.000
G01 X5.000 Y43.667
G01 X24.617 Y57.685
G01 X92.325 Y80.568
G01 X127.259 Y109.077
G01 X180.156 Y158.822
G01 X221.125 Y183.870
G01 X245.057 Y236.644
G01 X289.236 Y277.265
G01 X300.437 Y311.462
G01 X324.837 Y365.996
G01 X344.356 Y389.236
G01 X342.274 Y431.094
G01 X364.396 Y461.596
G01 X357.887 Y474.351
G01 X361.709 Y506.506
G01 X370.369 Y504.197
G01 X356.174 Y512.754
G01 X370.666 Y514.301
G01 X363.910 Y491.158
G01 X365.169 Y489.249
G01 X381.430 Y455.678
G01 X375.108 Y428.911
G01 X400.273 Y404.182
G01 X412.175 Y353.408
G01 X428.387 Y328.600
G01 X467.614 Y280.380
G01 X484.064 Y237.846
G01 X531.090 Y209.089
G01 X571.275 Y156.551
G01 X609.332 Y134.876
G01 X674.503 Y100.192
G01 X710.000 Y73.795
G01 X710.000 Y5.000
G01 X5.000 Y5.000
G01 X5.000 Y52.508
G01 X46.561 Y70.633
G01 X93.675 Y84.622
G01 X137.239 Y131.905
G01 X193.399 Y160.395
G01 X216.981 Y198.663
G01 X261.374 Y250.551
G01 X287.839 Y277.599
G01 X303.392 Y331.972
G01 X336.190 Y366.578
G01 X336.065 Y398.747
G01 X354.427 Y444.641
G01 X362.783 Y458.101
G01 X356.171 Y491.828
G01 X373.078 Y506.948
G01 X360.851 Y509.266
G01 X365.875 Y527.010
G01 X371.140 Y509.374
G01 X359.627 Y507.225
G01 X377.701 Y492.394
G01 X372.671 Y459.132
G01 X382.979 Y446.365
G01 X403.601 Y401.436
G01 X405.978 Y370.545
G01 X441.441 Y337.557
G01 X459.742 Y285.164
G01 X488.953 Y260.470
G01 X536.003 Y211.311
G01 X562.072 Y176.137
G01 X620.467 Y151.087
G01 X665.942 Y107.562
G01 X710.000 Y98.548
G01 X710.000 Y1558.878
G01 X699.083 Y1570.000
G01 X5.000 Y1570.000
G01 X5.000 Y63.437
G01 X58.020 Y71.451
G01 X95.239 Y104.769
G01 X156.735 Y142.084
G01 X190.955 Y165.928
G01 X227.226 Y220.179
G01 X270.347 Y250.216
G01 X282.988 Y293.627
G01 X318.584 Y342.365
G01 X331.421 Y367.384
G01 X340.273 Y418.124
G01 X362.776 Y442.639
G01 X354.229 Y469.084
G01 X368.739 Y502.300
G01 X368.745 Y503.895
G01 X361.243 Y526.838
G01 X375.490 Y525.276
G01 X361.528 Y516.950
G01 X370.865 Y519.796
G01 X375.758 Y488.531
G01 X370.653 Y477.060
G01 X394.439 Y448.260
G01 X394.200 Y408.542
G01 X415.654 Y387.884
G01 X441.990 Y336.366
G01 X455.035 Y305.599
G01 X500.876 Y268.793
G01 X526.199 Y220.179
G01 X568.207 Y199.586
G01 X621.721 Y154.531
G01 X656.786 Y130.883
G01 X710.000 Y116.713
G01 X710.000 Y1548.831
G01 X669.860 Y1570.000
G01 X9.876 Y1570.000
G01 X5.000 Y1562.210
G01 X5.000 Y65.693
G01 X16.160 Y67.912
G01 X57.052 Y82.681
G01 X112.619 Y124.620
G01 X163.323 Y142.657
G01 X192.232 Y187.051
G01 X243.975 Y227.208
G01 X264.878 Y257.124
G01 X293.648 Y313.009
G01 X323.493 Y340.422
G01 X326.726 Y384.213
G01 X354.211 Y424.907
G01 X355.452 Y444.350
G01 X360.039 Y486.921
G01 X374.195 Y498.404
G01 X360.816 Y516.463
G01 X374.039 Y534.421
G01 X369.017 Y523.551
G01 X364.319 Y534.533
G01 X378.506 Y516.766
G01 X366.703 Y499.057
G01 X382.998 Y488.156
G01 X390.224 Y446.467
G01 X394.526 Y428.268
G01 X425.401 Y389.228
G01 X432.252 Y347.543
G01 X465.834 Y322.716
G01 X498.348 Y269.913
G01 X522.888 Y243.577
G01 X578.049 Y207.488
G01 X610.051 Y167.627
G01 X663.425 Y154.550
G01 X710.000 Y125.020
G01 X710.000 Y1522.025
G01 X704.242 Y1525.952
G01 X640.614 Y1570.000
G01 X25.273 Y1570.000
G01 X5.000 Y1546.166
G01 X5.000 Y70.384
G01 X21.137 Y70.856
G01 X66.200 Y106.262
G01 X129.425 Y128.570
G01 X160.049 Y156.045
G01 X208.861 Y204.355
G01 X246.018 Y227.631
G01 X266.453 Y278.371
G01 X307.481 Y316.776
G01 X315.902 Y348.660
G01 X337.906 Y400.871
G01 X355.420 Y421.866
G01 X351.718 Y461.643
G01 X372.590 Y490.306
G01 X365.177 Y501.536
G01 X368.408 Y532.546
G01 X376.749 Y529.521
G01 X362.457 Y537.834
G01 X377.021 Y539.632
G01 X370.446 Y517.250
G01 X371.932 Y516.609
G01 X388.401 Y484.796
G01 X382.204 Y460.248
G01 X407.348 Y438.155
G01 X419.022 Y390.379
G01 X434.745 Y368.869
G01 X473.171 Y324.173
G01 X488.468 Y285.312
G01 X533.953 Y260.293
G01 X572.190 Y211.476
G01 X607.877 Y193.419
G01 X670.255 Y162.172
G01 X707.701 Y135.120
G01 X710.000 Y135.006
G01 X710.000 Y1499.306
G01 X681.638 Y1513.787
G01 X631.853 Y1570.000
G01 X48.258 Y1570.000
G01 X47.160 Y1568.140
G01 X5.000 Y1538.036
G01 X5.000 Y81.220
G01 X22.803 Y89.613
G01 X87.403 Y119.648
G01 X130.054 Y133.004
G01 X169.332 Y179.200
G01 X221.435 Y206.206
G01 X241.238 Y242.656
G01 X282.168 Y292.469
G01 X305.519 Y317.265
G01 X318.328 Y369.295
G01 X348.766 Y401.553
G01 X346.671 Y431.456
G01 X363.443 Y475.253
G01 X370.577 Y486.862
G01 X363.082 Y519.057
G01 X379.415 Y533.025
G01 X366.879 Y534.626
G01 X371.810 Y552.125
G01 X377.143 Y534.741
G01 X365.801 Y533.353
G01 X384.084 Y519.790
G01 X379.240 Y488.285
G01 X389.643 Y477.732
G01 X410.211 Y435.433
G01 X412.321 Y407.530
G01 X447.252 Y377.825
G01 X464.708 Y328.938
G01 X492.720 Y307.892
G01 X538.186 Y262.442
G01 X562.262 Y230.954
G01 X618.246 Y209.484
G01 X660.890 Y169.351
G01 X706.285 Y162.529
G01 X710.000 Y161.241
G01 X710.000 Y1479.765
G01 X668.079 Y1514.801
G01 X627.365 Y1554.285
G01 X598.803 Y1570.000
G01 X54.421 Y1570.000
G01 X36.347 Y1552.299
G01 X5.000 Y1524.390
G01 X5.000 Y91.741
G01 X39.970 Y111.612
G01 X98.118 Y120.897
G01 X130.893 Y153.525
G01 X188.127 Y189.699
G01 X218.319 Y212.009
G01 X250.844 Y264.398
G01 X290.537 Y292.320
G01 X300.100 Y333.443
G01 X332.990 Y379.807
G01 X343.505 Y402.453
G01 X350.420 Y450.907
G01 X371.365 Y473.309
G01 X361.622 Y497.891
G01 X375.272 Y529.567
G01 X374.720 Y530.007
G01 X366.919 Y552.230
G01 X381.076 Y550.421
G01 X367.179 Y542.348
G01 X376.676 Y545.956
G01 X381.762 Y515.959
G01 X376.818 Y506.242
G01 X400.672 Y479.653
G01 X400.343 Y442.557
G01 X421.493 Y424.877
G01 X447.255 Y376.627
G01 X459.411 Y349.347
G01 X504.008 Y316.165
G01 X527.702 Y271.230
G01 X567.675 Y254.288
G01 X618.736 Y212.773
G01 X650.933 Y192.472
G01 X710.000 Y178.779
G01 X710.000 Y1458.565
G01 X667.981 Y1506.805
G01 X609.656 Y1534.210
G01 X572.219 Y1570.000
G01 X68.105 Y1570.000
G01 X36.769 Y1548.092
G01 X6.087 Y1493.622
G01 X5.000 Y1492.690
G01 X5.000 Y106.108
G01 X60.067 Y118.035
G01 X96.402 Y132.549
G01 X147.544 Y173.741
G01 X194.011 Y190.585
G01 X218.922 Y233.396
G01 X266.952 Y271.646
G01 X284.464 Y299.407
G01 X310.193 Y352.969
G01 X337.369 Y377.978
G01 X338.316 Y419.371
G01 X363.898 Y457.760
G01 X363.613 Y475.073
G01 X367.031 Y515.771
G01 X380.349 Y525.706
G01 X366.429 Y542.605
G01 X379.363 Y559.841
G01 X374.254 Y548.724
G01 X369.618 Y559.959
G01 X383.955 Y542.954
G01 X372.328 Y526.512
G01 X388.760 Y517.364
G01 X396.025 Y477.882
G01 X400.202 Y462.297
G01 X430.735 Y426.225
G01 X436.971 Y387.793
G01 X469.621 Y366.431
G01 X500.846 Y317.228
G01 X523.712 Y294.542
G01 X576.795 Y262.069
G01 X606.304 Y225.707
G01 X656.772 Y215.931
G01 X710.000 Y183.095
G01 X710.000 Y1452.430
G01 X706.473 Y1455.924
G01 X659.152 Y1485.384
G01 X590.746 Y1529.969
G01 X558.880 Y1570.000
G01 X73.819 Y1570.000
G01 X48.979 Y1532.901
G01 X5.000 Y1478.296
G01 X5.000 Y116.315
G01 X15.222 Y119.674
G01 X64.278 Y121.452
G01 X104.798 Y156.544
G01 X163.618 Y178.048
G01 X190.030 Y204.278
G01 X234.875 Y250.956
G01 X268.352 Y272.281
G01 X285.431 Y320.826
G01 X323.457 Y356.874
G01 X329.247 Y386.324
G01 X349.001 Y436.113
G01 X364.648 Y454.783
G01 X359.450 Y492.416
G01 X379.181 Y519.194
G01 X370.953 Y528.870
G01 X373.659 Y558.714
G01 X381.720 Y554.966
G01 X367.346 Y563.031
G01 X381.968 Y565.082
G01 X375.532 Y543.463
G01 X377.177 Y544.088
G01 X393.761 Y514.026
G01 X387.573 Y491.679
G01 X412.559 Y472.193
G01 X423.852 Y427.373
G01 X438.918 Y409.101
G01 X476.369 Y367.851
G01 X490.333 Y332.564
G01 X534.100 Y311.164
G01 X570.216 Y265.927
G01 X603.370 Y251.329
G01 X662.806 Y223.338
G01 X696.913 Y199.264
G01 X710.000 Y199.159
G01 X710.000 Y1436.511
G01 X704.794 Y1441.490
G01 X637.179 Y1472.733
G01 X587.951 Y1526.994
G01 X544.299 Y1552.143
G01 X520.591 Y1570.000
G01 X87.445 Y1570.000
G01 X82.148 Y1565.162
G01 X50.357 Y1506.171
G01 X5.000 Y1473.044
G01 X5.000 Y121.805
G01 X30.091 Y121.812
G01 X65.173 Y140.674
G01 X125.246 Y170.336
G01 X163.512 Y182.833
G01 X198.604 Y227.731
G01 X246.770 Y253.055
G01 X262.927 Y287.511
G01 X300.538 Y335.090
G01 X320.924 Y357.495
G01 X331.141 Y407.062
G01 X359.367 Y436.874
G01 X355.438 Y464.433
G01 X370.747 Y506.070
G01 X376.767 Y515.784
G01 X368.479 Y546.417
G01 X384.303 Y559.217
G01 X371.498 Y560.092
G01 X376.350 Y577.342
G01 X381.737 Y560.212
G01 X370.524 Y559.586
G01 X388.949 Y547.288
G01 X384.197 Y517.531
G01 X394.580 Y509.175
G01 X414.955 Y469.476
G01 X416.647 Y444.517
G01 X450.881 Y418.034
G01 X467.318 Y372.571
G01 X493.953 Y355.074
G01 X537.657 Y313.212
G01 X559.570 Y285.268
G01 X612.981 Y267.215
G01 X652.647 Y230.293
G01 X694.672 Y226.398
G01 X710.000 Y221.396
G01 X710.000 Y1412.583
G01 X688.008 Y1422.094
G01 X624.256 Y1473.269
G01 X586.703 Y1507.975
G01 X523.836 Y1539.546
G01 X500.476 Y1570.000
G01 X102.794 Y1570.000
G01 X91.345 Y1542.275
G01 X40.347 Y1490.526
G01 X5.695 Y1458.006
G01 X5.000 Y1456.925
G01 X5.000 Y130.933
G01 X30.560 Y131.444
G01 X81.566 Y163.129
G01 X135.201 Y171.982
G01 X163.613 Y203.696
G01 X216.687 Y238.519
G01 X242.974 Y259.100
G01 X271.887 Y309.451
G01 X308.299 Y335.100
G01 X314.935 Y373.799
G01 X345.270 Y417.672
G01 X353.609 Y437.847
G01 X358.727 Y483.938
G01 X378.240 Y504.167
G01 X367.411 Y526.844
G01 X380.290 Y556.950
G01 X379.246 Y556.217
G01 X371.186 Y577.712
G01 X385.267 Y575.655
G01 X371.421 Y567.836
G01 X381.037 Y572.206
G01 X386.248 Y543.473
G01 X381.372 Y535.502
G01 X405.176 Y511.105
G01 X404.622 Y476.599
G01 X425.315 Y461.851
G01 X450.339 Y416.807
G01 X461.434 Y392.930
G01 X504.610 Y363.270
G01 X526.499 Y321.893
G01 X564.266 Y308.459
G01 X612.716 Y270.319
G01 X641.898 Y253.182
G01 X702.528 Y241.215
G01 X710.000 Y236.647
G01 X710.000 Y1393.863
G01 X666.538 Y1417.821
G01 X624.797 Y1464.801
G01 X569.690 Y1487.480
G01 X515.151 Y1537.892
G01 X483.742 Y1566.918
G01 X478.363 Y1570.000
G01 X117.924 Y1570.000
G01 X84.898 Y1517.276
G01 X41.568 Y1486.523
G01 X15.653 Y1434.726
G01 X5.000 Y1425.289
G01 X5.000 Y136.800
G01 X38.198 Y155.403
G01 X100.883 Y170.000
G01 X132.722 Y184.024
G01 X179.523 Y224.246
G01 X221.858 Y239.688
G01 X242.894 Y280.721
G01 X287.347 Y316.890
G01 X301.614 Y342.340
G01 X324.456 Y393.444
G01 X349.116 Y415.934
G01 X347.924 Y454.834
G01 X371.744 Y490.841
G01 X370.059 Y505.967
G01 X372.419 Y544.749
G01 X384.988 Y553.109
G01 X370.592 Y568.831
G01 X383.277 Y585.337
G01 X378.096 Y573.971
G01 X373.508 Y585.459
G01 X387.953 Y569.217
G01 X376.434 Y554.038
G01 X392.912 Y546.633
G01 X400.098 Y509.336
G01 X404.016 Y496.334
G01 X434.053 Y463.181
G01 X439.511 Y427.937
G01 X471.056 Y409.958
G01 X500.818 Y364.250
G01 X521.837 Y345.090
G01 X572.672 Y316.088
G01 X599.530 Y283.060
G01 X646.949 Y276.400
G01 X697.938 Y245.655
G01 X710.000 Y244.291
G01 X710.000 Y1370.409
G01 X660.469 Y1418.252
G01 X616.612 Y1442.916
G01 X551.480 Y1482.827
G01 X517.688 Y1524.563
G01 X466.675 Y1545.942
G01 X445.265 Y1570.000
G01 X131.442 Y1570.000
G01 X123.193 Y1547.023
G01 X76.507 Y1508.174
G01 X54.576 Y1471.544
G01 X9.856 Y1412.888
G01 X5.000 Y1409.491
G01 X5.000 Y152.244
G01 X59.839 Y172.115
G01 X104.311 Y173.857
G01 X140.351 Y208.401
G01 X194.852 Y228.880
G01 X217.160 Y253.655
G01 X258.162 Y298.509
G01 X288.098 Y317.710
G01 X301.970 Y363.906
G01 X337.146 Y397.463
G01 X340.459 Y424.367
G01 X358.113 Y471.639
G01 X372.033 Y487.909
G01 X365.467 Y523.341
G01 X384.167 Y548.194
G01 X375.213 Y556.287
G01 X377.459 Y584.951
G01 X385.283 Y580.471
G01 X370.839 Y588.287
G01 X385.505 Y590.592
G01 X379.168 Y569.734
G01 X380.903 Y571.622
G01 X397.509 Y543.299
G01 X391.214 Y523.133
G01 X415.908 Y506.220
G01 X426.668 Y464.306
G01 X440.915 Y449.205
G01 X477.219 Y411.316
G01 X489.676 Y379.497
G01 X531.553 Y361.591
G01 X565.381 Y319.787
G01 X595.845 Y308.480
G01 X652.197 Y283.558
G01 X682.844 Y262.259
G01 X710.000 Y263.223
G01 X710.000 Y1359.276
G01 X698.088 Y1367.627
G01 X659.383 Y1403.304
G01 X595.288 Y1429.808
G01 X549.388 Y1479.448
G01 X508.827 Y1500.116
G01 X451.965 Y1540.746
G01 X431.708 Y1570.000
G01 X145.673 Y1570.000
G01 X112.056 Y1527.671
G01 X84.180 Y1501.270
G01 X56.748 Y1445.035
G01 X5.618 Y1407.064
G01 X5.000 Y1406.052
G01 X5.000 Y169.593
G01 X15.802 Y174.289
G01 X73.910 Y174.745
G01 X104.419 Y193.511
G01 X160.029 Y222.566
G01 X193.999 Y233.983
G01 X225.014 Y277.375
G01 X269.370 Y300.829
G01 X282.022 Y333.118
G01 X316.464 Y378.310
G01 X334.040 Y398.192
G01 X341.819 Y445.185
G01 X367.982 Y472.458
G01 X362.362 Y497.599
G01 X376.335 Y537.023
G01 X381.351 Y544.801
G01 X372.360 Y573.845
G01 X387.741 Y585.461
G01 X374.708 Y585.603
G01 X379.494 Y602.604
G01 X384.923 Y585.727
G01 X373.797 Y585.863
G01 X392.296 Y574.826
G01 X387.542 Y546.805
G01 X397.790 Y540.623
G01 X417.839 Y503.487
G01 X418.961 Y481.421
G01 X452.335 Y458.092
G01 X467.583 Y415.968
G01 X492.669 Y401.911
G01 X534.441 Y363.510
G01 X554.025 Y338.963
G01 X604.708 Y324.158
G01 X641.256 Y290.257
G01 X679.791 Y289.085
G01 X710.000 Y279.791
G01 X710.000 Y1349.139
G01 X696.504 Y1363.524
G01 X643.194 Y1383.400
G01 X583.017 Y1429.893
G01 X548.847 Y1460.032
G01 X489.125 Y1487.173
G01 X453.313 Y1533.325
G01 X417.303 Y1550.475
G01 X394.839 Y1570.000
G01 X154.523 Y1570.000
G01 X145.427 Y1549.113
G01 X109.364 Y1522.077
G01 X94.215 Y1478.560
G01 X47.530 Y1429.619
G01 X17.505 Y1399.941
G01 X5.000 Y1378.798
G01 X5.000 Y179.862
G01 X37.962 Y183.679
G01 X73.576 Y184.861
G01 X120.020 Y216.389
G01 X169.210 Y224.577
G01 X193.349 Y255.155
G01 X242.376 Y288.423
G01 X264.885 Y307.086
G01 X290.329 Y355.229
G01 X323.610 Y378.454
G01 X327.476 Y414.598
G01 X355.412 Y455.870
G01 X361.727 Y473.484
G01 X365.189 Y517.140
G01 X383.398 Y535.141
G01 X371.593 Y555.874
G01 X383.792 Y584.386
G01 X382.322 Y582.465
G01 X374.044 Y603.226
G01 X388.063 Y600.919
G01 X374.254 Y593.353
G01 X383.947 Y598.485
G01 X389.215 Y571.011
G01 X384.316 Y564.772
G01 X407.956 Y542.543
G01 X407.041 Y510.591
G01 X427.127 Y498.722
G01 X451.251 Y456.813
G01 X461.116 Y436.252
G01 X502.700 Y410.006
G01 X522.615 Y372.056
G01 X558.013 Y361.980
G01 X603.697 Y327.045
G01 X629.728 Y312.882
G01 X686.839 Y303.585
G01 X710.000 Y289.388
G01 X710.000 Y1332.074
G01 X689.300 Y1344.355
G01 X622.326 Y1378.626
G01 X584.216 Y1420.981
G01 X532.544 Y1439.149
G01 X481.202 Y1485.181
G01 X452.712 Y1509.980
G01 X399.548 Y1537.886
G01 X380.348 Y1570.000
G01 X168.830 Y1570.000
G01 X134.548 Y1536.592
G01 X120.616 Y1508.296
G01 X88.603 Y1453.745
G01 X49.540 Y1425.852
G01 X28.204 Y1376.953
G01 X5.000 Y1355.792
G01 X5.000 Y193.984
G01 X45.289 Y186.716
G01 X80.408 Y209.295
G01 X138.543 Y223.675
G01 X165.954 Y236.976
G01 X208.506 Y276.008
G01 X246.822 Y289.843
G01 X264.114 Y328.913
G01 X305.135 Y362.831
G01 X316.311 Y385.821
G01 X336.421 Y434.339
G01 X358.722 Y454.201
G01 X355.544 Y490.519
G01 X377.744 Y524.074
G01 X374.788 Y536.960
G01 X376.199 Y573.788
G01 X388.111 Y580.548
G01 X373.306 Y595.079
G01 X385.783 Y610.849
G01 X380.544 Y599.233
G01 X375.989 Y610.975
G01 X390.502 Y595.494
G01 X379.022 Y581.572
G01 X395.453 Y575.895
G01 X402.446 Y540.759
G01 X405.971 Y530.301
G01 X435.365 Y500.013
G01 X439.883 Y467.886
G01 X470.156 Y453.200
G01 X498.284 Y410.877
G01 X517.286 Y395.111
G01 X565.713 Y369.428
G01 X589.768 Y339.562
G01 X634.003 Y335.828
G01 X681.445 Y307.700
G01 X710.000 Y306.130
G01 X710.000 Y1315.781
G01 X667.308 Y1330.808
G01 X616.865 Y1378.563
G01 X576.692 Y1398.659
G01 X515.049 Y1434.114
G01 X484.505 Y1471.522
G01 X436.462 Y1488.721
G01 X395.734 Y1533.466
G01 X373.396 Y1552.915
G01 X346.152 Y1570.000
G01 X173.297 Y1570.000
G01 X161.252 Y1549.975
G01 X139.779 Y1529.935
G01 X124.773 Y1481.145
G01 X81.980 Y1445.217
G01 X64.277 Y1411.574
G01 X24.088 Y1355.960
G01 X5.000 Y1342.483
G01 X5.000 Y201.831
G01 X12.099 Y200.938
G01 X43.022 Y206.044
G01 X98.328 Y227.813
G01 X138.285 Y229.086
G01 X169.967 Y262.663
G01 X220.320 Y281.720
G01 X238.737 Y304.672
G01 X276.148 Y347.364
G01 X302.824 Y364.136
G01 X313.791 Y407.716
G01 X346.431 Y438.554
G01 X347.582 Y462.721
G01 X363.444 Y507.324
G01 X375.925 Y521.077
G01 X368.253 Y554.223
G01 X386.147 Y577.093
G01 X376.648 Y583.570
G01 X378.565 Y611.038
G01 X386.223 Y605.820
G01 X371.723 Y613.385
G01 X386.383 Y615.938
G01 X380.031 Y595.826
G01 X381.683 Y598.940
G01 X398.078 Y572.296
G01 X391.392 Y554.217
G01 X415.461 Y539.745
G01 X425.321 Y500.562
G01 X438.352 Y488.408
G01 X473.095 Y453.602
G01 X483.625 Y424.921
G01 X523.197 Y410.122
G01 X554.338 Y371.310
G01 X581.744 Y362.799
G01 X634.682 Y340.400
G01 X661.588 Y321.282
G01 X710.000 Y324.835
G01 X710.000 Y1292.597
G01 X657.694 Y1328.401
G01 X623.312 Y1360.043
G01 X563.400 Y1382.597
G01 X521.488 Y1428.380
G01 X484.674 Y1445.292
G01 X431.279 Y1482.281
G01 X409.517 Y1514.755
G01 X366.971 Y1531.731
G01 X341.112 Y1570.000
G01 X195.849 Y1570.000
G01 X195.262 Y1567.564
G01 X165.784 Y1544.861
G01 X159.954 Y1510.988
G01 X124.026 Y1465.217
G01 X99.465 Y1442.164
G01 X75.663 Y1389.389
G01 X28.443 Y1354.975
G01 X7.211 Y1317.009
G01 X5.000 Y1314.426
G01 X5.000 Y214.191
G01 X6.592 Y213.686
G01 X50.297 Y234.582
G01 X103.958 Y234.436
G01 X130.188 Y252.104
G01 X181.738 Y279.604
G01 X211.917 Y289.056
G01 X239.448 Y330.132
G01 X280.655 Y350.986
G01 X290.516 Y380.466
G01 X322.536 Y422.719
G01 X338.060 Y439.614
G01 X344.150 Y483.655
G01 X368.970 Y508.095
G01 X362.328 Y530.601
G01 X375.565 Y567.660
G01 X380.091 Y573.409
G01 X370.809 Y600.816
G01 X386.046 Y611.231
G01 X372.961 Y610.638
G01 X377.729 Y627.391
G01 X383.116 Y610.757
G01 X371.868 Y611.615
G01 X390.107 Y601.756
G01 X384.906 Y575.333
G01 X394.471 Y571.118
G01 X413.560 Y536.258
G01 X413.411 Y516.710
G01 X445.179 Y496.062
G01 X458.465 Y456.702
G01 X481.226 Y445.411
G01 X520.309 Y409.691
G01 X536.852 Y387.658
G01 X584.161 Y375.125
G01 X617.029 Y343.180
G01 X651.616 Y343.585
G01 X706.503 Y326.561
G01 X710.000 Y325.735
G01 X710.000 Y1272.839
G01 X703.186 Y1276.017
G01 X663.918 Y1319.706
G01 X615.409 Y1336.271
G01 X559.883 Y1379.514
G01 X530.164 Y1406.464
G01 X474.642 Y1430.478
G01 X442.743 Y1473.573
G01 X410.322 Y1487.748
G01 X366.813 Y1525.506
G01 X353.732 Y1552.272
G01 X317.392 Y1568.792
G01 X316.862 Y1570.000
G01 X207.928 Y1570.000
G01 X193.377 Y1553.692
G01 X185.287 Y1534.632
G01 X164.922 Y1486.364
G01 X131.309 Y1462.904
G01 X118.923 Y1423.141
G01 X75.293 Y1378.112
G01 X48.588 Y1352.484
G01 X17.091 Y1297.405
G01 X5.000 Y1289.469
G01 X5.000 Y241.707
G01 X5.404 Y241.817
G01 X64.292 Y248.419
G01 X95.615 Y248.367
G01 X138.005 Y278.197
G01 X183.423 Y284.268
G01 X204.112 Y312.364
G01 X250.041 Y342.846
G01 X269.824 Y358.492
G01 X292.925 Y403.461
G01 X324.245 Y423.438
G01 X326.521 Y456.339
G01 X353.221 Y494.455
G01 X358.622 Y509.081
G01 X361.459 Y549.989
G01 X379.286 Y565.550
G01 X367.292 Y584.209
G01 X379.442 Y611.064
G01 X378.004 Y607.938
G01 X369.782 Y627.968
G01 X383.820 Y625.417
G01 X369.936 Y618.087
G01 X379.404 Y623.919
G01 X384.245 Y597.577
G01 X378.671 Y592.858
G01 X401.350 Y572.480
G01 X399.156 Y542.648
G01 X417.620 Y533.093
G01 X439.763 Y493.612
G01 X447.284 Y475.511
G01 X486.163 Y451.674
G01 X503.025 Y415.999
G01 X535.044 Y407.982
G01 X577.053 Y374.818
G01 X599.150 Y362.070
G01 X652.114 Y353.775
G01 X685.214 Y331.386
G01 X710.000 Y337.688
G01 X710.000 Y1265.269
G01 X700.335 Y1274.235
G01 X664.214 Y1296.167
G01 X602.495 Y1327.817
G01 X569.483 Y1367.590
G01 X522.702 Y1383.206
G01 X475.994 Y1426.712
G01 X451.840 Y1449.011
G01 X402.680 Y1474.451
G01 X381.423 Y1513.681
G01 X353.859 Y1525.140
G01 X321.049 Y1562.351
G01 X319.051 Y1570.000
G01 X225.861 Y1570.000
G01 X222.132 Y1561.578
G01 X204.669 Y1548.455
G01 X199.548 Y1509.117
G01 X164.105 Y1476.638
G01 X152.119 Y1452.259
G01 X122.343 Y1401.851
G01 X85.788 Y1378.300
G01 X67.208 Y1333.919
G01 X17.945 Y1290.962
G01 X5.000 Y1277.741
G01 X5.000 Y262.195
G01 X19.926 Y265.778
G01 X63.894 Y255.696
G01 X94.871 Y276.439
G01 X149.165 Y288.550
G01 X173.078 Y299.199
G01 X212.505 Y335.254
G01 X248.093 Y345.857
G01 X263.062 Y381.512
G01 X302.167 Y411.912
G01 X311.820 Y431.358
G01 X330.781 Y476.390
G01 X352.276 Y492.902
G01 X348.595 Y526.082
G01 X370.547 Y556.782
G01 X367.545 Y567.157
G01 X369.056 Y601.870
G01 X381.149 Y606.953
G01 X366.545 Y620.275
G01 X379.181 Y635.318
G01 X373.996 Y623.460
G01 X369.334 Y635.434
G01 X383.523 Y620.631
G01 X371.457 Y607.797
G01 X386.998 Y603.565
G01 X392.767 Y570.173
G01 X394.707 Y561.684
G01 X422.143 Y533.515
G01 X424.325 Y503.576
G01 X451.891 Y491.060
G01 X476.952 Y450.807
G01 X492.555 Y436.928
G01 X537.280 Y412.872
G01 X557.374 Y384.300
G01 X597.434 Y381.467
G01 X640.540 Y353.792
G01 X667.219 Y352.047
G01 X710.000 Y349.915
G01 X710.000 Y1253.682
G01 X705.380 Y1258.735
G01 X649.414 Y1278.472
G01 X604.656 Y1324.264
G01 X570.007 Y1342.413
G01 X513.672 Y1375.923
G01 X488.173 Y1411.375
G01 X444.870 Y1426.604
G01 X408.539 Y1469.368
G01 X390.227 Y1486.834
G01 X348.729 Y1513.165
G01 X337.872 Y1547.140
G01 X315.048 Y1555.680
G01 X306.004 Y1570.000
G01 X246.257 Y1570.000
G01 X223.498 Y1553.124
G01 X224.451 Y1529.721
G01 X198.392 Y1488.529
G01 X178.074 Y1472.391
G01 X164.505 Y1427.787
G01 X123.426 Y1396.303
G01 X107.703 Y1367.335
G01 X69.733 Y1316.597
G01 X31.965 Y1293.267
G01 X8.210 Y1245.395
G01 X5.000 Y1242.936
G01 X5.000 Y278.250
G01 X30.608 Y274.174
G01 X57.247 Y277.522
G01 X108.558 Y297.079
G01 X144.855 Y295.731
G01 X173.248 Y326.333
G01 X220.710 Y342.123
G01 X236.650 Y361.585
G01 X272.003 Y400.637
G01 X297.032 Y413.698
G01 X306.747 Y453.576
G01 X338.502 Y480.798
G01 X339.098 Y501.514
G01 X354.691 Y542.904
G01 X367.137 Y553.749
G01 X359.607 Y584.349
G01 X377.759 Y605.085
G01 X368.570 Y609.878
G01 X370.786 Y636.135
G01 X378.669 Y630.194
G01 X364.258 Y637.521
G01 X378.816 Y640.306
G01 X372.119 Y620.867
G01 X373.140 Y625.055
G01 X388.582 Y599.832
G01 X380.590 Y583.459
G01 X402.983 Y570.906
G01 X410.787 Y533.778
G01 X421.383 Y523.734
G01 X453.320 Y491.008
G01 X460.692 Y464.294
G01 X496.782 Y451.267
G01 X524.155 Y413.959
G01 X547.548 Y406.612
G01 X596.279 Y384.979
G01 X618.837 Y366.178
G01 X665.090 Y369.727
G01 X707.204 Y349.715
G01 X710.000 Y350.644
G01 X710.000 Y1229.993
G01 X696.443 Y1235.284
G01 X640.203 Y1275.793
G01 X611.472 Y1305.527
G01 X557.041 Y1326.178
G01 X520.388 Y1370.047
G01 X488.561 Y1385.025
G01 X439.840 Y1420.057
G01 X422.403 Y1450.553
G01 X383.804 Y1465.541
G01 X358.553 Y1506.177
G01 X345.723 Y1518.475
G01 X312.477 Y1544.775
G01 X311.066 Y1570.000
G01 X257.820 Y1570.000
G01 X244.787 Y1553.098
G01 X240.539 Y1543.021
G01 X230.584 Y1502.177
G01 X202.031 Y1483.046
G01 X197.406 Y1453.051
G01 X162.968 Y1411.439
G01 X140.179 Y1392.800
G01 X118.414 Y1344.663
G01 X73.476 Y1315.086
G01 X54.734 Y1282.128
G01 X10.530 Y1232.525
G01 X5.000 Y1229.053
G01 X5.000 Y294.916
G01 X26.055 Y286.552
G01 X65.460 Y305.751
G01 X115.103 Y303.450
G01 X137.644 Y318.552
G01 X185.872 Y343.127
G01 X213.122 Y349.356
G01 X238.133 Y386.982
G01 X277.237 Y404.231
G01 X285.404 Y430.029
G01 X316.124 Y468.603
G01 X330.716 Y481.901
G01 X336.206 Y522.505
G01 X360.715 Y543.742
G01 X353.998 Y563.345
G01 X367.343 Y597.861
G01 X372.097 Y601.477
G01 X363.103 Y627.199
G01 X378.622 Y636.402
G01 X365.751 Y635.084
G01 X370.605 Y651.598
G01 X375.893 Y635.197
G01 X364.310 Y636.732
G01 X381.934 Y627.953
G01 X375.800 Y602.961
G01 X384.085 Y600.466
G01 X401.527 Y567.545
G01 X399.354 Y550.075
G01 X428.718 Y531.566
G01 X439.232 Y494.321
G01 X458.867 Y485.035
G01 X494.500 Y451.131
G01 X507.302 Y430.650
G01 X550.621 Y419.333
G01 X579.299 Y388.209
G01 X609.550 Y388.989
G01 X660.015 Y371.854
G01 X683.946 Y364.534
G01 X710.000 Y369.898
G01 X710.000 Y1211.109
G01 X679.292 Y1225.764
G01 X645.753 Y1267.445
G01 X602.859 Y1282.030
G01 X552.779 Y1323.299
G01 X528.282 Y1348.268
G01 X477.712 Y1370.285
G01 X450.452 Y1411.363
G01 X422.322 Y1423.505
G01 X382.726 Y1459.226
G01 X373.157 Y1483.967
G01 X339.916 Y1498.497
G01 X325.574 Y1535.392
G01 X317.287 Y1542.156
G01 X292.189 Y1567.273
G01 X293.039 Y1570.000
G01 X271.612 Y1570.000
G01 X267.128 Y1553.306
G01 X252.568 Y1546.338
G01 X255.765 Y1516.918
G01 X227.756 Y1487.963
G01 X220.637 Y1472.456
G01 X201.527 Y1428.043
G01 X169.457 Y1408.715
G01 X158.898 Y1373.333
G01 X117.366 Y1332.907
G01 X93.003 Y1312.076
G01 X64.059 Y1261.963
G01 X17.557 Y1234.758
G01 X5.000 Y1212.511
G01 X5.000 Y308.570
G01 X25.816 Y314.303
G01 X80.389 Y319.269
G01 X107.673 Y317.121
G01 X146.346 Y344.439
G01 X188.408 Y347.635
G01 X206.130 Y372.554
G01 X249.497 Y399.626
G01 X267.132 Y411.702
G01 X288.493 Y453.019
G01 X318.465 Y469.340
G01 X319.763 Y498.664
G01 X345.817 Y533.357
G01 X350.864 Y544.789
G01 X353.588 Y582.801
G01 X371.488 Y595.823
G01 X359.694 Y612.349
G01 X372.107 Y637.518
G01 X370.935 Y633.178
G01 X362.917 Y652.482
G01 X377.037 Y649.691
G01 X363.058 Y642.595
G01 X372.201 Y649.107
G01 X376.442 Y623.852
G01 X369.956 Y620.574
G01 X391.381 Y601.931
G01 X387.569 Y574.056
G01 X404.039 Y566.603
G01 X423.814 Y529.289
G01 X428.595 Y513.336
G01 X464.382 Y491.543
G01 X477.824 Y457.728
G01 X506.129 Y451.310
G01 X544.171 Y419.414
G01 X562.098 Y407.542
G01 X610.739 Y399.680
G01 X639.424 Y377.240
G01 X675.067 Y386.873
G01 X710.000 Y378.949
G01 X710.000 Y1190.273
G01 X675.808 Y1224.411
G01 X645.379 Y1244.261
G01 X589.238 Y1273.858
G01 X561.635 Y1311.588
G01 X520.040 Y1325.156
G01 X478.248 Y1366.600
G01 X458.698 Y1386.823
G01 X413.794 Y1410.177
G01 X396.414 Y1447.320
G01 X372.330 Y1456.710
G01 X342.587 Y1491.893
G01 X339.984 Y1510.040
G01 X312.186 Y1523.646
G01 X307.769 Y1555.145
G01 X302.612 Y1556.114
G01 X291.826 Y1570.000
G01 X282.670 Y1570.000
G01 X286.012 Y1555.481
G01 X265.790 Y1541.499
G01 X271.543 Y1528.332
G01 X254.820 Y1492.308
G01 X238.101 Y1482.396
G01 X233.997 Y1446.590
G01 X199.859 Y1417.943
G01 X189.470 Y1397.668
G01 X161.577 Y1351.608
G01 X127.178 Y1332.623
G01 X111.000 Y1292.999
G01 X64.353 Y1254.964
G01 X39.711 Y1232.010
G01 X5.230 Y1181.228
G01 X5.000 Y1181.102
G01 X5.000 Y329.157
G01 X41.282 Y337.875
G01 X80.922 Y326.217
G01 X107.838 Y344.923
G01 X158.388 Y354.577
G01 X178.912 Y362.400
G01 X215.335 Y395.325
G01 X248.320 Y402.558
G01 X261.096 Y434.679
G01 X298.414 Y461.455
G01 X306.673 Y477.272
G01 X324.609 Y518.746
G01 X345.413 Y531.851
G01 X341.335 Y561.848
G01 X363.136 Y589.657
G01 X360.172 Y597.496
G01 X361.853 Y630.078
G01 X374.187 Y633.474
G01 X359.832 Y645.581
G01 X372.661 Y659.896
G01 X367.556 Y647.798
G01 X362.801 Y660.006
G01 X376.675 Y645.887
G01 X364.025 Y634.146
G01 X378.675 Y631.365
G01 X383.215 Y599.721
G01 X383.567 Y593.207
G01 X409.042 Y567.165
G01 X408.888 Y539.421
G01 X433.748 Y529.085
G01 X455.750 Y490.915
G01 X467.964 Y478.939
G01 X509.004 Y456.529
G01 X525.156 Y429.276
G01 X561.063 Y427.373
G01 X599.861 Y400.189
G01 X622.131 Y398.454
G01 X673.734 Y395.161
G01 X700.959 Y383.005
G01 X710.000 Y387.230
G01 X710.000 Y1174.262
G01 X706.242 Y1176.859
G01 X680.226 Y1209.344
G01 X629.912 Y1226.927
G01 X590.695 Y1270.594
G01 X561.418 Y1286.631
G01 X510.232 Y1318.026
G01 X489.614 Y1351.354
G01 X450.878 Y1364.448
G01 X418.767 Y1405.072
G01 X404.298 Y1420.402
G01 X366.245 Y1444.622
G01 X358.422 Y1476.530
G01 X338.216 Y1483.078
G01 X318.275 Y1516.261
G01 X321.121 Y1527.084
G01 X298.343 Y1539.187
G01 X302.180 Y1563.800
G01 X298.424 Y1558.945
G01 X291.876 Y1570.000
G01 X296.416 Y1570.000
G01 X297.013 Y1566.433
G01 X284.358 Y1567.826
G01 X297.508 Y1556.921
G01 X282.278 Y1533.505
G01 X280.065 Y1531.584
G01 X279.086 Y1498.805
G01 X255.194 Y1483.548
G01 X256.933 Y1463.340
G01 X231.938 Y1425.662
G01 X212.974 Y1413.330
G01 X201.054 Y1372.802
G01 X161.914 Y1345.633
G01 X148.404 Y1321.193
G01 X112.897 Y1275.171
G01 X77.808 Y1256.719
G01 X56.905 Y1213.863
G01 X7.639 Y1178.972
G01 X5.000 Y1176.127
G01 X5.000 Y355.149
G01 X52.904 Y345.872
G01 X75.201 Y347.706
G01 X122.430 Y365.283
G01 X154.957 Y361.533
G01 X179.928 Y389.362
G01 X224.349 Y402.067
G01 X237.645 Y418.200
G01 X270.761 Y453.753
G01 X293.958 Y463.222
G01 X302.232 Y499.494
G01 X332.915 Y523.179
G01 X332.776 Y540.502
G01 X347.930 Y578.721
G01 X360.185 Y586.682
G01 X352.660 Y614.750
G01 X370.953 Y633.357
G01 X361.981 Y636.462
G01 X364.429 Y661.504
G01 X372.495 Y654.833
G01 X358.160 Y661.919
G01 X372.630 Y664.940
G01 X365.627 Y646.187
G01 X366.080 Y651.474
G01 X380.652 Y627.711
G01 X371.457 Y613.100
G01 X392.291 Y602.541
G01 X398.166 Y567.562
G01 X406.459 Y559.741
G01 X435.725 Y529.228
G01 X440.071 Y504.634
G01 X472.805 Y493.553
G01 X496.521 Y457.938
G01 X515.996 Y451.962
G01 X560.595 Y431.314
G01 X578.858 Y413.060
G01 X620.711 Y416.679
G01 X658.378 Y396.229
G01 X683.839 Y405.196
G01 X710.000 Y406.055
G01 X710.000 Y1168.453
G01 X707.251 Y1172.126
G01 X670.666 Y1186.334
G01 X620.040 Y1224.616
G01 X596.811 Y1252.154
G01 X547.714 Y1270.622
G01 X516.173 Y1312.311
G01 X489.189 Y1325.103
G01 X444.999 Y1357.941
G01 X431.745 Y1386.243
G01 X396.954 Y1399.047
G01 X375.113 Y1437.529
G01 X365.284 Y1447.724
G01 X334.624 Y1472.000
G01 X335.274 Y1497.378
G01 X318.323 Y1500.930
G01 X307.420 Y1530.598
G01 X313.735 Y1533.630
G01 X295.153 Y1543.681
G01 X305.058 Y1560.254
G01 X300.845 Y1549.872
G01 X294.172 Y1564.830
G01 X307.869 Y1556.609
G01 X293.009 Y1548.486
G01 X301.531 Y1552.598
G01 X299.659 Y1526.838
G01 X286.663 Y1525.087
G01 X296.032 Y1505.725
G01 X274.919 Y1480.386
G01 X271.241 Y1473.150
G01 X262.115 Y1435.485
G01 X234.671 Y1419.846
G01 X231.449 Y1393.634
G01 X198.713 Y1356.068
G01 X177.917 Y1341.710
G01 X158.423 Y1298.064
G01 X116.007 Y1273.162
G01 X100.006 Y1245.037
G01 X58.717 Y1200.402
G01 X24.862 Y1182.317
G01 X5.000 Y1145.338
G01 X5.000 Y372.269
G01 X20.942 Y371.862
G01 X49.287 Y357.841
G01 X84.336 Y375.587
G01 X129.878 Y371.366
G01 X148.622 Y384.120
G01 X193.398 Y405.973
G01 X217.569 Y409.164
G01 X239.896 Y443.502
G01 X276.719 Y457.289
G01 X283.009 Y479.525
G01 X312.241 Y514.520
G01 X325.715 Y524.300
G01 X330.425 Y561.528
G01 X354.453 Y579.604
G01 X347.507 Y596.333
G01 X360.821 Y628.320
G01 X365.688 Y629.808
G01 X356.887 Y653.842
G01 X372.621 Y661.828
G01 X359.924 Y659.780
G01 X364.850 Y676.053
G01 X370.053 Y659.888
G01 X358.174 Y662.112
G01 X375.247 Y654.438
G01 X368.263 Y630.915
G01 X375.371 Y630.196
G01 X391.284 Y599.286
G01 X387.214 Y583.988
G01 X414.310 Y567.729
G01 X422.187 Y532.730
G01 X438.830 Y525.601
G01 X471.138 Y493.685
G01 X480.312 Y474.944
G01 X519.739 Y465.048
G01 X544.305 Y434.964
G01 X570.277 Y436.349
G01 X616.349 Y419.343
G01 X635.835 Y411.645
G01 X681.527 Y421.066
G01 X710.000 Y410.793
G01 X710.000 Y1147.901
G01 X705.771 Y1151.699
G01 X652.897 Y1177.261
G01 X624.932 Y1216.642
G01 X587.501 Y1228.960
G01 X542.716 Y1267.979
G01 X523.293 Y1290.702
G01 X477.529 Y1310.470
G01 X454.762 Y1349.297
G01 X430.779 Y1359.192
G01 X394.954 Y1392.681
G01 X388.761 Y1415.225
G01 X358.487 Y1427.614
G01 X346.699 Y1462.453
G01 X340.559 Y1467.279
G01 X317.214 Y1490.607
G01 X324.614 Y1508.336
G01 X309.944 Y1508.794
G01 X306.726 Y1533.566
G01 X314.256 Y1528.720
G01 X298.785 Y1536.316
G01 X312.273 Y1544.159
G01 X305.809 Y1528.914
G01 X302.235 Y1539.039
G01 X313.213 Y1522.182
G01 X296.141 Y1511.760
G01 X304.395 Y1508.217
G01 X295.851 Y1477.845
G01 X281.666 Y1473.354
G01 X285.470 Y1446.763
G01 X258.331 Y1420.970
G01 X252.367 Y1408.935
G01 X234.709 Y1368.279
G01 X204.394 Y1352.966
G01 X195.883 Y1321.832
G01 X156.678 Y1285.858
G01 X134.897 Y1269.660
G01 X108.755 Y1224.335
G01 X65.230 Y1202.050
G01 X47.729 Y1170.577
G01 X5.000 Y1130.225
G01 X5.000 Y389.441
G01 X26.812 Y378.427
G01 X49.979 Y385.174
G01 X100.184 Y388.748
G01 X123.348 Y384.739
G01 X158.198 Y409.765
G01 X196.776 Y410.290
G01 X211.383 Y432.217
G01 X252.026 Y456.043
G01 X267.337 Y464.693
G01 X286.775 Y502.481
G01 X315.214 Y515.249
G01 X315.348 Y541.076
G01 X340.578 Y572.409
G01 X345.102 Y580.693
G01 X347.557 Y615.837
G01 X365.393 Y626.335
G01 X353.682 Y640.736
G01 X366.266 Y664.217
G01 X365.292 Y658.659
G01 X357.437 Y677.232
G01 X371.626 Y674.199
G01 X357.565 Y667.340
G01 X366.422 Y674.544
G01 X370.127 Y650.398
G01 X362.814 Y648.599
G01 X383.087 Y631.745
G01 X377.776 Y605.899
G01 X392.383 Y600.640
G01 X409.923 Y565.604
G01 X412.102 Y551.928
G01 X444.931 Y532.330
G01 X455.080 Y500.544
G01 X479.787 Y495.912
G01 X513.963 Y465.488
G01 X527.799 Y454.710
G01 X572.175 Y447.510
G01 X596.476 Y425.259
G01 X627.677 Y434.575
G01 X672.912 Y422.468
G01 X692.549 Y425.926
G01 X710.000 Y431.403
G01 X710.000 Y1126.276
G01 X688.323 Y1133.753
G01 X648.800 Y1176.361
G01 X623.904 Y1193.839
G01 X573.187 Y1221.099
G01 X550.839 Y1256.510
G01 X514.280 Y1267.766
G01 X477.255 Y1306.901
G01 X462.161 Y1324.816
G01 X421.365 Y1345.869
G01 X407.721 Y1380.733
G01 X386.977 Y1387.884
G01 X360.167 Y1420.889
G01 X360.087 Y1436.950
G01 X334.406 Y1448.590
G01 X331.713 Y1478.280
G01 X327.909 Y1477.630
G01 X311.261 Y1498.970
G01 X323.218 Y1508.266
G01 X309.647 Y1505.692
G01 X312.338 Y1524.467
G01 X318.769 Y1512.118
G01 X305.223 Y1517.065
G01 X319.731 Y1516.019
G01 X309.481 Y1496.915
G01 X307.405 Y1502.016
G01 X313.458 Y1477.667
G01 X293.444 Y1465.787
G01 X299.605 Y1455.087
G01 X283.526 Y1421.878
G01 X267.719 Y1415.111
G01 X264.815 Y1382.757
G01 X232.178 Y1357.841
G01 X223.594 Y1341.550
G01 X197.804 Y1299.703
G01 X165.789 Y1285.132
G01 X152.252 Y1250.098
G01 X108.467 Y1216.805
G01 X86.864 Y1198.723
G01 X55.551 Y1152.923
G01 X13.324 Y1133.182
G01 X5.000 Y1116.999
G01 X5.000 Y407.211
G01 X23.382 Y397.717
G01 X66.372 Y408.318
G01 X101.631 Y395.331
G01 X124.409 Y412.234
G01 X171.111 Y419.651
G01 X188.120 Y424.855
G01 X221.393 Y454.836
G01 X251.614 Y458.866
G01 X262.023 Y487.597
G01 X297.374 Y510.876
G01 X304.054 Y523.166
G01 X320.780 Y561.165
G01 X340.715 Y570.926
G01 X336.072 Y597.787
G01 X357.566 Y622.737
G01 X354.504 Y628.057
G01 X356.239 Y658.515
G01 X368.720 Y660.225
G01 X354.546 Y671.113
G01 X367.529 Y684.696
G01 X362.489 Y672.355
G01 X357.656 Y684.801
G01 X371.254 Y671.377
G01 X358.084 Y660.751
G01 X371.928 Y659.458
G01 X375.342 Y629.615
G01 X374.225 Y625.147
G01 X397.869 Y601.320
G01 X395.515 Y575.880
G01 X417.808 Y567.855
G01 X436.887 Y531.916
G01 X445.841 Y522.010
G01 X483.314 Y501.433
G01 X495.625 Y475.702
G01 X527.463 Y474.947
G01 X562.012 Y448.483
G01 X579.908 Y446.994
G01 X627.071 Y443.446
G01 X649.852 Y430.513
G01 X684.642 Y447.514
G01 X710.000 Y443.532
G01 X710.000 Y1105.308
G01 X673.083 Y1131.769
G01 X652.609 Y1161.754
G01 X607.788 Y1176.893
G01 X573.955 Y1218.152
G01 X549.893 Y1231.803
G01 X503.703 Y1260.821
G01 X487.812 Y1291.779
G01 X453.493 Y1302.508
G01 X425.454 Y1340.779
G01 X414.683 Y1353.783
G01 X379.934 Y1375.721
G01 X375.010 Y1405.416
G01 X357.295 Y1409.846
G01 X339.440 Y1441.038
G01 X343.983 Y1450.031
G01 X322.535 Y1460.499
G01 X327.361 Y1483.707
G01 X324.294 Y1477.710
G01 X313.308 Y1496.128
G01 X327.362 Y1496.663
G01 X313.659 Y1491.338
G01 X320.247 Y1503.400
G01 X323.421 Y1484.386
G01 X310.667 Y1486.725
G01 X323.779 Y1477.154
G01 X308.623 Y1455.457
G01 X306.647 Y1455.631
G01 X306.109 Y1425.310
G01 X282.898 Y1412.855
G01 X285.591 Y1395.775
G01 X261.841 Y1361.526
G01 X244.426 Y1352.898
G01 X234.363 Y1316.324
G01 X197.380 Y1293.333
G01 X186.310 Y1273.268
G01 X153.503 Y1231.792
G01 X121.334 Y1218.036
G01 X103.533 Y1180.003
G01 X57.497 Y1150.042
G01 X37.403 Y1129.836
G01 X5.000 Y1087.428
G01 X5.000 Y418.168
G01 X33.032 Y426.410
G01 X78.916 Y415.878
G01 X96.820 Y416.443
G01 X139.893 Y432.278
G01 X168.548 Y426.347
G01 X189.975 Y451.608
G01 X231.210 Y461.416
G01 X241.703 Y474.389
G01 X272.410 Y506.591
G01 X293.594 Y512.594
G01 X300.244 Y545.367
G01 X329.672 Y565.599
G01 X328.620 Y579.595
G01 X343.166 Y614.690
G01 X355.077 Y619.801
G01 X347.419 Y645.356
G01 X365.737 Y661.841
G01 X356.890 Y663.260
G01 X359.501 Y687.083
G01 X367.710 Y679.679
G01 X353.437 Y686.522
G01 X367.832 Y689.781
G01 X360.564 Y671.726
G01 X360.512 Y678.133
G01 X374.299 Y655.867
G01 X364.006 Y643.069
G01 X383.400 Y634.573
G01 X387.477 Y601.831
G01 X393.606 Y596.340
G01 X420.340 Y568.169
G01 X421.799 Y545.843
G01 X451.306 Y536.874
G01 X471.484 Y503.137
G01 X487.146 Y498.733
G01 X527.697 Y479.286
G01 X541.728 Y461.809
G01 X579.217 Y465.734
G01 X612.448 Y445.089
G01 X633.462 Y453.341
G01 X680.995 Y453.802
G01 X700.994 Y450.818
G01 X710.000 Y456.662
G01 X710.000 Y1082.723
G01 X700.226 Y1087.218
G01 X673.532 Y1127.573
G01 X642.446 Y1139.209
G01 X597.271 Y1174.976
G01 X579.384 Y1200.037
G01 X535.462 Y1216.052
G01 X508.877 Y1255.300
G01 X486.581 Y1265.660
G01 X446.769 Y1296.077
G01 X437.548 Y1321.975
G01 X406.417 Y1332.406
G01 X387.845 Y1368.564
G01 X380.880 Y1376.509
G01 X352.678 Y1398.637
G01 X355.385 Y1421.999
G01 X340.103 Y1423.701
G01 X330.504 Y1451.718
G01 X337.788 Y1453.333
G01 X319.878 Y1462.235
G01 X330.198 Y1477.955
G01 X326.192 Y1467.045
G01 X319.570 Y1481.821
G01 X333.216 Y1473.783
G01 X318.260 Y1466.221
G01 X326.696 Y1471.280
G01 X324.805 Y1446.852
G01 X311.907 Y1446.817
G01 X321.540 Y1429.542
G01 X300.900 Y1406.651
G01 X297.942 Y1402.205
G01 X289.810 Y1367.649
G01 X263.655 Y1355.417
G01 X262.031 Y1332.882
G01 X231.203 Y1299.239
G01 X212.618 Y1289.022
G01 X195.620 Y1249.712
G01 X155.961 Y1229.312
G01 X142.941 Y1205.836
G01 X104.813 Y1165.974
G01 X74.252 Y1152.767
G01 X53.321 Y1112.499
G01 X7.598 Y1086.108
G01 X5.000 Y1082.691
G01 X5.000 Y443.804
G01 X5.858 Y443.603
G01 X52.442 Y442.120
G01 X76.215 Y427.400
G01 X106.862 Y443.940
G01 X148.230 Y438.034
G01 X163.079 Y448.665
G01 X204.280 Y468.002
G01 X225.231 Y468.344
G01 X244.716 Y499.566
G01 X279.088 Y510.039
G01 X283.321 Y528.843
G01 X310.884 Y560.365
G01 X323.058 Y566.715
G01 X326.811 Y600.634
G01 X350.189 Y615.599
G01 X342.860 Y629.486
G01 X356.008 Y658.966
G01 X360.870 Y658.336
G01 X352.171 Y680.684
G01 X368.052 Y687.451
G01 X355.487 Y684.669
G01 X360.473 Y700.698
G01 X365.603 Y684.772
G01 X353.469 Y687.696
G01 X370.053 Y681.148
G01 X362.307 Y659.130
G01 X368.342 Y660.237
G01 X382.846 Y631.406
G01 X377.012 Y618.366
G01 X401.978 Y604.464
G01 X407.359 Y571.836
G01 X421.150 Y567.012
G01 X450.265 Y537.249
G01 X455.932 Y520.431
G01 X491.573 Y512.157
G01 X512.114 Y483.327
G01 X533.870 Y485.545
G01 X575.590 Y468.905
G01 X590.643 Y461.072
G01 X631.884 Y469.839
G01 X662.061 Y456.181
G01 X685.016 Y473.760
G01 X710.000 Y476.111
G01 X710.000 Y1067.435
G01 X690.525 Y1088.434
G01 X671.498 Y1107.688
G01 X624.079 Y1130.608
G01 X601.523 Y1167.404
G01 X569.392 Y1177.175
G01 X529.741 Y1213.674
G01 X515.232 Y1233.892
G01 X474.116 Y1251.167
G01 X455.688 Y1287.517
G01 X435.698 Y1294.956
G01 X403.496 Y1326.026
G01 X400.535 Y1346.205
G01 X373.090 Y1356.309
G01 X363.727 Y1388.970
G01 X359.613 Y1391.754
G01 X337.909 Y1413.213
G01 X346.589 Y1429.275
G01 X332.868 Y1428.306
G01 X330.304 Y1451.920
G01 X338.237 Y1446.218
G01 X322.966 Y1453.283
G01 X336.502 Y1460.944
G01 X329.991 Y1445.883
G01 X326.328 Y1456.570
G01 X337.234 Y1440.658
G01 X320.159 Y1431.567
G01 X328.535 Y1429.735
G01 X320.284 Y1401.445
G01 X306.604 Y1399.391
G01 X311.165 Y1375.575
G01 X285.061 Y1352.874
G01 X280.431 Y1344.222
G01 X264.419 Y1307.217
G01 X236.061 Y1295.795
G01 X229.815 Y1268.766
G01 X193.162 Y1237.086
G01 X174.195 Y1225.346
G01 X151.092 Y1184.622
G01 X110.790 Y1167.060
G01 X96.643 Y1140.413
G01 X55.310 Y1103.054
G01 X28.151 Y1089.860
G01 X5.449 Y1048.022
G01 X5.000 Y1047.781
G01 X5.000 Y466.174
G01 X23.758 Y468.543
G01 X59.226 Y448.166
G01 X77.818 Y454.277
G01 X123.611 Y456.707
G01 X142.585 Y451.073
G01 X173.516 Y474.031
G01 X208.490 Y472.093
G01 X219.843 Y491.220
G01 X257.606 Y511.973
G01 X270.425 Y517.348
G01 X287.762 Y551.735
G01 X314.487 Y561.060
G01 X313.276 Y583.479
G01 X337.505 Y611.521
G01 X341.338 Y616.707
G01 X343.372 Y649.020
G01 X361.007 Y657.016
G01 X349.263 Y669.302
G01 X361.925 Y691.099
G01 X361.081 Y684.322
G01 X353.349 Y702.159
G01 X367.594 Y698.882
G01 X353.464 Y692.263
G01 X362.075 Y700.169
G01 X365.308 Y677.155
G01 X357.254 Y676.869
G01 X376.481 Y661.852
G01 X369.791 Y638.102
G01 X382.667 Y635.121
G01 X398.113 Y602.467
G01 X397.832 Y591.194
G01 X427.844 Y573.935
G01 X434.835 Y544.343
G01 X456.067 Y541.680
G01 X486.484 Y512.927
G01 X496.318 Y503.456
G01 X536.497 Y497.145
G01 X556.456 Y475.318
G01 X583.229 Y484.562
G01 X624.011 Y471.863
G01 X639.234 Y474.201
G01 X682.070 Y487.355
G01 X707.556 Y481.165
G01 X710.000 Y483.828
G01 X710.000 Y1044.648
G01 X708.154 Y1045.937
G01 X691.590 Y1078.083
G01 X653.501 Y1090.291
G01 X619.390 Y1130.185
G01 X599.859 Y1145.007
G01 X554.399 Y1169.653
G01 X537.144 Y1202.477
G01 X505.458 Y1211.165
G01 X473.039 Y1247.748
G01 X462.243 Y1263.129
G01 X425.402 Y1281.676
G01 X415.342 Y1314.075
G01 X397.793 Y1318.820
G01 X373.777 Y1349.505
G01 X376.088 Y1363.357
G01 X352.402 Y1372.931
G01 X351.323 Y1400.732
G01 X348.775 Y1398.400
G01 X333.054 Y1418.303
G01 X345.648 Y1426.433
G01 X332.468 Y1422.998
G01 X335.351 Y1441.241
G01 X341.828 Y1428.709
G01 X328.236 Y1433.841
G01 X342.664 Y1433.357
G01 X332.354 Y1415.198
G01 X330.295 Y1421.628
G01 X336.492 Y1398.986
G01 X316.799 Y1389.179
G01 X323.498 Y1380.907
G01 X308.212 Y1350.459
G01 X293.481 Y1346.765
G01 X291.956 Y1317.771
G01 X261.012 Y1296.477
G01 X254.436 Y1284.045
G01 X230.963 Y1246.266
G01 X201.556 Y1235.948
G01 X190.889 Y1205.328
G01 X150.202 Y1176.587
G01 X131.882 Y1163.177
G01 X103.984 Y1122.149
G01 X65.249 Y1107.269
G01 X50.960 Y1077.608
G01 X8.752 Y1043.320
G01 X5.000 Y1040.964
G01 X5.000 Y489.811
G01 X41.292 Y477.343
G01 X56.704 Y466.927
G01 X95.118 Y476.955
G01 X125.956 Y462.886
G01 X144.526 Y478.224
G01 X187.288 Y483.630
G01 X200.665 Y486.424
G01 X230.650 Y513.653
G01 X257.952 Y514.653
G01 X265.829 Y540.148
G01 X299.035 Y560.062
G01 X303.956 Y568.936
G01 X319.293 Y603.550
G01 X338.184 Y610.039
G01 X332.809 Y633.816
G01 X353.843 Y655.944
G01 X350.546 Y658.770
G01 X352.219 Y687.116
G01 X364.756 Y687.142
G01 X350.695 Y696.811
G01 X363.790 Y709.658
G01 X358.802 Y697.073
G01 X353.904 Y709.759
G01 X367.266 Y697.040
G01 X353.640 Y687.550
G01 X366.764 Y687.778
G01 X369.159 Y659.785
G01 X366.694 Y657.428
G01 X388.641 Y635.900
G01 X384.228 Y612.868
G01 X404.098 Y607.275
G01 X420.397 Y573.710
G01 X426.226 Y566.038
G01 X460.255 Y547.474
G01 X468.836 Y523.463
G01 X496.696 Y524.069
G01 X527.065 Y498.549
G01 X540.633 Y497.544
G01 X583.373 Y493.984
G01 X601.700 Y480.520
G01 X632.066 Y496.463
G01 X669.777 Y488.279
G01 X684.263 Y500.480
G01 X710.000 Y510.596
G01 X710.000 Y1035.217
G01 X703.883 Y1045.493
G01 X680.812 Y1057.000
G01 X637.719 Y1088.860
G01 X622.612 Y1116.062
G01 X583.112 Y1128.476
G01 X554.492 Y1167.052
G01 X535.480 Y1178.050
G01 X494.122 Y1204.437
G01 X482.796 Y1232.783
G01 X452.734 Y1240.923
G01 X428.610 Y1276.637
G01 X421.384 Y1287.131
G01 X389.792 Y1306.623
G01 X387.627 Y1333.962
G01 X372.269 Y1336.154
G01 X356.378 Y1365.256
G01 X362.507 Y1372.340
G01 X342.289 Y1381.112
G01 X348.022 Y1402.872
G01 X345.575 Y1395.702
G01 X334.968 Y1413.255
G01 X349.206 Y1413.255
G01 X335.546 Y1407.747
G01 X342.091 Y1419.995
G01 X345.192 Y1401.543
G01 X332.392 Y1404.826
G01 X345.539 Y1396.582
G01 X330.551 Y1376.587
G01 X328.923 Y1378.828
G01 X328.956 Y1350.923
G01 X306.575 Y1341.215
G01 X310.384 Y1327.188
G01 X288.057 Y1296.275
G01 X272.382 Y1291.243
G01 X264.377 Y1258.494
G01 X229.763 Y1239.533
G01 X221.355 Y1223.679
G01 X191.474 Y1186.572
G01 X162.462 Y1177.319
G01 X148.002 Y1143.906
G01 X105.443 Y1118.665
G01 X88.901 Y1103.264
G01 X57.848 Y1062.830
G01 X22.866 Y1050.150
G01 X9.439 Y1017.625
G01 X5.000 Y1014.257
G01 X5.000 Y511.700
G01 X20.470 Y509.833
G01 X43.059 Y486.577
G01 X67.257 Y495.081
G01 X108.563 Y484.040
G01 X122.038 Y483.586
G01 X160.888 Y497.915
G01 X185.580 Y490.030
G01 X203.347 Y512.934
G01 X241.261 Y520.039
G01 X248.799 Y530.026
G01 X276.931 Y559.031
G01 X295.929 Y561.703
G01 X300.775 Y591.089
G01 X328.770 Y607.960
G01 X326.630 Y618.703
G01 X340.403 Y650.728
G01 X351.816 Y653.028
G01 X343.889 Y676.095
G01 X362.117 Y690.472
G01 X353.302 Y690.210
G01 X356.010 Y712.813
G01 X364.321 Y704.672
G01 X350.097 Y711.271
G01 X364.429 Y714.771
G01 X356.935 Y697.423
G01 X356.444 Y704.971
G01 X369.533 Y684.234
G01 X358.247 Y673.297
G01 X376.324 Y666.928
G01 X378.738 Y636.505
G01 X382.844 Y633.446
G01 X407.192 Y607.737
G01 X405.905 Y587.820
G01 X432.324 Y581.124
G01 X449.091 Y549.445
G01 X461.051 Y546.809
G01 X497.649 Y528.776
G01 X507.519 Y512.299
G01 X540.690 Y516.767
G01 X569.505 Y496.170
G01 X586.063 Y503.953
G01 X629.164 Y503.418
G01 X644.818 Y498.914
G01 X677.138 Y520.578
G01 X709.786 Y516.979
G01 X710.000 Y517.329
G01 X710.000 Y1013.121
G01 X700.681 Y1029.267
G01 X659.023 Y1047.799
G01 X637.632 Y1085.223
G01 X611.867 Y1094.006
G01 X571.968 Y1126.979
G01 X559.251 Y1149.289
G01 X520.335 Y1162.586
G01 X498.538 Y1199.141
G01 X480.765 Y1206.830
G01 X445.169 Y1234.603
G01 X439.824 Y1257.894
G01 X412.198 Y1265.769
G01 X396.745 Y1299.442
G01 X392.503 Y1304.997
G01 X366.624 Y1324.857
G01 X371.263 Y1346.105
G01 X357.539 Y1345.878
G01 X349.146 Y1372.186
G01 X357.316 Y1372.341
G01 X340.009 Y1380.065
G01 X350.695 Y1394.915
G01 X346.866 Y1383.469
G01 X340.284 Y1398.062
G01 X353.890 Y1390.208
G01 X338.869 Y1383.209
G01 X347.272 Y1389.212
G01 X345.434 Y1366.108
G01 X332.726 Y1367.770
G01 X342.735 Y1352.555
G01 X322.699 Y1332.069
G01 X320.607 Y1330.354
G01 X313.631 Y1298.832
G01 X288.943 Y1289.913
G01 X289.106 Y1270.943
G01 X260.386 Y1241.092
G01 X244.222 Y1234.868
G01 X229.940 Y1199.726
G01 X193.263 Y1183.649
G01 X183.457 Y1164.627
G01 X148.730 Y1129.333
G01 X121.704 Y1120.792
G01 X104.387 Y1085.274
G01 X62.293 Y1063.704
G01 X48.623 Y1045.901
G01 X16.213 Y1006.784
G01 X5.000 Y1002.503
G01 X5.000 Y535.981
G01 X32.738 Y515.152
G01 X45.635 Y511.645
G01 X87.564 Y510.244
G01 X106.758 Y495.079
G01 X132.968 Y510.661
G01 X170.099 Y503.310
G01 X180.962 Y512.043
G01 X218.476 Y529.077
G01 X236.074 Y526.765
G01 X252.567 Y555.045
G01 X284.325 Y562.361
G01 X286.328 Y577.868
G01 X312.043 Y606.033
G01 X322.739 Y609.046
G01 X325.361 Y639.731
G01 X347.926 Y651.641
G01 X340.061 Y662.728
G01 X352.907 Y689.727
G01 X357.650 Y686.992
G01 X348.960 Y707.662
G01 X364.920 Y713.209
G01 X352.447 Y709.690
G01 X357.478 Y725.474
G01 X362.550 Y709.790
G01 X350.200 Y713.423
G01 X366.360 Y708.020
G01 X357.938 Y687.539
G01 X363.008 Y690.518
G01 X376.225 Y663.829
G01 X368.762 Y653.128
G01 X391.741 Y641.682
G01 X394.773 Y611.546
G01 X405.856 Y609.165
G01 X431.917 Y581.715
G01 X434.207 Y566.998
G01 X466.175 Y560.541
G01 X482.787 Y533.177
G01 X500.401 Y536.452
G01 X537.817 Y520.412
G01 X548.462 Y512.689
G01 X585.246 Y521.048
G01 X610.982 Y506.457
G01 X629.577 Y522.577
G01 X670.785 Y524.880
G01 X682.847 Y529.220
G01 X710.000 Y550.820
G01 X710.000 Y1002.638
G01 X681.417 Y1012.042
G01 X648.839 Y1049.647
G01 X635.067 Y1065.903
G01 X592.923 Y1085.901
G01 X575.598 Y1119.833
G01 X548.592 Y1126.787
G01 X513.903 Y1160.502
G01 X504.140 Y1177.964
G01 X467.504 Y1192.511
G01 X453.249 Y1226.163
G01 X437.094 Y1230.946
G01 X408.358 Y1259.415
G01 X408.477 Y1277.069
G01 X383.718 Y1284.749
G01 X376.645 Y1315.113
G01 X374.431 Y1315.759
G01 X354.256 Y1335.270
G01 X364.118 Y1349.609
G01 X351.260 Y1347.170
G01 X349.284 Y1369.599
G01 X357.570 Y1363.023
G01 X342.468 Y1369.550
G01 X356.042 Y1377.027
G01 X349.493 Y1362.151
G01 X345.773 Y1373.401
G01 X356.658 Y1358.433
G01 X339.655 Y1350.663
G01 X348.244 Y1350.524
G01 X340.397 Y1324.285
G01 X327.353 Y1324.625
G01 X332.816 Y1303.524
G01 X307.909 Y1283.837
G01 X304.789 Y1278.474
G01 X290.610 Y1245.004
G01 X264.410 Y1237.340
G01 X260.636 Y1214.265
G01 X226.752 Y1186.711
G01 X210.823 Y1179.247
G01 X190.991 Y1142.927
G01 X154.148 Y1129.880
G01 X143.596 Y1107.844
G01 X105.937 Y1075.179
G01 X82.468 Y1066.751
G01 X63.409 Y1029.740
G01 X24.097 Y1011.696
G01 X14.217 Y991.102
G01 X5.000 Y980.381
G01 X5.000 Y557.160
G01 X21.354 Y550.012
G01 X33.106 Y530.747
G01 X64.419 Y535.965
G01 X95.239 Y515.733
G01 X109.252 Y521.462
G01 X150.600 Y522.997
G01 X165.322 Y515.977
G01 X192.248 Y537.096
G01 X223.509 Y532.908
G01 X231.477 Y549.430
G01 X266.211 Y567.287
G01 X276.375 Y569.545
G01 X291.440 Y600.670
G01 X316.274 Y606.667
G01 X313.541 Y625.774
G01 X336.596 Y650.602
G01 X339.575 Y652.749
G01 X341.035 Y682.271
G01 X358.334 Y687.794
G01 X346.442 Y697.980
G01 X359.091 Y718.100
G01 X358.310 Y710.104
G01 X350.659 Y727.204
G01 X364.946 Y723.682
G01 X350.760 Y717.305
G01 X359.166 Y725.923
G01 X361.991 Y704.058
G01 X353.283 Y705.316
G01 X371.572 Y692.182
G01 X363.627 Y670.588
G01 X374.907 Y669.966
G01 X388.403 Y639.793
G01 X385.810 Y631.041
G01 X413.151 Y616.259
G01 X417.124 Y589.018
G01 X435.011 Y588.500
G01 X461.786 Y561.612
G01 X467.716 Y553.659
G01 X503.773 Y548.460
G01 X519.443 Y527.292
G01 X541.813 Y536.705
G01 X578.139 Y523.661
G01 X588.915 Y525.127
G01 X627.377 Y536.884
G01 X648.626 Y528.783
G01 X668.201 Y552.117
G01 X705.378 Y556.715
G01 X710.000 Y564.128
G01 X710.000 Y975.039
G01 X699.780 Y983.577
G01 X660.871 Y1010.951
G01 X649.428 Y1039.935
G01 X616.546 Y1049.075
G01 X587.662 Y1085.979
G01 X573.317 Y1097.870
G01 X532.937 Y1119.631
G01 X520.599 Y1149.607
G01 X493.614 Y1155.478
G01 X465.632 Y1189.274
G01 X458.968 Y1201.903
G01 X425.919 Y1217.744
G01 X419.285 Y1247.498
G01 X404.778 Y1249.680
G01 X383.411 Y1277.906
G01 X387.977 Y1289.433
G01 X366.160 Y1296.847
G01 X366.581 Y1322.681
G01 X365.189 Y1318.612
G01 X350.311 Y1337.034
G01 X363.475 Y1343.973
G01 X350.635 Y1339.661
G01 X353.680 Y1357.363
G01 X360.192 Y1344.648
G01 X346.566 Y1349.965
G01 X360.944 Y1350.043
G01 X350.627 Y1332.827
G01 X348.657 Y1340.576
G01 X355.091 Y1319.621
G01 X335.829 Y1311.858
G01 X343.196 Y1305.967
G01 X328.848 Y1278.219
G01 X315.354 Y1277.519
G01 X315.382 Y1251.788
G01 X286.317 Y1234.000
G01 X281.948 Y1225.292
G01 X260.999 Y1191.428
G01 X234.413 Y1185.192
G01 X226.839 Y1158.800
G01 X189.480 Y1134.413
G01 X174.675 Y1125.465
G01 X150.432 Y1088.993
G01 X115.430 Y1078.750
G01 X104.892 Y1053.797
G01 X66.388 Y1024.281
G01 X47.870 Y1015.229
G01 X28.227 Y977.322
G01 X5.000 Y967.282
G01 X5.000 Y586.096
G01 X7.841 Y585.540
G01 X27.948 Y556.596
G01 X44.138 Y558.281
G01 X82.830 Y544.135
G01 X93.602 Y533.928
G01 X127.437 Y543.639
G01 X153.824 Y528.736
G01 X168.129 Y542.749
G01 X206.865 Y546.372
G01 X216.502 Y546.971
G01 X243.070 Y571.644
G01 X267.308 Y569.794
G01 X272.491 Y592.213
G01 X303.383 Y608.899
G01 X306.370 Y614.476
G01 X320.141 Y645.803
G01 X337.816 Y649.098
G01 X331.545 Y669.851
G01 X351.968 Y689.201
G01 X348.302 Y689.560
G01 X349.799 Y715.812
G01 X362.298 Y714.164
G01 X348.283 Y722.615
G01 X361.450 Y734.725
G01 X356.500 Y721.894
G01 X351.557 Y734.822
G01 X364.730 Y722.816
G01 X350.722 Y714.480
G01 X363.226 Y716.260
G01 X364.725 Y690.162
G01 X361.053 Y689.980
G01 X381.461 Y670.835
G01 X375.161 Y650.315
G01 X392.787 Y647.284
G01 X406.485 Y616.247
G01 X409.370 Y610.987
G01 X440.127 Y594.638
G01 X445.137 Y572.573
G01 X469.160 Y574.788
G01 X495.468 Y550.482
G01 X504.800 Y550.247
G01 X543.182 Y546.976
G01 X557.085 Y533.296
G01 X583.024 Y548.504
G01 X616.368 Y539.063
G01 X626.609 Y549.498
G01 X664.735 Y563.823
G01 X680.332 Y562.264
G01 X699.826 Y591.277
G01 X710.000 Y593.308
G01 X710.000 Y955.581
G01 X708.655 Y961.420
G01 X674.500 Y975.503
G01 X655.189 Y1012.585
G01 X637.061 Y1020.783
G01 X598.997 Y1049.420
G01 X588.937 Y1073.468
G01 X554.440 Y1082.784
G01 X530.717 Y1118.308
G01 X516.436 Y1126.291
G01 X479.591 Y1149.698
G01 X472.514 Y1175.101
G01 X446.395 Y1180.342
G01 X425.875 Y1213.212
G01 X421.888 Y1220.935
G01 X393.154 Y1237.751
G01 X393.457 Y1262.534
G01 X380.180 Y1262.318
G01 X365.992 Y1289.190
G01 X373.463 Y1294.253
G01 X354.254 Y1301.247
G01 X360.697 Y1321.497
G01 X358.700 Y1313.118
G01 X348.330 Y1329.783
G01 X362.644 Y1329.240
G01 X348.952 Y1323.547
G01 X355.414 Y1335.979
G01 X358.438 Y1318.087
G01 X345.622 Y1322.305
G01 X358.870 Y1315.363
G01 X344.151 Y1297.027
G01 X343.006 Y1301.268
G01 X343.776 Y1275.686
G01 X322.421 Y1268.598
G01 X327.571 Y1257.466
G01 X306.916 Y1229.694
G01 X293.255 Y1228.023
G01 X287.602 Y1198.828
G01 X255.670 Y1183.591
G01 X250.253 Y1171.604
G01 X223.644 Y1138.488
G01 X198.147 Y1133.333
G01 X187.401 Y1104.109
G01 X148.701 Y1083.138
G01 X136.107 Y1072.076
G01 X109.028 Y1036.046
G01 X77.982 Y1027.830
G01 X68.385 Y999.827
G01 X31.308 Y973.497
G01 X19.014 Y962.839
G01 X5.000 Y934.437
G01 X5.000 Y606.226
G01 X27.629 Y586.119
G01 X34.214 Y575.088
G01 X70.040 Y571.786
G01 X88.132 Y549.575
G01 X107.789 Y558.606
G01 X144.575 Y547.572
G01 X153.617 Y546.611
G01 X188.181 Y559.939
G01 X208.786 Y550.588
G01 X222.715 Y571.601
G01 X257.080 Y576.440
G01 X261.391 Y583.845
G01 X286.642 Y610.019
G01 X303.118 Y609.685
G01 X305.808 Y635.969
G01 X332.007 Y649.721
G01 X328.422 Y657.410
G01 X341.076 Y686.525
G01 X351.668 Y686.134
G01 X343.181 Y706.799
G01 X361.067 Y719.126
G01 X352.081 Y717.215
G01 X354.737 Y738.614
G01 X363.061 Y729.741
G01 X348.859 Y736.094
G01 X363.166 Y739.838
G01 X355.546 Y723.210
G01 X354.776 Y731.929
G01 X367.387 Y712.775
G01 X355.377 Y703.784
G01 X372.451 Y699.664
G01 X373.550 Y671.723
G01 X376.008 Y671.305
G01 X398.360 Y648.316
G01 X394.724 Y631.116
G01 X418.442 Y627.051
G01 X432.169 Y597.839
G01 X440.770 Y597.429
G01 X473.716 Y581.313
G01 X479.681 Y566.382
G01 X508.735 Y571.973
G01 X533.271 Y552.035
G01 X545.441 Y559.984
G01 X584.107 Y559.102
G01 X595.337 Y553.731
G01 X623.313 Y574.015
G01 X651.757 Y568.537
G01 X660.659 Y587.228
G01 X696.296 Y603.141
G01 X705.199 Y607.859
G01 X710.000 Y616.534
G01 X710.000 Y928.057
G01 X706.730 Y942.387
G01 X686.492 Y949.612
G01 X656.439 Y983.602
G01 X648.668 Y1000.992
G01 X611.614 Y1015.831
G01 X594.919 Y1049.641
G01 X573.876 Y1054.876
G01 X538.659 Y1084.360
G01 X530.525 Y1103.235
G01 X496.033 Y1113.147
G01 X478.448 Y1146.371
G01 X464.629 Y1150.787
G01 X432.689 Y1175.357
G01 X430.669 Y1195.528
G01 X406.017 Y1200.386
G01 X393.167 Y1231.167
G01 X391.155 Y1233.981
G01 X367.135 Y1251.280
G01 X373.274 Y1270.174
G01 X360.711 Y1267.831
G01 X353.171 Y1292.288
G01 X361.920 Y1290.886
G01 X344.961 Y1297.369
G01 X355.811 Y1311.316
G01 X352.016 Y1299.320
G01 X345.391 Y1313.727
G01 X358.934 Y1306.059
G01 X343.888 Y1299.614
G01 X352.357 Y1306.537
G01 X350.731 Y1284.709
G01 X338.432 Y1287.986
G01 X349.090 Y1274.706
G01 X329.981 Y1256.452
G01 X329.127 Y1257.241
G01 X323.724 Y1228.469
G01 X300.957 Y1222.517
G01 X303.397 Y1206.704
G01 X277.306 Y1180.174
G01 X264.111 Y1177.410
G01 X253.117 Y1145.848
G01 X220.017 Y1133.450
G01 X214.036 Y1118.193
G01 X183.339 Y1086.739
G01 X160.495 Y1082.105
G01 X147.453 Y1050.558
G01 X109.666 Y1033.023
G01 X100.270 Y1019.317
G01 X72.033 Y984.363
G01 X46.787 Y977.428
G01 X38.893 Y946.583
G01 X5.289 Y923.581
G01 X5.000 Y922.879
G01 X5.000 Y628.627
G01 X25.695 Y618.542
G01 X33.687 Y593.542
G01 X56.593 Y595.893
G01 X85.871 Y572.638
G01 X94.391 Y570.541
G01 X131.855 Y570.040
G01 X146.565 Y555.256
G01 X168.334 Y570.702
G01 X201.127 Y562.712
G01 X207.814 Y570.327
G01 X241.363 Y585.800
G01 X255.252 Y581.532
G01 X268.329 Y607.516
G01 X296.994 Y612.259
G01 X296.247 Y624.990
G01 X319.567 Y650.252
G01 X328.226 Y650.317
G01 X329.162 Y678.088
G01 X350.377 Y687.201
G01 X341.477 Y695.683
G01 X353.570 Y720.344
G01 X357.806 Y715.601
G01 X348.811 Y734.648
G01 X364.621 Y739.004
G01 X352.100 Y734.758
G01 X357.131 Y750.297
G01 X362.197 Y734.857
G01 X349.778 Y739.216
G01 X365.755 Y735.000
G01 X356.983 Y716.132
G01 X361.490 Y721.103
G01 X373.890 Y696.731
G01 X365.318 Y688.603
G01 X386.870 Y679.916
G01 X388.135 Y652.646
G01 X397.099 Y653.155
G01 X420.684 Y628.539
G01 X420.146 Y616.520
G01 X448.950 Y612.547
G01 X462.083 Y587.383
G01 X475.934 Y592.509
G01 X509.342 Y577.917
G01 X515.779 Y571.193
G01 X548.210 Y580.069
G01 X569.501 Y565.488
G01 X583.623 Y581.101
G01 X620.393 Y582.378
G01 X628.119 Y585.184
G01 X656.514 Y609.067
G01 X678.461 Y607.252
G01 X685.432 Y632.683
G01 X710.000 Y645.314
G01 X710.000 Y897.087
G01 X699.299 Y919.447
G01 X693.623 Y931.125
G01 X659.728 Y952.890
G01 X651.630 Y982.437
G01 X626.264 Y988.022
G01 X597.979 Y1021.583
G01 X588.597 Y1033.864
G01 X550.875 Y1049.951
G01 X537.939 Y1080.036
G01 X515.228 Y1083.203
G01 X484.679 Y1113.195
G01 X478.851 Y1127.003
G01 X445.899 Y1137.975
G01 X435.037 Y1168.143
G01 X421.952 Y1169.553
G01 X395.944 Y1194.778
G01 X398.434 Y1209.343
G01 X375.686 Y1214.112
G01 X370.268 Y1241.774
G01 X369.369 Y1239.953
G01 X350.190 Y1257.260
G01 X360.760 Y1269.683
G01 X348.363 Y1265.642
G01 X346.641 Y1286.803
G01 X355.025 Y1279.309
G01 X339.918 Y1285.280
G01 X353.439 Y1292.571
G01 X346.846 Y1277.879
G01 X343.148 Y1289.680
G01 X354.176 Y1275.619
G01 X337.488 Y1269.100
G01 X346.614 Y1270.534
G01 X339.568 Y1246.170
G01 X327.627 Y1248.660
G01 X334.522 Y1229.957
G01 X311.400 Y1212.887
G01 X310.430 Y1210.331
G01 X298.770 Y1179.831
G01 X275.453 Y1175.273
G01 X274.913 Y1155.418
G01 X244.589 Y1131.179
G01 X232.515 Y1127.107
G01 X216.794 Y1094.247
G01 X184.270 Y1084.720
G01 X178.195 Y1066.260
G01 X145.112 Y1037.229
G01 X126.255 Y1032.495
G01 X111.778 Y999.246
G01 X76.955 Y985.038
G01 X71.402 Y968.363
G01 X43.531 Y935.182
G01 X25.415 Y928.872
G01 X19.651 Y895.717
G01 X5.000 Y885.712
G01 X5.000 Y652.692
G01 X21.423 Y649.043
G01 X39.040 Y618.117
G01 X47.121 Y615.301
G01 X81.725 Y601.179
G01 X89.402 Y584.138
G01 X116.447 Y591.101
G01 X142.875 Y572.110
G01 X152.436 Y578.563
G01 X189.335 Y580.301
G01 X199.673 Y572.974
G01 X222.339 Y593.294
G01 X249.519 Y587.849
G01 X253.631 Y602.698
G01 X284.777 Y618.519
G01 X291.654 Y618.441
G01 X303.761 Y647.001
G01 X325.980 Y650.278
G01 X320.987 Y666.592
G01 X342.137 Y688.635
G01 X343.556 Y688.088
G01 X343.784 Y715.086
G01 X360.155 Y718.328
G01 X347.604 Y726.545
G01 X359.825 Y745.066
G01 X358.803 Y735.891
G01 X351.049 Y752.267
G01 X365.317 Y748.500
G01 X351.142 Y742.369
G01 X359.532 Y751.718
G01 X362.260 Y731.054
G01 X353.321 Y733.952
G01 X371.192 Y722.853
G01 X362.599 Y703.637
G01 X372.960 Y705.673
G01 X385.230 Y678.365
G01 X381.079 Y672.611
G01 X406.511 Y660.879
G01 X408.214 Y636.656
G01 X423.468 Y639.047
G01 X447.257 Y614.879
G01 X449.864 Y609.384
G01 X482.288 Y606.316
G01 X494.050 Y586.892
G01 X512.279 Y597.614
G01 X544.281 Y585.407
G01 X550.604 Y587.210
G01 X584.547 Y598.787
G01 X601.274 Y589.983
G01 X616.391 Y612.098
G01 X649.241 Y614.977
G01 X652.893 Y625.260
G01 X680.188 Y650.977
G01 X694.499 Y652.296
G01 X699.200 Y682.630
G01 X710.000 Y688.948
G01 X710.000 Y872.315
G01 X691.523 Y892.963
G01 X691.968 Y916.522
G01 X665.690 Y925.567
G01 X648.320 Y960.586
G01 X637.831 Y967.865
G01 X602.758 Y990.810
G01 X595.323 Y1015.428
G01 X566.553 Y1020.265
G01 X541.819 Y1052.929
G01 X531.595 Y1060.645
G01 X495.246 Y1078.298
G01 X486.791 Y1104.242
G01 X463.489 Y1106.165
G01 X438.944 Y1136.110
G01 X435.432 Y1145.002
G01 X405.223 Y1157.238
G01 X401.093 Y1183.542
G01 X388.745 Y1182.454
G01 X369.188 Y1207.617
G01 X375.225 Y1216.313
G01 X354.554 Y1221.155
G01 X355.821 Y1244.705
G01 X355.007 Y1238.661
G01 X340.481 Y1255.441
G01 X353.814 Y1261.087
G01 X341.013 Y1255.843
G01 X344.018 Y1272.985
G01 X350.469 Y1260.083
G01 X336.816 Y1265.583
G01 X351.260 Y1266.208
G01 X341.154 Y1249.888
G01 X339.594 Y1258.864
G01 X346.682 Y1239.447
G01 X328.360 Y1233.504
G01 X336.989 Y1229.688
G01 X324.252 Y1204.240
G01 X312.736 Y1206.035
G01 X315.123 Y1182.966
G01 X288.798 Y1167.977
G01 X287.542 Y1162.180
G01 X270.066 Y1131.317
G01 X247.288 Y1128.155
G01 X243.824 Y1104.895
G01 X210.834 Y1083.691
G01 X200.614 Y1077.971
G01 X181.116 Y1044.774
G01 X150.961 Y1037.857
G01 X145.313 Y1016.291
G01 X111.673 Y990.231
G01 X97.930 Y984.717
G01 X82.905 Y950.443
G01 X52.882 Y939.305
G01 X51.535 Y919.532
G01 X25.419 Y888.822
G01 X15.280 Y882.570
G01 X11.819 Y847.900
G01 X5.000 Y843.068
G01 X5.000 Y711.691
G01 X7.105 Y710.379
G01 X11.075 Y677.260
G01 X18.716 Y673.768
G01 X45.126 Y648.588
G01 X45.923 Y632.633
G01 X74.497 Y629.741
G01 X90.949 Y603.748
G01 X103.197 Y607.950
G01 X137.723 Y595.853
G01 X144.167 Y587.197
G01 X173.578 Y597.942
G01 X195.508 Y583.551
G01 X205.388 Y597.557
G01 X239.790 Y600.672
G01 X245.239 Y600.289
G01 X267.818 Y623.546
G01 X288.311 Y619.897
G01 X290.032 Y640.195
G01 X317.775 Y654.506
G01 X317.950 Y657.530
G01 X329.260 Y686.206
G01 X344.830 Y686.832
G01 X336.808 Y704.985
G01 X355.821 Y721.883
G01 X351.066 Y720.014
G01 X351.767 Y744.332
G01 X363.728 Y741.106
G01 X349.390 Y748.389
G01 X362.402 Y759.778
G01 X357.416 Y746.704
G01 X352.492 Y759.879
G01 X365.689 Y748.609
G01 X351.654 Y741.487
G01 X364.022 Y744.930
G01 X365.221 Y720.903
G01 X361.037 Y723.152
G01 X380.674 Y706.734
G01 X373.305 Y689.169
G01 X389.532 Y689.243
G01 X401.477 Y661.382
G01 X402.241 Y659.286
G01 X430.503 Y646.010
G01 X432.646 Y626.845
G01 X453.447 Y631.712
G01 X476.199 Y609.742
G01 X481.673 Y611.467
G01 X515.938 Y609.726
G01 X525.512 Y597.105
G01 X546.965 Y612.871
G01 X575.727 Y603.467
G01 X581.357 Y613.408
G01 X614.910 Y626.712
G01 X626.040 Y623.615
G01 X641.245 Y650.595
G01 X668.461 Y654.336
G01 X667.810 Y670.986
G01 X692.701 Y696.696
G01 X698.780 Y700.538
G01 X701.163 Y733.824
G01 X710.000 Y739.782
G01 X710.000 Y761.845
G01 X708.206 Y764.599
G01 X710.000 Y770.043
G01 X710.000 Y817.276
G01 X702.476 Y835.930
G01 X709.860 Y852.602
G01 X686.421 Y867.235
G01 X681.862 Y900.628
G01 X670.731 Y905.462
G01 X643.731 Y934.628
G01 X641.604 Y952.745
G01 X610.901 Y962.133
G01 X595.288 Y994.577
G01 X581.038 Y998.200
G01 X546.964 Y1022.325
G01 X540.940 Y1041.929
G01 X510.457 Y1046.873
G01 X490.666 Y1078.103
G01 X480.176 Y1081.877
G01 X446.929 Y1101.172
G01 X443.211 Y1122.574
G01 X420.174 Y1123.943
G01 X402.430 Y1153.089
G01 X400.893 Y1157.258
G01 X374.272 Y1170.715
G01 X376.349 Y1192.360
G01 X364.515 Y1189.253
G01 X351.455 Y1213.506
G01 X359.766 Y1216.249
G01 X341.140 Y1221.242
G01 X347.949 Y1239.833
G01 X346.148 Y1230.149
G01 X335.854 Y1245.878
G01 X350.175 Y1244.772
G01 X336.479 Y1238.892
G01 X342.982 Y1251.508
G01 X346.147 Y1234.162
G01 X333.627 Y1239.272
G01 X347.376 Y1233.551
G01 X333.408 Y1216.741
G01 X333.305 Y1222.787
G01 X335.443 Y1199.259
G01 X315.807 Y1194.447
G01 X323.046 Y1185.780
G01 X304.861 Y1160.635
G01 X294.050 Y1161.723
G01 X291.623 Y1135.398
G01 X263.273 Y1123.117
G01 X261.770 Y1114.158
G01 X239.374 Y1084.129
G01 X218.349 Y1082.111
G01 X212.284 Y1056.072
G01 X178.424 Y1038.335
G01 X170.768 Y1030.564
G01 X148.664 Y997.890
G01 X122.565 Y993.105
G01 X117.821 Y968.623
G01 X85.437 Y945.916
G01 X77.610 Y938.996
G01 X62.851 Y904.477
G01 X39.111 Y896.087
G01 X41.993 Y873.353
G01 X18.785 Y845.834
G01 X16.923 Y839.236
G01 X15.662 Y804.098
G01 X5.000 Y795.810
G01 X5.000 Y786.162
G01 X15.087 Y772.653
G01 X5.924 Y742.449
G01 X12.982 Y737.702
G01 X27.322 Y705.577
G01 X22.612 Y693.233
G01 X48.504 Y680.613
G01 X53.260 Y652.645
G01 X67.352 Y653.688
G01 X94.159 Y630.292
G01 X97.064 Y622.254
G01 X128.920 Y621.505
G01 X142.815 Y601.373
G01 X158.112 Y611.978
G01 X190.441 Y601.997
G01 X194.996 Y601.560
G01 X225.105 Y614.888
G01 X241.350 Y605.030
G01 X251.068 Y625.058
G01 X281.426 Y628.474
G01 X281.978 Y634.070
G01 X303.758 Y658.111
G01 X317.081 Y655.388
G01 X316.960 Y679.104
G01 X340.703 Y690.189
G01 X335.021 Y695.196
G01 X345.935 Y721.698
G01 X355.130 Y718.843
G01 X345.568 Y737.271
G01 X362.670 Y747.657
G01 X353.157 Y744.165
G01 X355.498 Y764.392
G01 X363.670 Y754.797
G01 X349.428 Y760.906
G01 X363.751 Y764.896
G01 X356.146 Y749.004
G01 X355.332 Y758.935
G01 X367.783 Y741.441
G01 X355.446 Y734.516
G01 X371.974 Y732.817
G01 X372.265 Y707.589
G01 X373.614 Y710.108
G01 X394.526 Y690.202
G01 X389.095 Y676.150
G01 X410.650 Y675.218
G01 X421.842 Y649.040
G01 X427.539 Y651.487
G01 X457.230 Y637.976
G01 X459.610 Y625.330
G01 X484.784 Y632.824
G01 X505.185 Y614.358
G01 X513.016 Y623.306
G01 X547.193 Y622.919
G01 X553.846 Y617.522
G01 X577.222 Y637.249
G01 X601.111 Y630.687
G01 X605.573 Y647.781
G01 X636.953 Y661.604
G01 X641.851 Y663.770
G01 X656.375 Y693.702
G01 X676.677 Y697.541
G01 X671.873 Y719.212
G01 X693.350 Y743.197
G01 X691.178 Y748.999
G01 X691.482 Y783.350
G01 X703.079 Y793.018
G01 X685.896 Y813.687
G01 X693.651 Y842.234
G01 X682.643 Y847.298
G01 X667.638 Y880.509
G01 X669.661 Y892.239
G01 X641.627 Y908.076
G01 X636.662 Y937.510
G01 X619.628 Y940.035
G01 X593.088 Y969.382
G01 X589.074 Y982.190
G01 X555.958 Y992.512
G01 X543.311 Y1021.870
G01 X526.361 Y1022.721
G01 X495.216 Y1047.893
G01 X491.069 Y1062.532
G01 X460.421 Y1068.293
G01 X446.488 Y1097.459
G01 X436.079 Y1097.925
G01 X407.272 Y1118.669
G01 X408.077 Y1135.158
G01 X385.921 Y1136.499
G01 X375.228 Y1163.954
G01 X375.031 Y1163.658
G01 X352.493 Y1178.088
G01 X359.796 Y1194.382
G01 X348.103 Y1189.732
G01 X341.173 Y1212.200
G01 X350.312 Y1209.144
G01 X333.566 Y1214.327
G01 X344.505 Y1227.340
G01 X340.724 Y1214.781
G01 X334.099 Y1229.001
G01 X347.680 Y1221.517
G01 X332.767 Y1215.620
G01 X341.520 Y1223.439
G01 X340.377 Y1202.837
G01 X328.807 Y1207.649
G01 X340.482 Y1196.186
G01 X322.711 Y1180.004
G01 X323.543 Y1183.090
G01 X320.192 Y1156.809
G01 X299.857 Y1153.515
G01 X305.106 Y1140.499
G01 X282.197 Y1116.879
G01 X272.539 Y1117.119
G01 X265.414 Y1088.634
G01 X236.480 Y1079.378
G01 X234.922 Y1067.317
G01 X208.859 Y1039.109
G01 X190.804 Y1037.774
G01 X182.650 Y1009.583
G01 X149.787 Y995.468
G01 X145.285 Y985.259
G01 X121.848 Y953.889
G01 X101.240 Y950.639
G01 X97.757 Y923.589
G01 X68.275 Y904.505
G01 X66.758 Y895.704
G01 X52.928 Y861.843
G01 X36.498 Y855.882
G01 X43.267 Y830.623
G01 X23.815 Y807.032
G01 X29.964 Y799.876
G01 X30.536 Y765.516
G01 X22.574 Y757.793
G01 X41.910 Y736.817
G01 X35.443 Y711.642
G01 X50.007 Y708.682
G01 X65.187 Y678.339
G01 X65.511 Y672.366
G01 X94.921 Y660.269
G01 X99.537 Y638.606
G01 X118.725 Y643.895
G01 X144.001 Y623.137
G01 X148.299 Y623.058
G01 X181.387 Y624.070
G01 X191.630 Y610.276
G01 X208.909 Y626.183
G01 X237.252 Y618.132
G01 X239.590 Y625.181
G01 X268.946 Y639.612
G01 X278.851 Y633.867
G01 X288.198 Y657.991
G01 X313.425 Y660.555
G01 X309.561 Y670.856
G01 X330.109 Y693.513
G01 X336.350 Y690.880
G01 X335.229 Y715.943
G01 X354.742 Y722.422
G01 X344.480 Y728.423
G01 X355.530 Y750.834
G01 X359.011 Y744.141
G01 X349.510 Y761.601
G01 X365.022 Y764.782
G01 X352.359 Y759.813
G01 X357.354 Y775.107
G01 X362.432 Y759.914
G01 X350.018 Y765.009
G01 X365.933 Y762.003
G01 X356.980 Y744.790
G01 X361.131 Y751.821
G01 X372.952 Y729.859
G01 X363.535 Y724.432
G01 X383.939 Y718.663
G01 X383.723 Y694.452
G01 X390.849 Y698.082
G01 X412.231 Y676.565
G01 X409.118 Y667.543
G01 X434.983 Y666.384
G01 X444.827 Y643.777
G01 X455.065 Y651.136
G01 X484.570 Y638.392
G01 X486.857 Y633.081
G01 X514.938 Y642.895
G01 X531.739 Y628.747
G01 X541.288 Y644.269
G01 X573.471 Y644.927
G01 X576.662 Y646.587
G01 X600.643 Y668.813
G01 X618.366 Y664.851
G01 X621.370 Y687.677
G01 X649.044 Y700.754
G01 X647.535 Y707.505
G01 X660.811 Y738.409
G01 X673.428 Y741.701
