; file trimmed by trimify2x.pl
; Created by Sandify
; 
;   https://sandify.org
; 
;   Sandify Version: 0.1.4
; 
;   Machine Type: Rectangular
;     MinX: 5 MaxX: 710 MinY: 5 MaxY: 1600
;   Content Type: Shapes
;     Starting Size: 10000
;     Offset: X: 0 Y: 0
;     Selected Shape: Star
;       Star Points: 3
;       Star Ratio: 0.3
;     Number of Loops: 1000
;     Spin: true
;       Spin Value: 2
;       Spin Switchbacks: 70
;     Grow: true
;       Grow Value: -0.4
;     Track: false
;   Path Reversed: false
; 
; filename: 'jazz1'

; BEGIN PRE
G28  Y
G28 X
G01 F30000; END PRE
G01 X710.000 Y802.500
G01 X710.000 Y5.000
G01 X302.368 Y5.000
G01 X316.297 Y7.567
G01 X325.085 Y5.000
G01 X178.843 Y5.000
G01 X289.618 Y21.444
G01 X339.394 Y5.000
G01 X5.000 Y5.000
G01 X5.000 Y6.962
G01 X263.856 Y36.201
G01 X348.288 Y5.000
G01 X5.000 Y5.000
G01 X5.000 Y33.594
G01 X239.040 Y51.789
G01 X353.235 Y5.000
G01 X5.000 Y5.000
G01 X5.000 Y59.182
G01 X215.196 Y68.161
G01 X355.216 Y5.000
G01 X5.000 Y5.000
G01 X5.000 Y83.808
G01 X192.347 Y85.269
G01 X354.911 Y5.000
G01 X5.000 Y5.000
G01 X5.000 Y1600.000
G01 X9.376 Y1600.000
G01 X5.000 Y1592.685
G01 X5.000 Y107.548
G01 X170.516 Y103.062
G01 X352.807 Y5.000
G01 X5.000 Y5.000
G01 X5.000 Y1600.000
G01 X43.773 Y1600.000
G01 X5.000 Y1540.032
G01 X5.000 Y130.474
G01 X149.722 Y121.492
G01 X349.258 Y5.000
G01 X5.000 Y5.000
G01 X5.000 Y1600.000
G01 X78.725 Y1600.000
G01 X5.000 Y1494.256
G01 X5.000 Y152.652
G01 X129.982 Y140.506
G01 X344.530 Y5.000
G01 X5.000 Y5.000
G01 X5.000 Y1600.000
G01 X114.377 Y1600.000
G01 X5.000 Y1454.234
G01 X5.000 Y174.145
G01 X111.311 Y160.055
G01 X338.826 Y5.000
G01 X5.000 Y5.000
G01 X5.000 Y1600.000
G01 X150.895 Y1600.000
G01 X5.000 Y1419.076
G01 X5.000 Y195.012
G01 X93.723 Y180.087
G01 X332.301 Y5.000
G01 X5.000 Y5.000
G01 X5.000 Y1600.000
G01 X188.463 Y1600.000
G01 X5.000 Y1388.065
G01 X5.000 Y215.308
G01 X77.227 Y200.551
G01 X325.076 Y5.000
G01 X5.000 Y5.000
G01 X5.000 Y1600.000
G01 X227.292 Y1600.000
G01 X5.000 Y1360.620
G01 X5.000 Y235.087
G01 X61.831 Y221.394
G01 X317.247 Y5.000
G01 X5.000 Y5.000
G01 X5.000 Y1600.000
G01 X267.625 Y1600.000
G01 X19.101 Y1350.425
G01 X5.000 Y1345.736
G01 X5.000 Y254.400
G01 X47.543 Y242.566
G01 X308.890 Y5.000
G01 X5.000 Y5.000
G01 X5.000 Y1600.000
G01 X307.978 Y1600.000
G01 X38.634 Y1348.163
G01 X5.000 Y1337.420
G01 X5.000 Y267.394
G01 X52.725 Y253.414
G01 X332.339 Y5.000
G01 X5.000 Y5.000
G01 X5.000 Y1600.000
G01 X299.574 Y1600.000
G01 X26.197 Y1326.560
G01 X5.000 Y1318.963
G01 X5.000 Y272.323
G01 X77.527 Y253.800
G01 X378.092 Y5.000
G01 X5.000 Y5.000
G01 X5.000 Y1600.000
G01 X290.108 Y1600.000
G01 X14.872 Y1304.765
G01 X5.000 Y1300.833
G01 X5.000 Y276.414
G01 X101.925 Y255.237
G01 X426.677 Y5.000
G01 X5.000 Y5.000
G01 X5.000 Y1600.000
G01 X280.279 Y1600.000
G01 X5.000 Y1283.226
G01 X5.000 Y279.712
G01 X125.875 Y257.694
G01 X478.643 Y5.000
G01 X710.000 Y5.000
G01 X710.000 Y1600.000
G01 X270.117 Y1600.000
G01 X5.000 Y1272.486
G01 X5.000 Y282.257
G01 X149.336 Y261.143
G01 X534.668 Y5.000
G01 X710.000 Y5.000
G01 X710.000 Y1600.000
G01 X259.643 Y1600.000
G01 X5.000 Y1261.933
G01 X5.000 Y284.081
G01 X172.269 Y265.552
G01 X595.592 Y5.000
G01 X710.000 Y5.000
G01 X710.000 Y1600.000
G01 X248.875 Y1600.000
G01 X5.000 Y1251.540
G01 X5.000 Y285.212
G01 X194.636 Y270.888
G01 X662.484 Y5.000
G01 X710.000 Y5.000
G01 X710.000 Y1600.000
G01 X237.826 Y1600.000
G01 X5.000 Y1241.280
G01 X5.000 Y285.675
G01 X216.401 Y277.117
G01 X710.000 Y18.971
G01 X710.000 Y1600.000
G01 X226.505 Y1600.000
G01 X5.000 Y1231.119
G01 X5.000 Y285.489
G01 X237.529 Y284.204
G01 X710.000 Y57.758
G01 X710.000 Y1600.000
G01 X214.919 Y1600.000
G01 X5.000 Y1221.020
G01 X5.000 Y284.669
G01 X257.987 Y292.111
G01 X710.000 Y94.577
G01 X710.000 Y1600.000
G01 X203.073 Y1600.000
G01 X5.000 Y1210.935
G01 X5.000 Y283.227
G01 X277.744 Y300.800
G01 X710.000 Y129.622
G01 X710.000 Y1600.000
G01 X190.967 Y1600.000
G01 X5.000 Y1200.808
G01 X5.000 Y281.169
G01 X296.770 Y310.232
G01 X710.000 Y163.069
G01 X710.000 Y1502.062
G01 X690.847 Y1600.000
G01 X178.602 Y1600.000
G01 X5.000 Y1190.564
G01 X5.000 Y278.501
G01 X315.040 Y320.366
G01 X710.000 Y195.075
G01 X710.000 Y1355.943
G01 X653.354 Y1600.000
G01 X165.974 Y1600.000
G01 X5.000 Y1180.103
G01 X5.000 Y275.222
G01 X332.527 Y331.161
G01 X710.000 Y225.781
G01 X710.000 Y1250.272
G01 X615.839 Y1600.000
G01 X153.369 Y1600.000
G01 X5.000 Y1167.965
G01 X5.000 Y279.674
G01 X336.400 Y342.984
G01 X710.000 Y236.493
G01 X710.000 Y1237.273
G01 X623.423 Y1600.000
G01 X186.552 Y1600.000
G01 X5.000 Y1114.843
G01 X5.000 Y306.889
G01 X321.344 Y355.961
G01 X710.000 Y230.373
G01 X710.000 Y1239.716
G01 X637.180 Y1600.000
G01 X224.826 Y1600.000
G01 X5.000 Y1069.666
G01 X5.000 Y333.277
G01 X307.167 Y369.415
G01 X710.000 Y223.551
G01 X710.000 Y1246.379
G01 X651.275 Y1600.000
G01 X263.650 Y1600.000
G01 X20.059 Y1065.782
G01 X5.000 Y1053.690
G01 X5.000 Y358.928
G01 X293.884 Y383.300
G01 X710.000 Y216.000
G01 X710.000 Y1260.529
G01 X665.720 Y1600.000
G01 X303.161 Y1600.000
G01 X38.650 Y1069.691
G01 X5.000 Y1044.548
G01 X5.000 Y383.926
G01 X281.506 Y397.569
G01 X710.000 Y207.687
G01 X710.000 Y1290.241
G01 X680.533 Y1600.000
G01 X343.510 Y1600.000
G01 X57.092 Y1072.632
G01 X5.000 Y1036.469
G01 X5.000 Y408.349
G01 X270.044 Y412.178
G01 X710.000 Y198.573
G01 X710.000 Y1362.369
G01 X695.728 Y1600.000
G01 X384.860 Y1600.000
G01 X75.340 Y1074.621
G01 X5.000 Y1029.340
G01 X5.000 Y432.274
G01 X259.506 Y427.079
G01 X710.000 Y188.612
G01 X710.000 Y1600.000
G01 X427.393 Y1600.000
G01 X93.351 Y1075.676
G01 X5.000 Y1023.062
G01 X5.000 Y455.774
G01 X249.898 Y442.225
G01 X710.000 Y177.749
G01 X710.000 Y1600.000
G01 X471.311 Y1600.000
G01 X111.081 Y1075.816
G01 X5.000 Y1017.551
G01 X5.000 Y478.916
G01 X241.224 Y457.571
G01 X710.000 Y165.922
G01 X710.000 Y1600.000
G01 X516.841 Y1600.000
G01 X128.489 Y1075.062
G01 X5.000 Y1012.734
G01 X5.000 Y501.771
G01 X233.484 Y473.070
G01 X710.000 Y153.055
G01 X710.000 Y834.290
G01 X701.492 Y855.164
G01 X710.000 Y962.083
G01 X710.000 Y1600.000
G01 X564.241 Y1600.000
G01 X145.535 Y1073.437
G01 X5.000 Y1008.545
G01 X5.000 Y524.405
G01 X226.680 Y488.675
G01 X710.000 Y139.061
G01 X710.000 Y790.577
G01 X691.202 Y841.726
G01 X710.000 Y1005.546
G01 X710.000 Y1600.000
G01 X613.805 Y1600.000
G01 X162.179 Y1070.966
G01 X5.000 Y1004.929
G01 X5.000 Y546.883
G01 X220.808 Y504.340
G01 X710.000 Y123.839
G01 X710.000 Y738.978
G01 X680.409 Y829.072
G01 X710.000 Y1026.095
G01 X710.000 Y1600.000
G01 X665.871 Y1600.000
G01 X178.384 Y1067.675
G01 X5.000 Y1001.835
G01 X5.000 Y569.274
G01 X215.865 Y520.019
G01 X710.000 Y107.269
G01 X710.000 Y676.505
G01 X669.153 Y817.220
G01 X710.000 Y1036.821
G01 X710.000 Y1588.966
G01 X194.114 Y1063.592
G01 X5.000 Y999.220
G01 X5.000 Y591.644
G01 X211.842 Y535.667
G01 X710.000 Y89.211
G01 X710.000 Y598.497
G01 X657.477 Y806.187
G01 X710.000 Y1042.475
G01 X710.000 Y1534.310
G01 X209.332 Y1058.746
G01 X5.000 Y994.558
G01 X5.000 Y610.412
G01 X214.285 Y548.033
G01 X710.000 Y103.463
G01 X710.000 Y551.387
G01 X645.426 Y809.013
G01 X710.000 Y1134.594
G01 X710.000 Y1541.735
G01 X207.161 Y1043.444
G01 X5.000 Y972.052
G01 X5.000 Y612.100
G01 X228.770 Y553.846
G01 X710.000 Y151.748
G01 X710.000 Y551.340
G01 X633.044 Y818.367
G01 X710.000 Y1292.865
G01 X710.000 Y1564.262
G01 X205.547 Y1028.098
G01 X5.000 Y949.276
G01 X5.000 Y613.411
G01 X242.668 Y560.348
G01 X710.000 Y196.870
G01 X710.000 Y552.376
G01 X620.373 Y826.866
G01 X710.000 Y1535.739
G01 X710.000 Y1589.035
G01 X204.814 Y1012.945
G01 X5.000 Y926.217
G01 X5.000 Y614.374
G01 X255.950 Y567.503
G01 X710.000 Y239.210
G01 X710.000 Y554.140
G01 X607.460 Y834.502
G01 X674.667 Y1573.116
G01 X204.944 Y998.027
G01 X5.000 Y902.787
G01 X5.000 Y615.010
G01 X268.585 Y575.277
G01 X710.000 Y279.097
G01 X710.000 Y556.408
G01 X594.348 Y841.267
G01 X633.656 Y1546.217
G01 X205.921 Y983.386
G01 X5.000 Y878.892
G01 X5.000 Y615.342
G01 X280.550 Y583.633
G01 X710.000 Y316.816
G01 X710.000 Y559.031
G01 X581.083 Y847.159
G01 X594.926 Y1517.441
G01 X207.724 Y969.063
G01 X5.000 Y854.430
G01 X5.000 Y615.387
G01 X291.818 Y592.534
G01 X710.000 Y352.616
G01 X710.000 Y561.906
G01 X567.710 Y852.175
G01 X558.556 Y1486.913
G01 X210.332 Y955.097
G01 X5.000 Y829.287
G01 X5.000 Y615.163
G01 X302.366 Y601.940
G01 X710.000 Y386.714
G01 X710.000 Y564.961
G01 X554.274 Y856.316
G01 X524.620 Y1454.764
G01 X213.723 Y941.526
G01 X5.000 Y803.337
G01 X5.000 Y614.682
G01 X312.174 Y611.813
G01 X710.000 Y419.306
G01 X710.000 Y568.144
G01 X540.818 Y859.582
G01 X493.185 Y1421.128
G01 X217.871 Y928.388
G01 X5.000 Y776.439
G01 X5.000 Y613.958
G01 X321.223 Y622.112
G01 X710.000 Y450.564
G01 X710.000 Y571.416
G01 X527.389 Y861.980
G01 X464.312 Y1386.140
G01 X222.750 Y915.719
G01 X5.000 Y748.431
G01 X5.000 Y612.999
G01 X329.494 Y632.795
G01 X710.000 Y480.644
G01 X710.000 Y574.748
G01 X514.029 Y863.515
G01 X438.055 Y1349.938
G01 X228.332 Y903.553
G01 X5.000 Y719.128
G01 X5.000 Y611.816
G01 X336.973 Y643.822
G01 X710.000 Y509.687
G01 X710.000 Y578.121
G01 X500.782 Y864.195
G01 X414.462 Y1312.663
G01 X234.588 Y891.924
G01 X5.000 Y688.314
G01 X5.000 Y610.412
G01 X343.647 Y655.150
G01 X710.000 Y537.821
G01 X710.000 Y581.519
G01 X487.692 Y864.030
G01 X393.574 Y1274.457
G01 X241.486 Y880.863
G01 X5.000 Y655.739
G01 X5.000 Y608.792
G01 X349.503 Y666.735
G01 X710.000 Y565.166
G01 X710.000 Y584.932
G01 X474.802 Y863.033
G01 X375.426 Y1235.462
G01 X248.994 Y870.401
G01 X5.000 Y623.461
G01 X5.000 Y608.707
G01 X352.543 Y678.599
G01 X700.004 Y583.254
G01 X464.381 Y857.058
G01 X380.081 Y1195.185
G01 X260.908 Y866.735
G01 X16.081 Y635.667
G01 X349.120 Y690.814
G01 X659.228 Y594.162
G01 X455.348 Y848.215
G01 X390.083 Y1154.328
G01 X272.963 Y863.077
G01 X46.997 Y663.981
G01 X346.542 Y703.102
G01 X619.671 Y607.621
G01 X445.841 Y840.075
G01 X397.265 Y1113.300
G01 X284.633 Y858.664
G01 X79.428 Y689.913
G01 X344.810 Y715.420
G01 X581.460 Y623.559
G01 X435.899 Y832.661
G01 X401.630 Y1072.247
G01 X295.881 Y853.520
G01 X113.246 Y713.395
G01 X343.923 Y727.723
G01 X544.719 Y641.896
G01 X425.560 Y825.991
G01 X403.185 Y1031.317
G01 X306.669 Y847.669
G01 X148.318 Y734.362
G01 X343.876 Y739.967
G01 X509.567 Y662.547
G01 X414.865 Y820.085
G01 X401.947 Y990.655
G01 X316.963 Y841.136
G01 X184.510 Y752.758
G01 X344.664 Y752.109
G01 X476.121 Y685.424
G01 X403.855 Y814.958
G01 X397.938 Y950.405
G01 X326.728 Y833.950
G01 X221.684 Y768.531
G01 X346.279 Y764.106
G01 X444.492 Y710.430
G01 X392.571 Y810.624
G01 X391.186 Y910.711
G01 X335.932 Y826.140
G01 X259.701 Y781.637
G01 X348.712 Y775.915
G01 X414.786 Y737.466
G01 X381.056 Y807.097
G01 X381.727 Y871.716
G01 X344.544 Y817.736
G01 X298.419 Y792.038
G01 X351.951 Y787.493
G01 X387.105 Y766.426
G01 X369.351 Y804.386
G01 X369.604 Y833.558
G01 X352.533 Y808.772
G01 X337.697 Y799.702
G01 X355.983 Y798.799
G01 X361.547 Y797.202
G01 X357.500 Y802.500
G01 X354.864 Y796.377
G01 X359.872 Y799.279
G01 X377.389 Y804.605
G01 X360.791 Y809.792
G01 X338.202 Y829.679
G01 X345.546 Y801.445
G01 X337.563 Y760.306
G01 X366.534 Y789.294
G01 X417.351 Y806.730
G01 X366.359 Y820.431
G01 X317.158 Y863.739
G01 X333.534 Y801.226
G01 X317.762 Y725.480
G01 X372.493 Y778.852
G01 X457.436 Y806.064
G01 X372.666 Y830.678
G01 X298.493 Y899.261
G01 X321.506 Y801.845
G01 X295.529 Y692.028
G01 X377.727 Y767.991
G01 X497.500 Y802.603
G01 X379.306 Y840.716
G01 X279.391 Y934.447
G01 X309.507 Y801.698
G01 X277.440 Y656.321
G01 X384.766 Y758.222
G01 X537.395 Y808.649
G01 X383.539 Y852.078
G01 X253.268 Y965.330
G01 X297.580 Y799.404
G01 X264.612 Y617.884
G01 X392.940 Y749.208
G01 X576.975 Y817.685
G01 X386.998 Y863.769
G01 X224.921 Y994.509
G01 X285.769 Y796.278
G01 X254.391 Y578.417
G01 X401.768 Y740.723
G01 X616.096 Y829.487
G01 X389.667 Y875.748
G01 X194.438 Y1021.867
G01 X274.119 Y792.324
G01 X246.832 Y538.056
G01 X411.222 Y732.801
G01 X654.611 Y844.033
G01 X391.530 Y887.975
G01 X161.913 Y1047.293
G01 X262.671 Y787.552
G01 X241.984 Y496.940
G01 X421.275 Y725.476
G01 X692.378 Y861.293
G01 X392.573 Y900.407
G01 X127.445 Y1070.678
G01 X251.469 Y781.971
G01 X239.888 Y455.208
G01 X431.895 Y718.778
G01 X710.000 Y870.713
G01 X710.000 Y883.050
G01 X392.785 Y913.003
G01 X91.139 Y1091.918
G01 X240.556 Y775.592
G01 X240.579 Y413.004
G01 X443.051 Y712.739
G01 X710.000 Y871.117
G01 X710.000 Y907.044
G01 X392.156 Y925.719
G01 X53.102 Y1110.915
G01 X229.973 Y768.430
G01 X244.088 Y370.471
G01 X454.709 Y707.387
G01 X710.000 Y871.320
G01 X710.000 Y931.062
G01 X390.679 Y938.512
G01 X13.449 Y1127.575
G01 X219.761 Y760.500
G01 X250.434 Y327.757
G01 X466.834 Y702.750
G01 X710.000 Y871.301
G01 X710.000 Y955.185
G01 X388.347 Y951.337
G01 X5.000 Y1126.838
G01 X5.000 Y1088.148
G01 X209.962 Y751.820
G01 X259.635 Y285.006
G01 X479.390 Y698.853
G01 X710.000 Y871.035
G01 X710.000 Y979.493
G01 X385.157 Y964.151
G01 X5.000 Y1122.249
G01 X5.000 Y1039.342
G01 X200.614 Y742.410
G01 X271.698 Y242.367
G01 X492.341 Y695.720
G01 X710.000 Y870.488
G01 X710.000 Y1004.065
G01 X381.109 Y976.909
G01 X5.000 Y1118.025
G01 X5.000 Y995.165
G01 X191.757 Y732.291
G01 X286.626 Y199.987
G01 X505.647 Y693.374
G01 X710.000 Y869.620
G01 X710.000 Y1028.981
G01 X376.201 Y989.568
G01 X5.000 Y1114.149
G01 X5.000 Y954.819
G01 X183.429 Y721.486
G01 X304.413 Y158.016
G01 X519.269 Y691.835
G01 X710.000 Y868.384
G01 X710.000 Y1054.323
G01 X370.438 Y1002.081
G01 X5.000 Y1110.612
G01 X5.000 Y917.669
G01 X175.666 Y710.020
G01 X325.047 Y116.601
G01 X533.168 Y691.123
G01 X710.000 Y866.722
G01 X710.000 Y1080.088
G01 X364.725 Y1014.377
G01 X5.000 Y1114.084
G01 X5.000 Y890.871
G01 X165.698 Y703.163
G01 X320.064 Y76.798
G01 X541.406 Y681.759
G01 X710.000 Y839.973
G01 X710.000 Y1080.800
G01 X372.942 Y1025.967
G01 X5.000 Y1141.857
G01 X5.000 Y888.454
G01 X151.506 Y704.774
G01 X291.306 Y38.696
G01 X546.876 Y668.482
G01 X710.000 Y811.235
G01 X710.000 Y1078.949
G01 X381.976 Y1037.227
G01 X5.000 Y1170.531
G01 X5.000 Y885.375
G01 X137.206 Y707.260
G01 X259.286 Y5.000
G01 X261.293 Y5.000
G01 X551.631 Y654.685
G01 X710.000 Y783.836
G01 X710.000 Y1077.388
G01 X391.814 Y1048.115
G01 X5.000 Y1200.225
G01 X5.000 Y881.503
G01 X122.842 Y710.632
G01 X220.368 Y5.000
G01 X244.747 Y5.000
G01 X555.642 Y640.402
G01 X710.000 Y757.586
G01 X710.000 Y1076.125
G01 X402.439 Y1058.587
G01 X5.000 Y1231.067
G01 X5.000 Y876.674
G01 X108.459 Y714.895
G01 X181.515 Y5.000
G01 X227.959 Y5.000
G01 X558.881 Y625.667
G01 X710.000 Y732.314
G01 X710.000 Y1075.169
G01 X413.834 Y1068.602
G01 X5.000 Y1263.199
G01 X5.000 Y870.684
G01 X94.101 Y720.055
G01 X142.621 Y5.000
G01 X210.891 Y5.000
G01 X561.322 Y610.519
G01 X710.000 Y707.875
G01 X710.000 Y1074.532
G01 X425.980 Y1078.120
G01 X5.000 Y1296.781
G01 X5.000 Y863.270
G01 X79.814 Y726.115
G01 X103.577 Y5.000
G01 X193.504 Y5.000
G01 X562.941 Y594.995
G01 X710.000 Y684.137
G01 X710.000 Y1074.226
G01 X438.855 Y1087.100
G01 X5.000 Y1331.989
G01 X5.000 Y854.090
G01 X65.643 Y733.076
G01 X64.278 Y5.000
G01 X175.749 Y5.000
G01 X563.714 Y579.135
G01 X710.000 Y660.984
G01 X710.000 Y1074.267
G01 X452.437 Y1095.503
G01 X5.000 Y1369.023
G01 X5.000 Y842.693
G01 X51.634 Y740.936
G01 X24.614 Y5.000
G01 X157.576 Y5.000
G01 X563.620 Y562.979
G01 X710.000 Y638.312
G01 X710.000 Y1074.672
G01 X466.700 Y1103.291
G01 X5.000 Y1408.108
G01 X5.000 Y828.466
G01 X37.832 Y749.692
G01 X5.000 Y291.460
G01 X5.000 Y5.000
G01 X138.925 Y5.000
G01 X562.640 Y546.568
G01 X710.000 Y616.024
G01 X710.000 Y1075.461
G01 X481.617 Y1110.427
G01 X5.000 Y1449.502
G01 X5.000 Y810.560
G01 X24.284 Y759.339
G01 X5.000 Y578.723
G01 X5.000 Y5.000
G01 X119.729 Y5.000
G01 X560.757 Y529.945
G01 X710.000 Y594.035
G01 X710.000 Y1076.656
G01 X497.160 Y1116.874
G01 X5.000 Y1493.498
G01 X5.000 Y787.761
G01 X11.033 Y769.870
G01 X5.000 Y727.427
G01 X5.000 Y5.000
G01 X99.911 Y5.000
G01 X557.955 Y513.153
G01 X710.000 Y572.262
G01 X710.000 Y1078.282
G01 X513.298 Y1122.598
G01 X5.000 Y1540.435
G01 X5.000 Y5.000
G01 X79.380 Y5.000
G01 X554.220 Y496.237
G01 X710.000 Y550.631
G01 X710.000 Y1080.367
G01 X529.999 Y1127.566
G01 X5.000 Y1590.706
G01 X5.000 Y5.000
G01 X58.033 Y5.000
G01 X549.541 Y479.241
G01 X710.000 Y529.068
G01 X710.000 Y1082.943
G01 X547.230 Y1131.745
G01 X41.528 Y1600.000
G01 X5.000 Y1600.000
G01 X5.000 Y5.000
G01 X73.719 Y5.000
G01 X558.995 Y470.922
G01 X710.000 Y521.577
G01 X710.000 Y1101.830
G01 X541.816 Y1148.465
G01 X18.489 Y1600.000
G01 X5.000 Y1600.000
G01 X5.000 Y5.000
G01 X127.247 Y5.000
G01 X577.030 Y468.125
G01 X710.000 Y517.965
G01 X710.000 Y1123.446
G01 X534.899 Y1165.468
G01 X5.000 Y1591.294
G01 X5.000 Y5.000
G01 X177.900 Y5.000
G01 X595.497 Y466.195
G01 X710.000 Y513.740
G01 X710.000 Y1145.193
G01 X527.014 Y1182.396
G01 X5.000 Y1572.666
G01 X5.000 Y5.000
G01 X226.083 Y5.000
G01 X614.359 Y465.158
G01 X710.000 Y508.850
G01 X710.000 Y1167.135
G01 X518.157 Y1199.203
G01 X5.000 Y1555.593
G01 X5.000 Y5.000
G01 X272.145 Y5.000
G01 X633.574 Y465.040
G01 X710.000 Y503.236
G01 X710.000 Y1189.336
G01 X508.328 Y1215.841
G01 X5.000 Y1539.937
G01 X5.000 Y5.000
G01 X316.386 Y5.000
G01 X653.101 Y465.863
G01 X710.000 Y496.831
G01 X710.000 Y1211.860
G01 X497.528 Y1232.263
G01 X5.000 Y1525.583
G01 X5.000 Y5.000
G01 X359.067 Y5.000
G01 X672.897 Y467.650
G01 X710.000 Y489.557
G01 X710.000 Y1234.773
G01 X485.761 Y1248.420
G01 X5.000 Y1512.430
G01 X5.000 Y5.000
G01 X400.417 Y5.000
G01 X692.918 Y470.418
G01 X710.000 Y481.326
G01 X710.000 Y1258.140
G01 X473.033 Y1264.266
G01 X5.000 Y1500.393
G01 X5.000 Y5.000
G01 X440.638 Y5.000
G01 X710.000 Y468.813
G01 X710.000 Y1282.033
G01 X459.352 Y1279.753
G01 X5.000 Y1489.399
G01 X5.000 Y5.000
G01 X479.911 Y5.000
G01 X710.000 Y435.119
G01 X710.000 Y1306.521
G01 X444.728 Y1294.833
G01 X5.000 Y1479.384
G01 X5.000 Y5.000
G01 X518.399 Y5.000
G01 X710.000 Y395.374
G01 X710.000 Y1331.683
G01 X429.172 Y1309.459
G01 X5.000 Y1470.297
G01 X5.000 Y5.000
G01 X556.252 Y5.000
G01 X710.000 Y348.055
G01 X710.000 Y1357.597
G01 X412.700 Y1323.584
G01 X5.000 Y1462.092
G01 X5.000 Y5.000
G01 X593.604 Y5.000
G01 X710.000 Y291.089
G01 X710.000 Y1384.350
G01 X395.328 Y1337.164
G01 X5.000 Y1454.732
G01 X5.000 Y34.369
G01 X12.271 Y5.000
G01 X630.583 Y5.000
G01 X710.000 Y221.577
G01 X710.000 Y1412.033
G01 X377.074 Y1350.150
G01 X5.000 Y1449.940
G01 X5.000 Y11.099
G01 X6.553 Y5.000
G01 X647.255 Y5.000
G01 X710.000 Y180.689
G01 X710.000 Y1415.492
G01 X392.809 Y1361.386
G01 X5.000 Y1480.284
G01 X5.000 Y5.000
G01 X635.647 Y5.000
G01 X710.000 Y192.298
G01 X710.000 Y1411.752
G01 X413.467 Y1371.755
G01 X5.000 Y1512.750
G01 X5.000 Y5.000
G01 X624.446 Y5.000
G01 X710.000 Y200.355
G01 X710.000 Y1408.727
G01 X434.890 Y1381.350
G01 X5.000 Y1546.733
G01 X5.000 Y5.000
G01 X613.658 Y5.000
G01 X710.000 Y205.637
G01 X710.000 Y1406.416
G01 X457.048 Y1390.128
G01 X5.000 Y1582.392
G01 X5.000 Y5.000
G01 X603.294 Y5.000
G01 X710.000 Y208.693
G01 X710.000 Y1404.821
G01 X479.912 Y1398.050
G01 X47.611 Y1600.000
G01 X5.000 Y1600.000
G01 X5.000 Y5.000
G01 X593.366 Y5.000
G01 X710.000 Y209.923
G01 X710.000 Y1403.949
G01 X503.446 Y1405.078
G01 X121.525 Y1600.000
G01 X5.000 Y1600.000
G01 X5.000 Y5.000
G01 X583.892 Y5.000
G01 X710.000 Y209.620
G01 X710.000 Y1403.811
G01 X527.617 Y1411.174
G01 X187.490 Y1600.000
G01 X710.000 Y1600.000
G01 X710.000 Y5.000
G01 X574.894 Y5.000
G01 X710.000 Y208.008
G01 X710.000 Y1404.423
G01 X552.387 Y1416.304
G01 X247.103 Y1600.000
G01 X710.000 Y1600.000
G01 X710.000 Y5.000
G01 X566.401 Y5.000
G01 X710.000 Y205.256
G01 X710.000 Y1405.805
G01 X577.718 Y1420.432
G01 X301.580 Y1600.000
G01 X710.000 Y1600.000
G01 X710.000 Y5.000
G01 X558.446 Y5.000
G01 X710.000 Y201.496
G01 X710.000 Y1407.983
G01 X603.570 Y1423.526
G01 X351.859 Y1600.000
G01 X710.000 Y1600.000
G01 X710.000 Y5.000
G01 X551.072 Y5.000
G01 X710.000 Y196.829
G01 X710.000 Y1410.988
G01 X629.901 Y1425.555
G01 X398.684 Y1600.000
G01 X710.000 Y1600.000
G01 X710.000 Y5.000
G01 X544.330 Y5.000
G01 X710.000 Y191.334
G01 X710.000 Y1414.855
G01 X656.667 Y1426.490
G01 X442.646 Y1600.000
G01 X710.000 Y1600.000
G01 X710.000 Y5.000
G01 X538.282 Y5.000
G01 X710.000 Y185.074
G01 X710.000 Y1419.627
G01 X683.824 Y1426.302
G01 X484.228 Y1600.000
G01 X710.000 Y1600.000
G01 X710.000 Y5.000
G01 X533.002 Y5.000
G01 X710.000 Y178.096
G01 X710.000 Y1426.203
G01 X523.824 Y1600.000
G01 X710.000 Y1600.000
G01 X710.000 Y5.000
G01 X544.028 Y5.000
G01 X710.000 Y162.731
G01 X710.000 Y1441.161
G01 X703.586 Y1442.975
G01 X523.472 Y1600.000
G01 X710.000 Y1600.000
G01 X710.000 Y5.000
G01 X581.296 Y5.000
G01 X710.000 Y136.166
G01 X710.000 Y1459.610
G01 X686.356 Y1465.413
G01 X520.637 Y1600.000
G01 X710.000 Y1600.000
G01 X710.000 Y5.000
G01 X617.280 Y5.000
G01 X710.000 Y106.341
G01 X710.000 Y1478.644
G01 X667.975 Y1487.416
G01 X519.007 Y1600.000
G01 X710.000 Y1600.000
G01 X710.000 Y5.000
G01 X652.204 Y5.000
G01 X710.000 Y72.776
G01 X710.000 Y1498.311
G01 X648.453 Y1508.929
G01 X518.775 Y1600.000
G01 X710.000 Y1600.000
G01 X710.000 Y5.000
G01 X686.262 Y5.000
G01 X710.000 Y34.890
G01 X710.000 Y1518.659
G01 X627.801 Y1529.902
G01 X520.184 Y1600.000
G01 X710.000 Y1600.000
G01 X710.000 Y1539.742
G01 X606.035 Y1550.279
G01 X523.542 Y1600.000
G01 X710.000 Y1600.000
G01 X710.000 Y1561.616
G01 X583.172 Y1570.010
G01 X529.242 Y1600.000
G01 X710.000 Y1600.000
G01 X710.000 Y1584.342
G01 X559.230 Y1589.042
G01 X537.796 Y1600.000
G01 X5.000 Y1600.000

; BEGIN POST
G04 S90
; jazz1.gcode; END POST
; file trimmed by trimify2x.pl
; QQQQQQQ

