; file trimmed by trimify2x.pl
; Created by Sandify
; 
;   https://sandify.org
; 
;   Sandify Version: 0.1.4
; 
;   Machine Type: Rectangular
;     MinX: 5 MaxX: 710 MinY: 5 MaxY: 1600
;   Content Type: Shapes
;     Starting Size: 10000
;     Offset: X: 131 Y: -938
;     Selected Shape: Star
;       Star Points: 7
;       Star Ratio: 0.35
;     Number of Loops: 1000
;     Spin: true
;       Spin Value: 0.1
;       Spin Switchbacks: 0
;     Grow: true
;       Grow Value: -0.65
;     Track: true
;       Track Count: 58
;       Track Size: 0.4
;       Track Grow: false
;   Path Reversed: false
; 
; filename: 'jazz2'

; BEGIN PRE
G28  Y
G28 X
G01 F30000; END PRE
G01 X5.000 Y5.000
G01 X5.000 Y1600.000
G01 X16.753 Y1600.000
G01 X5.000 Y1563.873
G01 X5.000 Y1600.000
G01 X36.161 Y1600.000
G01 X17.307 Y1541.699
G01 X5.000 Y1549.235
G01 X5.000 Y1600.000
G01 X54.324 Y1600.000
G01 X30.511 Y1525.931
G01 X5.000 Y1541.491
G01 X5.000 Y1600.000
G01 X71.132 Y1600.000
G01 X42.737 Y1511.152
G01 X5.000 Y1534.079
G01 X5.000 Y1600.000
G01 X86.511 Y1600.000
G01 X53.847 Y1497.186
G01 X5.000 Y1526.744
G01 X5.000 Y1600.000
G01 X100.417 Y1600.000
G01 X63.731 Y1483.835
G01 X5.000 Y1519.235
G01 X5.000 Y1600.000
G01 X112.844 Y1600.000
G01 X72.315 Y1470.891
G01 X5.000 Y1511.303
G01 X5.000 Y1600.000
G01 X123.820 Y1600.000
G01 X79.554 Y1458.132
G01 X5.000 Y1502.713
G01 X5.000 Y1600.000
G01 X133.409 Y1600.000
G01 X85.442 Y1445.336
G01 X5.000 Y1493.244
G01 X5.000 Y1600.000
G01 X141.706 Y1600.000
G01 X90.006 Y1432.280
G01 X5.000 Y1482.703
G01 X5.000 Y1600.000
G01 X148.836 Y1600.000
G01 X93.308 Y1418.749
G01 X5.000 Y1470.919
G01 X5.000 Y1600.000
G01 X154.955 Y1600.000
G01 X95.442 Y1404.540
G01 X5.000 Y1457.754
G01 X5.000 Y1600.000
G01 X160.239 Y1600.000
G01 X96.536 Y1389.467
G01 X5.000 Y1443.106
G01 X5.000 Y1600.000
G01 X164.886 Y1600.000
G01 X96.740 Y1373.368
G01 X5.000 Y1426.907
G01 X5.000 Y1600.000
G01 X169.107 Y1600.000
G01 X96.233 Y1356.104
G01 X5.000 Y1409.129
G01 X5.000 Y1600.000
G01 X173.123 Y1600.000
G01 X95.209 Y1337.568
G01 X5.000 Y1389.783
G01 X5.000 Y1600.000
G01 X177.161 Y1600.000
G01 X93.881 Y1317.683
G01 X5.000 Y1368.917
G01 X5.000 Y1600.000
G01 X181.443 Y1600.000
G01 X92.466 Y1296.406
G01 X5.000 Y1346.619
G01 X5.000 Y1600.000
G01 X186.190 Y1600.000
G01 X91.191 Y1273.732
G01 X5.000 Y1323.008
G01 X5.000 Y1600.000
G01 X191.605 Y1600.000
G01 X90.276 Y1249.686
G01 X5.000 Y1298.239
G01 X5.000 Y1600.000
G01 X197.879 Y1600.000
G01 X89.938 Y1224.333
G01 X5.000 Y1272.493
G01 X5.000 Y1600.000
G01 X205.179 Y1600.000
G01 X90.379 Y1197.766
G01 X5.000 Y1245.976
G01 X5.000 Y1600.000
G01 X213.649 Y1600.000
G01 X91.784 Y1170.111
G01 X5.000 Y1218.913
G01 X5.000 Y1600.000
G01 X223.403 Y1600.000
G01 X94.317 Y1141.522
G01 X5.000 Y1191.542
G01 X5.000 Y1600.000
G01 X234.523 Y1600.000
G01 X98.117 Y1112.176
G01 X5.000 Y1164.109
G01 X5.000 Y1600.000
G01 X247.060 Y1600.000
G01 X103.290 Y1082.269
G01 X5.000 Y1136.862
G01 X5.000 Y1600.000
G01 X261.028 Y1600.000
G01 X109.915 Y1052.012
G01 X5.000 Y1110.045
G01 X5.000 Y1600.000
G01 X276.409 Y1600.000
G01 X118.032 Y1021.624
G01 X5.000 Y1083.891
G01 X5.000 Y1600.000
G01 X293.148 Y1600.000
G01 X127.649 Y991.331
G01 X5.000 Y1058.620
G01 X5.000 Y1600.000
G01 X311.159 Y1600.000
G01 X138.740 Y961.355
G01 X5.000 Y1034.429
G01 X5.000 Y1600.000
G01 X330.326 Y1600.000
G01 X151.241 Y931.912
G01 X5.000 Y1011.489
G01 X5.000 Y1600.000
G01 X350.503 Y1600.000
G01 X165.057 Y903.204
G01 X5.000 Y989.943
G01 X5.000 Y1600.000
G01 X371.521 Y1600.000
G01 X180.064 Y875.417
G01 X5.000 Y969.902
G01 X5.000 Y1600.000
G01 X393.190 Y1600.000
G01 X196.108 Y848.716
G01 X5.000 Y951.438
G01 X5.000 Y1600.000
G01 X415.304 Y1600.000
G01 X213.011 Y823.238
G01 X5.000 Y934.588
G01 X5.000 Y1600.000
G01 X437.649 Y1600.000
G01 X230.578 Y799.092
G01 X5.000 Y919.351
G01 X5.000 Y1600.000
G01 X460.001 Y1600.000
G01 X248.598 Y776.354
G01 X5.000 Y905.687
G01 X5.000 Y1600.000
G01 X482.138 Y1600.000
G01 X266.851 Y755.067
G01 X5.000 Y893.519
G01 X5.000 Y1600.000
G01 X503.844 Y1600.000
G01 X285.113 Y735.240
G01 X5.000 Y882.735
G01 X5.000 Y1600.000
G01 X524.911 Y1600.000
G01 X303.162 Y716.843
G01 X5.000 Y873.190
G01 X5.000 Y1600.000
G01 X545.148 Y1600.000
G01 X320.781 Y699.816
G01 X5.000 Y864.711
G01 X5.000 Y1600.000
G01 X564.383 Y1600.000
G01 X337.768 Y684.064
G01 X5.000 Y857.100
G01 X5.000 Y1600.000
G01 X582.469 Y1600.000
G01 X353.937 Y669.462
G01 X5.000 Y850.138
G01 X5.000 Y1600.000
G01 X599.283 Y1600.000
G01 X369.124 Y655.856
G01 X5.000 Y843.594
G01 X5.000 Y1600.000
G01 X614.737 Y1600.000
G01 X383.192 Y643.070
G01 X5.000 Y837.225
G01 X5.000 Y1600.000
G01 X628.772 Y1600.000
G01 X396.032 Y630.908
G01 X5.000 Y830.787
G01 X5.000 Y1600.000
G01 X641.365 Y1600.000
G01 X407.567 Y619.160
G01 X5.000 Y824.038
G01 X5.000 Y1600.000
G01 X652.525 Y1600.000
G01 X417.756 Y607.606
G01 X5.000 Y816.745
G01 X5.000 Y1600.000
G01 X662.297 Y1600.000
G01 X426.590 Y596.021
G01 X5.000 Y808.688
G01 X5.000 Y121.225
G01 X22.515 Y99.009
G01 X5.000 Y90.962
G01 X5.000 Y1600.000
G01 X670.760 Y1600.000
G01 X434.096 Y584.184
G01 X5.000 Y799.669
G01 X5.000 Y149.964
G01 X43.175 Y101.713
G01 X5.000 Y84.095
G01 X5.000 Y1600.000
G01 X678.020 Y1600.000
G01 X440.337 Y571.880
G01 X5.000 Y789.511
G01 X5.000 Y176.424
G01 X62.529 Y103.966
G01 X5.000 Y77.293
G01 X5.000 Y1600.000
G01 X684.216 Y1600.000
G01 X445.408 Y558.906
G01 X5.000 Y778.068
G01 X5.000 Y200.549
G01 X80.677 Y105.565
G01 X5.000 Y70.316
G01 X5.000 Y1600.000
G01 X689.508 Y1600.000
G01 X449.434 Y545.076
G01 X5.000 Y765.225
G01 X5.000 Y222.333
G01 X97.747 Y106.329
G01 X5.000 Y62.928
G01 X5.000 Y1600.000
G01 X694.080 Y1600.000
G01 X452.568 Y530.226
G01 X5.000 Y750.900
G01 X5.000 Y241.828
G01 X113.897 Y106.097
G01 X5.000 Y54.900
G01 X5.000 Y1600.000
G01 X698.132 Y1600.000
G01 X454.987 Y514.220
G01 X5.000 Y735.051
G01 X5.000 Y259.134
G01 X129.305 Y104.735
G01 X5.000 Y46.018
G01 X5.000 Y1600.000
G01 X701.874 Y1600.000
G01 X456.887 Y496.949
G01 X5.000 Y717.668
G01 X5.000 Y274.404
G01 X144.171 Y102.139
G01 X5.000 Y36.090
G01 X5.000 Y5.000
G01 X710.000 Y5.000
G01 X710.000 Y1532.854
G01 X700.277 Y1576.175
G01 X458.478 Y478.337
G01 X5.000 Y698.784
G01 X5.000 Y287.834
G01 X158.707 Y98.239
G01 X5.000 Y24.944
G01 X5.000 Y5.000
G01 X710.000 Y5.000
G01 X710.000 Y1424.346
G01 X690.121 Y1512.168
G01 X459.980 Y458.341
G01 X5.000 Y678.465
G01 X5.000 Y299.661
G01 X173.132 Y92.996
G01 X5.000 Y12.438
G01 X5.000 Y5.000
G01 X710.000 Y5.000
G01 X710.000 Y1316.356
G01 X680.239 Y1446.733
G01 X461.617 Y436.955
G01 X5.000 Y656.813
G01 X5.000 Y310.158
G01 X187.672 Y86.407
G01 X18.579 Y5.000
G01 X710.000 Y5.000
G01 X710.000 Y1209.821
G01 X670.853 Y1379.895
G01 X463.612 Y414.205
G01 X5.000 Y633.962
G01 X5.000 Y319.625
G01 X202.547 Y78.506
G01 X50.600 Y5.000
G01 X710.000 Y5.000
G01 X710.000 Y1105.658
G01 X662.180 Y1311.714
G01 X466.180 Y390.155
G01 X5.000 Y610.075
G01 X5.000 Y328.381
G01 X217.971 Y69.360
G01 X85.575 Y5.000
G01 X710.000 Y5.000
G01 X710.000 Y1004.737
G01 X654.424 Y1242.283
G01 X469.523 Y364.899
G01 X5.000 Y585.341
G01 X5.000 Y336.761
G01 X234.145 Y59.068
G01 X123.462 Y5.000
G01 X710.000 Y5.000
G01 X710.000 Y907.861
G01 X647.772 Y1171.727
G01 X473.828 Y338.563
G01 X5.000 Y559.969
G01 X5.000 Y345.102
G01 X251.252 Y47.759
G01 X164.146 Y5.000
G01 X710.000 Y5.000
G01 X710.000 Y815.751
G01 X642.389 Y1100.197
G01 X479.257 Y311.301
G01 X5.000 Y534.182
G01 X5.000 Y353.737
G01 X269.451 Y35.591
G01 X207.439 Y5.000
G01 X710.000 Y5.000
G01 X710.000 Y729.030
G01 X638.414 Y1027.869
G01 X485.949 Y283.288
G01 X5.000 Y508.216
G01 X5.000 Y362.987
G01 X288.876 Y22.743
G01 X253.086 Y5.000
G01 X710.000 Y5.000
G01 X710.000 Y648.205
G01 X635.959 Y954.939
G01 X494.012 Y254.722
G01 X5.000 Y482.309
G01 X5.000 Y373.152
G01 X309.631 Y9.413
G01 X300.772 Y5.000
G01 X710.000 Y5.000
G01 X710.000 Y573.664
G01 X635.102 Y881.617
G01 X503.521 Y225.814
G01 X5.000 Y456.699
G01 X5.000 Y384.506
G01 X324.065 Y5.000
G01 X710.000 Y5.000
G01 X710.000 Y505.661
G01 X635.889 Y808.123
G01 X514.520 Y196.783
G01 X5.000 Y431.616
G01 X5.000 Y397.285
G01 X336.111 Y5.000
G01 X710.000 Y5.000
G01 X710.000 Y444.315
G01 X638.328 Y734.682
G01 X527.016 Y167.854
G01 X11.109 Y404.477
G01 X349.653 Y5.000
G01 X710.000 Y5.000
G01 X710.000 Y389.608
G01 X642.396 Y661.517
G01 X540.982 Y139.250
G01 X66.179 Y355.962
G01 X364.845 Y5.000
G01 X710.000 Y5.000
G01 X710.000 Y341.387
G01 X648.031 Y588.844
G01 X556.354 Y111.185
G01 X122.719 Y308.147
G01 X381.801 Y5.000
G01 X710.000 Y5.000
G01 X710.000 Y299.364
G01 X655.143 Y516.869
G01 X573.038 Y83.864
G01 X180.631 Y261.233
G01 X400.593 Y5.000
G01 X710.000 Y5.000
G01 X710.000 Y263.131
G01 X663.607 Y445.778
G01 X590.909 Y57.471
G01 X239.785 Y215.404
G01 X421.250 Y5.000
G01 X710.000 Y5.000
G01 X710.000 Y232.161
G01 X673.272 Y375.738
G01 X609.812 Y32.172
G01 X300.028 Y170.823
G01 X443.752 Y5.000
G01 X710.000 Y5.000
G01 X710.000 Y205.826
G01 X683.963 Y306.890
G01 X629.572 Y8.103
G01 X361.180 Y127.627
G01 X468.034 Y5.000
G01 X710.000 Y5.000
G01 X710.000 Y183.406
G01 X695.484 Y239.343
G01 X653.508 Y5.000
G01 X605.692 Y5.000
G01 X423.044 Y85.921
G01 X493.976 Y5.000
G01 X710.000 Y5.000
G01 X710.000 Y164.102
G01 X707.627 Y173.178
G01 X678.060 Y5.000
G01 X577.952 Y5.000
G01 X485.407 Y45.780
G01 X521.402 Y5.000
G01 X710.000 Y5.000
G01 X710.000 Y49.224
G01 X702.404 Y5.000
G01 X553.173 Y5.000
G01 X548.049 Y7.245
G01 X550.048 Y5.000
G01 X710.000 Y5.000
G01 X710.000 Y58.810
G01 X696.598 Y74.606
G01 X710.000 Y27.372
G01 X710.000 Y94.299
G01 X670.433 Y140.446
G01 X709.177 Y5.000
G01 X710.000 Y5.000
G01 X710.000 Y128.814
G01 X642.724 Y206.667
G01 X700.835 Y5.000
G01 X710.000 Y5.000
G01 X710.000 Y162.000
G01 X613.414 Y273.050
G01 X688.333 Y14.848
G01 X457.027 Y5.000
G01 X710.000 Y5.000
G01 X710.000 Y193.585
G01 X582.478 Y339.374
G01 X670.638 Y37.572
G01 X346.878 Y22.942
G01 X390.856 Y5.000
G01 X710.000 Y5.000
G01 X710.000 Y223.356
G01 X549.924 Y405.414
G01 X651.480 Y60.043
G01 X282.124 Y42.450
G01 X374.371 Y5.000
G01 X710.000 Y5.000
G01 X710.000 Y251.149
G01 X515.800 Y470.950
G01 X630.908 Y82.040
G01 X215.969 Y61.310
G01 X355.353 Y5.000
G01 X710.000 Y5.000
G01 X710.000 Y276.851
G01 X480.184 Y535.771
G01 X609.003 Y103.355
G01 X148.498 Y79.315
G01 X333.347 Y5.000
G01 X710.000 Y5.000
G01 X710.000 Y300.401
G01 X443.186 Y599.682
G01 X585.878 Y123.793
G01 X79.827 Y96.271
G01 X307.961 Y5.000
G01 X710.000 Y5.000
G01 X710.000 Y321.788
G01 X404.947 Y662.507
G01 X561.675 Y143.182
G01 X10.098 Y112.008
G01 X278.875 Y5.000
G01 X710.000 Y5.000
G01 X710.000 Y341.050
G01 X365.633 Y724.095
G01 X536.560 Y161.372
G01 X5.000 Y130.216
G01 X5.000 Y100.420
G01 X245.850 Y5.000
G01 X710.000 Y5.000
G01 X710.000 Y358.276
G01 X325.431 Y784.321
G01 X510.723 Y178.240
G01 X5.000 Y147.559
G01 X5.000 Y85.317
G01 X208.733 Y5.000
G01 X710.000 Y5.000
G01 X710.000 Y373.602
G01 X284.544 Y843.093
G01 X484.369 Y193.698
G01 X5.000 Y163.645
G01 X5.000 Y68.726
G01 X167.457 Y5.000
G01 X710.000 Y5.000
G01 X710.000 Y387.205
G01 X243.190 Y900.350
G01 X457.714 Y207.687
G01 X5.000 Y178.400
G01 X5.000 Y50.684
G01 X122.049 Y5.000
G01 X710.000 Y5.000
G01 X710.000 Y399.304
G01 X201.592 Y956.067
G01 X430.982 Y220.184
G01 X5.000 Y191.788
G01 X5.000 Y31.260
G01 X72.626 Y5.000
G01 X710.000 Y5.000
G01 X710.000 Y410.148
G01 X159.973 Y1010.253
G01 X404.397 Y231.203
G01 X5.000 Y203.802
G01 X5.000 Y10.559
G01 X19.391 Y5.000
G01 X710.000 Y5.000
G01 X710.000 Y435.313
G01 X704.059 Y426.473
G01 X118.554 Y1062.953
G01 X378.178 Y240.790
G01 X5.000 Y214.470
G01 X5.000 Y5.000
G01 X710.000 Y5.000
G01 X710.000 Y467.735
G01 X695.051 Y445.398
G01 X77.545 Y1114.244
G01 X352.533 Y249.027
G01 X5.000 Y223.855
G01 X5.000 Y5.000
G01 X710.000 Y5.000
G01 X710.000 Y498.011
G01 X686.749 Y463.125
G01 X37.140 Y1164.238
G01 X327.658 Y256.025
G01 X5.000 Y232.050
G01 X5.000 Y5.000
G01 X710.000 Y5.000
G01 X710.000 Y526.000
G01 X679.331 Y479.793
G01 X5.000 Y1205.023
G01 X5.000 Y1189.824
G01 X303.725 Y261.928
G01 X5.000 Y239.176
G01 X5.000 Y5.000
G01 X710.000 Y5.000
G01 X710.000 Y551.617
G01 X672.948 Y495.566
G01 X5.000 Y1211.424
G01 X5.000 Y1118.391
G01 X280.884 Y266.901
G01 X5.000 Y245.382
G01 X5.000 Y5.000
G01 X710.000 Y5.000
G01 X710.000 Y574.838
G01 X667.728 Y510.627
G01 X5.000 Y1218.431
G01 X5.000 Y1050.900
G01 X259.256 Y271.133
G01 X5.000 Y250.838
G01 X5.000 Y5.000
G01 X710.000 Y5.000
G01 X710.000 Y595.698
G01 X663.764 Y525.181
G01 X5.000 Y1226.332
G01 X5.000 Y987.748
G01 X238.933 Y274.828
G01 X5.000 Y255.734
G01 X5.000 Y5.000
G01 X710.000 Y5.000
G01 X710.000 Y614.294
G01 X661.120 Y539.443
G01 X5.000 Y1235.390
G01 X5.000 Y929.239
G01 X219.971 Y278.205
G01 X5.000 Y260.274
G01 X5.000 Y5.000
G01 X710.000 Y5.000
G01 X710.000 Y630.782
G01 X659.821 Y553.634
G01 X5.000 Y1245.837
G01 X5.000 Y875.573
G01 X202.394 Y281.484
G01 X5.000 Y264.670
G01 X5.000 Y5.000
G01 X710.000 Y5.000
G01 X710.000 Y645.371
G01 X659.862 Y567.979
G01 X5.000 Y1257.873
G01 X5.000 Y826.846
G01 X186.188 Y284.891
G01 X5.000 Y269.138
G01 X5.000 Y5.000
G01 X710.000 Y5.000
G01 X710.000 Y658.323
G01 X661.200 Y582.697
G01 X5.000 Y1271.654
G01 X5.000 Y783.050
G01 X171.307 Y288.643
G01 X5.000 Y273.893
G01 X5.000 Y5.000
G01 X710.000 Y5.000
G01 X710.000 Y669.944
G01 X663.757 Y597.998
G01 X5.000 Y1287.295
G01 X5.000 Y744.069
G01 X157.670 Y292.950
G01 X5.000 Y279.144
G01 X5.000 Y5.000
G01 X710.000 Y5.000
G01 X710.000 Y680.576
G01 X667.427 Y614.080
G01 X5.000 Y1304.864
G01 X5.000 Y709.688
G01 X145.164 Y298.005
G01 X5.000 Y285.088
G01 X5.000 Y5.000
G01 X710.000 Y5.000
G01 X710.000 Y690.592
G01 X672.070 Y631.117
G01 X5.000 Y1324.380
G01 X5.000 Y679.597
G01 X133.647 Y303.982
G01 X5.000 Y291.904
G01 X5.000 Y5.000
G01 X710.000 Y5.000
G01 X710.000 Y700.385
G01 X677.524 Y649.264
G01 X5.000 Y1345.813
G01 X5.000 Y653.399
G01 X122.953 Y311.030
G01 X5.000 Y299.753
G01 X5.000 Y5.000
G01 X710.000 Y5.000
G01 X710.000 Y710.358
G01 X683.602 Y668.644
G01 X5.000 Y1369.089
G01 X5.000 Y630.621
G01 X112.894 Y319.270
G01 X5.000 Y308.769
G01 X5.000 Y5.000
G01 X710.000 Y5.000
G01 X710.000 Y720.918
G01 X690.102 Y689.355
G01 X5.000 Y1394.084
G01 X5.000 Y610.723
G01 X103.264 Y328.792
G01 X5.000 Y319.060
G01 X5.000 Y5.000
G01 X710.000 Y5.000
G01 X710.000 Y732.460
G01 X696.809 Y711.456
G01 X5.000 Y1420.634
G01 X5.000 Y593.117
G01 X93.847 Y339.654
G01 X5.000 Y330.702
G01 X5.000 Y5.000
G01 X710.000 Y5.000
G01 X710.000 Y745.365
G01 X703.500 Y734.975
G01 X5.000 Y1448.537
G01 X5.000 Y577.172
G01 X84.420 Y351.878
G01 X5.000 Y343.739
G01 X5.000 Y5.000
G01 X710.000 Y5.000
G01 X710.000 Y759.985
G01 X709.950 Y759.905
G01 X5.000 Y1477.556
G01 X5.000 Y562.239
G01 X74.760 Y365.451
G01 X5.000 Y358.182
G01 X5.000 Y5.000
G01 X710.000 Y5.000
G01 X710.000 Y792.230
G01 X5.000 Y1507.428
G01 X5.000 Y547.659
G01 X64.648 Y380.326
G01 X5.000 Y374.008
G01 X5.000 Y5.000
G01 X710.000 Y5.000
G01 X710.000 Y825.177
G01 X5.000 Y1537.869
G01 X5.000 Y532.783
G01 X53.875 Y396.422
G01 X5.000 Y391.160
G01 X5.000 Y5.000
G01 X710.000 Y5.000
G01 X710.000 Y858.395
G01 X5.000 Y1568.579
G01 X5.000 Y516.982
G01 X42.247 Y413.625
G01 X5.000 Y409.551
G01 X5.000 Y5.000
G01 X710.000 Y5.000
G01 X710.000 Y891.579
G01 X5.000 Y1599.253
G01 X5.000 Y499.667
G01 X29.592 Y431.795
G01 X5.000 Y429.062
G01 X5.000 Y5.000
G01 X710.000 Y5.000
G01 X710.000 Y924.423
G01 X34.580 Y1600.000
G01 X5.000 Y1600.000
G01 X5.000 Y480.300
G01 X15.760 Y450.763
G01 X5.000 Y449.548
G01 X5.000 Y5.000
G01 X710.000 Y5.000
G01 X710.000 Y956.628
G01 X64.480 Y1600.000
G01 X710.000 Y1600.000
G01 X710.000 Y987.912
G01 X93.668 Y1600.000
G01 X710.000 Y1600.000
G01 X710.000 Y1018.013
G01 X121.872 Y1600.000
G01 X710.000 Y1600.000
G01 X710.000 Y1046.696
G01 X148.845 Y1600.000
G01 X710.000 Y1600.000
G01 X710.000 Y1073.760
G01 X174.371 Y1600.000
G01 X710.000 Y1600.000
G01 X710.000 Y1099.044
G01 X198.267 Y1600.000
G01 X710.000 Y1600.000
G01 X710.000 Y1130.735
G01 X706.872 Y1125.478
G01 X220.392 Y1600.000
G01 X710.000 Y1600.000
G01 X710.000 Y1176.392
G01 X697.754 Y1155.731
G01 X240.648 Y1600.000
G01 X710.000 Y1600.000
G01 X710.000 Y1223.117
G01 X687.504 Y1185.009
G01 X258.982 Y1600.000
G01 X710.000 Y1600.000
G01 X710.000 Y1270.505
G01 X676.283 Y1213.159
G01 X275.392 Y1600.000
G01 X710.000 Y1600.000
G01 X710.000 Y1318.134
G01 X664.277 Y1240.054
G01 X289.919 Y1600.000
G01 X710.000 Y1600.000
G01 X710.000 Y1365.579
G01 X651.690 Y1265.601
G01 X302.656 Y1600.000
G01 X710.000 Y1600.000
G01 X710.000 Y1412.422
G01 X638.738 Y1289.736
G01 X313.737 Y1600.000
G01 X710.000 Y1600.000
G01 X710.000 Y1458.261
G01 X625.642 Y1312.432
G01 X323.341 Y1600.000
G01 X710.000 Y1600.000
G01 X710.000 Y1502.718
G01 X612.626 Y1333.696
G01 X331.684 Y1600.000
G01 X710.000 Y1600.000
G01 X710.000 Y1545.454
G01 X599.911 Y1353.571
G01 X339.014 Y1600.000
G01 X710.000 Y1600.000
G01 X710.000 Y1586.171
G01 X587.707 Y1372.132
G01 X345.609 Y1600.000
G01 X695.990 Y1600.000
G01 X576.210 Y1389.488
G01 X351.765 Y1600.000
G01 X675.651 Y1600.000
G01 X565.598 Y1405.776
G01 X357.792 Y1600.000
G01 X656.938 Y1600.000
G01 X556.023 Y1421.159
G01 X364.007 Y1600.000
G01 X639.865 Y1600.000
G01 X547.611 Y1435.825
G01 X370.725 Y1600.000
G01 X624.408 Y1600.000
G01 X540.457 Y1449.974
G01 X378.253 Y1600.000
G01 X610.507 Y1600.000
G01 X534.622 Y1463.822
G01 X386.879 Y1600.000
G01 X598.062 Y1600.000
G01 X530.136 Y1477.592
G01 X396.871 Y1600.000
G01 X586.943 Y1600.000
G01 X526.989 Y1491.506
G01 X408.464 Y1600.000
G01 X576.985 Y1600.000
G01 X525.140 Y1505.786
G01 X421.859 Y1600.000
G01 X568.001 Y1600.000
G01 X524.513 Y1520.641
G01 X437.215 Y1600.000
G01 X559.777 Y1600.000
G01 X524.998 Y1536.267
G01 X454.648 Y1600.000
G01 X552.086 Y1600.000
G01 X526.458 Y1552.842
G01 X474.223 Y1600.000
G01 X544.686 Y1600.000
G01 X528.730 Y1570.517
G01 X495.960 Y1600.000
G01 X537.331 Y1600.000
G01 X531.628 Y1589.418
G01 X519.826 Y1600.000
G01 X5.000 Y1600.000
G01 X5.000 Y5.000

; BEGIN POST
G04 S90
; jazz2.gcode; END POST
; file trimmed by trimify2x.pl
; QQQQQQQ

