; file trimmed by trimify2x.pl
; Created by Sandify
; 
;   https://sandify.org
; 
;   Sandify Version: 0.1.4
; 
;   Machine Type: Rectangular
;     MinX: 5 MaxX: 710 MinY: 5 MaxY: 1600
;   Content Type: Shapes
;     Starting Size: 1000
;     Offset: X: 93 Y: -9
;     Selected Shape: Circle
;       Circle Lobes: 3
;     Number of Loops: 216
;     Spin: true
;       Spin Value: 6.9
;       Spin Switchbacks: 0
;     Grow: true
;       Grow Value: -4
;     Track: false
;   Path Reversed: false
; 
; filename: 'loopy_1'

; BEGIN PRE
G28 Y
G28 X
G01 F30000; END PRE
G01 X710.000 Y793.500
G01 X710.000 Y566.750
G01 X697.771 Y557.164
G01 X651.258 Y526.411
G01 X604.204 Y501.519
G01 X556.694 Y483.005
G01 X508.817 Y471.241
G01 X460.663 Y466.453
G01 X412.326 Y468.716
G01 X363.908 Y477.948
G01 X315.511 Y493.916
G01 X267.247 Y516.241
G01 X219.228 Y544.403
G01 X171.577 Y577.757
G01 X124.417 Y615.545
G01 X77.880 Y656.910
G01 X32.098 Y700.920
G01 X5.000 Y728.487
G01 X5.000 Y813.528
G01 X29.944 Y845.654
G01 X69.782 Y894.073
G01 X110.620 Y939.935
G01 X152.437 Y982.318
G01 X195.204 Y1020.380
G01 X238.887 Y1053.373
G01 X283.443 Y1080.665
G01 X328.819 Y1101.746
G01 X374.953 Y1116.247
G01 X421.769 Y1123.940
G01 X469.177 Y1124.749
G01 X517.076 Y1118.747
G01 X565.349 Y1106.155
G01 X613.868 Y1087.340
G01 X662.489 Y1062.801
G01 X710.000 Y1033.808
G01 X710.000 Y605.012
G01 X672.957 Y573.527
G01 X630.996 Y544.396
G01 X587.868 Y521.287
G01 X543.611 Y504.568
G01 X498.287 Y494.463
G01 X451.979 Y491.054
G01 X404.790 Y494.275
G01 X356.847 Y503.915
G01 X308.298 Y519.625
G01 X259.312 Y540.924
G01 X210.078 Y567.211
G01 X160.803 Y597.776
G01 X111.709 Y631.820
G01 X63.032 Y668.469
G01 X15.017 Y706.797
G01 X5.000 Y715.101
G01 X5.000 Y739.671
G01 X13.338 Y754.185
G01 X44.536 Y806.252
G01 X76.886 Y856.936
G01 X110.483 Y905.300
G01 X145.410 Y950.464
G01 X181.739 Y991.622
G01 X219.522 Y1028.061
G01 X258.792 Y1059.171
G01 X299.558 Y1084.465
G01 X341.801 Y1103.580
G01 X385.476 Y1116.295
G01 X430.506 Y1122.525
G01 X476.787 Y1122.328
G01 X524.183 Y1115.903
G01 X572.527 Y1103.583
G01 X621.626 Y1085.827
G01 X671.261 Y1063.213
G01 X710.000 Y1042.424
G01 X710.000 Y645.815
G01 X687.727 Y621.716
G01 X651.171 Y589.189
G01 X612.812 Y562.257
G01 X572.646 Y541.272
G01 X530.706 Y526.455
G01 X487.059 Y517.892
G01 X441.814 Y515.532
G01 X395.114 Y519.190
G01 X347.141 Y528.551
G01 X298.111 Y543.175
G01 X248.272 Y562.512
G01 X197.904 Y585.913
G01 X147.309 Y612.641
G01 X96.812 Y641.895
G01 X46.753 Y672.819
G01 X5.000 Y699.690
G01 X5.000 Y634.776
G01 X17.319 Y664.573
G01 X39.936 Y717.912
G01 X63.599 Y770.978
G01 X88.514 Y822.860
G01 X114.880 Y872.680
G01 X142.877 Y919.611
G01 X172.665 Y962.896
G01 X204.377 Y1001.863
G01 X238.114 Y1035.937
G01 X273.939 Y1064.656
G01 X311.877 Y1087.674
G01 X351.910 Y1104.774
G01 X393.975 Y1115.870
G01 X437.966 Y1121.003
G01 X483.731 Y1120.347
G01 X531.073 Y1114.199
G01 X579.755 Y1102.975
G01 X629.503 Y1087.198
G01 X680.007 Y1067.486
G01 X710.000 Y1053.969
G01 X710.000 Y689.885
G01 X695.639 Y670.012
G01 X664.672 Y634.946
G01 X631.352 Y604.984
G01 X595.636 Y580.460
G01 X557.528 Y561.588
G01 X517.084 Y548.455
G01 X474.411 Y541.028
G01 X429.667 Y539.144
G01 X383.062 Y542.526
G01 X334.851 Y550.782
G01 X285.332 Y563.418
G01 X234.846 Y579.849
G01 X183.764 Y599.412
G01 X132.487 Y621.382
G01 X81.434 Y644.986
G01 X31.040 Y669.426
G01 X5.000 Y682.350
G01 X5.000 Y460.612
G01 X11.771 Y482.185
G01 X25.851 Y530.701
G01 X40.053 Y581.608
G01 X54.668 Y634.077
G01 X70.000 Y687.261
G01 X86.354 Y740.304
G01 X104.031 Y792.367
G01 X123.320 Y842.638
G01 X144.486 Y890.356
G01 X167.769 Y934.821
G01 X193.370 Y975.410
G01 X221.452 Y1011.591
G01 X252.127 Y1042.932
G01 X285.459 Y1069.110
G01 X321.455 Y1089.917
G01 X360.066 Y1105.262
G01 X401.185 Y1115.176
G01 X444.648 Y1119.804
G01 X490.236 Y1119.406
G01 X537.676 Y1114.349
G01 X586.646 Y1105.098
G01 X636.783 Y1092.203
G01 X687.684 Y1076.289
G01 X710.000 Y1068.340
G01 X710.000 Y741.161
G01 X696.895 Y717.484
G01 X671.578 Y680.727
G01 X643.448 Y648.537
G01 X612.426 Y621.223
G01 X578.492 Y598.988
G01 X541.688 Y581.923
G01 X502.121 Y570.006
G01 X459.960 Y563.102
G01 X415.433 Y560.973
G01 X368.827 Y563.275
G01 X320.484 Y569.575
G01 X270.791 Y579.358
G01 X220.177 Y592.038
G01 X169.104 Y606.974
G01 X118.058 Y623.484
G01 X67.542 Y640.860
G01 X18.064 Y658.385
G01 X5.000 Y663.009
G01 X5.000 Y261.329
G01 X18.786 Y281.158
G01 X31.827 Y307.812
G01 X43.358 Y339.677
G01 X53.559 Y376.318
G01 X62.660 Y417.210
G01 X70.939 Y461.754
G01 X78.711 Y509.286
G01 X86.325 Y559.092
G01 X94.151 Y610.422
G01 X102.573 Y662.509
G01 X111.978 Y714.577
G01 X122.747 Y765.868
G01 X135.245 Y815.646
G01 X149.811 Y863.222
G01 X166.752 Y907.960
G01 X186.330 Y949.295
G01 X208.758 Y986.743
G01 X234.193 Y1019.907
G01 X262.732 Y1048.489
G01 X294.405 Y1072.294
G01 X329.175 Y1091.231
G01 X366.939 Y1105.316
G01 X407.525 Y1114.668
G01 X450.694 Y1119.509
G01 X496.146 Y1120.155
G01 X543.525 Y1117.008
G01 X592.423 Y1110.549
G01 X642.387 Y1101.321
G01 X692.929 Y1089.923
G01 X710.000 Y1085.561
G01 X710.000 Y809.122
G01 X708.546 Y804.496
G01 X691.821 Y763.254
G01 X672.093 Y725.630
G01 X649.186 Y692.001
G01 X622.989 Y662.650
G01 X593.461 Y637.767
G01 X560.632 Y617.442
G01 X524.604 Y601.665
G01 X485.553 Y590.330
G01 X443.722 Y583.236
G01 X399.423 Y580.091
G01 X353.026 Y580.525
G01 X304.958 Y584.095
G01 X255.690 Y590.297
G01 X205.732 Y598.577
G01 X155.622 Y608.347
G01 X105.915 Y618.996
G01 X57.174 Y629.903
G01 X9.957 Y640.458
G01 X5.000 Y641.513
G01 X5.000 Y223.237
G01 X21.570 Y219.496
G01 X41.826 Y219.679
G01 X60.006 Y225.209
G01 X75.977 Y236.157
G01 X89.678 Y252.499
G01 X101.122 Y274.113
G01 X110.392 Y300.781
G01 X117.642 Y332.195
G01 X123.091 Y367.964
G01 X127.015 Y407.620
G01 X129.745 Y450.627
G01 X131.656 Y496.396
G01 X133.157 Y544.291
G01 X134.685 Y593.648
G01 X136.688 Y643.784
G01 X139.621 Y694.014
G01 X143.931 Y743.663
G01 X150.045 Y792.080
G01 X158.363 Y838.653
G01 X169.245 Y882.816
G01 X183.005 Y924.068
G01 X199.898 Y961.974
G01 X220.117 Y996.180
G01 X243.788 Y1026.415
G01 X270.962 Y1052.498
G01 X301.614 Y1074.339
G01 X335.643 Y1091.943
G01 X372.874 Y1105.402
G01 X413.057 Y1114.898
G01 X455.872 Y1120.697
G01 X500.936 Y1123.136
G01 X547.809 Y1122.622
G01 X596.003 Y1119.619
G01 X644.989 Y1114.633
G01 X694.209 Y1108.208
G01 X710.000 Y1105.848
G01 X710.000 Y1372.401
G01 X707.798 Y1349.124
G01 X706.200 Y1310.466
G01 X705.960 Y1268.619
G01 X706.678 Y1224.136
G01 X707.918 Y1177.610
G01 X709.219 Y1129.663
G01 X710.000 Y1086.580
G01 X710.000 Y1029.015
G01 X708.699 Y983.661
G01 X705.485 Y936.362
G01 X700.019 Y890.728
G01 X691.919 Y847.287
G01 X680.851 Y806.509
G01 X666.539 Y768.801
G01 X648.777 Y734.497
G01 X627.427 Y703.852
G01 X602.428 Y677.039
G01 X573.799 Y654.147
G01 X541.638 Y635.177
G01 X506.123 Y620.049
G01 X467.506 Y608.601
G01 X426.114 Y600.594
G01 X382.339 Y595.721
G01 X336.633 Y593.613
G01 X289.498 Y593.848
G01 X241.478 Y595.963
G01 X193.147 Y599.464
G01 X145.098 Y603.839
G01 X97.931 Y608.568
G01 X52.243 Y613.138
G01 X8.611 Y617.054
G01 X5.000 Y617.299
G01 X5.000 Y258.766
G01 X14.656 Y252.427
G01 X41.182 Y237.844
G01 X66.393 Y227.068
G01 X89.880 Y220.453
G01 X111.293 Y218.288
G01 X130.351 Y220.786
G01 X146.843 Y228.082
G01 X160.637 Y240.228
G01 X171.679 Y257.194
G01 X179.994 Y278.866
G01 X185.687 Y305.048
G01 X188.936 Y335.467
G01 X189.993 Y369.781
G01 X189.171 Y407.578
G01 X186.844 Y448.393
G01 X183.431 Y491.712
G01 X179.391 Y536.985
G01 X175.208 Y583.635
G01 X171.386 Y631.070
G01 X168.427 Y678.698
G01 X166.831 Y725.934
G01 X167.074 Y772.214
G01 X169.601 Y817.006
G01 X174.817 Y859.821
G01 X183.072 Y900.221
G01 X194.657 Y937.827
G01 X209.795 Y972.327
G01 X228.632 Y1003.481
G01 X251.238 Y1031.125
G01 X277.600 Y1055.173
G01 X307.622 Y1075.615
G01 X341.128 Y1092.520
G01 X377.861 Y1106.032
G01 X417.491 Y1116.363
G01 X459.619 Y1123.788
G01 X503.783 Y1128.640
G01 X549.472 Y1131.299
G01 X596.129 Y1132.184
G01 X643.169 Y1131.740
G01 X689.985 Y1130.430
G01 X710.000 Y1129.688
G01 X710.000 Y1509.839
G01 X696.759 Y1510.448
G01 X678.277 Y1507.025
G01 X662.566 Y1499.093
G01 X649.760 Y1486.609
G01 X639.909 Y1469.606
G01 X632.982 Y1448.194
G01 X628.865 Y1422.556
G01 X627.368 Y1392.946
G01 X628.229 Y1359.684
G01 X631.117 Y1323.150
G01 X635.644 Y1283.775
G01 X641.371 Y1242.032
G01 X647.822 Y1198.430
G01 X654.490 Y1153.501
G01 X660.856 Y1107.788
G01 X666.393 Y1061.839
G01 X670.584 Y1016.192
G01 X672.934 Y971.367
G01 X672.978 Y927.853
G01 X670.296 Y886.102
G01 X664.522 Y846.519
G01 X655.351 Y809.455
G01 X642.550 Y775.199
G01 X625.961 Y743.975
G01 X605.509 Y715.939
G01 X581.200 Y691.176
G01 X553.126 Y669.699
G01 X521.465 Y651.451
G01 X486.472 Y636.310
G01 X448.482 Y624.088
G01 X407.898 Y614.541
G01 X365.186 Y607.372
G01 X320.868 Y602.242
G01 X275.507 Y598.779
G01 X229.698 Y596.583
G01 X184.056 Y595.240
G01 X139.206 Y594.331
G01 X95.764 Y593.440
G01 X54.332 Y592.167
G01 X15.479 Y590.138
G01 X5.000 Y589.221
G01 X5.000 Y308.333
G01 X16.841 Y299.641
G01 X45.375 Y280.892
G01 X73.801 Y264.436
G01 X101.560 Y250.687
G01 X128.129 Y240.027
G01 X153.029 Y232.791
G01 X175.837 Y229.268
G01 X196.190 Y229.687
G01 X213.801 Y234.216
G01 X228.458 Y242.959
G01 X240.030 Y255.948
G01 X248.470 Y273.149
G01 X253.815 Y294.457
G01 X256.185 Y319.700
G01 X255.780 Y348.642
G01 X252.875 Y380.989
G01 X247.811 Y416.391
G01 X240.991 Y454.454
G01 X232.867 Y494.742
G01 X223.933 Y536.790
G01 X214.710 Y580.113
G01 X205.736 Y624.211
G01 X197.552 Y668.587
G01 X190.691 Y712.746
G01 X185.664 Y756.216
G01 X182.951 Y798.546
G01 X182.986 Y839.324
G01 X186.148 Y878.179
G01 X192.751 Y914.789
G01 X203.041 Y948.885
G01 X217.181 Y980.260
G01 X235.256 Y1008.768
G01 X257.263 Y1034.326
G01 X283.112 Y1056.915
G01 X312.631 Y1076.580
G01 X345.561 Y1093.427
G01 X381.569 Y1107.617
G01 X420.248 Y1119.364
G01 X461.129 Y1128.927
G01 X503.686 Y1136.606
G01 X547.351 Y1142.729
G01 X591.524 Y1147.649
G01 X635.583 Y1151.732
G01 X678.898 Y1155.348
G01 X710.000 Y1157.954
G01 X710.000 Y1485.779
G01 X692.081 Y1493.378
G01 X665.560 Y1502.265
G01 X640.858 Y1507.928
G01 X618.403 Y1510.114
G01 X598.558 Y1508.621
G01 X581.612 Y1503.302
G01 X567.778 Y1494.072
G01 X557.182 Y1480.905
G01 X549.870 Y1463.838
G01 X545.798 Y1442.970
G01 X544.840 Y1418.462
G01 X546.789 Y1390.530
G01 X551.361 Y1359.444
G01 X558.204 Y1325.522
G01 X566.904 Y1289.126
G01 X576.998 Y1250.649
G01 X587.979 Y1210.513
G01 X599.316 Y1169.161
G01 X610.456 Y1127.042
G01 X620.845 Y1084.610
G01 X629.940 Y1042.311
G01 X637.215 Y1000.574
G01 X642.180 Y959.808
G01 X644.392 Y920.386
G01 X643.460 Y882.647
G01 X639.060 Y846.885
G01 X630.941 Y813.343
G01 X618.930 Y782.215
G01 X602.939 Y753.637
G01 X582.965 Y727.689
G01 X559.092 Y704.395
G01 X531.494 Y683.720
G01 X500.425 Y665.578
G01 X466.219 Y649.832
G01 X429.281 Y636.298
G01 X390.084 Y624.751
G01 X349.153 Y614.934
G01 X307.057 Y606.559
G01 X264.401 Y599.320
G01 X221.808 Y592.900
G01 X179.908 Y586.976
G01 X139.328 Y581.229
G01 X100.675 Y575.353
G01 X64.526 Y569.061
G01 X31.414 Y562.093
G01 X5.000 Y555.068
G01 X5.000 Y358.456
G01 X16.083 Y349.678
G01 X42.423 Y331.108
G01 X70.196 Y313.597
G01 X98.802 Y297.512
G01 X127.637 Y283.215
G01 X156.110 Y271.051
G01 X183.651 Y261.347
G01 X209.726 Y254.398
G01 X233.851 Y250.466
G01 X255.595 Y249.772
G01 X274.595 Y252.489
G01 X290.562 Y258.743
G01 X303.287 Y268.603
G01 X312.643 Y282.088
G01 X318.592 Y299.158
G01 X321.179 Y319.720
G01 X320.537 Y343.625
G01 X316.879 Y370.677
G01 X310.497 Y400.629
G01 X301.750 Y433.194
G01 X291.059 Y468.048
G01 X278.897 Y504.833
G01 X265.778 Y543.172
G01 X252.246 Y582.668
G01 X238.859 Y622.916
G01 X226.180 Y663.510
G01 X214.765 Y704.050
G01 X205.144 Y744.149
G01 X197.816 Y783.443
G01 X193.235 Y821.594
G01 X191.796 Y858.298
G01 X193.831 Y893.289
G01 X199.597 Y926.345
G01 X209.273 Y957.290
G01 X222.952 Y985.997
G01 X240.640 Y1012.388
G01 X262.258 Y1036.437
G01 X287.636 Y1058.166
G01 X316.522 Y1077.644
G01 X348.585 Y1094.984
G01 X383.421 Y1110.342
G01 X420.559 Y1123.906
G01 X459.477 Y1135.897
G01 X499.604 Y1146.558
G01 X540.340 Y1156.151
G01 X581.061 Y1164.948
G01 X621.139 Y1173.224
G01 X659.947 Y1181.250
G01 X696.882 Y1189.289
G01 X710.000 Y1192.445
G01 X710.000 Y1445.235
G01 X708.446 Y1446.089
G01 X679.671 Y1460.075
G01 X650.778 Y1472.318
G01 X622.361 Y1482.516
G01 X594.991 Y1490.387
G01 X569.199 Y1495.677
G01 X545.474 Y1498.160
G01 X524.242 Y1497.649
G01 X505.864 Y1493.995
G01 X490.629 Y1487.097
G01 X478.743 Y1476.896
G01 X470.328 Y1463.385
G01 X465.421 Y1446.603
G01 X463.971 Y1426.639
G01 X465.840 Y1403.628
G01 X470.811 Y1377.748
G01 X478.588 Y1349.221
G01 X488.805 Y1318.304
G01 X501.037 Y1285.288
G01 X514.804 Y1250.488
G01 X529.587 Y1214.242
G01 X544.837 Y1176.901
G01 X559.990 Y1138.825
G01 X574.477 Y1100.374
G01 X587.739 Y1061.903
G01 X599.237 Y1023.754
G01 X608.469 Y986.252
G01 X614.978 Y949.696
G01 X618.361 Y914.359
G01 X618.283 Y880.476
G01 X614.482 Y848.250
G01 X606.775 Y817.838
G01 X595.065 Y789.359
G01 X579.341 Y762.887
G01 X559.680 Y738.453
G01 X536.246 Y716.044
G01 X509.287 Y695.610
G01 X479.132 Y677.058
G01 X446.179 Y660.263
G01 X410.895 Y645.069
G01 X373.799 Y631.294
G01 X335.457 Y618.734
G01 X296.465 Y607.172
G01 X257.441 Y596.382
G01 X219.011 Y586.134
G01 X181.794 Y576.200
G01 X146.393 Y566.365
G01 X113.377 Y556.424
G01 X83.274 Y546.197
G01 X56.557 Y535.526
G01 X33.636 Y524.282
G01 X14.847 Y512.370
G01 X5.000 Y503.724
G01 X5.000 Y416.174
G01 X9.785 Y409.984
G01 X26.044 Y393.713
G01 X45.658 Y377.553
G01 X68.158 Y361.742
G01 X93.021 Y346.539
G01 X119.687 Y332.212
G01 X147.568 Y319.035
G01 X176.063 Y307.283
G01 X204.569 Y297.224
G01 X232.494 Y289.115
G01 X259.271 Y283.195
G01 X284.369 Y279.679
G01 X307.306 Y278.757
G01 X327.656 Y280.584
G01 X345.062 Y285.282
G01 X359.241 Y292.935
G01 X369.988 Y303.585
G01 X377.186 Y317.232
G01 X380.802 Y333.837
G01 X380.890 Y353.316
G01 X377.591 Y375.548
G01 X371.126 Y400.370
G01 X361.795 Y427.587
G01 X349.964 Y456.971
G01 X336.065 Y488.267
G01 X320.578 Y521.196
G01 X304.025 Y555.462
G01 X286.957 Y590.759
G01 X269.941 Y626.770
G01 X253.547 Y663.182
G01 X238.337 Y699.683
G01 X224.850 Y735.974
G01 X213.592 Y771.770
G01 X205.022 Y806.809
G01 X199.544 Y840.852
G01 X197.496 Y873.688
G01 X199.143 Y905.140
G01 X204.670 Y935.065
G01 X214.180 Y963.353
G01 X227.685 Y989.935
G01 X245.113 Y1014.775
G01 X266.306 Y1037.876
G01 X291.018 Y1059.275
G01 X318.930 Y1079.039
G01 X349.645 Y1097.267
G01 X382.706 Y1114.084
G01 X417.599 Y1129.634
G01 X453.767 Y1144.082
G01 X490.619 Y1157.602
G01 X527.545 Y1170.378
G01 X563.928 Y1182.596
G01 X599.155 Y1194.438
G01 X632.633 Y1206.079
G01 X663.799 Y1217.681
G01 X692.132 Y1229.391
G01 X710.000 Y1237.914
G01 X710.000 Y1399.524
G01 X693.927 Y1409.409
G01 X668.864 Y1422.717
G01 X642.111 Y1435.073
G01 X614.251 Y1446.246
G01 X585.883 Y1456.006
G01 X557.604 Y1464.130
G01 X530.000 Y1470.403
G01 X503.634 Y1474.630
G01 X479.030 Y1476.631
G01 X456.665 Y1476.253
G01 X436.960 Y1473.369
G01 X420.265 Y1467.884
G01 X406.861 Y1459.733
G01 X396.945 Y1448.888
G01 X390.633 Y1435.354
G01 X387.952 Y1419.173
G01 X388.846 Y1400.422
G01 X393.171 Y1379.210
G01 X400.703 Y1355.681
G01 X411.144 Y1330.007
G01 X424.123 Y1302.387
G01 X439.211 Y1273.042
G01 X455.926 Y1242.212
G01 X473.748 Y1210.154
G01 X492.128 Y1177.133
G01 X510.498 Y1143.419
G01 X528.289 Y1109.284
G01 X544.942 Y1074.994
G01 X559.918 Y1040.808
G01 X572.713 Y1006.970
G01 X582.868 Y973.708
G01 X589.978 Y941.230
G01 X593.707 Y909.717
G01 X593.787 Y879.327
G01 X590.032 Y850.187
G01 X582.338 Y822.396
G01 X570.686 Y796.020
G01 X555.145 Y771.098
G01 X535.871 Y747.637
G01 X513.099 Y725.615
G01 X487.145 Y704.985
G01 X458.396 Y685.676
G01 X427.301 Y667.593
G01 X394.365 Y650.627
G01 X360.135 Y634.651
G01 X325.192 Y619.531
G01 X290.135 Y605.125
G01 X255.571 Y591.291
G01 X222.102 Y577.887
G01 X190.311 Y564.778
G01 X160.750 Y551.842
G01 X133.931 Y538.967
G01 X110.309 Y526.062
G01 X90.281 Y513.051
G01 X74.169 Y499.886
G01 X62.219 Y486.539
G01 X54.595 Y473.009
G01 X51.375 Y459.318
G01 X52.546 Y445.518
G01 X58.012 Y431.682
G01 X67.590 Y417.909
G01 X81.017 Y404.320
G01 X97.953 Y391.054
G01 X117.993 Y378.267
G01 X140.672 Y366.131
G01 X165.477 Y354.825
G01 X191.856 Y344.537
G01 X219.232 Y335.454
G01 X247.016 Y327.764
G01 X274.618 Y321.648
G01 X301.460 Y317.278
G01 X326.987 Y314.812
G01 X350.684 Y314.390
G01 X372.082 Y316.133
G01 X390.767 Y320.138
G01 X406.394 Y326.478
G01 X418.692 Y335.198
G01 X427.468 Y346.314
G01 X432.610 Y359.813
G01 X434.094 Y375.655
G01 X431.981 Y393.767
G01 X426.415 Y414.053
G01 X417.620 Y436.386
G01 X405.895 Y460.619
G01 X391.609 Y486.580
G01 X375.188 Y514.082
G01 X357.112 Y542.919
G01 X337.898 Y572.876
G01 X318.091 Y603.728
G01 X298.253 Y635.248
G01 X278.949 Y667.206
G01 X260.735 Y699.379
G01 X244.145 Y731.547
G01 X229.680 Y763.505
G01 X217.795 Y795.059
G01 X208.891 Y826.034
G01 X203.306 Y856.273
G01 X201.304 Y885.640
G01 X203.074 Y914.023
G01 X208.721 Y941.334
G01 X218.266 Y967.508
G01 X231.645 Y992.505
G01 X248.710 Y1016.310
G01 X269.229 Y1038.929
G01 X292.897 Y1060.390
G01 X319.337 Y1080.739
G01 X348.108 Y1100.041
G01 X378.719 Y1118.372
G01 X410.633 Y1135.823
G01 X443.284 Y1152.489
G01 X476.084 Y1168.473
G01 X508.441 Y1183.876
G01 X539.766 Y1198.800
G01 X569.489 Y1213.340
G01 X597.071 Y1227.585
G01 X622.012 Y1241.610
G01 X643.868 Y1255.478
G01 X662.253 Y1269.237
G01 X676.853 Y1282.918
G01 X687.429 Y1296.531
G01 X693.824 Y1310.070
G01 X695.965 Y1323.505
G01 X693.866 Y1336.791
G01 X687.625 Y1349.861
G01 X677.424 Y1362.630
G01 X663.525 Y1374.999
G01 X646.262 Y1386.851
G01 X626.036 Y1398.060
G01 X603.306 Y1408.488
G01 X578.575 Y1417.992
G01 X552.388 Y1426.423
G01 X525.309 Y1433.634
G01 X497.920 Y1439.478
G01 X470.799 Y1443.816
G01 X444.513 Y1446.515
G01 X419.605 Y1447.455
G01 X396.581 Y1446.532
G01 X375.900 Y1443.656
G01 X357.964 Y1438.757
G01 X343.110 Y1431.786
G01 X331.604 Y1422.715
G01 X323.632 Y1411.541
G01 X319.299 Y1398.280
G01 X318.627 Y1382.977
G01 X321.553 Y1365.694
G01 X327.933 Y1346.519
G01 X337.542 Y1325.559
G01 X350.083 Y1302.940
G01 X365.192 Y1278.804
G01 X382.446 Y1253.310
G01 X401.372 Y1226.626
G01 X421.459 Y1198.930
G01 X442.168 Y1170.407
G01 X462.945 Y1141.244
G01 X483.231 Y1111.628
G01 X502.480 Y1081.743
G01 X520.162 Y1051.769
G01 X535.786 Y1021.876
G01 X548.900 Y992.222
G01 X559.107 Y962.955
G01 X566.076 Y934.205
G01 X569.541 Y906.087
G01 X569.317 Y878.700
G01 X565.295 Y852.120
G01 X557.454 Y826.411
G01 X545.852 Y801.612
G01 X530.631 Y777.749
G01 X512.015 Y754.829
G01 X490.300 Y732.842
G01 X465.852 Y711.765
G01 X439.099 Y691.562
G01 X410.519 Y672.187
G01 X380.634 Y653.586
G01 X349.995 Y635.698
G01 X319.174 Y618.459
G01 X288.747 Y601.805
G01 X259.287 Y585.673
G01 X231.349 Y570.004
G01 X205.456 Y554.745
G01 X182.093 Y539.851
G01 X161.694 Y525.287
G01 X144.630 Y511.030
G01 X131.207 Y497.069
G01 X121.655 Y483.406
G01 X116.124 Y470.059
G01 X114.683 Y457.058
G01 X117.315 Y444.448
G01 X123.922 Y432.287
G01 X134.322 Y420.645
G01 X148.260 Y409.604
G01 X165.405 Y399.255
G01 X185.364 Y389.698
G01 X207.688 Y381.038
G01 X231.883 Y373.384
G01 X257.416 Y366.847
G01 X283.735 Y361.537
G01 X310.273 Y357.560
G01 X336.465 Y355.018
G01 X361.756 Y354.004
G01 X385.618 Y354.603
G01 X407.558 Y356.886
G01 X427.128 Y360.912
G01 X443.939 Y366.726
G01 X457.661 Y374.354
G01 X468.040 Y383.808
G01 X474.896 Y395.082
G01 X478.128 Y408.151
G01 X477.718 Y422.973
G01 X473.732 Y439.490
G01 X466.312 Y457.626
G01 X455.682 Y477.293
G01 X442.135 Y498.384
G01 X426.029 Y520.784
G01 X407.781 Y544.367
G01 X387.856 Y568.996
G01 X366.756 Y594.530
G01 X345.011 Y620.822
G01 X323.165 Y647.726
G01 X301.764 Y675.092
G01 X281.348 Y702.775
G01 X262.433 Y730.633
G01 X245.505 Y758.533
G01 X231.006 Y786.345
G01 X219.326 Y813.954
G01 X210.792 Y841.251
G01 X205.664 Y868.142
G01 X204.128 Y894.544
G01 X206.292 Y920.386
G01 X212.180 Y945.613
G01 X221.738 Y970.179
G01 X234.830 Y994.055
G01 X251.242 Y1017.220
G01 X270.687 Y1039.666
G01 X292.813 Y1061.393
G01 X317.206 Y1082.413
G01 X343.403 Y1102.741
G01 X370.898 Y1122.400
G01 X399.159 Y1141.415
G01 X427.631 Y1159.816
G01 X455.757 Y1177.631
G01 X482.981 Y1194.886
G01 X508.769 Y1211.608
G01 X532.612 Y1227.816
G01 X554.042 Y1243.525
G01 X572.640 Y1258.744
G01 X588.049 Y1273.474
G01 X599.973 Y1287.707
G01 X608.193 Y1301.428
G01 X612.564 Y1314.612
G01 X613.023 Y1327.225
G01 X609.589 Y1339.226
G01 X602.359 Y1350.565
G01 X591.512 Y1361.183
G01 X577.301 Y1371.018
G01 X560.047 Y1380.002
G01 X540.134 Y1388.060
G01 X518.000 Y1395.119
G01 X494.128 Y1401.101
G01 X469.035 Y1405.932
G01 X443.258 Y1409.538
G01 X417.350 Y1411.850
G01 X391.859 Y1412.801
G01 X367.323 Y1412.336
G01 X344.255 Y1410.404
G01 X323.133 Y1406.964
G01 X304.390 Y1401.986
G01 X288.404 Y1395.451
G01 X275.491 Y1387.350
G01 X265.898 Y1377.688
G01 X259.797 Y1366.483
G01 X257.282 Y1353.763
G01 X258.368 Y1339.569
G01 X262.990 Y1323.954
G01 X271.004 Y1306.982
G01 X282.191 Y1288.727
G01 X296.264 Y1269.272
G01 X312.870 Y1248.708
G01 X331.601 Y1227.134
G01 X352.004 Y1204.652
G01 X373.587 Y1181.369
G01 X395.832 Y1157.396
G01 X418.210 Y1132.843
G01 X440.185 Y1107.820
G01 X461.232 Y1082.437
G01 X480.845 Y1056.799
G01 X498.551 Y1031.008
G01 X513.918 Y1005.161
G01 X526.565 Y979.347
G01 X536.171 Y953.652
G01 X542.480 Y928.150
G01 X545.311 Y902.912
G01 X544.557 Y877.997
G01 X540.188 Y853.459
G01 X532.258 Y829.344
G01 X520.893 Y805.688
G01 X506.299 Y782.524
G01 X488.750 Y759.876
G01 X468.586 Y737.763
G01 X446.205 Y716.200
G01 X422.054 Y695.197
G01 X396.617 Y674.763
G01 X370.409 Y654.903
G01 X343.963 Y635.621
G01 X317.818 Y616.924
G01 X292.507 Y598.816
G01 X268.546 Y581.305
G01 X246.423 Y564.400
G01 X226.590 Y548.115
G01 X209.447 Y532.464
G01 X195.340 Y517.469
G01 X184.549 Y503.152
G01 X177.287 Y489.542
G01 X173.688 Y476.671
G01 X173.812 Y464.575
G01 X177.639 Y453.292
G01 X185.070 Y442.866
G01 X195.931 Y433.340
G01 X209.976 Y424.761
G01 X226.893 Y417.176
G01 X246.307 Y410.633
G01 X267.793 Y405.179
G01 X290.885 Y400.857
G01 X315.082 Y397.712
G01 X339.862 Y395.783
G01 X364.692 Y395.103
G01 X389.042 Y395.704
G01 X412.393 Y397.610
G01 X434.248 Y400.838
G01 X454.148 Y405.400
G01 X471.674 Y411.301
G01 X486.464 Y418.536
G01 X498.214 Y427.094
G01 X506.686 Y436.958
G01 X511.719 Y448.101
G01 X513.222 Y460.489
G01 X511.185 Y474.082
G01 X505.674 Y488.833
G01 X496.829 Y504.689
G01 X484.866 Y521.592
G01 X470.066 Y539.478
G01 X452.772 Y558.280
G01 X433.381 Y577.928
G01 X412.335 Y598.349
G01 X390.112 Y619.468
G01 X367.214 Y641.210
G01 X344.157 Y663.500
G01 X321.460 Y686.262
G01 X299.634 Y709.423
G01 X279.169 Y732.909
G01 X260.526 Y756.651
G01 X244.124 Y780.582
G01 X230.333 Y804.635
G01 X219.467 Y828.750
G01 X211.774 Y852.869
G01 X207.433 Y876.934
G01 X206.549 Y900.895
G01 X209.153 Y924.703
G01 X215.198 Y948.309
G01 X224.561 Y971.672
G01 X237.050 Y994.749
G01 X252.401 Y1017.501
G01 X270.289 Y1039.889
G01 X290.335 Y1061.878
G01 X312.110 Y1083.429
G01 X335.149 Y1104.509
G01 X358.958 Y1125.082
G01 X383.028 Y1145.112
G01 X406.843 Y1164.564
G01 X429.891 Y1183.401
G01 X451.678 Y1201.587
G01 X471.736 Y1219.085
G01 X489.635 Y1235.855
G01 X504.990 Y1251.860
G01 X517.472 Y1267.061
G01 X526.813 Y1281.418
G01 X532.813 Y1294.894
G01 X535.343 Y1307.448
G01 X534.349 Y1319.044
G01 X529.854 Y1329.645
G01 X521.954 Y1339.217
G01 X510.818 Y1347.726
G01 X496.686 Y1355.144
G01 X479.861 Y1361.442
G01 X460.703 Y1366.597
G01 X439.623 Y1370.589
G01 X417.071 Y1373.401
G01 X393.529 Y1375.022
G01 X369.500 Y1375.445
G01 X345.496 Y1374.667
G01 X322.027 Y1372.689
G01 X299.593 Y1369.519
G01 X278.669 Y1365.168
G01 X259.697 Y1359.651
G01 X243.076 Y1352.990
G01 X229.156 Y1345.209
G01 X218.226 Y1336.335
G01 X210.511 Y1326.400
G01 X206.166 Y1315.439
G01 X205.274 Y1303.489
G01 X207.843 Y1290.590
G01 X213.807 Y1276.783
G01 X223.027 Y1262.110
G01 X235.295 Y1246.616
G01 X250.336 Y1230.344
G01 X267.818 Y1213.340
G01 X287.356 Y1195.647
G01 X308.523 Y1177.310
G01 X330.857 Y1158.372
G01 X353.872 Y1138.878
G01 X377.069 Y1118.870
G01 X399.947 Y1098.389
G01 X422.013 Y1077.478
G01 X442.794 Y1056.177
G01 X461.843 Y1034.527
G01 X478.757 Y1012.568
G01 X493.176 Y990.342
G01 X504.797 Y967.888
G01 X513.380 Y945.250
G01 X518.750 Y922.470
G01 X520.803 Y899.591
G01 X519.508 Y876.659
G01 X514.907 Y853.722
G01 X507.115 Y830.828
G01 X496.316 Y808.028
G01 X482.758 Y785.375
G01 X466.750 Y762.925
G01 X448.656 Y740.735
G01 X428.881 Y718.864
G01 X407.871 Y697.372
G01 X386.095 Y676.323
G01 X364.040 Y655.778
G01 X342.196 Y635.803
G01 X321.053 Y616.461
G01 X301.079 Y597.817
G01 X282.722 Y579.932
G01 X266.390 Y562.868
G01 X252.450 Y546.684
G01 X241.213 Y531.436
G01 X232.934 Y517.178
G01 X227.802 Y503.957
G01 X225.937 Y491.818
G01 X227.388 Y480.799
G01 X232.133 Y470.935
G01 X240.075 Y462.253
G01 X251.052 Y454.774
G01 X264.832 Y448.513
G01 X281.123 Y443.478
G01 X299.579 Y439.672
G01 X319.806 Y437.090
G01 X341.372 Y435.720
G01 X363.815 Y435.547
G01 X386.653 Y436.549
G01 X409.397 Y438.698
G01 X431.558 Y441.963
G01 X452.660 Y446.309
G01 X472.249 Y451.696
G01 X489.902 Y458.085
G01 X505.238 Y465.433
G01 X517.926 Y473.697
G01 X527.692 Y482.832
G01 X534.321 Y492.795
G01 X537.667 Y503.545
G01 X537.654 Y515.041
G01 X534.276 Y527.244
G01 X527.600 Y540.119
G01 X517.761 Y553.633
G01 X504.961 Y567.756
G01 X489.465 Y582.461
G01 X471.594 Y597.726
G01 X451.718 Y613.529
G01 X430.250 Y629.853
G01 X407.632 Y646.682
G01 X384.332 Y664.003
G01 X360.830 Y681.805
G01 X337.607 Y700.075
G01 X315.136 Y718.802
G01 X293.874 Y737.974
G01 X274.247 Y757.579
G01 X256.645 Y777.601
G01 X241.413 Y798.021
G01 X228.843 Y818.817
G01 X219.167 Y839.964
G01 X212.555 Y861.431
G01 X209.107 Y883.181
G01 X208.855 Y905.173
G01 X211.763 Y927.360
G01 X217.722 Y949.688
G01 X226.561 Y972.097
G01 X238.044 Y994.523
G01 X251.878 Y1016.896
G01 X267.720 Y1039.138
G01 X285.185 Y1061.172
G01 X303.851 Y1082.912
G01 X323.274 Y1104.272
G01 X342.991 Y1125.165
G01 X362.538 Y1145.500
G01 X381.451 Y1165.188
G01 X399.285 Y1184.141
G01 X415.618 Y1202.275
G01 X430.063 Y1219.506
G01 X442.273 Y1235.757
G01 X451.953 Y1250.958
G01 X458.865 Y1265.042
G01 X462.831 Y1277.953
G01 X463.738 Y1289.642
G01 X461.542 Y1300.068
G01 X456.268 Y1309.202
G01 X448.007 Y1317.022
G01 X436.919 Y1323.517
G01 X423.225 Y1328.688
G01 X407.204 Y1332.542
G01 X389.188 Y1335.098
G01 X369.552 Y1336.384
G01 X348.709 Y1336.433
G01 X327.098 Y1335.290
G01 X305.179 Y1333.002
G01 X283.417 Y1329.624
G01 X262.277 Y1325.215
G01 X242.212 Y1319.835
G01 X223.654 Y1313.547
G01 X207.001 Y1306.415
G01 X192.617 Y1298.501
G01 X180.813 Y1289.866
G01 X171.851 Y1280.567
G01 X165.931 Y1270.659
G01 X163.189 Y1260.189
G01 X163.697 Y1249.201
G01 X167.457 Y1237.732
G01 X174.404 Y1225.813
G01 X184.405 Y1213.466
G01 X197.267 Y1200.708
G01 X212.734 Y1187.551
G01 X230.499 Y1173.997
G01 X250.206 Y1160.046
G01 X271.463 Y1145.690
G01 X293.843 Y1130.918
G01 X316.901 Y1115.717
G01 X340.179 Y1100.070
G01 X363.216 Y1083.962
G01 X385.559 Y1067.374
G01 X406.774 Y1050.293
G01 X426.453 Y1032.706
G01 X444.222 Y1014.606
G01 X459.752 Y995.991
G01 X472.763 Y976.865
G01 X483.033 Y957.239
G01 X490.399 Y937.133
G01 X494.763 Y916.576
G01 X496.091 Y895.605
G01 X494.418 Y874.269
G01 X489.841 Y852.623
G01 X482.524 Y830.736
G01 X472.687 Y808.681
G01 X460.605 Y786.544
G01 X446.601 Y764.417
G01 X431.039 Y742.397
G01 X414.315 Y720.589
G01 X396.850 Y699.101
G01 X379.077 Y678.043
G01 X361.437 Y657.528
G01 X344.365 Y637.668
G01 X328.280 Y618.571
G01 X313.580 Y600.343
G01 X300.630 Y583.085
G01 X289.754 Y566.890
G01 X281.230 Y551.843
G01 X275.282 Y538.020
G01 X272.075 Y525.486
G01 X271.713 Y514.293
G01 X274.236 Y504.482
G01 X279.619 Y496.081
G01 X287.772 Y489.104
G01 X298.544 Y483.552
G01 X311.722 Y479.412
G01 X327.041 Y476.661
G01 X344.186 Y475.262
G01 X362.800 Y475.166
G01 X382.492 Y476.317
G01 X402.845 Y478.649
G01 X423.426 Y482.088
G01 X443.792 Y486.557
G01 X463.506 Y491.972
G01 X482.138 Y498.250
G01 X499.281 Y505.306
G01 X514.559 Y513.056
G01 X527.631 Y521.419
G01 X538.202 Y530.321
G01 X546.027 Y539.691
G01 X550.920 Y549.466
G01 X552.752 Y559.593
G01 X551.459 Y570.025
G01 X547.041 Y580.728
G01 X539.563 Y591.677
G01 X529.151 Y602.856
G01 X515.993 Y614.261
G01 X500.332 Y625.897
G01 X482.461 Y637.777
G01 X462.718 Y649.923
G01 X441.479 Y662.365
G01 X419.147 Y675.136
G01 X396.147 Y688.277
G01 X372.914 Y701.828
G01 X349.885 Y715.832
G01 X327.490 Y730.330
G01 X306.143 Y745.362
G01 X286.231 Y760.962
G01 X268.109 Y777.159
G01 X252.090 Y793.974
G01 X238.440 Y811.418
G01 X227.371 Y829.494
G01 X219.040 Y848.192
G01 X213.541 Y867.490
G01 X210.908 Y887.355
G01 X211.111 Y907.738
G01 X214.058 Y928.580
G01 X219.600 Y949.808
G01 X227.530 Y971.338
G01 X237.590 Y993.073
G01 X249.479 Y1014.908
G01 X262.856 Y1036.728
G01 X277.350 Y1058.412
G01 X292.566 Y1079.832
G01 X308.098 Y1100.858
G01 X323.534 Y1121.359
G01 X338.467 Y1141.203
G01 X352.503 Y1160.262
G01 X365.270 Y1178.414
G01 X376.428 Y1195.541
G01 X385.672 Y1211.537
G01 X392.745 Y1226.304
G01 X397.438 Y1239.759
G01 X399.598 Y1251.829
G01 X399.128 Y1262.460
G01 X395.994 Y1271.610
G01 X390.221 Y1279.254
G01 X381.896 Y1285.385
G01 X371.164 Y1290.010
G01 X358.225 Y1293.153
G01 X343.331 Y1294.854
G01 X326.779 Y1295.164
G01 X308.907 Y1294.150
G01 X290.082 Y1291.889
G01 X270.698 Y1288.467
G01 X251.163 Y1283.979
G01 X231.892 Y1278.526
G01 X213.297 Y1272.210
G01 X195.781 Y1265.136
G01 X179.726 Y1257.409
G01 X165.485 Y1249.130
G01 X153.377 Y1240.393
G01 X143.678 Y1231.290
G01 X136.615 Y1221.899
G01 X132.364 Y1212.291
G01 X131.042 Y1202.526
G01 X132.706 Y1192.649
G01 X137.355 Y1182.695
G01 X144.926 Y1172.683
G01 X155.297 Y1162.621
G01 X168.290 Y1152.503
G01 X183.673 Y1142.309
G01 X201.169 Y1132.010
G01 X220.456 Y1121.566
G01 X241.180 Y1110.928
G01 X262.960 Y1100.039
G01 X285.394 Y1088.839
G01 X308.071 Y1077.263
G01 X330.579 Y1065.246
G01 X352.510 Y1052.724
G01 X373.476 Y1039.636
G01 X393.109 Y1025.927
G01 X411.075 Y1011.549
G01 X427.079 Y996.466
G01 X440.867 Y980.650
G01 X452.239 Y964.087
G01 X461.047 Y946.778
G01 X467.199 Y928.739
G01 X470.662 Y909.999
G01 X471.462 Y890.605
G01 X469.683 Y870.620
G01 X465.463 Y850.121
G01 X458.993 Y829.201
G01 X450.513 Y807.966
G01 X440.304 Y786.533
G01 X428.683 Y765.030
G01 X415.995 Y743.594
G01 X402.606 Y722.369
G01 X388.897 Y701.501
G01 X375.250 Y681.138
G01 X362.044 Y661.429
G01 X349.645 Y642.518
G01 X338.399 Y624.542
G01 X328.623 Y607.631
G01 X320.598 Y591.904
G01 X314.564 Y577.469
G01 X310.714 Y564.416
G01 X309.188 Y552.822
G01 X310.075 Y542.745
G01 X313.404 Y534.226
G01 X319.150 Y527.287
G01 X327.230 Y521.929
G01 X337.507 Y518.138
G01 X349.791 Y515.879
G01 X363.847 Y515.100
G01 X379.393 Y515.735
G01 X396.116 Y517.701
G01 X413.668 Y520.903
G01 X431.684 Y525.238
G01 X449.780 Y530.591
G01 X467.570 Y536.845
G01 X484.667 Y543.877
G01 X500.696 Y551.566
G01 X515.302 Y559.789
G01 X528.156 Y568.432
G01 X538.959 Y577.385
G01 X547.458 Y586.548
G01 X553.440 Y595.831
G01 X556.744 Y605.159
G01 X557.263 Y614.467
G01 X554.944 Y623.710
G01 X549.792 Y632.855
G01 X541.867 Y641.886
G01 X531.288 Y650.804
G01 X518.221 Y659.625
G01 X502.886 Y668.379
G01 X485.544 Y677.112
G01 X466.498 Y685.879
G01 X446.080 Y694.747
G01 X424.650 Y703.791
G01 X402.585 Y713.092
G01 X380.269 Y722.735
G01 X358.091 Y732.804
G01 X336.432 Y743.383
G01 X315.657 Y754.553
G01 X296.110 Y766.385
G01 X278.106 Y778.945
G01 X261.923 Y792.284
G01 X247.796 Y806.443
G01 X235.917 Y821.445
G01 X226.426 Y837.298
G01 X219.408 Y853.994
G01 X214.897 Y871.505
G01 X212.870 Y889.785
G01 X213.253 Y908.771
G01 X215.917 Y928.380
G01 X220.687 Y948.515
G01 X227.342 Y969.062
G01 X235.622 Y989.893
G01 X245.234 Y1010.867
G01 X255.859 Y1031.837
G01 X267.158 Y1052.647
G01 X278.780 Y1073.134
G01 X290.372 Y1093.137
G01 X301.582 Y1112.494
G01 X312.073 Y1131.049
G01 X321.524 Y1148.651
G01 X329.646 Y1165.160
G01 X336.176 Y1180.446
G01 X340.896 Y1194.395
G01 X343.629 Y1206.910
G01 X344.245 Y1217.911
G01 X342.665 Y1227.337
G01 X338.863 Y1235.150
G01 X332.865 Y1241.329
G01 X324.749 Y1245.878
G01 X314.647 Y1248.820
G01 X302.733 Y1250.197
G01 X289.230 Y1250.073
G01 X274.398 Y1248.527
G01 X258.532 Y1245.655
G01 X241.952 Y1241.566
G01 X225.001 Y1236.380
G01 X208.032 Y1230.226
G01 X191.407 Y1223.239
G01 X175.483 Y1215.555
G01 X160.607 Y1207.313
G01 X147.108 Y1198.646
G01 X135.293 Y1189.684
G01 X125.433 Y1180.545
G01 X117.766 Y1171.341
G01 X112.485 Y1162.166
G01 X109.738 Y1153.103
G01 X109.624 Y1144.218
G01 X112.188 Y1135.557
G01 X117.423 Y1127.150
G01 X125.272 Y1119.010
G01 X135.623 Y1111.128
G01 X148.318 Y1103.480
G01 X163.152 Y1096.025
G01 X179.879 Y1088.705
G01 X198.217 Y1081.451
G01 X217.854 Y1074.179
G01 X238.457 Y1066.799
G01 X259.673 Y1059.214
G01 X281.142 Y1051.321
G01 X302.504 Y1043.017
G01 X323.402 Y1034.203
G01 X343.497 Y1024.781
G01 X362.468 Y1014.664
G01 X380.022 Y1003.773
G01 X395.898 Y992.043
G01 X409.878 Y979.424
G01 X421.782 Y965.881
G01 X431.479 Y951.399
G01 X438.887 Y935.982
G01 X443.974 Y919.654
G01 X446.758 Y902.459
G01 X447.308 Y884.464
G01 X445.739 Y865.751
G01 X442.213 Y846.423
G01 X436.932 Y826.602
G01 X430.133 Y806.422
G01 X422.085 Y786.032
G01 X413.082 Y765.590
G01 X403.435 Y745.264
G01 X393.465 Y725.226
G01 X383.498 Y705.647
G01 X373.855 Y686.702
G01 X364.846 Y668.556
G01 X356.764 Y651.370
G01 X349.877 Y635.293
G01 X344.421 Y620.462
G01 X340.597 Y606.995
G01 X338.568 Y594.996
G01 X338.449 Y584.547
G01 X340.312 Y575.709
G01 X344.179 Y568.520
G01 X350.024 Y562.997
G01 X357.772 Y559.132
G01 X367.303 Y556.896
G01 X378.452 Y556.239
G01 X391.012 Y557.088
G01 X404.744 Y559.353
G01 X419.375 Y562.926
G01 X434.607 Y567.687
G01 X450.126 Y573.503
G01 X465.604 Y580.231
G01 X480.710 Y587.725
G01 X495.114 Y595.834
G01 X508.497 Y604.409
G01 X520.556 Y613.306
G01 X531.012 Y622.384
G01 X539.612 Y631.516
G01 X546.142 Y640.585
G01 X550.424 Y649.488
G01 X552.324 Y658.142
G01 X551.753 Y666.478
G01 X548.672 Y674.449
G01 X543.089 Y682.027
G01 X535.060 Y689.206
G01 X524.688 Y695.998
G01 X512.123 Y702.435
G01 X497.556 Y708.569
G01 X481.215 Y714.467
G01 X463.362 Y720.212
G01 X444.286 Y725.898
G01 X424.297 Y731.630
G01 X403.721 Y737.520
G01 X382.891 Y743.685
G01 X362.142 Y750.242
G01 X341.801 Y757.305
G01 X322.185 Y764.985
G01 X303.590 Y773.382
G01 X286.288 Y782.587
G01 X270.518 Y792.676
G01 X256.485 Y803.708
G01 X244.356 Y815.727
G01 X234.251 Y828.753
G01 X226.249 Y842.787
G01 X220.380 Y857.808
G01 X216.630 Y873.774
G01 X214.937 Y890.619
G01 X215.197 Y908.257
G01 X217.264 Y926.581
G01 X220.955 Y945.468
G01 X226.052 Y964.776
G01 X232.312 Y984.351
G01 X239.467 Y1004.025
G01 X247.234 Y1023.626
G01 X255.319 Y1042.972
G01 X263.427 Y1061.882
G01 X271.266 Y1080.177
G01 X278.552 Y1097.681
G01 X285.021 Y1114.228
G01 X290.429 Y1129.663
G01 X294.561 Y1143.843
G01 X297.235 Y1156.646
G01 X298.305 Y1167.966
G01 X297.666 Y1177.719
G01 X295.256 Y1185.844
G01 X291.056 Y1192.304
G01 X285.092 Y1197.086
G01 X277.434 Y1200.199
G01 X268.193 Y1201.681
G01 X257.523 Y1201.587
G01 X245.612 Y1199.997
G01 X232.683 Y1197.011
G01 X218.984 Y1192.744
G01 X204.789 Y1187.327
G01 X190.386 Y1180.904
G01 X176.075 Y1173.627
G01 X162.159 Y1165.652
G01 X148.938 Y1157.139
G01 X136.705 Y1148.247
G01 X125.735 Y1139.130
G01 X116.282 Y1129.933
G01 X108.576 Y1120.792
G01 X102.812 Y1111.828
G01 X99.150 Y1103.147
G01 X97.711 Y1094.837
G01 X98.573 Y1086.966
G01 X101.773 Y1079.580
G01 X107.299 Y1072.705
G01 X115.098 Y1066.345
G01 X125.072 Y1060.480
G01 X137.085 Y1055.073
G01 X150.958 Y1050.065
G01 X166.481 Y1045.378
G01 X183.412 Y1040.922
G01 X201.487 Y1036.591
G01 X220.418 Y1032.268
G01 X239.907 Y1027.830
G01 X259.647 Y1023.149
G01 X279.332 Y1018.096
G01 X298.659 Y1012.546
G01 X317.340 Y1006.377
G01 X335.101 Y999.477
G01 X351.693 Y991.748
G01 X366.896 Y983.103
G01 X380.521 Y973.476
G01 X392.415 Y962.818
G01 X402.467 Y951.102
G01 X410.602 Y938.323
G01 X416.792 Y924.499
G01 X421.049 Y909.672
G01 X423.425 Y893.905
G01 X424.016 Y877.287
G01 X422.951 Y859.925
G01 X420.397 Y841.946
G01 X416.548 Y823.494
G01 X411.625 Y804.730
G01 X405.870 Y785.823
G01 X399.538 Y766.954
G01 X392.894 Y748.307
G01 X386.204 Y730.069
G01 X379.734 Y712.425
G01 X373.737 Y695.555
G01 X368.452 Y679.630
G01 X364.100 Y664.809
G01 X360.872 Y651.236
G01 X358.933 Y639.038
G01 X358.412 Y628.321
G01 X359.403 Y619.169
G01 X361.961 Y611.642
G01 X366.101 Y605.776
G01 X371.798 Y601.583
G01 X378.986 Y599.047
G01 X387.562 Y598.128
G01 X397.387 Y598.765
G01 X408.288 Y600.872
G01 X420.062 Y604.344
G01 X432.481 Y609.057
G01 X445.300 Y614.873
G01 X458.254 Y621.642
G01 X471.072 Y629.205
G01 X483.480 Y637.396
G01 X495.206 Y646.051
G01 X505.984 Y655.003
G01 X515.567 Y664.094
G01 X523.724 Y673.172
G01 X530.250 Y682.098
G01 X534.969 Y690.747
G01 X537.737 Y699.012
G01 X538.446 Y706.804
G01 X537.027 Y714.055
G01 X533.451 Y720.718
G01 X527.729 Y726.772
G01 X519.911 Y732.216
G01 X510.088 Y737.072
G01 X498.388 Y741.386
G01 X484.971 Y745.221
G01 X470.033 Y748.661
G01 X453.793 Y751.806
G01 X436.494 Y754.770
G01 X418.398 Y757.677
G01 X399.776 Y760.660
G01 X380.908 Y763.855
G01 X362.074 Y767.399
G01 X343.548 Y771.429
G01 X325.595 Y776.072
G01 X308.461 Y781.448
G01 X292.375 Y787.665
G01 X277.538 Y794.813
G01 X264.121 Y802.967
G01 X252.264 Y812.180
G01 X242.071 Y822.484
G01 X233.608 Y833.886
G01 X226.904 Y846.372
G01 X221.950 Y859.902
G01 X218.698 Y874.411
G01 X217.067 Y889.815
G01 X216.940 Y906.004
G01 X218.168 Y922.850
G01 X220.578 Y940.207
G01 X223.971 Y957.915
G01 X228.134 Y975.799
G01 X232.836 Y993.678
G01 X237.842 Y1011.364
G01 X242.912 Y1028.669
G01 X247.811 Y1045.404
G01 X252.310 Y1061.388
G01 X256.198 Y1076.449
G01 X259.278 Y1090.424
G01 X261.379 Y1103.170
G01 X262.355 Y1114.560
G01 X262.092 Y1124.487
G01 X260.506 Y1132.868
G01 X257.552 Y1139.644
G01 X253.217 Y1144.782
G01 X247.525 Y1148.272
G01 X240.537 Y1150.133
G01 X232.346 Y1150.407
G01 X223.081 Y1149.161
G01 X212.898 Y1146.485
G01 X201.978 Y1142.488
G01 X190.528 Y1137.298
G01 X178.771 Y1131.059
G01 X166.942 Y1123.925
G01 X155.287 Y1116.060
G01 X144.050 Y1107.633
G01 X133.478 Y1098.815
G01 X123.805 Y1089.773
G01 X115.256 Y1080.671
G01 X108.035 Y1071.661
G01 X102.326 Y1062.886
G01 X98.285 Y1054.471
G01 X96.040 Y1046.525
G01 X95.684 Y1039.136
G01 X97.280 Y1032.372
G01 X100.851 Y1026.275
G01 X106.385 Y1020.867
G01 X113.834 Y1016.145
G01 X123.116 Y1012.083
G01 X134.113 Y1008.632
G01 X146.678 Y1005.723
G01 X160.635 Y1003.267
G01 X175.785 Y1001.158
G01 X191.907 Y999.278
G01 X208.765 Y997.496
G01 X226.114 Y995.672
G01 X243.701 Y993.666
G01 X261.274 Y991.332
G01 X278.585 Y988.530
G01 X295.395 Y985.126
G01 X311.480 Y980.994
G01 X326.637 Y976.023
G01 X340.683 Y970.117
G01 X353.463 Y963.197
G01 X364.850 Y955.206
G01 X374.751 Y946.109
G01 X383.103 Y935.896
G01 X389.880 Y924.579
G01 X395.089 Y912.195
G01 X398.769 Y898.807
G01 X400.994 Y884.500
G01 X401.866 Y869.382
G01 X401.515 Y853.579
G01 X400.096 Y837.238
G01 X397.782 Y820.519
G01 X394.765 Y803.595
G01 X391.247 Y786.649
G01 X387.437 Y769.867
G01 X383.546 Y753.439
G01 X379.784 Y737.551
G01 X376.350 Y722.385
G01 X373.434 Y708.114
G01 X371.206 Y694.897
G01 X369.820 Y682.878
G01 X369.401 Y672.182
G01 X370.051 Y662.914
G01 X371.841 Y655.156
G01 X374.811 Y648.965
G01 X378.970 Y644.373
G01 X384.295 Y641.385
G01 X390.730 Y639.981
G01 X398.190 Y640.116
G01 X406.560 Y641.720
G01 X415.701 Y644.702
G01 X425.449 Y648.949
G01 X435.621 Y654.331
G01 X446.017 Y660.702
G01 X456.428 Y667.905
G01 X466.635 Y675.774
G01 X476.421 Y684.139
G01 X485.569 Y692.829
G01 X493.868 Y701.674
G01 X501.122 Y710.510
G01 X507.148 Y719.185
G01 X511.787 Y727.556
G01 X514.899 Y735.499
G01 X516.374 Y742.906
G01 X516.130 Y749.690
G01 X514.113 Y755.786
G01 X510.306 Y761.152
G01 X504.719 Y765.769
G01 X497.399 Y769.643
G01 X488.420 Y772.803
G01 X477.890 Y775.302
G01 X465.940 Y777.211
G01 X452.729 Y778.622
G01 X438.437 Y779.645
G01 X423.260 Y780.402
G01 X407.409 Y781.027
G01 X391.106 Y781.663
G01 X374.575 Y782.454
G01 X358.042 Y783.549
G01 X341.729 Y785.090
G01 X325.848 Y787.217
G01 X310.599 Y790.056
G01 X296.165 Y793.722
G01 X282.709 Y798.314
G01 X270.369 Y803.913
G01 X259.260 Y810.579
G01 X249.465 Y818.348
G01 X241.041 Y827.233
G01 X234.013 Y837.225
G01 X228.376 Y848.288
G01 X224.096 Y860.362
G01 X221.111 Y873.363
G01 X219.331 Y887.187
G01 X218.643 Y901.708
G01 X218.913 Y916.784
G01 X219.987 Y932.255
G01 X221.699 Y947.951
G01 X223.873 Y963.692
G01 X226.324 Y979.295
G01 X228.870 Y994.573
G01 X231.327 Y1009.342
G01 X233.520 Y1023.423
G01 X235.285 Y1036.647
G01 X236.472 Y1048.857
G01 X236.951 Y1059.912
G01 X236.610 Y1069.690
G01 X235.362 Y1078.089
G01 X233.148 Y1085.030
G01 X229.932 Y1090.459
G01 X225.710 Y1094.346
G01 X220.502 Y1096.687
G01 X214.360 Y1097.505
G01 X207.360 Y1096.847
G01 X199.603 Y1094.784
G01 X191.214 Y1091.408
G01 X182.338 Y1086.833
G01 X173.136 Y1081.189
G01 X163.784 Y1074.622
G01 X154.467 Y1067.288
G01 X145.376 Y1059.353
G01 X136.703 Y1050.986
G01 X128.639 Y1042.357
G01 X121.366 Y1033.634
G01 X115.056 Y1024.978
G01 X109.870 Y1016.541
G01 X105.946 Y1008.462
G01 X103.404 Y1000.863
G01 X102.341 Y993.850
G01 X102.826 Y987.507
G01 X104.905 Y981.897
G01 X108.591 Y977.060
G01 X113.871 Y973.011
G01 X120.706 Y969.742
G01 X129.025 Y967.222
G01 X138.733 Y965.399
G01 X149.713 Y964.196
G01 X161.822 Y963.521
G01 X174.903 Y963.263
G01 X188.780 Y963.299
G01 X203.265 Y963.493
G01 X218.165 Y963.702
G01 X233.279 Y963.781
G01 X248.409 Y963.580
G01 X263.359 Y962.957
G01 X277.941 Y961.772
G01 X291.979 Y959.898
G01 X305.310 Y957.218
G01 X317.792 Y953.634
G01 X329.301 Y949.064
G01 X339.737 Y943.447
G01 X349.024 Y936.745
G01 X357.113 Y928.942
G01 X363.979 Y920.048
G01 X369.626 Y910.096
G01 X374.081 Y899.143
G01 X377.399 Y887.268
G01 X379.656 Y874.575
G01 X380.948 Y861.184
G01 X381.392 Y847.234
G01 X381.120 Y832.880
G01 X380.275 Y818.286
G01 X379.009 Y803.629
G01 X377.481 Y789.087
G01 X375.850 Y774.840
G01 X374.272 Y761.069
G01 X372.898 Y747.946
G01 X371.870 Y735.635
G01 X371.315 Y724.288
G01 X371.347 Y714.041
G01 X372.059 Y705.013
G01 X373.526 Y697.300
G01 X375.798 Y690.978
G01 X378.903 Y686.099
G01 X382.844 Y682.688
G01 X387.602 Y680.748
G01 X393.131 Y680.256
G01 X399.362 Y681.162
G01 X406.208 Y683.397
G01 X413.558 Y686.868
G01 X421.286 Y691.463
G01 X429.252 Y697.052
G01 X437.302 Y703.494
G01 X445.276 Y710.633
G01 X453.008 Y718.309
G01 X460.332 Y726.355
G01 X467.084 Y734.604
G01 X473.105 Y742.895
G01 X478.246 Y751.068
G01 X482.372 Y758.978
G01 X485.362 Y766.489
G01 X487.115 Y773.482
G01 X487.547 Y779.857
G01 X486.601 Y785.532
G01 X484.240 Y790.448
G01 X480.452 Y794.568
G01 X475.252 Y797.879
G01 X468.678 Y800.391
G01 X460.789 Y802.135
G01 X451.672 Y803.168
G01 X441.431 Y803.563
G01 X430.189 Y803.413
G01 X418.087 Y802.829
G01 X405.277 Y801.933
G01 X391.923 Y800.860
G01 X378.196 Y799.750
G01 X364.268 Y798.747
G01 X350.315 Y797.998
G01 X336.507 Y797.646
G01 X323.007 Y797.825
G01 X309.969 Y798.664
G01 X297.534 Y800.275
G01 X285.827 Y802.757
G01 X274.956 Y806.191
G01 X265.009 Y810.637
G01 X256.052 Y816.134
G01 X248.129 Y822.699
G01 X241.262 Y830.323
G01 X235.451 Y838.977
G01 X230.671 Y848.605
G01 X226.878 Y859.132
G01 X224.008 Y870.461
G01 X221.979 Y882.475
G01 X220.692 Y895.041
G01 X220.035 Y908.011
G01 X219.887 Y921.227
G01 X220.118 Y934.520
G01 X220.595 Y947.719
G01 X221.182 Y960.651
G01 X221.746 Y973.144
G01 X222.160 Y985.033
G01 X222.305 Y996.160
G01 X222.071 Y1006.382
G01 X221.365 Y1015.568
G01 X220.107 Y1023.607
G01 X218.236 Y1030.406
G01 X215.710 Y1035.894
G01 X212.506 Y1040.024
G01 X208.624 Y1042.772
G01 X204.082 Y1044.138
G01 X198.921 Y1044.146
G01 X193.198 Y1042.845
G01 X186.993 Y1040.304
G01 X180.399 Y1036.614
G01 X173.526 Y1031.883
G01 X166.493 Y1026.237
G01 X159.432 Y1019.815
G01 X152.481 Y1012.765
G01 X145.781 Y1005.244
G01 X139.473 Y997.410
G01 X133.698 Y989.426
G01 X128.589 Y981.446
G01 X124.274 Y973.623
G01 X120.866 Y966.096
G01 X118.467 Y958.995
G01 X117.163 Y952.433
G01 X117.022 Y946.506
G01 X118.093 Y941.289
G01 X120.404 Y936.839
G01 X123.963 Y933.188
G01 X128.757 Y930.349
G01 X134.751 Y928.310
G01 X141.891 Y927.037
G01 X150.103 Y926.477
G01 X159.296 Y926.555
G01 X169.362 Y927.181
G01 X180.181 Y928.246
G01 X191.619 Y929.631
G01 X203.537 Y931.206
G01 X215.787 Y932.835
G01 X228.220 Y934.376
G01 X240.687 Y935.688
G01 X253.040 Y936.634
G01 X265.141 Y937.081
G01 X276.856 Y936.908
G01 X288.064 Y936.002
G01 X298.659 Y934.270
G01 X308.547 Y931.634
G01 X317.653 Y928.033
G01 X325.919 Y923.429
G01 X333.306 Y917.807
G01 X339.795 Y911.172
G01 X345.386 Y903.552
G01 X350.097 Y894.998
G01 X353.964 Y885.582
G01 X357.040 Y875.395
G01 X359.395 Y864.547
G01 X361.110 Y853.165
G01 X362.277 Y841.387
G01 X362.999 Y829.364
G01 X363.382 Y817.253
G01 X363.540 Y805.218
G01 X363.583 Y793.422
G01 X363.623 Y782.026
G01 X363.766 Y771.187
G01 X364.110 Y761.052
G01 X364.745 Y751.756
G01 X365.750 Y743.421
G01 X367.188 Y736.153
G01 X369.111 Y730.037
G01 X371.553 Y725.138
G01 X374.529 Y721.499
G01 X378.040 Y719.143
G01 X382.069 Y718.066
G01 X386.580 Y718.244
G01 X391.523 Y719.631
G01 X396.832 Y722.159
G01 X402.426 Y725.740
G01 X408.213 Y730.270
G01 X414.091 Y735.630
G01 X419.951 Y741.687
G01 X425.676 Y748.300
G01 X431.148 Y755.320
G01 X436.249 Y762.597
G01 X440.862 Y769.979
G01 X444.875 Y777.317
G01 X448.183 Y784.469
G01 X450.691 Y791.304
G01 X452.315 Y797.699
G01 X452.986 Y803.549
G01 X452.648 Y808.765
G01 X451.261 Y813.276
G01 X448.804 Y817.030
G01 X445.272 Y819.999
G01 X440.678 Y822.172
G01 X435.053 Y823.563
G01 X428.445 Y824.204
G01 X420.917 Y824.149
G01 X412.549 Y823.469
G01 X403.430 Y822.251
G01 X393.665 Y820.600
G01 X383.365 Y818.629
G01 X372.651 Y816.463
G01 X361.646 Y814.231
G01 X350.477 Y812.069
G01 X339.269 Y810.111
G01 X328.147 Y808.487
G01 X317.229 Y807.323
G01 X306.627 Y806.735
G01 X296.442 Y806.829
G01 X286.765 Y807.695
G01 X277.674 Y809.407
G01 X269.234 Y812.022
G01 X261.494 Y815.576
G01 X254.486 Y820.086
G01 X248.229 Y825.547
G01 X242.723 Y831.933
G01 X237.955 Y839.198
G01 X233.896 Y847.275
G01 X230.502 Y856.079
G01 X227.718 Y865.507
G01 X225.477 Y875.444
G01 X223.704 Y885.757
G01 X222.316 Y896.310
G01 X221.226 Y906.953
G01 X220.341 Y917.538
G01 X219.572 Y927.911
G01 X218.827 Y937.923
G01 X218.022 Y947.431
G01 X217.075 Y956.296
G01 X215.915 Y964.394
G01 X214.478 Y971.614
G01 X212.713 Y977.858
G01 X210.579 Y983.048
G01 X208.051 Y987.126
G01 X205.116 Y990.051
G01 X201.775 Y991.807
G01 X198.044 Y992.397
G01 X193.954 Y991.844
G01 X189.546 Y990.195
G01 X184.877 Y987.513
G01 X180.013 Y983.880
G01 X175.031 Y979.396
G01 X170.014 Y974.173
G01 X165.053 Y968.333
G01 X160.244 Y962.009
G01 X155.683 Y955.340
G01 X151.468 Y948.466
G01 X147.693 Y941.527
G01 X144.450 Y934.663
G01 X141.823 Y928.003
G01 X139.890 Y921.672
G01 X138.717 Y915.778
G01 X138.361 Y910.422
G01 X138.865 Y905.683
G01 X140.259 Y901.626
G01 X142.561 Y898.297
G01 X145.771 Y895.723
G01 X149.877 Y893.910
G01 X154.852 Y892.846
G01 X160.655 Y892.497
G01 X167.232 Y892.813
G01 X174.516 Y893.726
G01 X182.430 Y895.153
G01 X190.890 Y896.998
G01 X199.801 Y899.152
G01 X209.064 Y901.500
G01 X218.575 Y903.919
G01 X228.232 Y906.284
G01 X237.928 Y908.471
G01 X247.563 Y910.357
G01 X257.037 Y911.824
G01 X266.260 Y912.766
G01 X275.146 Y913.084
G01 X283.622 Y912.695
G01 X291.621 Y911.528
G01 X299.091 Y909.531
G01 X305.991 Y906.671
G01 X312.294 Y902.931
G01 X317.983 Y898.315
G01 X323.056 Y892.848
G01 X327.525 Y886.570
G01 X331.411 Y879.543
G01 X334.749 Y871.845
G01 X337.582 Y863.569
G01 X339.962 Y854.821
G01 X341.950 Y845.721
G01 X343.611 Y836.396
G01 X345.015 Y826.980
G01 X346.235 Y817.609
G01 X347.341 Y808.422
G01 X348.406 Y799.555
G01 X349.497 Y791.140
G01 X350.678 Y783.299
G01 X352.005 Y776.147
G01 X353.527 Y769.783
G01 X355.285 Y764.296
G01 X357.309 Y759.754
G01 X359.619 Y756.211
G01 X362.223 Y753.700
G01 X365.120 Y752.236
G01 X368.295 Y751.815
G01 X371.723 Y752.413
G01 X375.368 Y753.988
G01 X379.186 Y756.478
G01 X383.122 Y759.808
G01 X387.115 Y763.888
G01 X391.096 Y768.614
G01 X394.994 Y773.873
G01 X398.732 Y779.543
G01 X402.232 Y785.499
G01 X405.418 Y791.612
G01 X408.214 Y797.755
G01 X410.549 Y803.802
G01 X412.355 Y809.634
G01 X413.573 Y815.140
G01 X414.149 Y820.221
G01 X414.042 Y824.789
G01 X413.217 Y828.770
G01 X411.653 Y832.107
G01 X409.338 Y834.761
G01 X406.273 Y836.708
G01 X402.469 Y837.945
G01 X397.951 Y838.484
G01 X392.753 Y838.357
G01 X386.920 Y837.610
G01 X380.507 Y836.308
G01 X373.576 Y834.527
G01 X366.197 Y832.356
G01 X358.448 Y829.893
G01 X350.407 Y827.245
G01 X342.159 Y824.524
G01 X333.788 Y821.843
G01 X325.378 Y819.316
G01 X317.011 Y817.056
G01 X308.766 Y815.167
G01 X300.717 Y813.749
G01 X292.932 Y812.890
G01 X285.471 Y812.665
G01 X278.386 Y813.138
G01 X271.721 Y814.357
G01 X265.508 Y816.352
G01 X259.771 Y819.139
G01 X254.522 Y822.712
G01 X249.765 Y827.052
G01 X245.491 Y832.120
G01 X241.684 Y837.863
G01 X238.319 Y844.210
G01 X235.362 Y851.078
G01 X232.773 Y858.372
G01 X230.506 Y865.986
G01 X228.512 Y873.805
G01 X226.735 Y881.712
G01 X225.122 Y889.583
G01 X223.616 Y897.295
G01 X222.164 Y904.729
G01 X220.714 Y911.768
G01 X219.219 Y918.302
G01 X217.634 Y924.232
G01 X215.923 Y929.468
G01 X214.057 Y933.935
G01 X212.012 Y937.572
G01 X209.775 Y940.334
G01 X207.341 Y942.190
G01 X204.711 Y943.131
G01 X201.899 Y943.162
G01 X198.925 Y942.305
G01 X195.817 Y940.599
G01 X192.610 Y938.100
G01 X189.349 Y934.876
G01 X186.080 Y931.010
G01 X182.857 Y926.593
G01 X179.736 Y921.727
G01 X176.776 Y916.520
G01 X174.035 Y911.085
G01 X171.574 Y905.535
G01 X169.451 Y899.985
G01 X167.718 Y894.543
G01 X166.428 Y889.317
G01 X165.625 Y884.402
G01 X165.347 Y879.887
G01 X165.628 Y875.849
G01 X166.491 Y872.351
G01 X167.950 Y869.442
G01 X170.014 Y867.157
G01 X172.679 Y865.514
G01 X175.935 Y864.515
G01 X179.761 Y864.147
G01 X184.129 Y864.381
G01 X189.002 Y865.174
G01 X194.336 Y866.468
G01 X200.082 Y868.195
G01 X206.183 Y870.275
G01 X212.580 Y872.620
G01 X219.210 Y875.134
G01 X226.007 Y877.719
G01 X232.905 Y880.274
G01 X239.838 Y882.697
G01 X246.743 Y884.891
G01 X253.557 Y886.761
G01 X260.224 Y888.221
G01 X266.691 Y889.194
G01 X272.911 Y889.611
G01 X278.842 Y889.418
G01 X284.452 Y888.574
G01 X289.715 Y887.051
G01 X294.612 Y884.838
G01 X299.132 Y881.936
G01 X303.272 Y878.365
G01 X307.038 Y874.157
G01 X310.441 Y869.361
G01 X313.500 Y864.037
G01 X316.238 Y858.258
G01 X318.686 Y852.108
G01 X320.877 Y845.677
G01 X322.847 Y839.064
G01 X324.637 Y832.374
G01 X326.285 Y825.711
G01 X327.834 Y819.182
G01 X329.321 Y812.890
G01 X330.786 Y806.936
G01 X332.262 Y801.412
G01 X333.781 Y796.406
G01 X335.369 Y791.991
G01 X337.047 Y788.233
G01 X338.830 Y785.183
G01 X340.729 Y782.878
G01 X342.745 Y781.342
G01 X344.876 Y780.583
G01 X347.111 Y780.595
G01 X349.435 Y781.356
G01 X351.825 Y782.832
G01 X354.255 Y784.973
G01 X356.692 Y787.720
G01 X359.100 Y791.000
G01 X361.440 Y794.732
G01 X363.669 Y798.830
G01 X365.746 Y803.199
G01 X367.625 Y807.743
G01 X369.264 Y812.363
G01 X370.621 Y816.962
G01 X371.657 Y821.445
G01 X372.336 Y825.724
G01 X372.624 Y829.715
G01 X372.497 Y833.343
G01 X371.930 Y836.545
G01 X370.909 Y839.266
G01 X369.424 Y841.467
G01 X367.471 Y843.120
G01 X365.055 Y844.209
G01 X362.186 Y844.736
G01 X358.880 Y844.712
G01 X355.160 Y844.164
G01 X351.055 Y843.130
G01 X346.599 Y841.660
G01 X341.831 Y839.816
G01 X336.792 Y837.665
G01 X331.529 Y835.284
G01 X326.089 Y832.754
G01 X320.521 Y830.160
G01 X314.875 Y827.590
G01 X309.200 Y825.129
G01 X303.544 Y822.860
G01 X297.953 Y820.864
G01 X292.469 Y819.214
G01 X287.131 Y817.975
G01 X281.976 Y817.204
G01 X277.032 Y816.947
G01 X272.325 Y817.240
G01 X267.875 Y818.103
G01 X263.695 Y819.548
G01 X259.794 Y821.571
G01 X256.175 Y824.156
G01 X252.835 Y827.275
G01 X249.766 Y830.887
G01 X246.955 Y834.941
G01 X244.387 Y839.375
G01 X242.040 Y844.120
G01 X239.892 Y849.099
G01 X237.917 Y854.229
G01 X236.088 Y859.424
G01 X234.377 Y864.597
G01 X232.756 Y869.659
G01 X231.199 Y874.524
G01 X229.679 Y879.110
G01 X228.173 Y883.341
G01 X226.661 Y887.146
G01 X225.123 Y890.463
G01 X223.548 Y893.242
G01 X221.925 Y895.440
G01 X220.247 Y897.028
G01 X218.515 Y897.989
G01 X216.732 Y898.317
G01 X214.905 Y898.020
G01 X213.045 Y897.116
G01 X211.171 Y895.636
G01 X209.300 Y893.622
G01 X207.456 Y891.125
G01 X205.664 Y888.206
G01 X203.952 Y884.931
G01 X202.348 Y881.374
G01 X200.883 Y877.613
G01 X199.587 Y873.728
G01 X198.488 Y869.798
G01 X197.616 Y865.905
G01 X196.995 Y862.125
G01 X196.652 Y858.532
G01 X196.605 Y855.191
G01 X196.873 Y852.163
G01 X197.468 Y849.500
G01 X198.401 Y847.244
G01 X199.676 Y845.426
G01 X201.294 Y844.068
G01 X203.249 Y843.179
G01 X205.534 Y842.759
G01 X208.133 Y842.795
G01 X211.031 Y843.264
G01 X214.205 Y844.134
G01 X217.629 Y845.361
G01 X221.276 Y846.897
G01 X225.116 Y848.683
G01 X229.114 Y850.658
G01 X233.238 Y852.754
G01 X237.452 Y854.901
G01 X241.720 Y857.031
G01 X246.009 Y859.071
G01 X250.285 Y860.956
G01 X254.515 Y862.622
G01 X258.670 Y864.008
G01 X262.722 Y865.064
G01 X266.647 Y865.744
G01 X270.424 Y866.012
G01 X274.035 Y865.841
G01 X277.466 Y865.214
G01 X280.708 Y864.123
G01 X283.754 Y862.573
G01 X286.602 Y860.577
G01 X289.253 Y858.159
G01 X291.712 Y855.351
G01 X293.987 Y852.195
G01 X296.088 Y848.740
G01 X298.027 Y845.043
G01 X299.821 Y841.164
G01 X301.484 Y837.168
G01 X303.035 Y833.124
G01 X304.490 Y829.101
G01 X305.867 Y825.166
G01 X307.184 Y821.388
G01 X308.455 Y817.830
G01 X309.697 Y814.551
G01 X310.921 Y811.604
G01 X312.138 Y809.037
G01 X313.356 Y806.888
G01 X314.581 Y805.188
G01 X315.815 Y803.958
G01 X317.060 Y803.210
G01 X318.311 Y802.945
G01 X319.563 Y803.157
G01 X320.808 Y803.829
G01 X322.034 Y804.935
G01 X323.231 Y806.442
G01 X324.381 Y808.307
G01 X325.470 Y810.483
G01 X326.479 Y812.918
G01 X327.391 Y815.553
G01 X328.186 Y818.328
G01 X328.847 Y821.182
G01 X329.356 Y824.052
G01 X329.695 Y826.878
G01 X329.850 Y829.600
G01 X329.806 Y832.163
G01 X329.552 Y834.518
G01 X329.078 Y836.620
G01 X328.378 Y838.431
G01 X327.447 Y839.920
G01 X326.284 Y841.065
G01 X324.892 Y841.852
G01 X323.274 Y842.275
G01 X321.439 Y842.337
G01 X319.397 Y842.049
G01 X317.161 Y841.431
G01 X314.745 Y840.508
G01 X312.169 Y839.314
G01 X309.450 Y837.889
G01 X306.610 Y836.276
G01 X303.670 Y834.524
G01 X300.653 Y832.683
G01 X297.582 Y830.806
G01 X294.480 Y828.947
G01 X291.369 Y827.156
G01 X288.270 Y825.483
G01 X285.204 Y823.977
G01 X282.191 Y822.680
G01 X279.246 Y821.630
G01 X276.387 Y820.858
G01 X273.626 Y820.391
G01 X270.974 Y820.247
G01 X268.439 Y820.437
G01 X266.030 Y820.964
G01 X263.748 Y821.825
G01 X261.596 Y823.009
G01 X259.574 Y824.496
G01 X257.679 Y826.261
G01 X255.907 Y828.274
G01 X254.252 Y830.496
G01 X252.707 Y832.888
G01 X251.263 Y835.404
G01 X249.911 Y837.997
G01 X248.642 Y840.618
G01 X247.446 Y843.218
G01 X246.314 Y845.748
G01 X245.236 Y848.161
G01 X244.203 Y850.413
G01 X243.208 Y852.462
G01 X242.244 Y854.273
G01 X241.305 Y855.813
G01 X240.388 Y857.059
G01 X239.489 Y857.989
G01 X238.609 Y858.592
G01 X237.746 Y858.861
G01 X236.904 Y858.797
G01 X236.086 Y858.409
G01 X235.296 Y857.709
G01 X234.541 Y856.718
G01 X233.827 Y855.461
G01 X233.164 Y853.969
G01 X232.560 Y852.276
G01 X232.023 Y850.421
G01 X231.565 Y848.444
G01 X231.193 Y846.387
G01 X230.917 Y844.293
G01 X230.745 Y842.204
G01 X230.687 Y840.162
G01 X230.748 Y838.205
G01 X230.936 Y836.370
G01 X231.253 Y834.690
G01 X231.704 Y833.194
G01 X232.291 Y831.904
G01 X233.014 Y830.840
G01 X233.871 Y830.013
G01 X234.860 Y829.432
G01 X235.975 Y829.098
G01 X237.212 Y829.006
G01 X238.562 Y829.147
G01 X240.016 Y829.505
G01 X241.565 Y830.062
G01 X243.198 Y830.792
G01 X244.903 Y831.670
G01 X246.668 Y832.664
G01 X248.479 Y833.743
G01 X250.325 Y834.872
G01 X252.191 Y836.017
G01 X254.066 Y837.144
G01 X255.936 Y838.219
G01 X257.790 Y839.212
G01 X259.618 Y840.093
G01 X261.408 Y840.836
G01 X263.152 Y841.419
G01 X264.841 Y841.824
G01 X266.469 Y842.035
G01 X268.030 Y842.045
G01 X269.520 Y841.847
G01 X270.935 Y841.443
G01 X272.274 Y840.837
G01 X273.535 Y840.039
G01 X274.720 Y839.062
G01 X275.828 Y837.923
G01 X276.862 Y836.644
G01 X277.825 Y835.249
G01 X278.721 Y833.763
G01 X279.552 Y832.214
G01 X280.324 Y830.632
G01 X281.041 Y829.045
G01 X281.706 Y827.483
G01 X282.325 Y825.974
G01 X282.901 Y824.544
G01 X283.439 Y823.218
G01 X283.940 Y822.017
G01 X284.409 Y820.961
G01 X284.847 Y820.065
G01 X285.256 Y819.340
G01 X285.638 Y818.796
G01 X285.991 Y818.436
G01 X286.317 Y818.260
G01 X286.614 Y818.264
G01 X286.881 Y818.441
G01 X287.116 Y818.780
G01 X287.317 Y819.268
G01 X287.481 Y819.887
G01 X287.606 Y820.619
G01 X287.688 Y821.442
G01 X287.725 Y822.335
G01 X287.715 Y823.275
G01 X287.653 Y824.238
G01 X287.539 Y825.203
G01 X287.369 Y826.146
G01 X287.143 Y827.047
G01 X286.860 Y827.888
G01 X286.518 Y828.651
G01 X286.119 Y829.321
G01 X285.663 Y829.887
G01 X285.151 Y830.340
G01 X284.586 Y830.674
G01 X283.970 Y830.885
G01 X283.306 Y830.974
G01 X282.599 Y830.943
G01 X281.853 Y830.799
G01 X281.072 Y830.548
G01 X280.262 Y830.202
G01 X279.428 Y829.773
G01 X278.576 Y829.273
G01 X277.711 Y828.719
G01 X276.840 Y828.125
G01 X275.967 Y827.507
G01 X275.099 Y826.882
G01 X274.241 Y826.265
G01 X273.398 Y825.670
G01 X272.575 Y825.110
G01 X271.776 Y824.598
G01 X271.004 Y824.143
G01 X270.264 Y823.754
G01 X269.558 Y823.437
G01 X268.889 Y823.197
G01 X268.259 Y823.034
G01 X267.669 Y822.949
G01 X267.119 Y822.940
G01 X266.611 Y823.002
G01 X266.145 Y823.130
G01 X265.720 Y823.315
G01 X265.336 Y823.550
G01 X264.991 Y823.825
G01 X264.685 Y824.128
G01 X264.417 Y824.450
G01 X264.184 Y824.779
G01 X263.986 Y825.105
G01 X263.822 Y825.418
G01 X263.688 Y825.709
G01 X263.585 Y825.969
G01 X263.510 Y826.191
G01 X263.462 Y826.369
G01 X263.441 Y826.500
G01 X263.444 Y826.581
G01 X263.471 Y826.610
G01 X263.521 Y826.588
G01 X263.593 Y826.517
G01 X263.687 Y826.401
G01 X263.801 Y826.244
G01 X263.935 Y826.051
G01 X264.089 Y825.829
G01 X264.260 Y825.586
G01 X264.450 Y825.328
G01 X264.657 Y825.063
G01 X264.879 Y824.798
G01 X265.116 Y824.541
G01 X265.366 Y824.298
G01 X265.629 Y824.075
G01 X265.902 Y823.875
G01 X266.183 Y823.704
G01 X266.470 Y823.562
G01 X266.762 Y823.451
G01 X267.055 Y823.371
G01 X267.348 Y823.319
G01 X267.637 Y823.293
G01 X267.920 Y823.290
G01 X268.193 Y823.303
G01 X268.455 Y823.327
G01 X268.701 Y823.356
G01 X268.930 Y823.382
G01 X269.138 Y823.400
G01 X269.322 Y823.400
G01 X269.480 Y823.378
G01 X269.611 Y823.327
G01 X269.710 Y823.241
G01 X269.778 Y823.117
G01 X269.812 Y822.951
G01 X269.810 Y822.742
G01 X269.773 Y822.490
G01 X269.698 Y822.195
G01 X269.586 Y821.861
G01 X269.437 Y821.492
G01 X269.250 Y821.094
G01 X269.027 Y820.674
G01 X268.768 Y820.240
G01 X268.473 Y819.802
G01 X268.145 Y819.370
G01 X267.784 Y818.955
G01 X267.392 Y818.567
G01 X266.970 Y818.217
G01 X266.520 Y817.916
G01 X266.043 Y817.672
G01 X265.542 Y817.496
G01 X265.018 Y817.393
G01 X264.472 Y817.370
G01 X263.907 Y817.430
G01 X263.323 Y817.577
G01 X262.722 Y817.808
G01 X262.106 Y818.122
G01 X261.475 Y818.515
G01 X260.831 Y818.980
G01 X260.175 Y819.507
G01 X259.509 Y820.087
G01 X258.833 Y820.706
G01 X258.148 Y821.350
G01 X257.456 Y822.004
G01 X256.758 Y822.652
G01 X256.054 Y823.277
G01 X255.347 Y823.862
G01 X254.639 Y824.390
G01 X253.930 Y824.847
G01 X253.222 Y825.216
G01 X252.518 Y825.486
G01 X251.821 Y825.645
G01 X251.131 Y825.683
G01 X250.454 Y825.594
G01 X249.790 Y825.375
G01 X249.144 Y825.024
G01 X248.519 Y824.545
G01 X247.919 Y823.942
G01 X247.347 Y823.223
G01 X246.806 Y822.400
G01 X246.302 Y821.487
G01 X245.838 Y820.500
G01 X245.418 Y819.458
G01 X245.045 Y818.382
G01 X244.724 Y817.293
G01 X244.459 Y816.213
G01 X244.252 Y815.166
G01 X244.107 Y814.175
G01 X244.026 Y813.261
G01 X244.014 Y812.446
G01 X244.070 Y811.749
G01 X244.199 Y811.185
G01 X244.400 Y810.770
G01 X244.675 Y810.515
G01 X245.025 Y810.426
G01 X245.449 Y810.508
G01 X245.948 Y810.760
G01 X246.521 Y811.179
G01 X247.166 Y811.757
G01 X247.883 Y812.481
G01 X248.669 Y813.336
G01 X249.522 Y814.303
G01 X250.439 Y815.361
G01 X251.418 Y816.484
G01 X252.457 Y817.646
G01 X253.551 Y818.818
G01 X254.697 Y819.972
G01 X255.893 Y821.077
G01 X257.134 Y822.106
G01 X258.418 Y823.030
G01 X259.740 Y823.823
G01 X261.098 Y824.461
G01 X262.487 Y824.923
G01 X263.905 Y825.193
G01 X265.347 Y825.257
G01 X266.812 Y825.106
G01 X268.295 Y824.737
G01 X269.794 Y824.148
G01 X271.306 Y823.348
G01 X272.826 Y822.345
G01 X274.354 Y821.156
G01 X275.884 Y819.800
G01 X277.416 Y818.301
G01 X278.944 Y816.687
G01 X280.467 Y814.989
G01 X281.980 Y813.241
G01 X283.482 Y811.477
G01 X284.967 Y809.734
G01 X286.433 Y808.048
G01 X287.875 Y806.456
G01 X289.290 Y804.992
G01 X290.674 Y803.689
G01 X292.022 Y802.575
G01 X293.330 Y801.678
G01 X294.594 Y801.017
G01 X295.808 Y800.611
G01 X296.969 Y800.470
G01 X298.070 Y800.601
G01 X299.109 Y801.002
G01 X300.080 Y801.668
G01 X300.977 Y802.587
G01 X301.798 Y803.741
G01 X302.537 Y805.107
G01 X303.190 Y806.655
G01 X303.754 Y808.354
G01 X304.224 Y810.167
G01 X304.597 Y812.055
G01 X304.871 Y813.974
G01 X305.042 Y815.882
G01 X305.109 Y817.736
G01 X305.070 Y819.491
G01 X304.923 Y821.107
G01 X304.668 Y822.545
G01 X304.304 Y823.769
G01 X303.830 Y824.746
G01 X303.248 Y825.452
G01 X302.558 Y825.864
G01 X301.760 Y825.969
G01 X300.858 Y825.757
G01 X299.851 Y825.228
G01 X298.743 Y824.387
G01 X297.535 Y823.246
G01 X296.231 Y821.826
G01 X294.832 Y820.152
G01 X293.341 Y818.255
G01 X291.762 Y816.172
G01 X290.097 Y813.946
G01 X288.350 Y811.620
G01 X286.524 Y809.243
G01 X284.622 Y806.865
G01 X282.647 Y804.535
G01 X280.604 Y802.303
G01 X278.494 Y800.218
G01 X276.323 Y798.324
G01 X274.093 Y796.664
G01 X271.808 Y795.274
G01 X269.473 Y794.186
G01 X267.092 Y793.425
G01 X264.668 Y793.009
G01 X262.208 Y792.948
G01 X259.714 Y793.246
G01 X257.194 Y793.896
G01 X254.652 Y794.887
G01 X252.093 Y796.198
G01 X249.526 Y797.799
G01 X246.955 Y799.658
G01 X244.388 Y801.731
G01 X241.833 Y803.973
G01 X239.296 Y806.333
G01 X236.786 Y808.758
G01 X234.310 Y811.190
G01 X231.878 Y813.574
G01 X229.498 Y815.853
G01 X227.178 Y817.971
G01 X224.927 Y819.876
G01 X222.753 Y821.521
G01 X220.665 Y822.863
G01 X218.672 Y823.865
G01 X216.780 Y824.496
G01 X214.998 Y824.737
G01 X213.333 Y824.572
G01 X211.792 Y823.997
G01 X210.380 Y823.017
G01 X209.103 Y821.645
G01 X207.965 Y819.902
G01 X206.971 Y817.820
G01 X206.124 Y815.436
G01 X205.426 Y812.796
G01 X204.880 Y809.952
G01 X204.485 Y806.960
G01 X204.242 Y803.881
G01 X204.150 Y800.779
G01 X204.209 Y797.718
G01 X204.417 Y794.762
G01 X204.771 Y791.974
G01 X205.269 Y789.415
G01 X205.907 Y787.141
G01 X206.682 Y785.202
G01 X207.591 Y783.641
G01 X208.630 Y782.495
G01 X209.795 Y781.792
G01 X211.082 Y781.549
G01 X212.488 Y781.775
G01 X214.010 Y782.469
G01 X215.644 Y783.619
G01 X217.388 Y785.205
G01 X219.239 Y787.195
G01 X221.195 Y789.549
G01 X223.255 Y792.221
G01 X225.416 Y795.154
G01 X227.677 Y798.288
G01 X230.038 Y801.558
G01 X232.497 Y804.893
G01 X235.054 Y808.223
G01 X237.707 Y811.478
G01 X240.456 Y814.586
G01 X243.299 Y817.481
G01 X246.236 Y820.100
G01 X249.263 Y822.385
G01 X252.378 Y824.286
G01 X255.579 Y825.761
G01 X258.860 Y826.778
G01 X262.217 Y827.312
G01 X265.645 Y827.352
G01 X269.136 Y826.895
G01 X272.682 Y825.952
G01 X276.276 Y824.541
G01 X279.906 Y822.694
G01 X283.561 Y820.451
G01 X287.231 Y817.862
G01 X290.901 Y814.984
G01 X294.559 Y811.882
G01 X298.189 Y808.627
G01 X301.777 Y805.291
G01 X305.307 Y801.951
G01 X308.763 Y798.686
G01 X312.131 Y795.569
G01 X315.393 Y792.676
G01 X318.535 Y790.074
G01 X321.542 Y787.828
G01 X324.399 Y785.992
G01 X327.094 Y784.615
G01 X329.613 Y783.733
G01 X331.945 Y783.374
G01 X334.081 Y783.552
G01 X336.013 Y784.271
G01 X337.733 Y785.523
G01 X339.236 Y787.287
G01 X340.519 Y789.531
G01 X341.580 Y792.212
G01 X342.417 Y795.277
G01 X343.034 Y798.663
G01 X343.432 Y802.301
G01 X343.616 Y806.113
G01 X343.591 Y810.019
G01 X343.364 Y813.934
G01 X342.941 Y817.772
G01 X342.333 Y821.449
G01 X341.546 Y824.881
G01 X340.591 Y827.991
G01 X339.476 Y830.706
G01 X338.210 Y832.962
G01 X336.803 Y834.703
G01 X335.262 Y835.883
G01 X333.594 Y836.470
G01 X331.808 Y836.441
G01 X329.907 Y835.787
G01 X327.897 Y834.513
G01 X325.781 Y832.637
G01 X323.562 Y830.187
G01 X321.241 Y827.207
G01 X318.817 Y823.749
G01 X316.289 Y819.879
G01 X313.656 Y815.669
G01 X310.915 Y811.199
G01 X308.062 Y806.555
G01 X305.093 Y801.828
G01 X302.005 Y797.110
G01 X298.792 Y792.493
G01 X295.452 Y788.066
G01 X291.981 Y783.917
G01 X288.376 Y780.125
G01 X284.636 Y776.763
G01 X280.760 Y773.895
G01 X276.750 Y771.574
G01 X272.610 Y769.840
G01 X268.342 Y768.722
G01 X263.956 Y768.235
G01 X259.458 Y768.379
G01 X254.861 Y769.142
G01 X250.177 Y770.496
G01 X245.422 Y772.402
G01 X240.612 Y774.807
G01 X235.768 Y777.647
G01 X230.909 Y780.850
G01 X226.059 Y784.331
G01 X221.240 Y788.005
G01 X216.478 Y791.776
G01 X211.798 Y795.549
G01 X207.224 Y799.227
G01 X202.783 Y802.717
G01 X198.500 Y805.925
G01 X194.398 Y808.769
G01 X190.501 Y811.168
G01 X186.831 Y813.056
G01 X183.408 Y814.376
G01 X180.248 Y815.082
G01 X177.368 Y815.143
G01 X174.780 Y814.544
G01 X172.495 Y813.280
G01 X170.519 Y811.366
G01 X168.856 Y808.828
G01 X167.509 Y805.710
G01 X166.475 Y802.066
G01 X165.750 Y797.964
G01 X165.327 Y793.483
G01 X165.196 Y788.711
G01 X165.346 Y783.745
G01 X165.764 Y778.686
G01 X166.433 Y773.638
G01 X167.337 Y768.708
G01 X168.460 Y764.000
G01 X169.784 Y759.617
G01 X171.292 Y755.653
G01 X172.965 Y752.197
G01 X174.789 Y749.328
G01 X176.747 Y747.112
G01 X178.825 Y745.602
G01 X181.013 Y744.840
G01 X183.299 Y744.849
G01 X185.675 Y745.639
G01 X188.137 Y747.202
G01 X190.681 Y749.515
G01 X193.307 Y752.538
G01 X196.015 Y756.220
G01 X198.810 Y760.491
G01 X201.698 Y765.272
G01 X204.686 Y770.472
G01 X207.785 Y775.993
G01 X211.003 Y781.727
G01 X214.353 Y787.564
G01 X217.847 Y793.392
G01 X221.495 Y799.097
G01 X225.309 Y804.570
G01 X229.299 Y809.706
G01 X233.474 Y814.407
G01 X237.840 Y818.587
G01 X242.403 Y822.167
G01 X247.164 Y825.085
G01 X252.122 Y827.291
G01 X257.274 Y828.752
G01 X262.612 Y829.452
G01 X268.124 Y829.390
G01 X273.797 Y828.581
G01 X279.611 Y827.061
G01 X285.546 Y824.877
G01 X291.577 Y822.092
G01 X297.675 Y818.785
G01 X303.809 Y815.043
G01 X309.947 Y810.966
G01 X316.053 Y806.660
G01 X322.091 Y802.236
G01 X328.024 Y797.809
G01 X333.814 Y793.493
G01 X339.423 Y789.402
G01 X344.816 Y785.642
G01 X349.956 Y782.316
G01 X354.811 Y779.514
G01 X359.350 Y777.316
G01 X363.546 Y775.789
G01 X367.375 Y774.983
G01 X370.817 Y774.935
G01 X373.855 Y775.661
G01 X376.478 Y777.164
G01 X378.680 Y779.425
G01 X380.457 Y782.410
G01 X381.812 Y786.067
G01 X382.752 Y790.329
G01 X383.287 Y795.114
G01 X383.433 Y800.326
G01 X383.207 Y805.860
G01 X382.632 Y811.600
G01 X381.731 Y817.428
G01 X380.531 Y823.217
G01 X379.060 Y828.842
G01 X377.345 Y834.179
G01 X375.415 Y839.110
G01 X373.299 Y843.521
G01 X371.024 Y847.308
G01 X368.615 Y850.382
G01 X366.095 Y852.664
G01 X363.485 Y854.091
G01 X360.803 Y854.620
G01 X358.061 Y854.221
G01 X355.270 Y852.888
G01 X352.437 Y850.630
G01 X349.563 Y847.476
G01 X346.646 Y843.475
G01 X343.681 Y838.690
G01 X340.658 Y833.202
G01 X337.565 Y827.108
G01 X334.386 Y820.515
G01 X331.102 Y813.541
G01 X327.695 Y806.311
G01 X324.143 Y798.956
G01 X320.424 Y791.609
G01 X316.517 Y784.403
G01 X312.401 Y777.466
G01 X308.057 Y770.922
G01 X303.467 Y764.883
G01 X298.618 Y759.454
G01 X293.499 Y754.723
G01 X288.104 Y750.765
G01 X282.430 Y747.635
G01 X276.480 Y745.372
G01 X270.262 Y743.997
G01 X263.790 Y743.509
G01 X257.082 Y743.888
G01 X250.162 Y745.095
G01 X243.059 Y747.074
G01 X235.808 Y749.750
G01 X228.446 Y753.035
G01 X221.018 Y756.824
G01 X213.567 Y761.004
G01 X206.144 Y765.453
G01 X198.799 Y770.040
G01 X191.583 Y774.635
G01 X184.549 Y779.105
G01 X177.748 Y783.321
G01 X171.230 Y787.160
G01 X165.044 Y790.506
G01 X159.234 Y793.255
G01 X153.841 Y795.317
G01 X148.901 Y796.617
G01 X144.445 Y797.098
G01 X140.499 Y796.719
G01 X137.083 Y795.464
G01 X134.209 Y793.332
G01 X131.883 Y790.345
G01 X130.105 Y786.545
G01 X128.868 Y781.993
G01 X128.159 Y776.768
G01 X127.960 Y770.966
G01 X128.244 Y764.697
G01 X128.984 Y758.084
G01 X130.145 Y751.260
G01 X131.690 Y744.362
G01 X133.580 Y737.536
G01 X135.773 Y730.923
G01 X138.228 Y724.668
G01 X140.901 Y718.905
G01 X143.753 Y713.763
G01 X146.744 Y709.360
G01 X149.838 Y705.799
G01 X153.003 Y703.168
G01 X156.211 Y701.536
G01 X159.438 Y700.953
G01 X162.667 Y701.450
G01 X165.884 Y703.034
G01 X169.085 Y705.692
G01 X172.267 Y709.388
G01 X175.438 Y714.067
G01 X178.608 Y719.652
G01 X181.794 Y726.051
G01 X185.016 Y733.152
G01 X188.302 Y740.831
G01 X191.678 Y748.954
G01 X195.178 Y757.374
G01 X198.835 Y765.944
G01 X202.682 Y774.510
G01 X206.754 Y782.921
G01 X211.083 Y791.029
G01 X215.701 Y798.696
G01 X220.633 Y805.791
G01 X225.904 Y812.197
G01 X231.531 Y817.812
G01 X237.527 Y822.553
G01 X243.898 Y826.355
G01 X250.643 Y829.175
G01 X257.754 Y830.990
G01 X265.214 Y831.801
G01 X273.002 Y831.630
G01 X281.087 Y830.521
G01 X289.430 Y828.538
G01 X297.987 Y825.765
G01 X306.708 Y822.303
G01 X315.536 Y818.267
G01 X324.411 Y813.786
G01 X333.268 Y808.999
G01 X342.040 Y804.049
G01 X350.658 Y799.085
G01 X359.055 Y794.255
G01 X367.162 Y789.702
G01 X374.913 Y785.566
G01 X382.247 Y781.974
G01 X389.104 Y779.041
G01 X395.432 Y776.869
G01 X401.185 Y775.539
G01 X406.325 Y775.114
G01 X410.819 Y775.638
G01 X414.644 Y777.128
G01 X417.787 Y779.583
G01 X420.243 Y782.975
G01 X422.016 Y787.258
G01 X423.117 Y792.360
G01 X423.569 Y798.191
G01 X423.400 Y804.643
G01 X422.646 Y811.591
G01 X421.349 Y818.896
G01 X419.559 Y826.411
G01 X417.326 Y833.977
G01 X414.707 Y841.435
G01 X411.759 Y848.624
G01 X408.540 Y855.384
G01 X405.106 Y861.565
G01 X401.515 Y867.021
G01 X397.818 Y871.625
G01 X394.063 Y875.260
G01 X390.294 Y877.830
G01 X386.547 Y879.258
G01 X382.853 Y879.491
G01 X379.233 Y878.496
G01 X375.703 Y876.266
G01 X372.267 Y872.818
G01 X368.925 Y868.193
G01 X365.666 Y862.455
G01 X362.473 Y855.690
G01 X359.318 Y848.005
G01 X356.172 Y839.523
G01 X352.997 Y830.385
G01 X349.749 Y820.743
G01 X346.385 Y810.760
G01 X342.854 Y800.602
G01 X339.110 Y790.440
G01 X335.102 Y780.443
G01 X330.784 Y770.777
G01 X326.112 Y761.596
G01 X321.047 Y753.047
G01 X315.554 Y745.259
G01 X309.607 Y738.345
G01 X303.186 Y732.399
G01 X296.280 Y727.493
G01 X288.887 Y723.675
G01 X281.016 Y720.970
G01 X272.685 Y719.378
G01 X263.921 Y718.874
G01 X254.763 Y719.411
G01 X245.257 Y720.917
G01 X235.461 Y723.301
G01 X225.438 Y726.450
G01 X215.259 Y730.238
G01 X205.003 Y734.524
G01 X194.751 Y739.154
G01 X184.588 Y743.972
G01 X174.602 Y748.813
G01 X164.881 Y753.517
G01 X155.510 Y757.925
G01 X146.572 Y761.886
G01 X138.147 Y765.261
G01 X130.306 Y767.923
G01 X123.117 Y769.763
G01 X116.636 Y770.692
G01 X110.911 Y770.644
G01 X105.980 Y769.572
G01 X101.868 Y767.458
G01 X98.591 Y764.306
G01 X96.153 Y760.147
G01 X94.545 Y755.035
G01 X93.748 Y749.050
G01 X93.731 Y742.291
G01 X94.454 Y734.880
G01 X95.867 Y726.955
G01 X97.913 Y718.668
G01 X100.528 Y710.183
G01 X103.642 Y701.673
G01 X107.181 Y693.315
G01 X111.069 Y685.285
G01 X115.232 Y677.758
G01 X119.593 Y670.899
G01 X124.081 Y664.865
G01 X128.628 Y659.799
G01 X133.173 Y655.823
G01 X137.659 Y653.045
G01 X142.042 Y651.545
G01 X146.283 Y651.382
G01 X150.356 Y652.590
G01 X154.245 Y655.174
G01 X157.943 Y659.115
G01 X161.455 Y664.366
G01 X164.798 Y670.855
G01 X167.998 Y678.486
G01 X171.090 Y687.141
G01 X174.118 Y696.683
G01 X177.134 Y706.957
G01 X180.195 Y717.795
G01 X183.363 Y729.019
G01 X186.703 Y740.444
G01 X190.281 Y751.883
G01 X194.163 Y763.151
G01 X198.413 Y774.067
G01 X203.089 Y784.459
G01 X208.245 Y794.169
G01 X213.927 Y803.054
G01 X220.174 Y810.990
G01 X227.012 Y817.875
G01 X234.459 Y823.630
G01 X242.519 Y828.201
G01 X251.185 Y831.562
G01 X260.435 Y833.710
G01 X270.238 Y834.674
G01 X280.547 Y834.504
G01 X291.304 Y833.277
G01 X302.440 Y831.092
G01 X313.877 Y828.070
G01 X325.525 Y824.348
G01 X337.289 Y820.080
G01 X349.068 Y815.428
G01 X360.754 Y810.564
G01 X372.242 Y805.663
G01 X383.423 Y800.900
G01 X394.189 Y796.444
G01 X404.440 Y792.458
G01 X414.078 Y789.091
G01 X423.015 Y786.479
G01 X431.169 Y784.738
G01 X438.473 Y783.962
G01 X444.868 Y784.224
G01 X450.312 Y785.569
G01 X454.772 Y788.017
G01 X458.234 Y791.561
G01 X460.697 Y796.166
G01 X462.173 Y801.772
G01 X462.691 Y808.291
G01 X462.290 Y815.615
G01 X461.025 Y823.610
G01 X458.961 Y832.128
G01 X456.170 Y841.002
G01 X452.738 Y850.053
G01 X448.752 Y859.096
G01 X444.306 Y867.940
G01 X439.496 Y876.393
G01 X434.418 Y884.268
G01 X429.166 Y891.386
G01 X423.831 Y897.579
G01 X418.497 Y902.694
G01 X413.242 Y906.599
G01 X408.132 Y909.182
G01 X403.224 Y910.354
G01 X398.565 Y910.055
G01 X394.184 Y908.251
G01 X390.102 Y904.935
G01 X386.323 Y900.133
G01 X382.838 Y893.895
G01 X379.624 Y886.301
G01 X376.646 Y877.456
G01 X373.856 Y867.489
G01 X371.198 Y856.548
G01 X368.603 Y844.803
G01 X365.997 Y832.435
G01 X363.299 Y819.637
G01 X360.426 Y806.610
G01 X357.291 Y793.556
G01 X353.811 Y780.675
G01 X349.903 Y768.163
G01 X345.490 Y756.204
G01 X340.504 Y744.971
G01 X334.883 Y734.617
G01 X328.579 Y725.276
G01 X321.553 Y717.059
G01 X313.784 Y710.051
G01 X305.262 Y704.310
G01 X295.994 Y699.867
G01 X286.004 Y696.722
G01 X275.329 Y694.849
G01 X264.025 Y694.192
G01 X252.159 Y694.671
G01 X239.816 Y696.181
G01 X227.090 Y698.592
G01 X214.089 Y701.760
G01 X200.927 Y705.522
G01 X187.729 Y709.704
G01 X174.621 Y714.124
G01 X161.735 Y718.597
G01 X149.200 Y722.937
G01 X137.144 Y726.965
G01 X125.692 Y730.510
G01 X114.958 Y733.411
G01 X105.050 Y735.529
G01 X96.063 Y736.739
G01 X88.079 Y736.943
G01 X81.165 Y736.067
G01 X75.372 Y734.063
G01 X70.734 Y730.912
G01 X67.269 Y726.622
G01 X64.973 Y721.234
G01 X63.829 Y714.813
G01 X63.799 Y707.453
G01 X64.831 Y699.273
G01 X66.858 Y690.414
G01 X69.797 Y681.037
G01 X73.555 Y671.320
G01 X78.030 Y661.453
G01 X83.110 Y651.635
G01 X88.682 Y642.068
G01 X94.625 Y632.958
G01 X100.823 Y624.502
G01 X107.159 Y616.890
G01 X113.524 Y610.301
G01 X119.815 Y604.896
G01 X125.939 Y600.815
G01 X131.813 Y598.176
G01 X137.371 Y597.071
G01 X142.558 Y597.564
G01 X147.339 Y599.688
G01 X151.691 Y603.447
G01 X155.612 Y608.816
G01 X159.115 Y615.737
G01 X162.231 Y624.124
G01 X165.005 Y633.863
G01 X167.497 Y644.818
G01 X169.781 Y656.826
G01 X171.942 Y669.708
G01 X174.073 Y683.269
G01 X176.276 Y697.304
G01 X178.656 Y711.597
G01 X181.319 Y725.933
G01 X184.372 Y740.099
G01 X187.916 Y753.886
G01 X192.048 Y767.097
G01 X196.854 Y779.549
G01 X202.412 Y791.077
G01 X208.782 Y801.540
G01 X216.014 Y810.818
G01 X224.137 Y818.822
G01 X233.164 Y825.487
G01 X243.090 Y830.782
G01 X253.889 Y834.704
G01 X265.517 Y837.281
G01 X277.910 Y838.569
G01 X290.988 Y838.653
G01 X304.653 Y837.643
G01 X318.791 Y835.673
G01 X333.277 Y832.896
G01 X347.973 Y829.481
G01 X362.734 Y825.611
G01 X377.408 Y821.477
G01 X391.840 Y817.271
G01 X405.877 Y813.187
G01 X419.367 Y809.414
G01 X432.164 Y806.131
G01 X444.131 Y803.502
G01 X455.143 Y801.675
G01 X465.088 Y800.778
G01 X473.872 Y800.912
G01 X481.415 Y802.154
G01 X487.660 Y804.552
G01 X492.568 Y808.124
G01 X496.124 Y812.859
G01 X498.331 Y818.714
G01 X499.216 Y825.617
G01 X498.824 Y833.469
G01 X497.222 Y842.143
G01 X494.492 Y851.489
G01 X490.736 Y861.338
G01 X486.065 Y871.500
G01 X480.606 Y881.777
G01 X474.492 Y891.959
G01 X467.862 Y901.831
G01 X460.859 Y911.181
G01 X453.623 Y919.800
G01 X446.294 Y927.488
G01 X439.003 Y934.060
G01 X431.872 Y939.347
G01 X425.011 Y943.203
G01 X418.519 Y945.506
G01 X412.473 Y946.161
G01 X406.936 Y945.103
G01 X401.950 Y942.297
G01 X397.538 Y937.742
G01 X393.702 Y931.466
G01 X390.423 Y923.532
G01 X387.662 Y914.032
G01 X385.362 Y903.086
G01 X383.449 Y890.841
G01 X381.831 Y877.467
G01 X380.406 Y863.155
G01 X379.057 Y848.110
G01 X377.661 Y832.550
G01 X376.092 Y816.701
G01 X374.217 Y800.790
G01 X371.910 Y785.042
G01 X369.044 Y769.678
G01 X365.504 Y754.904
G01 X361.182 Y740.912
G01 X355.986 Y727.877
G01 X349.839 Y715.949
G01 X342.682 Y705.252
G01 X334.476 Y695.883
G01 X325.203 Y687.908
G01 X314.868 Y681.363
G01 X303.498 Y676.252
G01 X291.144 Y672.547
G01 X277.879 Y670.191
G01 X263.795 Y669.095
G01 X249.007 Y669.148
G01 X233.645 Y670.211
G01 X217.858 Y672.126
G01 X201.805 Y674.718
G01 X185.655 Y677.798
G01 X169.586 Y681.171
G01 X153.777 Y684.635
G01 X138.409 Y687.993
G01 X123.657 Y691.049
G01 X109.690 Y693.619
G01 X96.668 Y695.534
G01 X84.736 Y696.643
G01 X74.021 Y696.814
G01 X64.635 Y695.945
G01 X56.666 Y693.957
G01 X50.180 Y690.803
G01 X45.218 Y686.465
G01 X41.797 Y680.959
G01 X39.910 Y674.330
G01 X39.523 Y666.653
G01 X40.579 Y658.036
G01 X42.998 Y648.609
G01 X46.680 Y638.531
G01 X51.506 Y627.979
G01 X57.339 Y617.148
G01 X64.031 Y606.248
G01 X71.425 Y595.496
G01 X79.354 Y585.113
G01 X87.652 Y575.322
G01 X96.151 Y566.339
G01 X104.690 Y558.369
G01 X113.113 Y551.606
G01 X121.278 Y546.221
G01 X129.056 Y542.366
G01 X136.334 Y540.166
G01 X143.020 Y539.719
G01 X149.044 Y541.089
G01 X154.357 Y544.310
G01 X158.936 Y549.384
G01 X162.781 Y556.276
G01 X165.915 Y564.922
G01 X168.387 Y575.224
G01 X170.267 Y587.055
G01 X171.645 Y600.261
G01 X172.630 Y614.663
G01 X173.347 Y630.064
G01 X173.933 Y646.247
G01 X174.536 Y662.985
G01 X175.308 Y680.044
G01 X176.405 Y697.187
G01 X177.980 Y714.178
G01 X180.182 Y730.789
G01 X183.149 Y746.805
G01 X187.010 Y762.023
G01 X191.875 Y776.265
G01 X197.837 Y789.372
G01 X204.967 Y801.215
G01 X213.313 Y811.693
G01 X222.899 Y820.734
G01 X233.720 Y828.302
G01 X245.748 Y834.391
G01 X258.926 Y839.026
G01 X273.172 Y842.268
G01 X288.379 Y844.202
G01 X304.418 Y844.946
G01 X321.136 Y844.638
G01 X338.365 Y843.440
G01 X355.923 Y841.531
G01 X373.612 Y839.102
G01 X391.231 Y836.354
G01 X408.572 Y833.490
G01 X425.430 Y830.714
G01 X441.601 Y828.223
G01 X456.893 Y826.205
G01 X471.122 Y824.831
G01 X484.124 Y824.254
G01 X495.752 Y824.608
G01 X505.882 Y825.995
G01 X514.412 Y828.494
G01 X521.270 Y832.152
G01 X526.410 Y836.983
G01 X529.815 Y842.971
G01 X531.498 Y850.066
G01 X531.499 Y858.190
G01 X529.887 Y867.230
G01 X526.757 Y877.051
G01 X522.228 Y887.489
G01 X516.440 Y898.361
G01 X509.551 Y909.466
G01 X501.735 Y920.587
G01 X493.177 Y931.503
G01 X484.069 Y941.984
G01 X474.604 Y951.804
G01 X464.977 Y960.741
G01 X455.375 Y968.586
G01 X445.977 Y975.140
G01 X436.948 Y980.229
G01 X428.436 Y983.699
G01 X420.570 Y985.422
G01 X413.453 Y985.302
G01 X407.168 Y983.273
G01 X401.766 Y979.301
G01 X397.274 Y973.389
G01 X393.690 Y965.573
G01 X390.982 Y955.921
G01 X389.093 Y944.536
G01 X387.940 Y931.550
G01 X387.414 Y917.122
G01 X387.388 Y901.439
G01 X387.714 Y884.704
G01 X388.231 Y867.141
G01 X388.766 Y848.983
G01 X389.141 Y830.474
G01 X389.173 Y811.857
G01 X388.682 Y793.375
G01 X387.494 Y775.263
G01 X385.447 Y757.744
G01 X382.391 Y741.024
G01 X378.195 Y725.290
G01 X372.751 Y710.704
G01 X365.973 Y697.401
G01 X357.804 Y685.486
G01 X348.216 Y675.031
G01 X337.208 Y666.079
G01 X324.814 Y658.636
G01 X311.095 Y652.677
G01 X296.143 Y648.145
G01 X280.080 Y644.952
G01 X263.052 Y642.982
G01 X245.230 Y642.095
G01 X226.806 Y642.129
G01 X207.988 Y642.903
G01 X188.997 Y644.226
G01 X170.065 Y645.896
G01 X151.426 Y647.707
G01 X133.313 Y649.455
G01 X115.957 Y650.942
G01 X99.576 Y651.980
G01 X84.376 Y652.396
G01 X70.545 Y652.037
G01 X58.247 Y650.772
G01 X47.622 Y648.496
G01 X38.783 Y645.134
G01 X31.809 Y640.641
G01 X26.751 Y635.004
G01 X23.625 Y628.241
G01 X22.415 Y620.405
G01 X23.070 Y611.579
G01 X25.511 Y601.877
G01 X29.626 Y591.440
G01 X35.277 Y580.434
G01 X42.302 Y569.047
G01 X50.518 Y557.484
G01 X59.726 Y545.964
G01 X69.713 Y534.715
G01 X80.260 Y523.967
G01 X91.143 Y513.951
G01 X102.141 Y504.890
G01 X113.041 Y496.998
G01 X123.638 Y490.473
G01 X133.744 Y485.492
G01 X143.192 Y482.209
G01 X151.837 Y480.752
G01 X159.560 Y481.217
G01 X166.271 Y483.669
G01 X171.911 Y488.139
G01 X176.453 Y494.623
G01 X179.903 Y503.083
G01 X182.298 Y513.446
G01 X183.706 Y525.607
G01 X184.225 Y539.429
G01 X183.980 Y554.748
G01 X183.122 Y571.375
G01 X181.820 Y589.099
G01 X180.261 Y607.693
G01 X178.644 Y626.918
G01 X177.177 Y646.526
G01 X176.069 Y666.269
G01 X175.528 Y685.898
G01 X175.755 Y705.175
G01 X176.938 Y723.872
G01 X179.249 Y741.777
G01 X182.840 Y758.701
G01 X187.837 Y774.478
G01 X194.338 Y788.970
G01 X202.413 Y802.069
G01 X212.096 Y813.698
G01 X223.388 Y823.815
G01 X236.255 Y832.409
G01 X250.629 Y839.503
G01 X266.407 Y845.155
G01 X283.456 Y849.449
G01 X301.610 Y852.500
G01 X320.678 Y854.446
G01 X340.445 Y855.450
G01 X360.677 Y855.688
G01 X381.126 Y855.353
G01 X401.532 Y854.645
G01 X421.633 Y853.767
G01 X441.165 Y852.923
G01 X459.872 Y852.309
G01 X477.507 Y852.111
G01 X493.842 Y852.501
G01 X508.666 Y853.628
G01 X521.797 Y855.622
G01 X533.077 Y858.586
G01 X542.385 Y862.592
G01 X549.630 Y867.683
G01 X554.760 Y873.870
G01 X557.759 Y881.131
G01 X558.648 Y889.412
G01 X557.486 Y898.626
G01 X554.367 Y908.657
G01 X549.418 Y919.363
G01 X542.797 Y930.575
G01 X534.689 Y942.103
G01 X525.303 Y953.740
G01 X514.866 Y965.266
G01 X503.617 Y976.453
G01 X491.807 Y987.069
G01 X479.687 Y996.884
G01 X467.507 Y1005.672
G01 X455.509 Y1013.222
G01 X443.923 Y1019.336
G01 X432.960 Y1023.837
G01 X422.808 Y1026.572
G01 X413.629 Y1027.416
G01 X405.556 Y1026.273
G01 X398.688 Y1023.082
G01 X393.090 Y1017.813
G01 X388.789 Y1010.472
G01 X385.779 Y1001.100
G01 X384.014 Y989.773
G01 X383.414 Y976.598
G01 X383.866 Y961.716
G01 X385.226 Y945.292
G01 X387.323 Y927.519
G01 X389.963 Y908.609
G01 X392.930 Y888.794
G01 X396.000 Y868.314
G01 X398.934 Y847.419
G01 X401.496 Y826.362
G01 X403.447 Y805.391
G01 X404.559 Y784.748
G01 X404.618 Y764.664
G01 X403.426 Y745.351
G01 X400.813 Y727.001
G01 X396.632 Y709.783
G01 X390.770 Y693.836
G01 X383.148 Y679.271
G01 X373.724 Y666.167
G01 X362.495 Y654.568
G01 X349.496 Y644.488
G01 X334.802 Y635.905
G01 X318.526 Y628.766
G01 X300.815 Y622.989
G01 X281.853 Y618.463
G01 X261.852 Y615.052
G01 X241.051 Y612.598
G01 X219.709 Y610.927
G01 X198.104 Y609.852
G01 X176.522 Y609.176
G01 X155.257 Y608.699
G01 X134.600 Y608.223
G01 X114.836 Y607.556
G01 X96.239 Y606.516
G01 X79.063 Y604.937
G01 X63.539 Y602.670
G01 X49.871 Y599.592
G01 X38.230 Y595.605
G01 X28.751 Y590.637
G01 X21.532 Y584.651
G01 X16.628 Y577.638
G01 X14.055 Y569.623
G01 X13.786 Y560.662
G01 X15.753 Y550.842
G01 X19.849 Y540.282
G01 X25.928 Y529.125
G01 X33.813 Y517.539
G01 X43.295 Y505.715
G01 X54.139 Y493.858
G01 X66.089 Y482.187
G01 X78.877 Y470.929
G01 X92.223 Y460.314
G01 X105.844 Y450.571
G01 X119.462 Y441.920
G01 X132.806 Y434.572
G01 X145.620 Y428.721
G01 X157.670 Y424.541
G01 X168.746 Y422.182
G01 X178.667 Y421.766
G01 X187.289 Y423.385
G01 X194.502 Y427.098
G01 X200.235 Y432.933
G01 X204.459 Y440.880
G01 X207.187 Y450.895
G01 X208.470 Y462.903
G01 X208.400 Y476.792
G01 X207.106 Y492.423
G01 X204.752 Y509.626
G01 X201.532 Y528.211
G01 X197.665 Y547.963
G01 X193.392 Y568.651
G01 X188.970 Y590.035
G01 X184.665 Y611.865
G01 X180.746 Y633.888
G01 X177.479 Y655.856
G01 X175.122 Y677.528
G01 X173.916 Y698.674
G01 X174.084 Y719.080
G01 X175.819 Y738.555
G01 X179.287 Y756.931
G01 X184.615 Y774.065
G01 X191.894 Y789.847
G01 X201.173 Y804.196
G01 X212.458 Y817.065
G01 X225.713 Y828.438
G01 X240.856 Y838.333
G01 X257.765 Y846.800
G01 X276.277 Y853.916
G01 X296.191 Y859.787
G01 X317.274 Y864.545
G01 X339.263 Y868.340
G01 X361.871 Y871.341
G01 X384.795 Y873.728
G01 X407.716 Y875.691
G01 X430.313 Y877.423
G01 X452.264 Y879.115
G01 X473.255 Y880.953
G01 X492.987 Y883.110
G01 X511.179 Y885.748
G01 X527.578 Y889.006
G01 X541.961 Y893.004
G01 X554.141 Y897.835
G01 X563.971 Y903.564
G01 X571.345 Y910.226
G01 X576.205 Y917.825
G01 X578.536 Y926.335
G01 X578.371 Y935.698
G01 X575.786 Y945.824
G01 X570.905 Y956.597
G01 X563.888 Y967.874
G01 X554.937 Y979.487
G01 X544.284 Y991.251
G01 X532.190 Y1002.961
G01 X518.939 Y1014.402
G01 X504.832 Y1025.353
G01 X490.177 Y1035.587
G01 X475.289 Y1044.883
G01 X460.475 Y1053.022
G01 X446.035 Y1059.802
G01 X432.252 Y1065.034
G01 X419.385 Y1068.548
G01 X407.664 Y1070.200
G01 X397.287 Y1069.873
G01 X388.415 Y1067.480
G01 X381.165 Y1062.963
G01 X375.614 Y1056.301
G01 X371.792 Y1047.505
G01 X369.684 Y1036.620
G01 X369.228 Y1023.725
G01 X370.321 Y1008.929
G01 X372.817 Y992.375
G01 X376.533 Y974.228
G01 X381.251 Y954.680
G01 X386.726 Y933.943
G01 X392.689 Y912.245
G01 X398.852 Y889.825
G01 X404.921 Y866.929
G01 X410.594 Y843.807
G01 X415.575 Y820.703
G01 X419.576 Y797.857
G01 X422.327 Y775.495
G01 X423.582 Y753.829
G01 X423.123 Y733.048
G01 X420.767 Y713.319
G01 X416.368 Y694.784
G01 X409.825 Y677.554
G01 X401.081 Y661.710
G01 X390.127 Y647.302
G01 X377.001 Y634.349
G01 X361.790 Y622.836
G01 X344.626 Y612.720
G01 X325.688 Y603.927
G01 X305.193 Y596.359
G01 X283.396 Y589.892
G01 X260.584 Y584.384
G01 X237.071 Y579.675
G01 X213.189 Y575.594
G01 X189.285 Y571.960
G01 X165.711 Y568.592
G01 X142.817 Y565.307
G01 X120.947 Y561.930
G01 X100.427 Y558.296
G01 X81.563 Y554.255
G01 X64.632 Y549.673
G01 X49.875 Y544.439
G01 X37.494 Y538.469
G01 X27.650 Y531.702
G01 X20.455 Y524.108
G01 X15.970 Y515.687
G01 X14.209 Y506.467
G01 X15.135 Y496.509
G01 X18.658 Y485.900
G01 X24.643 Y474.756
G01 X32.910 Y463.219
G01 X43.236 Y451.450
G01 X55.364 Y439.633
G01 X69.006 Y427.965
G01 X83.849 Y416.655
G01 X99.562 Y405.917
G01 X115.804 Y395.970
G01 X132.233 Y387.028
G01 X148.507 Y379.299
G01 X164.300 Y372.980
G01 X179.301 Y368.252
G01 X193.228 Y365.274
G01 X205.828 Y364.185
G01 X216.885 Y365.096
G01 X226.225 Y368.088
G01 X233.721 Y373.213
G01 X239.291 Y380.488
G01 X242.905 Y389.901
G01 X244.582 Y401.404
G01 X244.391 Y414.918
G01 X242.448 Y430.333
G01 X238.917 Y447.510
G01 X234.000 Y466.285
G01 X227.940 Y486.469
G01 X221.009 Y507.855
G01 X213.504 Y530.221
G01 X205.742 Y553.332
G01 X198.051 Y576.947
G01 X190.763 Y600.825
G01 X184.206 Y624.725
G01 X178.696 Y648.414
G01 X174.533 Y671.670
G01 X171.989 Y694.288
G01 X171.305 Y716.081
G01 X172.686 Y736.885
G01 X176.290 Y756.561
G01 X182.234 Y774.998
G01 X190.580 Y792.115
G01 X201.343 Y807.860
G01 X214.482 Y822.211
G01 X229.904 Y835.178
G01 X247.468 Y846.799
G01 X266.981 Y857.139
G01 X288.208 Y866.289
G01 X310.872 Y874.363
G01 X334.663 Y881.492
G01 X359.240 Y887.824
G01 X384.243 Y893.520
G01 X409.295 Y898.745
G01 X434.016 Y903.671
G01 X458.024 Y908.465
G01 X480.948 Y913.291
G01 X502.434 Y918.301
G01 X522.151 Y923.635
G01 X539.801 Y929.414
G01 X555.122 Y935.740
G01 X567.897 Y942.689
G01 X577.954 Y950.315
G01 X585.174 Y958.642
G01 X589.491 Y967.666
G01 X590.894 Y977.356
G01 X589.427 Y987.652
G01 X585.189 Y998.466
G01 X578.330 Y1009.685
G01 X569.049 Y1021.173
G01 X557.590 Y1032.772
G01 X544.235 Y1044.308
G01 X529.300 Y1055.590
G01 X513.128 Y1066.419
G01 X496.078 Y1076.591
G01 X478.524 Y1085.899
G01 X460.840 Y1094.137
G01 X443.396 Y1101.110
G01 X426.549 Y1106.633
G01 X410.635 Y1110.534
G01 X395.963 Y1112.664
G01 X382.806 Y1112.894
G01 X371.397 Y1111.122
G01 X361.923 Y1107.272
G01 X354.523 Y1101.300
G01 X349.282 Y1093.191
G01 X346.231 Y1082.963
G01 X345.348 Y1070.663
G01 X346.553 Y1056.371
G01 X349.718 Y1040.195
G01 X354.663 Y1022.270
G01 X361.162 Y1002.757
G01 X368.952 Y981.839
G01 X377.732 Y959.715
G01 X387.175 Y936.602
G01 X396.934 Y912.724
G01 X406.651 Y888.314
G01 X415.960 Y863.605
G01 X424.503 Y838.829
G01 X431.933 Y814.210
G01 X437.921 Y789.963
G01 X442.169 Y766.285
G01 X444.412 Y743.357
G01 X444.427 Y721.338
G01 X442.035 Y700.364
G01 X437.112 Y680.544
G01 X429.583 Y661.959
G01 X419.433 Y644.663
G01 X406.703 Y628.679
G01 X391.490 Y614.006
G01 X373.946 Y600.610
G01 X354.278 Y588.437
G01 X332.738 Y577.404
G01 X309.623 Y567.411
G01 X285.270 Y558.339
G01 X260.043 Y550.053
G01 X234.331 Y542.409
G01 X208.539 Y535.256
G01 X183.079 Y528.438
G01 X158.359 Y521.805
G01 X134.781 Y515.207
G01 X112.725 Y508.508
G01 X92.545 Y501.582
G01 X74.563 Y494.320
G01 X59.059 Y486.633
G01 X46.266 Y478.453
G01 X36.367 Y469.737
G01 X29.487 Y460.466
G01 X25.696 Y450.648
G01 X25.003 Y440.317
G01 X27.356 Y429.533
G01 X32.648 Y418.382
G01 X40.713 Y406.973
G01 X51.333 Y395.436
G01 X64.242 Y383.921
G01 X79.134 Y372.594
G01 X95.665 Y361.633
G01 X113.463 Y351.226
G01 X132.138 Y341.564
G01 X151.285 Y332.841
G01 X170.500 Y325.247
G01 X189.382 Y318.965
G01 X207.546 Y314.166
G01 X224.628 Y311.007
G01 X240.296 Y309.627
G01 X254.255 Y310.141
G01 X266.255 Y312.643
G01 X276.096 Y317.200
G01 X283.629 Y323.849
G01 X288.765 Y332.600
G01 X291.471 Y343.432
G01 X291.777 Y356.297
G01 X289.768 Y371.117
G01 X285.589 Y387.785
G01 X279.435 Y406.171
G01 X271.552 Y426.121
G01 X262.231 Y447.461
G01 X251.796 Y469.999
G01 X240.606 Y493.531
G01 X229.037 Y517.841
G01 X217.480 Y542.710
G01 X206.331 Y567.916
G01 X195.982 Y593.239
G01 X186.809 Y618.465
G01 X179.170 Y643.393
G01 X173.389 Y667.833
G01 X169.756 Y691.611
G01 X168.513 Y714.577
G01 X169.856 Y736.600
G01 X173.922 Y757.573
G01 X180.793 Y777.416
G01 X190.489 Y796.075
G01 X202.969 Y813.520
G01 X218.130 Y829.750
G01 X235.809 Y844.788
G01 X255.789 Y858.681
G01 X277.798 Y871.496
G01 X301.519 Y883.322
G01 X326.593 Y894.262
G01 X352.630 Y904.434
G01 X379.212 Y913.964
G01 X405.907 Y922.985
G01 X432.276 Y931.632
G01 X457.878 Y940.041
G01 X482.287 Y948.339
G01 X505.096 Y956.647
G01 X525.925 Y965.074
G01 X544.432 Y973.714
G01 X560.319 Y982.641
G01 X573.338 Y991.912
G01 X583.295 Y1001.561
G01 X590.057 Y1011.600
G01 X593.553 Y1022.016
G01 X593.777 Y1032.772
G01 X590.785 Y1043.810
G01 X584.697 Y1055.045
G01 X575.693 Y1066.376
G01 X564.009 Y1077.678
G01 X549.933 Y1088.812
G01 X533.796 Y1099.624
G01 X515.970 Y1109.949
G01 X496.855 Y1119.615
G01 X476.871 Y1128.446
G01 X456.454 Y1136.264
G01 X436.038 Y1142.898
G01 X416.055 Y1148.180
G01 X396.919 Y1151.957
G01 X379.017 Y1154.087
G01 X362.708 Y1154.447
G01 X348.305 Y1152.934
G01 X336.077 Y1149.466
G01 X326.237 Y1143.987
G01 X318.942 Y1136.467
G01 X314.286 Y1126.902
G01 X312.300 Y1115.314
G01 X312.952 Y1101.754
G01 X316.147 Y1086.298
G01 X321.727 Y1069.048
G01 X329.479 Y1050.128
G01 X339.135 Y1029.683
G01 X350.382 Y1007.879
G01 X362.867 Y984.894
G01 X376.204 Y960.920
G01 X389.985 Y936.158
G01 X403.787 Y910.813
G01 X417.184 Y885.092
G01 X429.751 Y859.201
G01 X441.082 Y833.337
G01 X450.792 Y807.692
G01 X458.529 Y782.441
G01 X463.980 Y757.747
G01 X466.882 Y733.753
G01 X467.024 Y710.584
G01 X464.255 Y688.341
G01 X458.484 Y667.104
G01 X449.689 Y646.928
G01 X437.910 Y627.845
G01 X423.256 Y609.863
G01 X405.896 Y592.970
G01 X386.063 Y577.129
G01 X364.044 Y562.287
G01 X340.177 Y548.372
G01 X314.842 Y535.297
G01 X288.455 Y522.965
G01 X261.460 Y511.271
G01 X234.316 Y500.101
G01 X207.492 Y489.343
G01 X181.455 Y478.883
G01 X156.658 Y468.614
G01 X133.535 Y458.437
G01 X112.487 Y448.261
G01 X93.879 Y438.010
G01 X78.025 Y427.624
G01 X65.189 Y417.061
G01 X55.574 Y406.296
G01 X49.319 Y395.327
G01 X46.496 Y384.170
G01 X47.112 Y372.864
G01 X51.102 Y361.469
G01 X58.337 Y350.062
G01 X68.620 Y338.740
G01 X81.698 Y327.618
G01 X97.262 Y316.823
G01 X114.954 Y306.494
G01 X134.379 Y296.780
G01 X155.106 Y287.835
G01 X176.685 Y279.818
G01 X198.652 Y272.885
G01 X220.542 Y267.190
G01 X241.893 Y262.876
G01 X262.266 Y260.082
G01 X281.245 Y258.928
G01 X298.450 Y259.521
G01 X313.548 Y261.948
G01 X326.253 Y266.278
G01 X336.339 Y272.556
G01 X343.642 Y280.803
G01 X348.062 Y291.017
G01 X349.569 Y303.173
G01 X348.201 Y317.219
G01 X344.061 Y333.082
G01 X337.321 Y350.666
G01 X328.211 Y369.855
G01 X317.019 Y390.512
G01 X304.084 Y412.487
G01 X289.784 Y435.614
G01 X274.534 Y459.718
G01 X258.772 Y484.615
G01 X242.953 Y510.116
G01 X227.534 Y536.034
G01 X212.969 Y562.180
G01 X199.697 Y588.373
G01 X188.130 Y614.440
G01 X178.646 Y640.218
G01 X171.581 Y665.558
G01 X167.218 Y690.326
G01 X165.784 Y714.407
G01 X167.445 Y737.703
G01 X172.297 Y760.139
G01 X180.370 Y781.658
G01 X191.621 Y802.223
G01 X205.938 Y821.819
G01 X223.143 Y840.450
G01 X242.991 Y858.139
G01 X265.180 Y874.923
G01 X289.352 Y890.857
G01 X315.105 Y906.006
G01 X342.000 Y920.445
G01 X369.568 Y934.258
G01 X397.322 Y947.533
G01 X424.766 Y960.359
G01 X451.409 Y972.823
G01 X476.769 Y985.009
G01 X500.389 Y996.995
G01 X521.845 Y1008.849
G01 X540.754 Y1020.626
G01 X556.782 Y1032.371
G01 X569.655 Y1044.111
G01 X579.158 Y1055.857
G01 X585.147 Y1067.606
G01 X587.547 Y1079.333
G01 X586.355 Y1090.999
G01 X581.643 Y1102.547
G01 X573.551 Y1113.902
G01 X562.288 Y1124.975
G01 X548.127 Y1135.666
G01 X531.399 Y1145.859
G01 X512.482 Y1155.433
G01 X491.802 Y1164.256
G01 X469.815 Y1172.196
G01 X446.999 Y1179.116
G01 X423.848 Y1184.883
G01 X400.859 Y1189.366
G01 X378.516 Y1192.442
G01 X357.291 Y1193.999
G01 X337.621 Y1193.934
G01 X319.909 Y1192.162
G01 X304.508 Y1188.611
G01 X291.719 Y1183.230
G01 X281.780 Y1175.987
G01 X274.864 Y1166.867
G01 X271.073 Y1155.881
G01 X270.437 Y1143.057
G01 X272.915 Y1128.445
G01 X278.391 Y1112.117
G01 X286.683 Y1094.162
G01 X297.543 Y1074.686
G01 X310.661 Y1053.813
G01 X325.677 Y1031.679
G01 X342.185 Y1008.432
G01 X359.742 Y984.230
G01 X377.881 Y959.236
G01 X396.117 Y933.618
G01 X413.960 Y907.543
G01 X430.929 Y881.177
G01 X446.554 Y854.684
G01 X460.396 Y828.216
G01 X472.050 Y801.921
G01 X481.160 Y775.931
G01 X487.421 Y750.368
G01 X490.589 Y725.338
G01 X490.488 Y700.932
G01 X487.012 Y677.223
G01 X480.127 Y654.267
G01 X469.876 Y632.106
G01 X456.374 Y610.762
G01 X439.807 Y590.242
G01 X420.432 Y570.539
G01 X398.565 Y551.631
G01 X374.583 Y533.485
G01 X348.908 Y516.057
G01 X322.002 Y499.297
G01 X294.358 Y483.147
G01 X266.489 Y467.547
G01 X238.914 Y452.434
G01 X212.153 Y437.749
G01 X186.710 Y423.434
G01 X163.066 Y409.437
G01 X141.666 Y395.715
G01 X122.912 Y382.232
G01 X107.153 Y368.966
G01 X94.677 Y355.903
G01 X85.707 Y343.045
G01 X80.392 Y330.406
G01 X78.809 Y318.015
G01 X80.958 Y305.914
G01 X86.760 Y294.158
G01 X96.066 Y282.814
G01 X108.650 Y271.963
G01 X124.224 Y261.692
G01 X142.436 Y252.100
G01 X162.883 Y243.290
G01 X185.116 Y235.372
G01 X208.652 Y228.455
G01 X232.984 Y222.650
G01 X257.591 Y218.067
G01 X281.949 Y214.808
G01 X305.544 Y212.971
G01 X327.882 Y212.645
G01 X348.500 Y213.907
G01 X366.974 Y216.822
G01 X382.933 Y221.440
G01 X396.062 Y227.798
G01 X406.110 Y235.913
G01 X412.899 Y245.788
G01 X416.321 Y257.408
G01 X416.348 Y270.739
G01 X413.028 Y285.733
G01 X406.483 Y302.322
G01 X396.909 Y320.426
G01 X384.573 Y339.949
G01 X369.803 Y360.781
G01 X352.981 Y382.804
G01 X334.541 Y405.889
G01 X314.951 Y429.900
G01 X294.708 Y454.697
G01 X274.326 Y480.135
G01 X254.324 Y506.071
G01 X235.215 Y532.362
G01 X217.495 Y558.870
G01 X201.630 Y585.461
G01 X188.049 Y612.009
G01 X177.132 Y638.398
G01 X169.203 Y664.521
G01 X164.521 Y690.282
G01 X163.274 Y715.599
G01 X165.578 Y740.403
G01 X171.470 Y764.635
G01 X180.910 Y788.252
G01 X193.777 Y811.223
G01 X209.879 Y833.529
G01 X228.949 Y855.161
G01 X250.655 Y876.122
G01 X274.605 Y896.424
G01 X300.359 Y916.084
G01 X327.431 Y935.127
G01 X355.306 Y953.582
G01 X383.449 Y971.480
G01 X411.314 Y988.852
G01 X438.360 Y1005.728
G01 X464.060 Y1022.137
G01 X487.910 Y1038.101
G01 X509.445 Y1053.640
G01 X528.247 Y1068.763
G01 X543.950 Y1083.474
G01 X556.257 Y1097.768
G01 X564.936 Y1111.629
G01 X569.831 Y1125.032
G01 X570.868 Y1137.945
G01 X568.048 Y1150.322
G01 X561.456 Y1162.112
G01 X551.253 Y1173.254
G01 X537.676 Y1183.679
G01 X521.033 Y1193.314
G01 X501.695 Y1202.079
G01 X480.086 Y1209.892
G01 X456.680 Y1216.667
G01 X431.984 Y1222.321
G01 X406.534 Y1226.771
G01 X380.876 Y1229.935
G01 X355.560 Y1231.740
G01 X331.127 Y1232.117
G01 X308.094 Y1231.004
G01 X286.947 Y1228.351
G01 X268.130 Y1224.117
G01 X252.030 Y1218.272
G01 X238.979 Y1210.800
G01 X229.234 Y1201.697
G01 X222.984 Y1190.972
G01 X220.337 Y1178.647
G01 X221.320 Y1164.759
G01 X225.882 Y1149.356
G01 X233.890 Y1132.500
G01 X245.135 Y1114.263
G01 X259.335 Y1094.728
G01 X276.142 Y1073.986
G01 X295.152 Y1052.139
G01 X315.906 Y1029.292
G01 X337.911 Y1005.558
G01 X360.641 Y981.050
G01 X383.555 Y955.887
G01 X406.104 Y930.185
G01 X427.749 Y904.060
G01 X447.965 Y877.624
G01 X466.261 Y850.988
G01 X482.183 Y824.255
G01 X495.331 Y797.522
G01 X505.362 Y770.879
G01 X512.002 Y744.410
G01 X515.050 Y718.188
G01 X514.383 Y692.278
G01 X509.958 Y666.738
G01 X501.815 Y641.615
G01 X490.077 Y616.950
G01 X474.943 Y592.773
G01 X456.688 Y569.111
G01 X435.659 Y545.981
G01 X412.261 Y523.396
G01 X386.955 Y501.365
G01 X360.243 Y479.892
G01 X332.663 Y458.980
G01 X304.772 Y438.631
G01 X277.137 Y418.846
G01 X250.322 Y399.627
G01 X224.876 Y380.977
G01 X201.321 Y362.905
G01 X180.140 Y345.421
G01 X161.770 Y328.539
G01 X146.586 Y312.278
G01 X134.900 Y296.664
G01 X126.948 Y281.727
G01 X122.891 Y267.500
G01 X122.805 Y254.025
G01 X126.683 Y241.347
G01 X134.436 Y229.514
G01 X145.891 Y218.579
G01 X160.798 Y208.598
G01 X178.834 Y199.630
G01 X199.610 Y191.732
G01 X222.679 Y184.964
G01 X247.545 Y179.383
G01 X273.676 Y175.047
G01 X300.514 Y172.006
G01 X327.485 Y170.311
G01 X354.015 Y170.003
G01 X379.540 Y171.122
G01 X403.520 Y173.696
G01 X425.447 Y177.749
G01 X444.861 Y183.295
G01 X461.355 Y190.341
G01 X474.590 Y198.882
G01 X484.293 Y208.907
G01 X490.274 Y220.395
G01 X492.421 Y233.314
