; file trimmed by trimify2x.pl
; Created by Sandify
; 
;   https://sandify.org
; 
;   Sandify Version: 0.1.4
; 
;   Machine Type: Rectangular
;     MinX: 5 MaxX: 710 MinY: 5 MaxY: 1600
;   Content Type: Shapes
;     Starting Size: 661
;     Offset: X: -97 Y: 441
;     Selected Shape: Circle
;       Circle Lobes: 1
;     Number of Loops: 330
;     Spin: true
;       Spin Value: 2.1
;       Spin Switchbacks: 0
;     Grow: true
;       Grow Value: -1.5
;     Track: false
;   Path Reversed: false
; 
; filename: 'loopy_2'

; BEGIN PRE
G28 Y
G28 X
G01 F30000; END PRE
G01 X710.000 Y1243.500
G01 X710.000 Y1600.000
G01 X5.000 Y1600.000
G01 X5.000 Y634.294
G01 X14.382 Y630.414
G01 X44.697 Y619.600
G01 X75.504 Y610.303
G01 X106.727 Y602.545
G01 X138.290 Y596.345
G01 X170.114 Y591.716
G01 X202.123 Y588.670
G01 X234.237 Y587.214
G01 X266.379 Y587.350
G01 X298.469 Y589.079
G01 X330.430 Y592.395
G01 X362.182 Y597.290
G01 X393.649 Y603.752
G01 X424.753 Y611.763
G01 X455.418 Y621.305
G01 X485.569 Y632.354
G01 X515.134 Y644.882
G01 X544.039 Y658.858
G01 X572.214 Y674.248
G01 X599.590 Y691.014
G01 X626.100 Y709.115
G01 X651.680 Y728.506
G01 X676.267 Y749.139
G01 X699.801 Y770.964
G01 X710.000 Y781.408
G01 X710.000 Y5.000 
G01 X5.000 Y5.000 
G01 X5.000 Y634.439
G01 X24.139 Y627.333
G01 X54.364 Y617.786
G01 X85.017 Y609.748
G01 X116.025 Y603.240
G01 X147.310 Y598.278
G01 X178.796 Y594.871
G01 X210.406 Y593.029
G01 X242.063 Y592.756
G01 X273.689 Y594.051
G01 X305.206 Y596.911
G01 X336.539 Y601.328
G01 X367.610 Y607.292
G01 X398.343 Y614.787
G01 X428.662 Y623.795
G01 X458.495 Y634.293
G01 X487.768 Y646.256
G01 X516.410 Y659.652
G01 X544.350 Y674.451
G01 X571.520 Y690.614
G01 X597.855 Y708.103
G01 X623.289 Y726.873
G01 X647.761 Y746.880
G01 X671.211 Y768.074
G01 X693.582 Y790.402
G01 X710.000 Y808.500
G01 X710.000 Y5.000 
G01 X5.000 Y5.000 
G01 X5.000 Y634.185
G01 X33.657 Y624.724
G01 X63.739 Y616.421
G01 X94.189 Y609.619
G01 X124.932 Y604.335
G01 X155.892 Y600.581
G01 X186.993 Y598.366
G01 X218.160 Y597.695
G01 X249.316 Y598.568
G01 X280.386 Y600.984
G01 X311.292 Y604.936
G01 X341.959 Y610.413
G01 X372.313 Y617.403
G01 X402.280 Y625.887
G01 X431.785 Y635.845
G01 X460.757 Y647.251
G01 X489.126 Y660.077
G01 X516.821 Y674.293
G01 X543.775 Y689.861
G01 X569.923 Y706.745
G01 X595.200 Y724.903
G01 X619.545 Y744.290
G01 X642.899 Y764.858
G01 X665.205 Y786.557
G01 X686.407 Y809.333
G01 X706.455 Y833.132
G01 X710.000 Y837.790
G01 X710.000 Y5.000 
G01 X5.000 Y5.000 
G01 X5.000 Y634.016
G01 X13.404 Y631.121
G01 X42.914 Y622.565
G01 X72.804 Y615.482
G01 X103.002 Y609.890
G01 X133.432 Y605.802
G01 X164.021 Y603.226
G01 X194.694 Y602.170
G01 X225.375 Y602.634
G01 X255.990 Y604.618
G01 X286.463 Y608.115
G01 X316.721 Y613.118
G01 X346.688 Y619.613
G01 X376.293 Y627.584
G01 X405.462 Y637.011
G01 X434.125 Y647.870
G01 X462.210 Y660.136
G01 X489.651 Y673.777
G01 X516.378 Y688.759
G01 X542.329 Y705.047
G01 X567.438 Y722.598
G01 X591.645 Y741.372
G01 X614.891 Y761.320
G01 X637.119 Y782.395
G01 X658.274 Y804.544
G01 X678.306 Y827.713
G01 X697.165 Y851.846
G01 X710.000 Y870.062
G01 X710.000 Y1571.956
G01 X693.535 Y1594.909
G01 X689.488 Y1600.000
G01 X5.000 Y1600.000
G01 X5.000 Y633.521
G01 X22.562 Y628.182
G01 X51.891 Y620.832
G01 X81.541 Y614.945
G01 X111.439 Y610.535
G01 X141.511 Y607.612
G01 X171.685 Y606.183
G01 X201.886 Y606.250
G01 X232.041 Y607.813
G01 X262.076 Y610.869
G01 X291.916 Y615.408
G01 X321.491 Y621.419
G01 X350.726 Y628.888
G01 X379.550 Y637.795
G01 X407.894 Y648.118
G01 X435.688 Y659.831
G01 X462.863 Y672.907
G01 X489.355 Y687.312
G01 X515.097 Y703.010
G01 X540.027 Y719.963
G01 X564.085 Y738.130
G01 X587.211 Y757.465
G01 X609.349 Y777.921
G01 X630.446 Y799.448
G01 X650.449 Y821.993
G01 X669.310 Y845.500
G01 X686.983 Y869.913
G01 X703.426 Y895.170
G01 X710.000 Y906.455
G01 X710.000 Y1523.364
G01 X708.346 Y1526.314
G01 X692.307 Y1551.876
G01 X675.026 Y1576.617
G01 X656.915 Y1600.000
G01 X5.000 Y1600.000
G01 X5.000 Y632.669
G01 X31.470 Y625.672
G01 X60.570 Y619.503
G01 X89.932 Y614.784
G01 X119.485 Y611.526
G01 X149.156 Y609.737
G01 X178.872 Y609.420
G01 X208.562 Y610.575
G01 X238.151 Y613.200
G01 X267.569 Y617.287
G01 X296.742 Y622.826
G01 X325.600 Y629.803
G01 X354.072 Y638.200
G01 X382.089 Y647.996
G01 X409.581 Y659.168
G01 X436.483 Y671.687
G01 X462.727 Y685.523
G01 X488.251 Y700.640
G01 X512.991 Y717.003
G01 X536.888 Y734.570
G01 X559.883 Y753.298
G01 X581.921 Y773.141
G01 X602.946 Y794.051
G01 X622.908 Y815.976
G01 X641.759 Y838.863
G01 X659.452 Y862.654
G01 X675.945 Y887.292
G01 X691.196 Y912.717
G01 X705.170 Y938.865
G01 X710.000 Y949.092
G01 X710.000 Y1467.153
G01 X702.865 Y1481.959
G01 X688.675 Y1508.030
G01 X673.216 Y1533.371
G01 X656.523 Y1557.921
G01 X638.639 Y1581.620
G01 X623.290 Y1600.000
G01 X5.000 Y1600.000
G01 X5.000 Y631.830
G01 X11.561 Y630.004
G01 X40.109 Y623.567
G01 X68.933 Y618.552
G01 X97.962 Y614.973
G01 X127.127 Y612.836
G01 X156.354 Y612.147
G01 X185.573 Y612.906
G01 X214.712 Y615.112
G01 X243.700 Y618.759
G01 X272.465 Y623.837
G01 X300.939 Y630.333
G01 X329.050 Y638.231
G01 X356.731 Y647.512
G01 X383.913 Y658.151
G01 X410.531 Y670.123
G01 X436.519 Y683.398
G01 X461.814 Y697.943
G01 X486.354 Y713.722
G01 X510.080 Y730.696
G01 X532.932 Y748.824
G01 X554.857 Y768.061
G01 X575.799 Y788.360
G01 X595.708 Y809.670
G01 X614.536 Y831.939
G01 X632.237 Y855.113
G01 X648.767 Y879.135
G01 X664.086 Y903.946
G01 X678.158 Y929.484
G01 X690.947 Y955.689
G01 X702.422 Y982.494
G01 X710.000 Y1002.938
G01 X710.000 Y1398.792
G01 X706.035 Y1410.084
G01 X695.019 Y1437.110
G01 X682.680 Y1463.562
G01 X669.050 Y1489.375
G01 X654.162 Y1514.485
G01 X638.051 Y1538.833
G01 X620.757 Y1562.359
G01 X602.323 Y1585.005
G01 X588.834 Y1600.000
G01 X5.000 Y1600.000
G01 X5.000 Y630.771
G01 X20.178 Y627.142
G01 X48.461 Y621.845
G01 X76.965 Y617.956
G01 X105.619 Y615.484
G01 X134.352 Y614.436
G01 X163.096 Y614.812
G01 X191.779 Y616.612
G01 X220.331 Y619.830
G01 X248.682 Y624.458
G01 X276.764 Y630.484
G01 X304.507 Y637.894
G01 X331.844 Y646.668
G01 X358.707 Y656.785
G01 X385.032 Y668.219
G01 X410.754 Y680.942
G01 X435.810 Y694.923
G01 X460.140 Y710.127
G01 X483.682 Y726.517
G01 X506.381 Y744.051
G01 X528.181 Y762.688
G01 X549.029 Y782.380
G01 X568.873 Y803.081
G01 X587.666 Y824.738
G01 X605.361 Y847.298
G01 X621.916 Y870.707
G01 X637.290 Y894.906
G01 X651.447 Y919.837
G01 X664.350 Y945.439
G01 X675.969 Y971.648
G01 X686.277 Y998.400
G01 X695.246 Y1025.630
G01 X702.857 Y1053.272
G01 X709.090 Y1081.257
G01 X710.000 Y1086.568
G01 X710.000 Y1299.520
G01 X708.270 Y1309.204
G01 X701.838 Y1337.160
G01 X694.031 Y1364.766
G01 X684.869 Y1391.955
G01 X674.374 Y1418.660
G01 X662.573 Y1444.817
G01 X649.493 Y1470.361
G01 X635.168 Y1495.231
G01 X619.631 Y1519.366
G01 X602.921 Y1542.707
G01 X585.078 Y1565.198
G01 X566.147 Y1586.783
G01 X553.347 Y1600.000
G01 X5.000 Y1600.000
G01 X5.000 Y629.389
G01 X28.537 Y624.666
G01 X56.512 Y620.481
G01 X84.652 Y617.688
G01 X112.888 Y616.292
G01 X141.151 Y616.297
G01 X169.372 Y617.702
G01 X197.483 Y620.504
G01 X225.414 Y624.694
G01 X253.097 Y630.262
G01 X280.464 Y637.194
G01 X307.449 Y645.472
G01 X333.985 Y655.076
G01 X360.008 Y665.982
G01 X385.454 Y678.163
G01 X410.262 Y691.589
G01 X434.370 Y706.226
G01 X457.719 Y722.038
G01 X480.253 Y738.986
G01 X501.917 Y757.028
G01 X522.658 Y776.121
G01 X542.426 Y796.217
G01 X561.171 Y817.266
G01 X578.849 Y839.217
G01 X595.416 Y862.016
G01 X610.833 Y885.607
G01 X625.061 Y909.933
G01 X638.066 Y934.933
G01 X649.816 Y960.546
G01 X660.283 Y986.709
G01 X669.441 Y1013.359
G01 X677.268 Y1040.431
G01 X683.746 Y1067.857
G01 X688.857 Y1095.571
G01 X692.591 Y1123.505
G01 X694.938 Y1151.591
G01 X695.892 Y1179.760
G01 X695.452 Y1207.944
G01 X693.617 Y1236.072
G01 X690.394 Y1264.078
G01 X685.790 Y1291.892
G01 X679.816 Y1319.446
G01 X672.487 Y1346.674
G01 X663.821 Y1373.508
G01 X653.838 Y1399.884
G01 X642.565 Y1425.737
G01 X630.027 Y1451.004
G01 X616.256 Y1475.623
G01 X601.286 Y1499.534
G01 X585.152 Y1522.680
G01 X567.894 Y1545.004
G01 X549.555 Y1566.451
G01 X530.179 Y1586.969
G01 X516.597 Y1600.000
G01 X5.000 Y1600.000
G01 X5.000 Y627.916
G01 X9.180 Y627.021
G01 X36.623 Y622.554
G01 X64.245 Y619.451
G01 X91.980 Y617.721
G01 X119.759 Y617.368
G01 X147.514 Y618.391
G01 X175.177 Y620.787
G01 X202.681 Y624.551
G01 X229.959 Y629.672
G01 X256.943 Y636.137
G01 X283.568 Y643.930
G01 X309.768 Y653.032
G01 X335.481 Y663.420
G01 X360.642 Y675.067
G01 X385.191 Y687.946
G01 X409.067 Y702.024
G01 X432.213 Y717.266
G01 X454.572 Y733.635
G01 X476.088 Y751.091
G01 X496.711 Y769.590
G01 X516.390 Y789.086
G01 X535.076 Y809.533
G01 X552.724 Y830.879
G01 X569.291 Y853.072
G01 X584.737 Y876.058
G01 X599.024 Y899.780
G01 X612.117 Y924.180
G01 X623.985 Y949.199
G01 X634.599 Y974.774
G01 X643.932 Y1000.844
G01 X651.963 Y1027.344
G01 X658.672 Y1054.210
G01 X664.042 Y1081.375
G01 X668.061 Y1108.774
G01 X670.718 Y1136.340
G01 X672.008 Y1164.004
G01 X671.928 Y1191.700
G01 X670.477 Y1219.359
G01 X667.660 Y1246.914
G01 X663.483 Y1274.299
G01 X657.957 Y1301.445
G01 X651.095 Y1328.287
G01 X642.914 Y1354.759
G01 X633.435 Y1380.796
G01 X622.679 Y1406.336
G01 X610.675 Y1431.316
G01 X597.450 Y1455.674
G01 X583.037 Y1479.352
G01 X567.472 Y1502.292
G01 X550.793 Y1524.438
G01 X533.040 Y1545.736
G01 X514.256 Y1566.134
G01 X494.487 Y1585.583
G01 X478.309 Y1600.000
G01 X5.000 Y1600.000
G01 X5.000 Y626.349
G01 X17.317 Y624.181
G01 X44.419 Y620.782
G01 X71.649 Y618.731
G01 X98.939 Y618.031
G01 X126.223 Y618.684
G01 X153.434 Y620.687
G01 X180.505 Y624.036
G01 X207.370 Y628.721
G01 X233.964 Y634.731
G01 X260.221 Y642.050
G01 X286.078 Y650.660
G01 X311.471 Y660.539
G01 X336.338 Y671.663
G01 X360.619 Y684.004
G01 X384.254 Y697.531
G01 X407.186 Y712.212
G01 X429.358 Y728.009
G01 X450.717 Y744.884
G01 X471.210 Y762.795
G01 X490.788 Y781.699
G01 X509.402 Y801.548
G01 X527.008 Y822.293
G01 X543.563 Y843.884
G01 X559.025 Y866.268
G01 X573.359 Y889.390
G01 X586.528 Y913.192
G01 X598.501 Y937.618
G01 X609.248 Y962.606
G01 X618.744 Y988.095
G01 X626.965 Y1014.024
G01 X633.892 Y1040.328
G01 X639.508 Y1066.943
G01 X643.799 Y1093.804
G01 X646.755 Y1120.846
G01 X648.368 Y1148.001
G01 X648.636 Y1175.205
G01 X647.556 Y1202.390
G01 X645.133 Y1229.489
G01 X641.372 Y1256.438
G01 X636.283 Y1283.169
G01 X629.878 Y1309.618
G01 X622.172 Y1335.720
G01 X613.185 Y1361.411
G01 X602.938 Y1386.629
G01 X591.457 Y1411.312
G01 X578.770 Y1435.400
G01 X564.908 Y1458.835
G01 X549.904 Y1481.558
G01 X533.796 Y1503.515
G01 X516.622 Y1524.653
G01 X498.424 Y1544.919
G01 X479.247 Y1564.265
G01 X459.138 Y1582.644
G01 X438.157 Y1600.000
G01 X5.000 Y1600.000
G01 X5.000 Y624.484
G01 X25.192 Y621.687
G01 X51.914 Y619.327
G01 X78.711 Y618.294
G01 X105.519 Y618.589
G01 X132.272 Y620.212
G01 X158.904 Y623.157
G01 X185.351 Y627.418
G01 X211.548 Y632.983
G01 X237.430 Y639.839
G01 X262.935 Y647.967
G01 X288.000 Y657.347
G01 X312.565 Y667.957
G01 X336.568 Y679.769
G01 X359.952 Y692.755
G01 X382.659 Y706.882
G01 X404.634 Y722.115
G01 X425.824 Y738.417
G01 X446.176 Y755.747
G01 X465.642 Y774.063
G01 X484.173 Y793.320
G01 X501.725 Y813.470
G01 X518.254 Y834.463
G01 X533.721 Y856.249
G01 X548.088 Y878.773
G01 X561.320 Y901.980
G01 X573.385 Y925.813
G01 X584.253 Y950.215
G01 X593.899 Y975.124
G01 X602.298 Y1000.481
G01 X609.430 Y1026.222
G01 X615.279 Y1052.285
G01 X619.829 Y1078.607
G01 X623.070 Y1105.122
G01 X624.994 Y1131.765
G01 X625.597 Y1158.473
G01 X624.878 Y1185.178
G01 X622.837 Y1211.817
G01 X619.481 Y1238.324
G01 X614.817 Y1264.634
G01 X608.857 Y1290.683
G01 X601.616 Y1316.407
G01 X593.111 Y1341.744
G01 X583.364 Y1366.631
G01 X572.397 Y1391.009
G01 X560.239 Y1414.817
G01 X546.918 Y1437.998
G01 X532.468 Y1460.495
G01 X516.923 Y1482.253
G01 X500.322 Y1503.219
G01 X482.704 Y1523.342
G01 X464.114 Y1542.573
G01 X444.595 Y1560.866
G01 X424.197 Y1578.176
G01 X402.968 Y1594.460
G01 X394.957 Y1600.000
G01 X5.000 Y1600.000
G01 X5.000 Y622.414
G01 X6.582 Y622.174
G01 X32.792 Y619.518
G01 X59.093 Y618.164
G01 X85.421 Y618.114
G01 X111.711 Y619.368
G01 X137.899 Y621.923
G01 X163.921 Y625.771
G01 X189.714 Y630.903
G01 X215.215 Y637.305
G01 X240.360 Y644.962
G01 X265.089 Y653.854
G01 X289.342 Y663.960
G01 X313.058 Y675.253
G01 X336.181 Y687.706
G01 X358.654 Y701.287
G01 X380.422 Y715.964
G01 X401.432 Y731.700
G01 X421.632 Y748.456
G01 X440.974 Y766.191
G01 X459.410 Y784.861
G01 X476.895 Y804.420
G01 X493.388 Y824.819
G01 X508.847 Y846.010
G01 X523.235 Y867.940
G01 X536.517 Y890.554
G01 X548.661 Y913.798
G01 X559.637 Y937.614
G01 X569.419 Y961.944
G01 X577.983 Y986.729
G01 X585.307 Y1011.907
G01 X591.376 Y1037.417
G01 X596.173 Y1063.196
G01 X599.687 Y1089.182
G01 X601.910 Y1115.310
G01 X602.836 Y1141.517
G01 X602.463 Y1167.739
G01 X600.793 Y1193.912
G01 X597.830 Y1219.971
G01 X593.580 Y1245.854
G01 X588.055 Y1271.496
G01 X581.268 Y1296.835
G01 X573.235 Y1321.810
G01 X563.977 Y1346.359
G01 X553.516 Y1370.422
G01 X541.877 Y1393.941
G01 X529.090 Y1416.858
G01 X515.185 Y1439.118
G01 X500.196 Y1460.666
G01 X484.160 Y1481.450
G01 X467.117 Y1501.419
G01 X449.106 Y1520.524
G01 X430.174 Y1538.720
G01 X410.365 Y1555.961
G01 X389.728 Y1572.205
G01 X368.314 Y1587.414
G01 X348.603 Y1600.000
G01 X5.000 Y1600.000
G01 X5.000 Y620.377
G01 X14.302 Y619.313
G01 X40.103 Y617.650
G01 X65.947 Y617.267
G01 X91.769 Y618.165
G01 X117.508 Y620.340
G01 X143.100 Y623.788
G01 X168.483 Y628.498
G01 X193.594 Y634.459
G01 X218.372 Y641.655
G01 X242.757 Y650.069
G01 X266.690 Y659.680
G01 X290.111 Y670.463
G01 X312.963 Y682.392
G01 X335.192 Y695.437
G01 X356.742 Y709.565
G01 X377.561 Y724.743
G01 X397.598 Y740.931
G01 X416.805 Y758.091
G01 X435.134 Y776.180
G01 X452.542 Y795.154
G01 X468.985 Y814.965
G01 X484.423 Y835.565
G01 X498.820 Y856.903
G01 X512.140 Y878.927
G01 X524.350 Y901.584
G01 X535.421 Y924.816
G01 X545.326 Y948.568
G01 X554.042 Y972.780
G01 X561.546 Y997.394
G01 X567.821 Y1022.350
G01 X572.852 Y1047.585
G01 X576.627 Y1073.040
G01 X579.135 Y1098.650
G01 X580.372 Y1124.353
G01 X580.335 Y1150.088
G01 X579.024 Y1175.789
G01 X576.441 Y1201.396
G01 X572.594 Y1226.845
G01 X567.493 Y1252.073
G01 X561.149 Y1277.020
G01 X553.578 Y1301.625
G01 X544.799 Y1325.827
G01 X534.833 Y1349.567
G01 X523.706 Y1372.788
G01 X511.443 Y1395.433
G01 X498.075 Y1417.446
G01 X483.635 Y1438.774
G01 X468.157 Y1459.364
G01 X451.681 Y1479.168
G01 X434.245 Y1498.136
G01 X415.893 Y1516.222
G01 X396.669 Y1533.382
G01 X376.620 Y1549.575
G01 X355.795 Y1564.761
G01 X334.245 Y1578.904
G01 X312.022 Y1591.968
G01 X296.674 Y1600.000
G01 X5.000 Y1600.000
G01 X5.000 Y618.059
G01 X21.760 Y616.761
G01 X47.115 Y616.058
G01 X72.465 Y616.612
G01 X97.750 Y618.421
G01 X122.905 Y621.479
G01 X147.872 Y625.778
G01 X172.587 Y631.309
G01 X196.991 Y638.056
G01 X221.024 Y646.002
G01 X244.628 Y655.128
G01 X267.744 Y665.411
G01 X290.317 Y676.825
G01 X312.291 Y689.342
G01 X333.614 Y702.930
G01 X354.231 Y717.557
G01 X374.095 Y733.185
G01 X393.155 Y749.777
G01 X411.367 Y767.291
G01 X428.684 Y785.684
G01 X445.066 Y804.911
G01 X460.472 Y824.924
G01 X474.865 Y845.675
G01 X488.209 Y867.112
G01 X500.473 Y889.183
G01 X511.627 Y911.834
G01 X521.643 Y935.008
G01 X530.497 Y958.649
G01 X538.168 Y982.699
G01 X544.637 Y1007.099
G01 X549.889 Y1031.790
G01 X553.911 Y1056.710
G01 X556.693 Y1081.799
G01 X558.228 Y1106.996
G01 X558.514 Y1132.238
G01 X557.549 Y1157.464
G01 X555.336 Y1182.613
G01 X551.881 Y1207.622
G01 X547.191 Y1232.431
G01 X541.280 Y1256.979
G01 X534.160 Y1281.207
G01 X525.850 Y1305.054
G01 X516.371 Y1328.463
G01 X505.744 Y1351.376
G01 X493.997 Y1373.739
G01 X481.158 Y1395.495
G01 X467.259 Y1416.592
G01 X452.333 Y1436.979
G01 X436.416 Y1456.607
G01 X419.549 Y1475.426
G01 X401.771 Y1493.391
G01 X383.127 Y1510.459
G01 X363.661 Y1526.589
G01 X343.422 Y1541.739
G01 X322.458 Y1555.875
G01 X300.821 Y1568.962
G01 X278.563 Y1580.967
G01 X255.739 Y1591.862
G01 X236.277 Y1600.000
G01 X5.000 Y1600.000
G01 X5.000 Y615.470
G01 X28.942 Y614.497
G01 X53.817 Y614.719
G01 X78.641 Y616.173
G01 X103.356 Y618.854
G01 X127.899 Y622.755
G01 X152.212 Y627.866
G01 X176.234 Y634.174
G01 X199.908 Y641.663
G01 X223.175 Y650.315
G01 X245.978 Y660.107
G01 X268.262 Y671.015
G01 X289.973 Y683.013
G01 X311.057 Y696.069
G01 X331.464 Y710.153
G01 X351.143 Y725.228
G01 X370.046 Y741.258
G01 X388.127 Y758.204
G01 X405.343 Y776.022
G01 X421.652 Y794.670
G01 X437.013 Y814.102
G01 X451.390 Y834.269
G01 X464.747 Y855.122
G01 X477.051 Y876.610
G01 X488.275 Y898.681
G01 X498.388 Y921.279
G01 X507.369 Y944.349
G01 X515.194 Y967.835
G01 X521.844 Y991.679
G01 X527.304 Y1015.823
G01 X531.560 Y1040.208
G01 X534.603 Y1064.774
G01 X536.425 Y1089.460
G01 X537.021 Y1114.207
G01 X536.390 Y1138.953
G01 X534.535 Y1163.639
G01 X531.459 Y1188.203
G01 X527.171 Y1212.586
G01 X521.681 Y1236.729
G01 X515.002 Y1260.571
G01 X507.151 Y1284.056
G01 X498.147 Y1307.125
G01 X488.013 Y1329.723
G01 X476.773 Y1351.794
G01 X464.454 Y1373.284
G01 X451.087 Y1394.141
G01 X436.705 Y1414.314
G01 X421.342 Y1433.754
G01 X405.036 Y1452.413
G01 X387.827 Y1470.247
G01 X369.757 Y1487.211
G01 X350.871 Y1503.264
G01 X331.213 Y1518.368
G01 X310.832 Y1532.485
G01 X289.778 Y1545.581
G01 X268.101 Y1557.625
G01 X245.856 Y1568.586
G01 X223.095 Y1578.439
G01 X199.875 Y1587.160
G01 X176.252 Y1594.727
G01 X156.490 Y1600.000
G01 X5.000 Y1600.000
G01 X5.000 Y612.939
G01 X11.445 Y612.594
G01 X35.839 Y612.497
G01 X60.200 Y613.607
G01 X84.468 Y615.923
G01 X108.583 Y619.437
G01 X132.486 Y624.140
G01 X156.120 Y630.021
G01 X179.427 Y637.064
G01 X202.349 Y645.251
G01 X224.831 Y654.563
G01 X246.818 Y664.975
G01 X268.255 Y676.462
G01 X289.092 Y688.995
G01 X309.277 Y702.544
G01 X328.760 Y717.074
G01 X347.495 Y732.549
G01 X365.436 Y748.932
G01 X382.539 Y766.182
G01 X398.762 Y784.256
G01 X414.067 Y803.110
G01 X428.415 Y822.698
G01 X441.772 Y842.971
G01 X454.105 Y863.879
G01 X465.385 Y885.371
G01 X475.584 Y907.394
G01 X484.677 Y929.895
G01 X492.643 Y952.817
G01 X499.462 Y976.105
G01 X505.117 Y999.702
G01 X509.596 Y1023.550
G01 X512.886 Y1047.589
G01 X514.982 Y1071.762
G01 X515.876 Y1096.010
G01 X515.568 Y1120.272
G01 X514.058 Y1144.490
G01 X511.351 Y1168.604
G01 X507.452 Y1192.556
G01 X502.372 Y1216.286
G01 X496.123 Y1239.737
G01 X488.721 Y1262.852
G01 X480.183 Y1285.574
G01 X470.531 Y1307.847
G01 X459.788 Y1329.617
G01 X447.982 Y1350.832
G01 X435.139 Y1371.439
G01 X421.293 Y1391.387
G01 X406.476 Y1410.629
G01 X390.725 Y1429.118
G01 X374.079 Y1446.808
G01 X356.578 Y1463.657
G01 X338.265 Y1479.622
G01 X319.184 Y1494.666
G01 X299.383 Y1508.752
G01 X278.908 Y1521.846
G01 X257.811 Y1533.915
G01 X236.143 Y1544.931
G01 X213.956 Y1554.866
G01 X191.304 Y1563.697
G01 X168.242 Y1571.402
G01 X144.828 Y1577.963
G01 X121.117 Y1583.363
G01 X97.167 Y1587.590
G01 X73.037 Y1590.633
G01 X48.785 Y1592.486
G01 X24.470 Y1593.143
G01 X5.000 Y1592.711
G01 X5.000 Y610.184
G01 X18.550 Y609.955
G01 X42.442 Y610.736
G01 X66.258 Y612.698
G01 X89.939 Y615.837
G01 X113.428 Y620.144
G01 X136.667 Y625.608
G01 X159.599 Y632.215
G01 X182.169 Y639.949
G01 X204.321 Y648.789
G01 X226.001 Y658.715
G01 X247.156 Y669.701
G01 X267.736 Y681.720
G01 X287.689 Y694.741
G01 X306.967 Y708.733
G01 X325.523 Y723.662
G01 X343.312 Y739.489
G01 X360.290 Y756.176
G01 X376.417 Y773.682
G01 X391.652 Y791.964
G01 X405.960 Y810.976
G01 X419.304 Y830.672
G01 X431.654 Y851.003
G01 X442.978 Y871.920
G01 X453.249 Y893.370
G01 X462.443 Y915.302
G01 X470.536 Y937.661
G01 X477.511 Y960.393
G01 X483.349 Y983.442
G01 X488.037 Y1006.750
G01 X491.563 Y1030.262
G01 X493.919 Y1053.920
G01 X495.099 Y1077.665
G01 X495.101 Y1101.439
G01 X493.925 Y1125.185
G01 X491.574 Y1148.844
G01 X488.053 Y1172.358
G01 X483.372 Y1195.670
G01 X477.542 Y1218.723
G01 X470.578 Y1241.460
G01 X462.496 Y1263.826
G01 X453.317 Y1285.767
G01 X443.063 Y1307.228
G01 X431.759 Y1328.157
G01 X419.433 Y1348.504
G01 X406.114 Y1368.218
G01 X391.836 Y1387.252
G01 X376.634 Y1405.559
G01 X360.544 Y1423.095
G01 X343.607 Y1439.816
G01 X325.862 Y1455.683
G01 X307.354 Y1470.655
G01 X288.128 Y1484.698
G01 X268.230 Y1497.777
G01 X247.709 Y1509.859
G01 X226.615 Y1520.916
G01 X205.000 Y1530.921
G01 X182.916 Y1539.850
G01 X160.417 Y1547.680
G01 X137.557 Y1554.393
G01 X114.393 Y1559.973
G01 X90.980 Y1564.405
G01 X67.376 Y1567.681
G01 X43.638 Y1569.791
G01 X19.823 Y1570.730
G01 X5.000 Y1570.585
G01 X5.000 Y607.167
G01 X25.384 Y607.569
G01 X48.743 Y609.190
G01 X71.985 Y611.965
G01 X95.052 Y615.888
G01 X117.890 Y620.946
G01 X140.441 Y627.129
G01 X162.650 Y634.419
G01 X184.464 Y642.800
G01 X205.830 Y652.249
G01 X226.694 Y662.743
G01 X247.007 Y674.256
G01 X266.718 Y686.759
G01 X285.780 Y700.221
G01 X304.147 Y714.609
G01 X321.773 Y729.887
G01 X338.615 Y746.018
G01 X354.634 Y762.962
G01 X369.788 Y780.676
G01 X384.043 Y799.117
G01 X397.363 Y818.240
G01 X409.716 Y837.998
G01 X421.072 Y858.342
G01 X431.403 Y879.221
G01 X440.684 Y900.586
G01 X448.893 Y922.383
G01 X456.010 Y944.558
G01 X462.018 Y967.058
G01 X466.902 Y989.827
G01 X470.651 Y1012.809
G01 X473.255 Y1035.948
G01 X474.709 Y1059.188
G01 X475.009 Y1082.471
G01 X474.154 Y1105.740
G01 X472.147 Y1128.939
G01 X468.993 Y1152.010
G01 X464.700 Y1174.898
G01 X459.279 Y1197.546
G01 X452.742 Y1219.899
G01 X445.106 Y1241.902
G01 X436.389 Y1263.501
G01 X426.614 Y1284.645
G01 X415.804 Y1305.280
G01 X403.985 Y1325.358
G01 X391.187 Y1344.828
G01 X377.440 Y1363.643
G01 X362.779 Y1381.758
G01 X347.240 Y1399.128
G01 X330.859 Y1415.711
G01 X313.678 Y1431.466
G01 X295.738 Y1446.356
G01 X277.082 Y1460.343
G01 X257.757 Y1473.394
G01 X237.810 Y1485.478
G01 X217.289 Y1496.564
G01 X196.244 Y1506.626
G01 X174.727 Y1515.639
G01 X152.789 Y1523.581
G01 X130.485 Y1530.434
G01 X107.868 Y1536.180
G01 X84.993 Y1540.806
G01 X61.917 Y1544.301
G01 X38.696 Y1546.656
G01 X15.385 Y1547.865
G01 X5.000 Y1547.892
G01 X5.000 Y604.092
G01 X9.040 Y604.120
G01 X31.938 Y605.412
G01 X54.735 Y607.836
G01 X77.376 Y611.384
G01 X99.805 Y616.049
G01 X121.968 Y621.818
G01 X143.810 Y628.676
G01 X165.279 Y636.606
G01 X186.321 Y645.588
G01 X206.885 Y655.600
G01 X226.922 Y666.616
G01 X246.382 Y678.609
G01 X265.218 Y691.550
G01 X283.384 Y705.405
G01 X300.837 Y720.142
G01 X317.532 Y735.723
G01 X333.431 Y752.109
G01 X348.493 Y769.261
G01 X362.683 Y787.137
G01 X375.966 Y805.691
G01 X388.310 Y824.879
G01 X399.685 Y844.652
G01 X410.063 Y864.964
G01 X419.419 Y885.762
G01 X427.731 Y906.998
G01 X434.978 Y928.617
G01 X441.142 Y950.568
G01 X446.210 Y972.796
G01 X450.169 Y995.247
G01 X453.009 Y1017.866
G01 X454.724 Y1040.598
G01 X455.309 Y1063.386
G01 X454.764 Y1086.174
G01 X453.090 Y1108.908
G01 X450.291 Y1131.532
G01 X446.374 Y1153.989
G01 X441.350 Y1176.226
G01 X435.230 Y1198.187
G01 X428.029 Y1219.820
G01 X419.765 Y1241.071
G01 X410.459 Y1261.888
G01 X400.134 Y1282.221
G01 X388.814 Y1302.019
G01 X376.528 Y1321.235
G01 X363.305 Y1339.822
G01 X349.178 Y1357.734
G01 X334.181 Y1374.928
G01 X318.352 Y1391.361
G01 X301.728 Y1406.994
G01 X284.351 Y1421.789
G01 X266.262 Y1435.709
G01 X247.507 Y1448.721
G01 X228.130 Y1460.793
G01 X208.179 Y1471.895
G01 X187.702 Y1482.001
G01 X166.750 Y1491.086
G01 X145.373 Y1499.128
G01 X123.624 Y1506.108
G01 X101.555 Y1512.008
G01 X79.221 Y1516.815
G01 X56.675 Y1520.516
G01 X33.972 Y1523.103
G01 X11.168 Y1524.570
G01 X5.000 Y1524.663
G01 X5.000 Y600.903
G01 X15.856 Y601.375
G01 X38.204 Y603.460
G01 X60.413 Y606.647
G01 X82.428 Y610.930
G01 X104.196 Y616.296
G01 X125.664 Y622.732
G01 X146.779 Y630.223
G01 X167.490 Y638.748
G01 X187.746 Y648.287
G01 X207.497 Y658.815
G01 X226.697 Y670.307
G01 X245.297 Y682.734
G01 X263.253 Y696.065
G01 X280.521 Y710.266
G01 X297.058 Y725.304
G01 X312.825 Y741.140
G01 X327.784 Y757.736
G01 X341.898 Y775.050
G01 X355.132 Y793.039
G01 X367.455 Y811.661
G01 X378.836 Y830.868
G01 X389.248 Y850.613
G01 X398.667 Y870.848
G01 X407.068 Y891.523
G01 X414.432 Y912.587
G01 X420.741 Y933.989
G01 X425.980 Y955.676
G01 X430.136 Y977.595
G01 X433.199 Y999.691
G01 X435.162 Y1021.912
G01 X436.021 Y1044.201
G01 X435.773 Y1066.506
G01 X434.419 Y1088.771
G01 X431.964 Y1110.941
G01 X428.412 Y1132.963
G01 X423.773 Y1154.782
G01 X418.059 Y1176.346
G01 X411.283 Y1197.601
G01 X403.462 Y1218.495
G01 X394.616 Y1238.978
G01 X384.766 Y1258.999
G01 X373.936 Y1278.510
G01 X362.153 Y1297.463
G01 X349.446 Y1315.811
G01 X335.846 Y1333.510
G01 X321.386 Y1350.516
G01 X306.101 Y1366.789
G01 X290.029 Y1382.288
G01 X273.210 Y1396.976
G01 X255.683 Y1410.817
G01 X237.493 Y1423.778
G01 X218.683 Y1435.825
G01 X199.299 Y1446.932
G01 X179.388 Y1457.070
G01 X159.000 Y1466.214
G01 X138.183 Y1474.343
G01 X116.989 Y1481.437
G01 X95.468 Y1487.478
G01 X73.675 Y1492.453
G01 X51.660 Y1496.348
G01 X29.479 Y1499.155
G01 X7.184 Y1500.867
G01 X5.000 Y1500.927
G01 X5.000 Y597.454
G01 X22.407 Y598.851
G01 X44.179 Y601.689
G01 X65.774 Y605.600
G01 X87.141 Y610.575
G01 X108.227 Y616.601
G01 X128.981 Y623.662
G01 X149.352 Y631.741
G01 X169.291 Y640.816
G01 X188.749 Y650.867
G01 X207.678 Y661.866
G01 X226.033 Y673.788
G01 X243.768 Y686.602
G01 X260.841 Y700.276
G01 X277.210 Y714.777
G01 X292.834 Y730.069
G01 X307.678 Y746.113
G01 X321.703 Y762.872
G01 X334.876 Y780.301
G01 X347.166 Y798.360
G01 X358.541 Y817.004
G01 X368.976 Y836.186
G01 X378.443 Y855.859
G01 X386.922 Y875.976
G01 X394.390 Y896.485
G01 X400.830 Y917.339
G01 X406.227 Y938.484
G01 X410.568 Y959.869
G01 X413.842 Y981.441
G01 X416.041 Y1003.149
G01 X417.160 Y1024.937
G01 X417.197 Y1046.754
G01 X416.153 Y1068.546
G01 X414.028 Y1090.258
G01 X410.830 Y1111.839
G01 X406.566 Y1133.235
G01 X401.246 Y1154.395
G01 X394.885 Y1175.265
G01 X387.496 Y1195.795
G01 X379.100 Y1215.936
G01 X369.716 Y1235.637
G01 X359.367 Y1254.851
G01 X348.079 Y1273.530
G01 X335.879 Y1291.630
G01 X322.798 Y1309.106
G01 X308.867 Y1325.915
G01 X294.121 Y1342.016
G01 X278.595 Y1357.370
G01 X262.328 Y1371.940
G01 X245.359 Y1385.690
G01 X227.729 Y1398.587
G01 X209.482 Y1410.599
G01 X190.663 Y1421.697
G01 X171.316 Y1431.854
G01 X151.490 Y1441.045
G01 X131.232 Y1449.249
G01 X110.592 Y1456.444
G01 X89.620 Y1462.614
G01 X68.368 Y1467.743
G01 X46.886 Y1471.820
G01 X25.228 Y1474.835
G01 X5.000 Y1476.640
G01 X5.000 Y593.864
G01 X7.357 Y594.022
G01 X28.686 Y596.523
G01 X49.856 Y600.075
G01 X70.815 Y604.670
G01 X91.513 Y610.296
G01 X111.899 Y616.939
G01 X131.923 Y624.581
G01 X151.537 Y633.203
G01 X170.692 Y642.785
G01 X189.342 Y653.301
G01 X207.441 Y664.726
G01 X224.945 Y677.031
G01 X241.813 Y690.186
G01 X258.002 Y704.157
G01 X273.474 Y718.911
G01 X288.190 Y734.411
G01 X302.115 Y750.619
G01 X315.216 Y767.493
G01 X327.460 Y784.994
G01 X338.817 Y803.078
G01 X349.261 Y821.699
G01 X358.766 Y840.813
G01 X367.309 Y860.373
G01 X374.869 Y880.329
G01 X381.428 Y900.634
G01 X386.970 Y921.237
G01 X391.482 Y942.088
G01 X394.954 Y963.135
G01 X397.377 Y984.327
G01 X398.744 Y1005.612
G01 X399.054 Y1026.938
G01 X398.306 Y1048.252
G01 X396.501 Y1069.503
G01 X393.645 Y1090.638
G01 X389.744 Y1111.605
G01 X384.808 Y1132.353
G01 X378.850 Y1152.832
G01 X371.884 Y1172.991
G01 X363.927 Y1192.782
G01 X354.999 Y1212.155
G01 X345.122 Y1231.063
G01 X334.320 Y1249.460
G01 X322.620 Y1267.302
G01 X310.050 Y1284.544
G01 X296.642 Y1301.145
G01 X282.427 Y1317.065
G01 X267.441 Y1332.263
G01 X251.720 Y1346.703
G01 X235.303 Y1360.351
G01 X218.230 Y1373.172
G01 X200.542 Y1385.136
G01 X182.284 Y1396.214
G01 X163.498 Y1406.377
G01 X144.232 Y1415.603
G01 X124.531 Y1423.868
G01 X104.445 Y1431.152
G01 X84.022 Y1437.438
G01 X63.311 Y1442.710
G01 X42.364 Y1446.955
G01 X21.231 Y1450.164
G01 X5.000 Y1451.816
G01 X5.000 Y590.232
G01 X13.947 Y591.163
G01 X34.687 Y594.368
G01 X55.233 Y598.595
G01 X75.536 Y603.832
G01 X95.547 Y610.067
G01 X115.216 Y617.283
G01 X134.496 Y625.463
G01 X153.340 Y634.585
G01 X171.701 Y644.627
G01 X189.536 Y655.564
G01 X206.800 Y667.369
G01 X223.452 Y680.011
G01 X239.451 Y693.461
G01 X254.758 Y707.684
G01 X269.336 Y722.645
G01 X283.150 Y738.307
G01 X296.166 Y754.632
G01 X308.352 Y771.579
G01 X319.680 Y789.106
G01 X330.121 Y807.171
G01 X339.650 Y825.728
G01 X348.245 Y844.732
G01 X355.884 Y864.137
G01 X362.549 Y883.894
G01 X368.224 Y903.955
G01 X372.895 Y924.271
G01 X376.552 Y944.792
G01 X379.185 Y965.467
G01 X380.789 Y986.246
G01 X381.359 Y1007.077
G01 X380.895 Y1027.911
G01 X379.398 Y1048.695
G01 X376.872 Y1069.379
G01 X373.323 Y1089.911
G01 X368.759 Y1110.243
G01 X363.194 Y1130.324
G01 X356.639 Y1150.105
G01 X349.112 Y1169.538
G01 X340.631 Y1188.574
G01 X331.216 Y1207.168
G01 X320.892 Y1225.275
G01 X309.683 Y1242.849
G01 X297.616 Y1259.848
G01 X284.722 Y1276.231
G01 X271.032 Y1291.957
G01 X256.579 Y1306.989
G01 X241.399 Y1321.289
G01 X225.529 Y1334.822
G01 X209.008 Y1347.556
G01 X191.876 Y1359.460
G01 X174.175 Y1370.505
G01 X155.947 Y1380.663
G01 X137.239 Y1389.910
G01 X118.094 Y1398.224
G01 X98.560 Y1405.585
G01 X78.685 Y1411.973
G01 X58.517 Y1417.375
G01 X38.105 Y1421.777
G01 X17.498 Y1425.168
G01 X5.000 Y1426.597
G01 X5.000 Y586.335
G01 X20.279 Y588.494
G01 X40.406 Y592.364
G01 X60.308 Y597.224
G01 X79.937 Y603.062
G01 X99.244 Y609.863
G01 X118.183 Y617.609
G01 X136.707 Y626.282
G01 X154.771 Y635.859
G01 X172.332 Y646.317
G01 X189.346 Y657.630
G01 X205.772 Y669.768
G01 X221.570 Y682.703
G01 X236.702 Y696.402
G01 X251.131 Y710.830
G01 X264.822 Y725.953
G01 X277.742 Y741.733
G01 X289.859 Y758.131
G01 X301.144 Y775.106
G01 X311.570 Y792.617
G01 X321.111 Y810.621
G01 X329.745 Y829.072
G01 X337.450 Y847.926
G01 X344.208 Y867.137
G01 X350.003 Y886.656
G01 X354.821 Y906.437
G01 X358.650 Y926.430
G01 X361.482 Y946.586
G01 X363.309 Y966.857
G01 X364.127 Y987.192
G01 X363.936 Y1007.541
G01 X362.734 Y1027.854
G01 X360.526 Y1048.083
G01 X357.317 Y1068.176
G01 X353.115 Y1088.086
G01 X347.931 Y1107.762
G01 X341.777 Y1127.158
G01 X334.670 Y1146.225
G01 X326.625 Y1164.918
G01 X317.664 Y1183.189
G01 X307.807 Y1200.996
G01 X297.081 Y1218.293
G01 X285.509 Y1235.040
G01 X273.122 Y1251.194
G01 X259.950 Y1266.717
G01 X246.024 Y1281.571
G01 X231.379 Y1295.719
G01 X216.050 Y1309.127
G01 X200.076 Y1321.763
G01 X183.495 Y1333.595
G01 X166.347 Y1344.594
G01 X148.675 Y1354.735
G01 X130.522 Y1363.992
G01 X111.931 Y1372.342
G01 X92.949 Y1379.766
G01 X73.621 Y1386.245
G01 X53.995 Y1391.764
G01 X34.118 Y1396.310
G01 X14.039 Y1399.870
G01 X5.000 Y1401.017
G01 X5.000 Y582.257
G01 X6.644 Y582.467
G01 X26.347 Y585.992
G01 X45.842 Y590.486
G01 X65.082 Y595.938
G01 X84.019 Y602.334
G01 X102.609 Y609.658
G01 X120.805 Y617.892
G01 X138.564 Y627.014
G01 X155.841 Y637.002
G01 X172.596 Y647.830
G01 X188.786 Y659.473
G01 X204.373 Y671.901
G01 X219.320 Y685.082
G01 X233.589 Y698.985
G01 X247.145 Y713.575
G01 X259.957 Y728.815
G01 X271.993 Y744.669
G01 X283.224 Y761.096
G01 X293.622 Y778.057
G01 X303.163 Y795.510
G01 X311.824 Y813.411
G01 X319.582 Y831.716
G01 X326.421 Y850.381
G01 X332.324 Y869.360
G01 X337.275 Y888.605
G01 X341.264 Y908.070
G01 X344.281 Y927.706
G01 X346.319 Y947.466
G01 X347.373 Y967.302
G01 X347.441 Y987.163
G01 X346.523 Y1007.003
G01 X344.622 Y1026.771
G01 X341.741 Y1046.420
G01 X337.889 Y1065.901
G01 X333.076 Y1085.168
G01 X327.312 Y1104.172
G01 X320.614 Y1122.867
G01 X312.996 Y1141.207
G01 X304.478 Y1159.148
G01 X295.080 Y1176.646
G01 X284.827 Y1193.658
G01 X273.743 Y1210.142
G01 X261.855 Y1226.058
G01 X249.193 Y1241.367
G01 X235.787 Y1256.033
G01 X221.670 Y1270.018
G01 X206.878 Y1283.290
G01 X191.445 Y1295.815
G01 X175.410 Y1307.563
G01 X158.813 Y1318.506
G01 X141.692 Y1328.617
G01 X124.091 Y1337.871
G01 X106.053 Y1346.245
G01 X87.620 Y1353.720
G01 X68.839 Y1360.278
G01 X49.755 Y1365.901
G01 X30.415 Y1370.577
G01 X10.865 Y1374.295
G01 X5.000 Y1375.113
G01 X5.000 Y578.159
G01 X13.065 Y579.494
G01 X32.147 Y583.634
G01 X50.992 Y588.711
G01 X69.554 Y594.714
G01 X87.787 Y601.625
G01 X105.648 Y609.429
G01 X123.092 Y618.106
G01 X140.077 Y627.633
G01 X156.562 Y637.987
G01 X172.508 Y649.142
G01 X187.874 Y661.070
G01 X202.624 Y673.742
G01 X216.721 Y687.126
G01 X230.133 Y701.188
G01 X242.825 Y715.895
G01 X254.768 Y731.209
G01 X265.933 Y747.094
G01 X276.292 Y763.508
G01 X285.820 Y780.413
G01 X294.495 Y797.767
G01 X302.295 Y815.525
G01 X309.202 Y833.646
G01 X315.198 Y852.084
G01 X320.271 Y870.795
G01 X324.407 Y889.731
G01 X327.597 Y908.846
G01 X329.833 Y928.094
G01 X331.111 Y947.428
G01 X331.426 Y966.799
G01 X330.779 Y986.160
G01 X329.172 Y1005.464
G01 X326.609 Y1024.664
G01 X323.096 Y1043.712
G01 X318.641 Y1062.562
G01 X313.257 Y1081.168
G01 X306.957 Y1099.484
G01 X299.756 Y1117.465
G01 X291.671 Y1135.068
G01 X282.724 Y1152.248
G01 X272.935 Y1168.965
G01 X262.329 Y1185.178
G01 X250.933 Y1200.846
G01 X238.773 Y1215.932
G01 X225.880 Y1230.398
G01 X212.286 Y1244.210
G01 X198.023 Y1257.334
G01 X183.127 Y1269.738
G01 X167.634 Y1281.391
G01 X151.582 Y1292.265
G01 X135.010 Y1302.333
G01 X117.958 Y1311.572
G01 X100.469 Y1319.958
G01 X82.585 Y1327.472
G01 X64.349 Y1334.095
G01 X45.807 Y1339.810
G01 X27.002 Y1344.605
G01 X7.982 Y1348.466
G01 X5.000 Y1348.920
G01 X5.000 Y573.787
G01 X19.236 Y576.683
G01 X37.679 Y581.397
G01 X55.858 Y587.016
G01 X73.728 Y593.527
G01 X91.244 Y600.912
G01 X108.366 Y609.152
G01 X125.051 Y618.228
G01 X141.258 Y628.116
G01 X156.948 Y638.792
G01 X172.083 Y650.229
G01 X186.626 Y662.398
G01 X200.542 Y675.270
G01 X213.797 Y688.812
G01 X226.359 Y702.990
G01 X238.198 Y717.771
G01 X249.284 Y733.116
G01 X259.591 Y748.989
G01 X269.094 Y765.350
G01 X277.771 Y782.158
G01 X285.600 Y799.373
G01 X292.562 Y816.951
G01 X298.641 Y834.850
G01 X303.822 Y853.026
G01 X308.092 Y871.433
G01 X311.443 Y890.027
G01 X313.865 Y908.761
G01 X315.353 Y927.590
G01 X315.903 Y946.468
G01 X315.516 Y965.349
G01 X314.191 Y984.185
G01 X311.933 Y1002.931
G01 X308.746 Y1021.541
G01 X304.640 Y1039.969
G01 X299.625 Y1058.170
G01 X293.712 Y1076.100
G01 X286.917 Y1093.714
G01 X279.256 Y1110.970
G01 X270.749 Y1127.826
G01 X261.416 Y1144.239
G01 X251.280 Y1160.171
G01 X240.366 Y1175.582
G01 X228.702 Y1190.434
G01 X216.315 Y1204.691
G01 X203.236 Y1218.319
G01 X189.497 Y1231.284
G01 X175.132 Y1243.555
G01 X160.175 Y1255.101
G01 X144.664 Y1265.894
G01 X128.637 Y1275.909
G01 X112.132 Y1285.121
G01 X95.190 Y1293.506
G01 X77.852 Y1301.046
G01 X60.160 Y1307.722
G01 X42.159 Y1313.517
G01 X23.890 Y1318.417
G01 X5.400 Y1322.410
G01 X5.000 Y1322.476
G01 X5.000 Y569.248
G01 X7.117 Y569.650
G01 X25.153 Y574.012
G01 X42.942 Y579.259
G01 X60.441 Y585.379
G01 X77.606 Y592.354
G01 X94.397 Y600.169
G01 X110.773 Y608.803
G01 X126.692 Y618.235
G01 X142.118 Y628.440
G01 X157.012 Y639.393
G01 X171.338 Y651.068
G01 X185.062 Y663.435
G01 X198.150 Y676.462
G01 X210.570 Y690.119
G01 X222.292 Y704.371
G01 X233.289 Y719.183
G01 X243.532 Y734.518
G01 X252.999 Y750.339
G01 X261.665 Y766.605
G01 X269.510 Y783.278
G01 X276.515 Y800.316
G01 X282.663 Y817.677
G01 X287.940 Y835.318
G01 X292.332 Y853.196
G01 X295.830 Y871.268
G01 X298.425 Y889.487
G01 X300.111 Y907.811
G01 X300.885 Y926.193
G01 X300.744 Y944.589
G01 X299.690 Y962.954
G01 X297.725 Y981.242
G01 X294.854 Y999.408
G01 X291.084 Y1017.409
G01 X286.426 Y1035.200
G01 X280.890 Y1052.737
G01 X274.491 Y1069.978
G01 X267.244 Y1086.880
G01 X259.167 Y1103.402
G01 X250.280 Y1119.504
G01 X240.606 Y1135.145
G01 X230.167 Y1150.289
G01 X218.989 Y1164.898
G01 X207.101 Y1178.936
G01 X194.531 Y1192.369
G01 X181.309 Y1205.165
G01 X167.469 Y1217.291
G01 X153.045 Y1228.719
G01 X138.070 Y1239.420
G01 X122.583 Y1249.369
G01 X106.621 Y1258.541
G01 X90.223 Y1266.914
G01 X73.429 Y1274.468
G01 X56.280 Y1281.184
G01 X38.819 Y1287.046
G01 X21.086 Y1292.039
G01 X5.000 Y1295.723
G01 X5.000 Y564.649
G01 X13.422 Y566.571
G01 X30.815 Y571.458
G01 X47.936 Y577.197
G01 X64.743 Y583.775
G01 X81.195 Y591.173
G01 X97.253 Y599.375
G01 X112.877 Y608.359
G01 X128.029 Y618.102
G01 X142.672 Y628.581
G01 X156.771 Y639.769
G01 X170.292 Y651.638
G01 X183.202 Y664.158
G01 X195.469 Y677.300
G01 X207.064 Y691.029
G01 X217.959 Y705.312
G01 X228.127 Y720.114
G01 X237.544 Y735.398
G01 X246.188 Y751.126
G01 X254.036 Y767.260
G01 X261.072 Y783.760
G01 X267.277 Y800.584
G01 X272.636 Y817.692
G01 X277.138 Y835.042
G01 X280.771 Y852.590
G01 X283.526 Y870.294
G01 X285.398 Y888.110
G01 X286.382 Y905.994
G01 X286.476 Y923.903
G01 X285.680 Y941.793
G01 X283.996 Y959.619
G01 X281.429 Y977.337
G01 X277.985 Y994.905
G01 X273.673 Y1012.280
G01 X268.503 Y1029.418
G01 X262.489 Y1046.279
G01 X255.645 Y1062.819
G01 X247.989 Y1079.000
G01 X239.540 Y1094.782
G01 X230.317 Y1110.125
G01 X220.344 Y1124.993
G01 X209.646 Y1139.348
G01 X198.249 Y1153.157
G01 X186.180 Y1166.385
G01 X173.470 Y1179.000
G01 X160.149 Y1190.971
G01 X146.250 Y1202.270
G01 X131.808 Y1212.867
G01 X116.857 Y1222.739
G01 X101.434 Y1231.859
G01 X85.577 Y1240.208
G01 X69.325 Y1247.763
G01 X52.717 Y1254.507
G01 X35.794 Y1260.423
G01 X18.597 Y1265.497
G01 X5.000 Y1268.788
G01 X5.000 Y559.761
G01 X19.485 Y563.629
G01 X36.221 Y568.999
G01 X52.663 Y575.189
G01 X68.769 Y582.182
G01 X84.501 Y589.961
G01 X99.820 Y598.507
G01 X114.689 Y607.798
G01 X129.072 Y617.810
G01 X142.934 Y628.519
G01 X156.242 Y639.898
G01 X168.963 Y651.918
G01 X181.066 Y664.550
G01 X192.522 Y677.762
G01 X203.304 Y691.522
G01 X213.385 Y705.796
G01 X222.741 Y720.548
G01 X231.350 Y735.741
G01 X239.190 Y751.339
G01 X246.243 Y767.302
G01 X252.492 Y783.592
G01 X257.922 Y800.168
G01 X262.521 Y816.989
G01 X266.276 Y834.015
G01 X269.179 Y851.202
G01 X271.225 Y868.509
G01 X272.406 Y885.894
G01 X272.723 Y903.313
G01 X272.173 Y920.724
G01 X270.758 Y938.084
G01 X268.483 Y955.350
G01 X265.352 Y972.481
G01 X261.375 Y989.434
G01 X256.560 Y1006.167
G01 X250.921 Y1022.640
G01 X244.471 Y1038.812
G01 X237.225 Y1054.644
G01 X229.203 Y1070.097
G01 X220.423 Y1085.134
G01 X210.908 Y1099.716
G01 X200.681 Y1113.809
G01 X189.767 Y1127.379
G01 X178.193 Y1140.392
G01 X165.987 Y1152.816
G01 X153.179 Y1164.621
G01 X139.801 Y1175.778
G01 X125.885 Y1186.261
G01 X111.466 Y1196.043
G01 X96.579 Y1205.100
G01 X81.260 Y1213.412
G01 X65.546 Y1220.956
G01 X49.477 Y1227.716
G01 X33.091 Y1233.674
G01 X16.428 Y1238.816
G01 X5.000 Y1241.733
G01 X5.000 Y554.786
G01 X8.959 Y555.789
G01 X25.305 Y560.801
G01 X41.374 Y566.613
G01 X57.126 Y573.212
G01 X72.524 Y580.579
G01 X87.530 Y588.696
G01 X102.107 Y597.543
G01 X116.221 Y607.097
G01 X129.836 Y617.335
G01 X142.921 Y628.232
G01 X155.442 Y639.759
G01 X167.371 Y651.888
G01 X178.678 Y664.590
G01 X189.335 Y677.832
G01 X199.317 Y691.583
G01 X208.600 Y705.806
G01 X217.162 Y720.469
G01 X224.981 Y735.534
G01 X232.040 Y750.964
G01 X238.320 Y766.721
G01 X243.808 Y782.766
G01 X248.490 Y799.060
G01 X252.355 Y815.562
G01 X255.394 Y832.232
G01 X257.600 Y849.030
G01 X258.967 Y865.913
G01 X259.493 Y882.840
G01 X259.177 Y899.769
G01 X258.020 Y916.660
G01 X256.025 Y933.470
G01 X253.196 Y950.158
G01 X249.542 Y966.684
G01 X245.072 Y983.006
G01 X239.796 Y999.086
G01 X233.729 Y1014.883
G01 X226.884 Y1030.358
G01 X219.280 Y1045.475
G01 X210.934 Y1060.196
G01 X201.867 Y1074.484
G01 X192.103 Y1088.305
G01 X181.664 Y1101.626
G01 X170.576 Y1114.413
G01 X158.868 Y1126.636
G01 X146.567 Y1138.265
G01 X133.703 Y1149.270
G01 X120.309 Y1159.626
G01 X106.417 Y1169.307
G01 X92.061 Y1178.290
G01 X77.276 Y1186.552
G01 X62.099 Y1194.074
G01 X46.566 Y1200.836
G01 X30.716 Y1206.824
G01 X14.586 Y1212.022
G01 X5.000 Y1214.596
G01 X5.000 Y549.638
G01 X15.194 Y552.620
G01 X30.883 Y558.066
G01 X46.274 Y564.280
G01 X61.330 Y571.244
G01 X76.015 Y578.943
G01 X90.292 Y587.355
G01 X104.126 Y596.461
G01 X117.486 Y606.236
G01 X130.337 Y616.658
G01 X142.649 Y627.700
G01 X154.392 Y639.334
G01 X165.538 Y651.531
G01 X176.059 Y664.261
G01 X185.931 Y677.493
G01 X195.129 Y691.194
G01 X203.632 Y705.329
G01 X211.418 Y719.865
G01 X218.470 Y734.764
G01 X224.770 Y749.990
G01 X230.303 Y765.507
G01 X235.057 Y781.274
G01 X239.019 Y797.254
G01 X242.180 Y813.407
G01 X244.534 Y829.693
G01 X246.074 Y846.073
G01 X246.798 Y862.506
G01 X246.703 Y878.951
G01 X245.791 Y895.369
G01 X244.064 Y911.718
G01 X241.526 Y927.960
G01 X238.184 Y944.053
G01 X234.047 Y959.959
G01 X229.124 Y975.639
G01 X223.428 Y991.054
G01 X216.974 Y1006.166
G01 X209.778 Y1020.938
G01 X201.856 Y1035.335
G01 X193.229 Y1049.321
G01 X183.919 Y1062.861
G01 X173.947 Y1075.924
G01 X163.339 Y1088.476
G01 X152.121 Y1100.487
G01 X140.320 Y1111.928
G01 X127.965 Y1122.771
G01 X115.087 Y1132.989
G01 X101.717 Y1142.557
G01 X87.888 Y1151.453
G01 X73.634 Y1159.655
G01 X58.990 Y1167.141
G01 X43.991 Y1173.895
G01 X28.674 Y1179.900
G01 X13.077 Y1185.141
G01 X5.000 Y1187.418
G01 X5.000 Y544.224
G01 X5.894 Y544.473
G01 X21.197 Y549.564
G01 X36.220 Y555.403
G01 X50.926 Y561.976
G01 X65.281 Y569.265
G01 X79.249 Y577.253
G01 X92.796 Y585.918
G01 X105.890 Y595.240
G01 X118.498 Y605.196
G01 X130.590 Y615.759
G01 X142.137 Y626.904
G01 X153.111 Y638.604
G01 X163.485 Y650.828
G01 X173.235 Y663.547
G01 X182.337 Y676.729
G01 X190.769 Y690.342
G01 X198.510 Y704.352
G01 X205.543 Y718.723
G01 X211.849 Y733.422
G01 X217.416 Y748.410
G01 X222.228 Y763.653
G01 X226.274 Y779.110
G01 X229.546 Y794.746
G01 X232.035 Y810.521
G01 X233.736 Y826.396
G01 X234.645 Y842.333
G01 X234.759 Y858.292
G01 X234.080 Y874.233
G01 X232.609 Y890.119
G01 X230.349 Y905.909
G01 X227.308 Y921.566
G01 X223.492 Y937.050
G01 X218.911 Y952.323
G01 X213.577 Y967.350
G01 X207.503 Y982.091
G01 X200.704 Y996.512
G01 X193.198 Y1010.577
G01 X185.001 Y1024.251
G01 X176.136 Y1037.502
G01 X166.624 Y1050.296
G01 X156.487 Y1062.603
G01 X145.752 Y1074.393
G01 X134.444 Y1085.636
G01 X122.592 Y1096.305
G01 X110.224 Y1106.374
G01 X97.372 Y1115.819
G01 X84.065 Y1124.617
G01 X70.337 Y1132.745
G01 X56.223 Y1140.185
G01 X41.755 Y1146.918
G01 X26.969 Y1152.928
G01 X11.903 Y1158.200
G01 X5.000 Y1160.239
G01 X5.000 Y538.794
G01 X12.320 Y541.125
G01 X26.968 Y546.600
G01 X41.318 Y552.791
G01 X55.335 Y559.681
G01 X68.986 Y567.253
G01 X82.236 Y575.488
G01 X95.055 Y584.365
G01 X107.410 Y593.862
G01 X119.272 Y603.955
G01 X130.613 Y614.619
G01 X141.404 Y625.827
G01 X151.621 Y637.552
G01 X161.237 Y649.764
G01 X170.231 Y662.433
G01 X178.580 Y675.527
G01 X186.264 Y689.015
G01 X193.265 Y702.862
G01 X199.566 Y717.035
G01 X205.153 Y731.498
G01 X210.011 Y746.217
G01 X214.130 Y761.153
G01 X217.499 Y776.272
G01 X220.111 Y791.535
G01 X221.960 Y806.904
G01 X223.041 Y822.343
G01 X223.352 Y837.813
G01 X222.894 Y853.276
G01 X221.667 Y868.694
G01 X219.674 Y884.029
G01 X216.921 Y899.244
G01 X213.416 Y914.301
G01 X209.166 Y929.163
G01 X204.183 Y943.794
G01 X198.478 Y958.158
G01 X192.067 Y972.220
G01 X184.965 Y985.945
G01 X177.190 Y999.300
G01 X168.761 Y1012.252
G01 X159.699 Y1024.769
G01 X150.027 Y1036.822
G01 X139.767 Y1048.379
G01 X128.946 Y1059.414
G01 X117.590 Y1069.899
G01 X105.726 Y1079.809
G01 X93.385 Y1089.119
G01 X80.596 Y1097.806
G01 X67.391 Y1105.850
G01 X53.802 Y1113.232
G01 X39.863 Y1119.932
G01 X25.606 Y1125.934
G01 X11.069 Y1131.225
G01 X5.000 Y1133.099
G01 X5.000 Y533.031
G01 X18.524 Y537.888
G01 X32.510 Y543.707
G01 X46.182 Y550.208
G01 X59.507 Y557.375
G01 X72.452 Y565.188
G01 X84.986 Y573.629
G01 X97.079 Y582.676
G01 X108.702 Y592.306
G01 X119.825 Y602.496
G01 X130.424 Y613.220
G01 X140.471 Y624.451
G01 X149.943 Y636.162
G01 X158.817 Y648.323
G01 X167.071 Y660.904
G01 X174.687 Y673.873
G01 X181.644 Y687.200
G01 X187.928 Y700.850
G01 X193.522 Y714.791
G01 X198.414 Y728.987
G01 X202.592 Y743.404
G01 X206.046 Y758.005
G01 X208.769 Y772.756
G01 X210.753 Y787.619
G01 X211.994 Y802.559
G01 X212.490 Y817.538
G01 X212.240 Y832.519
G01 X211.245 Y847.466
G01 X209.507 Y862.342
G01 X207.031 Y877.111
G01 X203.824 Y891.736
G01 X199.894 Y906.181
G01 X195.251 Y920.411
G01 X189.905 Y934.391
G01 X183.872 Y948.086
G01 X177.165 Y961.464
G01 X169.802 Y974.491
G01 X161.800 Y987.136
G01 X153.180 Y999.368
G01 X143.963 Y1011.156
G01 X134.171 Y1022.472
G01 X123.829 Y1033.288
G01 X112.963 Y1043.579
G01 X101.598 Y1053.318
G01 X89.763 Y1062.481
G01 X77.486 Y1071.048
G01 X64.799 Y1078.996
G01 X51.732 Y1086.306
G01 X38.318 Y1092.961
G01 X24.588 Y1098.944
G01 X10.577 Y1104.241
G01 X5.000 Y1106.040
G01 X5.000 Y527.253
G01 X10.891 Y529.283
G01 X24.506 Y534.742
G01 X37.825 Y540.864
G01 X50.816 Y547.635
G01 X63.448 Y555.036
G01 X75.689 Y563.050
G01 X87.510 Y571.655
G01 X98.883 Y580.831
G01 X109.780 Y590.555
G01 X120.175 Y600.802
G01 X130.042 Y611.546
G01 X139.359 Y622.761
G01 X148.101 Y634.419
G01 X156.250 Y646.492
G01 X163.784 Y658.948
G01 X170.686 Y671.757
G01 X176.940 Y684.888
G01 X182.530 Y698.308
G01 X187.443 Y711.984
G01 X191.668 Y725.882
G01 X195.194 Y739.968
G01 X198.014 Y754.206
G01 X200.121 Y768.563
G01 X201.510 Y783.002
G01 X202.178 Y797.488
G01 X202.124 Y811.986
G01 X201.348 Y826.459
G01 X199.853 Y840.872
G01 X197.643 Y855.191
G01 X194.723 Y869.378
G01 X191.101 Y883.401
G01 X186.787 Y897.224
G01 X181.790 Y910.813
G01 X176.124 Y924.136
G01 X169.802 Y937.159
G01 X162.841 Y949.851
G01 X155.258 Y962.180
G01 X147.071 Y974.116
G01 X138.301 Y985.631
G01 X128.969 Y996.696
G01 X119.099 Y1007.284
G01 X108.715 Y1017.369
G01 X97.842 Y1026.927
G01 X86.507 Y1035.933
G01 X74.738 Y1044.367
G01 X62.565 Y1052.208
G01 X50.016 Y1059.436
G01 X37.123 Y1066.034
G01 X23.917 Y1071.985
G01 X10.430 Y1077.277
G01 X5.000 Y1079.102
G01 X5.000 Y521.161
G01 X17.310 Y525.912
G01 X30.269 Y531.667
G01 X42.918 Y538.051
G01 X55.228 Y545.050
G01 X67.167 Y552.646
G01 X78.707 Y560.819
G01 X89.821 Y569.549
G01 X100.481 Y578.814
G01 X110.662 Y588.591
G01 X120.339 Y598.855
G01 X129.488 Y609.581
G01 X138.089 Y620.742
G01 X146.119 Y632.311
G01 X153.561 Y644.258
G01 X160.395 Y656.555
G01 X166.607 Y669.169
G01 X172.180 Y682.072
G01 X177.102 Y695.229
G01 X181.361 Y708.610
G01 X184.948 Y722.180
G01 X187.853 Y735.907
G01 X190.070 Y749.757
G01 X191.594 Y763.694
G01 X192.422 Y777.686
G01 X192.551 Y791.698
G01 X191.983 Y805.694
G01 X190.719 Y819.642
G01 X188.762 Y833.506
G01 X186.118 Y847.252
G01 X182.793 Y860.847
G01 X178.796 Y874.257
G01 X174.137 Y887.450
G01 X168.827 Y900.392
G01 X162.881 Y913.053
G01 X156.312 Y925.402
G01 X149.137 Y937.407
G01 X141.375 Y949.040
G01 X133.043 Y960.273
G01 X124.164 Y971.077
G01 X114.758 Y981.426
G01 X104.849 Y991.296
G01 X94.462 Y1000.662
G01 X83.622 Y1009.500
G01 X72.355 Y1017.790
G01 X60.690 Y1025.512
G01 X48.655 Y1032.646
G01 X36.279 Y1039.175
G01 X23.594 Y1045.083
G01 X10.629 Y1050.357
G01 X5.000 Y1052.327
G01 X5.000 Y515.039
G01 X10.923 Y517.237
G01 X23.515 Y522.633
G01 X35.815 Y528.642
G01 X47.795 Y535.248
G01 X59.423 Y542.435
G01 X70.674 Y550.185
G01 X81.519 Y558.477
G01 X91.932 Y567.291
G01 X101.889 Y576.606
G01 X111.364 Y586.397
G01 X120.336 Y596.640
G01 X128.783 Y607.310
G01 X136.685 Y618.381
G01 X144.022 Y629.824
G01 X150.777 Y641.611
G01 X156.934 Y653.714
G01 X162.478 Y666.101
G01 X167.397 Y678.743
G01 X171.678 Y691.608
G01 X175.312 Y704.665
G01 X178.289 Y717.880
G01 X180.604 Y731.222
G01 X182.251 Y744.658
G01 X183.226 Y758.154
G01 X183.527 Y771.678
G01 X183.154 Y785.195
G01 X182.108 Y798.673
G01 X180.393 Y812.079
G01 X178.013 Y825.380
G01 X174.973 Y838.542
G01 X171.282 Y851.534
G01 X166.950 Y864.324
G01 X161.986 Y876.880
G01 X156.404 Y889.172
G01 X150.218 Y901.170
G01 X143.443 Y912.843
G01 X136.095 Y924.165
G01 X128.194 Y935.106
G01 X119.758 Y945.640
G01 X110.809 Y955.741
G01 X101.369 Y965.385
G01 X91.460 Y974.548
G01 X81.108 Y983.208
G01 X70.338 Y991.344
G01 X59.176 Y998.935
G01 X47.651 Y1005.963
G01 X35.789 Y1012.412
G01 X23.621 Y1018.265
G01 X11.175 Y1023.508
G01 X5.000 Y1025.756
G01 X5.000 Y508.608
G01 X5.348 Y508.733
G01 X17.566 Y513.782
G01 X29.509 Y519.425
G01 X41.150 Y525.649
G01 X52.460 Y532.436
G01 X63.412 Y539.771
G01 X73.979 Y547.634
G01 X84.136 Y556.006
G01 X93.858 Y564.866
G01 X103.122 Y574.191
G01 X111.906 Y583.958
G01 X120.188 Y594.143
G01 X127.949 Y604.721
G01 X135.170 Y615.665
G01 X141.834 Y626.948
G01 X147.925 Y638.542
G01 X153.428 Y650.418
G01 X158.331 Y662.546
G01 X162.621 Y674.898
G01 X166.290 Y687.442
G01 X169.327 Y700.147
G01 X171.727 Y712.982
G01 X173.484 Y725.915
G01 X174.593 Y738.914
G01 X175.054 Y751.948
G01 X174.864 Y764.984
G01 X174.025 Y777.990
G01 X172.539 Y790.934
G01 X170.410 Y803.785
G01 X167.645 Y816.510
G01 X164.249 Y829.079
G01 X160.232 Y841.460
G01 X155.604 Y853.624
G01 X150.376 Y865.540
G01 X144.563 Y877.179
G01 X138.177 Y888.513
G01 X131.235 Y899.514
G01 X123.755 Y910.155
G01 X115.755 Y920.409
G01 X107.254 Y930.253
G01 X98.275 Y939.662
G01 X88.838 Y948.612
G01 X78.968 Y957.083
G01 X68.689 Y965.053
G01 X58.025 Y972.502
G01 X47.004 Y979.414
G01 X35.652 Y985.770
G01 X23.997 Y991.556
G01 X12.069 Y996.757
G01 X5.000 Y999.430
G01 X5.000 Y502.175
G01 X12.421 Y505.129
G01 X24.001 Y510.418
G01 X35.296 Y516.269
G01 X46.279 Y522.667
G01 X56.923 Y529.596
G01 X67.203 Y537.039
G01 X77.094 Y544.977
G01 X86.572 Y553.389
G01 X95.614 Y562.256
G01 X104.199 Y571.554
G01 X112.306 Y581.260
G01 X119.915 Y591.351
G01 X127.008 Y601.801
G01 X133.569 Y612.584
G01 X139.582 Y623.673
G01 X145.032 Y635.041
G01 X149.906 Y646.659
G01 X154.194 Y658.500
G01 X157.885 Y670.532
G01 X160.970 Y682.728
G01 X163.442 Y695.056
G01 X165.297 Y707.486
G01 X166.528 Y719.988
G01 X167.135 Y732.531
G01 X167.116 Y745.083
G01 X166.471 Y757.615
G01 X165.203 Y770.094
G01 X163.314 Y782.491
G01 X160.811 Y794.774
G01 X157.699 Y806.914
G01 X153.986 Y818.882
G01 X149.683 Y830.646
G01 X144.799 Y842.180
G01 X139.347 Y853.454
G01 X133.341 Y864.440
G01 X126.796 Y875.113
G01 X119.728 Y885.445
G01 X112.155 Y895.412
G01 X104.095 Y904.988
G01 X95.569 Y914.152
G01 X86.597 Y922.879
G01 X77.202 Y931.150
G01 X67.407 Y938.943
G01 X57.237 Y946.240
G01 X46.715 Y953.023
G01 X35.868 Y959.276
G01 X24.724 Y964.982
G01 X13.308 Y970.129
G01 X5.000 Y973.389
G01 X5.000 Y495.513
G01 X8.082 Y496.694
G01 X19.291 Y501.638
G01 X30.232 Y507.126
G01 X40.880 Y513.144
G01 X51.208 Y519.677
G01 X61.192 Y526.709
G01 X70.808 Y534.221
G01 X80.032 Y542.195
G01 X88.842 Y550.610
G01 X97.217 Y559.446
G01 X105.137 Y568.680
G01 X112.584 Y578.290
G01 X119.538 Y588.251
G01 X125.985 Y598.539
G01 X131.907 Y609.128
G01 X137.292 Y619.991
G01 X142.126 Y631.102
G01 X146.399 Y642.434
G01 X150.099 Y653.957
G01 X153.219 Y665.645
G01 X155.752 Y677.467
G01 X157.691 Y689.394
G01 X159.032 Y701.398
G01 X159.773 Y713.448
G01 X159.912 Y725.515
G01 X159.450 Y737.569
G01 X158.386 Y749.580
G01 X156.726 Y761.520
G01 X154.473 Y773.357
G01 X151.633 Y785.065
G01 X148.214 Y796.612
G01 X144.224 Y807.972
G01 X139.673 Y819.117
G01 X134.573 Y830.018
G01 X128.937 Y840.650
G01 X122.779 Y850.986
G01 X116.114 Y861.001
G01 X108.959 Y870.671
G01 X101.332 Y879.971
G01 X93.251 Y888.880
G01 X84.737 Y897.374
G01 X75.810 Y905.435
G01 X66.494 Y913.041
G01 X56.810 Y920.174
G01 X46.783 Y926.818
G01 X36.437 Y932.955
G01 X25.798 Y938.571
G01 X14.892 Y943.652
G01 X5.000 Y947.676
G01 X5.000 Y488.685
G01 X15.378 Y493.103
G01 X25.959 Y498.238
G01 X36.263 Y503.887
G01 X46.267 Y510.033
G01 X55.946 Y516.662
G01 X65.277 Y523.758
G01 X74.238 Y531.300
G01 X82.806 Y539.272
G01 X90.961 Y547.653
G01 X98.684 Y556.422
G01 X105.957 Y565.557
G01 X112.761 Y575.035
G01 X119.081 Y584.833
G01 X124.902 Y594.925
G01 X130.209 Y605.288
G01 X134.991 Y615.896
G01 X139.236 Y626.721
G01 X142.934 Y637.737
G01 X146.077 Y648.918
G01 X148.657 Y660.235
G01 X150.668 Y671.660
G01 X152.107 Y683.165
G01 X152.970 Y694.721
G01 X153.254 Y706.301
G01 X152.961 Y717.876
G01 X152.091 Y729.417
G01 X150.647 Y740.895
G01 X148.633 Y752.283
G01 X146.054 Y763.552
G01 X142.916 Y774.675
G01 X139.228 Y785.625
G01 X135.000 Y796.374
G01 X130.242 Y806.896
G01 X124.966 Y817.166
G01 X119.185 Y827.158
G01 X112.913 Y836.848
G01 X106.168 Y846.212
G01 X98.964 Y855.227
G01 X91.321 Y863.871
G01 X83.257 Y872.123
G01 X74.792 Y879.963
G01 X65.947 Y887.371
G01 X56.744 Y894.330
G01 X47.206 Y900.823
G01 X37.356 Y906.833
G01 X27.219 Y912.347
G01 X16.819 Y917.350
G01 X6.183 Y921.831
G01 X5.000 Y922.262
G01 X5.000 Y481.850
G01 X12.261 Y484.829
G01 X22.473 Y489.623
G01 X32.427 Y494.911
G01 X42.099 Y500.681
G01 X51.464 Y506.917
G01 X60.502 Y513.604
G01 X69.189 Y520.725
G01 X77.505 Y528.261
G01 X85.430 Y536.194
G01 X92.946 Y544.504
G01 X100.033 Y553.171
G01 X106.676 Y562.172
G01 X112.859 Y571.484
G01 X118.566 Y581.086
G01 X123.784 Y590.952
G01 X128.502 Y601.059
G01 X132.707 Y611.381
G01 X136.390 Y621.893
G01 X139.543 Y632.568
G01 X142.158 Y643.381
G01 X144.230 Y654.304
G01 X145.753 Y665.310
G01 X146.724 Y676.373
G01 X147.143 Y687.464
G01 X147.007 Y698.557
G01 X146.318 Y709.625
G01 X145.078 Y720.639
G01 X143.290 Y731.573
G01 X140.960 Y742.400
G01 X138.093 Y753.094
G01 X134.697 Y763.628
G01 X130.780 Y773.976
G01 X126.352 Y784.112
G01 X121.426 Y794.013
G01 X116.012 Y803.653
G01 X110.125 Y813.010
G01 X103.780 Y822.060
G01 X96.991 Y830.780
G01 X89.778 Y839.151
G01 X82.156 Y847.150
G01 X74.145 Y854.759
G01 X65.766 Y861.960
G01 X57.038 Y868.734
G01 X47.983 Y875.065
G01 X38.624 Y880.937
G01 X28.984 Y886.337
G01 X19.087 Y891.251
G01 X8.956 Y895.667
G01 X5.000 Y897.162
G01 X5.000 Y474.883
G01 X9.937 Y476.835
G01 X19.774 Y481.297
G01 X29.370 Y486.236
G01 X38.701 Y491.638
G01 X47.745 Y497.491
G01 X56.479 Y503.778
G01 X64.884 Y510.485
G01 X72.939 Y517.594
G01 X80.624 Y525.087
G01 X87.921 Y532.946
G01 X94.813 Y541.150
G01 X101.284 Y549.680
G01 X107.317 Y558.513
G01 X112.899 Y567.628
G01 X118.017 Y577.002
G01 X122.657 Y586.613
G01 X126.811 Y596.435
G01 X130.467 Y606.444
G01 X133.618 Y616.616
G01 X136.255 Y626.926
G01 X138.374 Y637.347
G01 X139.970 Y647.855
G01 X141.038 Y658.423
G01 X141.577 Y669.025
G01 X141.586 Y679.635
G01 X141.066 Y690.226
G01 X140.018 Y700.774
G01 X138.445 Y711.251
G01 X136.352 Y721.632
G01 X133.744 Y731.891
G01 X130.627 Y742.004
G01 X127.011 Y751.945
G01 X122.904 Y761.689
G01 X118.316 Y771.214
G01 X113.260 Y780.495
G01 X107.748 Y789.511
G01 X101.793 Y798.238
G01 X95.412 Y806.656
G01 X88.619 Y814.743
G01 X81.432 Y822.481
G01 X73.868 Y829.849
G01 X65.947 Y836.831
G01 X57.687 Y843.409
G01 X49.111 Y849.568
G01 X40.237 Y855.291
G01 X31.090 Y860.565
G01 X21.690 Y865.378
G01 X12.062 Y869.718
G01 X5.000 Y872.487
G01 X5.000 Y467.842
G01 X8.402 Y469.136
G01 X17.858 Y473.277
G01 X27.088 Y477.877
G01 X36.071 Y482.922
G01 X44.785 Y488.401
G01 X53.208 Y494.298
G01 X61.322 Y500.600
G01 X69.105 Y507.289
G01 X76.540 Y514.350
G01 X83.609 Y521.764
G01 X90.295 Y529.513
G01 X96.582 Y537.578
G01 X102.455 Y545.937
G01 X107.900 Y554.571
G01 X112.905 Y563.458
G01 X117.458 Y572.575
G01 X121.547 Y581.901
G01 X125.164 Y591.411
G01 X128.300 Y601.082
G01 X130.948 Y610.890
G01 X133.101 Y620.811
G01 X134.756 Y630.820
G01 X135.909 Y640.893
G01 X136.557 Y651.005
G01 X136.698 Y661.130
G01 X136.334 Y671.244
G01 X135.466 Y681.322
G01 X134.096 Y691.338
G01 X132.228 Y701.269
G01 X129.867 Y711.090
G01 X127.019 Y720.776
G01 X123.692 Y730.304
G01 X119.895 Y739.651
G01 X115.636 Y748.793
G01 X110.927 Y757.708
G01 X105.780 Y766.375
G01 X100.207 Y774.771
G01 X94.223 Y782.877
G01 X87.843 Y790.673
G01 X81.082 Y798.139
G01 X73.958 Y805.257
G01 X66.488 Y812.011
G01 X58.690 Y818.383
G01 X50.585 Y824.357
G01 X42.192 Y829.921
G01 X33.532 Y835.058
G01 X24.627 Y839.759
G01 X15.497 Y844.010
G01 X6.167 Y847.801
G01 X5.000 Y848.209
G01 X5.000 Y460.779
G01 X7.654 Y461.749
G01 X16.722 Y465.581
G01 X25.579 Y469.851
G01 X34.206 Y474.550
G01 X42.582 Y479.664
G01 X50.685 Y485.180
G01 X58.498 Y491.085
G01 X66.001 Y497.364
G01 X73.176 Y504.000
G01 X80.006 Y510.978
G01 X86.475 Y518.279
G01 X92.568 Y525.884
G01 X98.270 Y533.776
G01 X103.567 Y541.934
G01 X108.448 Y550.338
G01 X112.900 Y558.967
G01 X116.913 Y567.799
G01 X120.479 Y576.812
G01 X123.588 Y585.985
G01 X126.233 Y595.293
G01 X128.410 Y604.715
G01 X130.112 Y614.227
G01 X131.336 Y623.805
G01 X132.079 Y633.425
G01 X132.341 Y643.064
G01 X132.122 Y652.699
G01 X131.421 Y662.304
G01 X130.241 Y671.857
G01 X128.587 Y681.334
G01 X126.461 Y690.712
G01 X123.871 Y699.967
G01 X120.822 Y709.077
G01 X117.323 Y718.020
G01 X113.382 Y726.773
G01 X109.010 Y735.315
G01 X104.218 Y743.625
G01 X99.017 Y751.683
G01 X93.422 Y759.469
G01 X87.445 Y766.964
G01 X81.103 Y774.149
G01 X74.410 Y781.008
G01 X67.384 Y787.523
G01 X60.042 Y793.678
G01 X52.403 Y799.459
G01 X44.484 Y804.851
G01 X36.307 Y809.841
G01 X27.890 Y814.417
G01 X19.256 Y818.568
G01 X10.425 Y822.284
G01 X5.000 Y824.255
G01 X5.000 Y453.748
G01 X7.687 Y454.691
G01 X16.360 Y458.224
G01 X24.838 Y462.176
G01 X33.101 Y466.537
G01 X41.131 Y471.296
G01 X48.906 Y476.442
G01 X56.410 Y481.959
G01 X63.623 Y487.836
G01 X70.528 Y494.056
G01 X77.110 Y500.604
G01 X83.352 Y507.464
G01 X89.240 Y514.617
G01 X94.759 Y522.047
G01 X99.897 Y529.735
G01 X104.642 Y537.661
G01 X108.982 Y545.805
G01 X112.908 Y554.148
G01 X116.409 Y562.668
G01 X119.479 Y571.345
G01 X122.110 Y580.156
G01 X124.296 Y589.080
G01 X126.033 Y598.094
G01 X127.316 Y607.177
G01 X128.143 Y616.306
G01 X128.513 Y625.459
G01 X128.425 Y634.611
G01 X127.879 Y643.742
G01 X126.879 Y652.829
G01 X125.425 Y661.849
G01 X123.524 Y670.779
G01 X121.179 Y679.599
G01 X118.397 Y688.286
G01 X115.185 Y696.818
G01 X111.552 Y705.176
G01 X107.506 Y713.339
G01 X103.059 Y721.285
G01 X98.221 Y728.997
G01 X93.005 Y736.455
G01 X87.423 Y743.640
G01 X81.491 Y750.536
G01 X75.222 Y757.125
G01 X68.633 Y763.392
G01 X61.739 Y769.320
G01 X54.558 Y774.896
G01 X47.108 Y780.106
G01 X39.408 Y784.937
G01 X31.476 Y789.378
G01 X23.332 Y793.417
G01 X14.997 Y797.046
G01 X6.490 Y800.254
G01 X5.000 Y800.733
G01 X5.000 Y446.802
G01 X8.495 Y447.977
G01 X16.767 Y451.222
G01 X24.859 Y454.866
G01 X32.752 Y458.901
G01 X40.427 Y463.316
G01 X47.866 Y468.099
G01 X55.052 Y473.239
G01 X61.966 Y478.721
G01 X68.592 Y484.534
G01 X74.916 Y490.660
G01 X80.920 Y497.086
G01 X86.593 Y503.794
G01 X91.919 Y510.769
G01 X96.886 Y517.992
G01 X101.484 Y525.445
G01 X105.700 Y533.110
G01 X109.526 Y540.967
G01 X112.952 Y548.997
G01 X115.970 Y557.181
G01 X118.574 Y565.497
G01 X120.758 Y573.924
G01 X122.517 Y582.443
G01 X123.847 Y591.032
G01 X124.745 Y599.669
G01 X125.210 Y608.333
G01 X125.241 Y617.003
G01 X124.839 Y625.658
G01 X124.004 Y634.275
G01 X122.740 Y642.834
G01 X121.051 Y651.314
G01 X118.940 Y659.694
G01 X116.413 Y667.952
G01 X113.478 Y676.070
G01 X110.141 Y684.026
G01 X106.412 Y691.802
G01 X102.299 Y699.378
G01 X97.814 Y706.736
G01 X92.967 Y713.857
G01 X87.772 Y720.725
G01 X82.241 Y727.322
G01 X76.387 Y733.633
G01 X70.227 Y739.641
G01 X63.774 Y745.333
G01 X57.046 Y750.694
G01 X50.059 Y755.711
G01 X42.830 Y760.372
G01 X35.378 Y764.666
G01 X27.720 Y768.583
G01 X19.876 Y772.112
G01 X11.866 Y775.245
G01 X5.000 Y777.543
G01 X5.000 Y439.990
G01 X10.072 Y441.624
G01 X17.936 Y444.591
G01 X25.636 Y447.938
G01 X33.151 Y451.657
G01 X40.465 Y455.737
G01 X47.560 Y460.169
G01 X54.419 Y464.939
G01 X61.025 Y470.037
G01 X67.364 Y475.450
G01 X73.419 Y481.163
G01 X79.176 Y487.162
G01 X84.622 Y493.433
G01 X89.744 Y499.958
G01 X94.530 Y506.722
G01 X98.969 Y513.708
G01 X103.050 Y520.898
G01 X106.764 Y528.274
G01 X110.103 Y535.819
G01 X113.057 Y543.512
G01 X115.622 Y551.335
G01 X117.791 Y559.268
G01 X119.560 Y567.292
G01 X120.924 Y575.387
G01 X121.880 Y583.532
G01 X122.428 Y591.708
G01 X122.566 Y599.894
G01 X122.294 Y608.070
G01 X121.614 Y616.216
G01 X120.527 Y624.312
G01 X119.038 Y632.338
G01 X117.149 Y640.273
G01 X114.867 Y648.099
G01 X112.196 Y655.796
G01 X109.145 Y663.345
G01 X105.721 Y670.728
G01 X101.933 Y677.926
G01 X97.791 Y684.923
G01 X93.304 Y691.700
G01 X88.486 Y698.242
G01 X83.347 Y704.532
G01 X77.901 Y710.554
G01 X72.162 Y716.295
G01 X66.143 Y721.740
G01 X59.861 Y726.875
G01 X53.330 Y731.689
G01 X46.567 Y736.170
G01 X39.589 Y740.306
G01 X32.413 Y744.088
G01 X25.056 Y747.506
G01 X17.539 Y750.553
G01 X9.877 Y753.221
G01 X5.000 Y754.650
G01 X5.000 Y433.364
G01 X12.410 Y435.645
G01 X19.862 Y438.347
G01 X27.162 Y441.408
G01 X34.293 Y444.821
G01 X41.239 Y448.577
G01 X47.981 Y452.666
G01 X54.506 Y457.077
G01 X60.795 Y461.800
G01 X66.836 Y466.822
G01 X72.613 Y472.129
G01 X78.113 Y477.710
G01 X83.323 Y483.549
G01 X88.231 Y489.632
G01 X92.824 Y495.943
G01 X97.093 Y502.468
G01 X101.027 Y509.188
G01 X104.618 Y516.088
G01 X107.857 Y523.149
G01 X110.736 Y530.356
G01 X113.249 Y537.689
G01 X115.391 Y545.130
G01 X117.157 Y552.661
G01 X118.542 Y560.262
G01 X119.545 Y567.916
G01 X120.163 Y575.604
G01 X120.395 Y583.305
G01 X120.242 Y591.001
G01 X119.704 Y598.673
G01 X118.782 Y606.303
G01 X117.481 Y613.870
G01 X115.802 Y621.358
G01 X113.752 Y628.746
G01 X111.336 Y636.017
G01 X108.559 Y643.154
G01 X105.429 Y650.138
G01 X101.955 Y656.952
G01 X98.146 Y663.580
G01 X94.010 Y670.006
G01 X89.559 Y676.213
G01 X84.804 Y682.187
G01 X79.757 Y687.912
G01 X74.431 Y693.376
G01 X68.838 Y698.564
G01 X62.994 Y703.464
G01 X56.913 Y708.064
G01 X50.610 Y712.353
G01 X44.101 Y716.321
G01 X37.401 Y719.957
G01 X30.529 Y723.253
G01 X23.500 Y726.201
G01 X16.332 Y728.794
G01 X9.043 Y731.026
G01 X5.000 Y732.046
G01 X5.000 Y427.149
G01 X8.347 Y427.956
G01 X15.502 Y430.057
G01 X22.535 Y432.504
G01 X29.430 Y435.290
G01 X36.171 Y438.409
G01 X42.740 Y441.850
G01 X49.123 Y445.607
G01 X55.304 Y449.669
G01 X61.269 Y454.025
G01 X67.003 Y458.664
G01 X72.493 Y463.575
G01 X77.726 Y468.745
G01 X82.689 Y474.160
G01 X87.371 Y479.807
G01 X91.762 Y485.673
G01 X95.849 Y491.741
G01 X99.626 Y497.997
G01 X103.081 Y504.424
G01 X106.208 Y511.008
G01 X109.000 Y517.731
G01 X111.450 Y524.577
G01 X113.552 Y531.528
G01 X115.302 Y538.567
G01 X116.697 Y545.677
G01 X117.734 Y552.840
G01 X118.410 Y560.038
G01 X118.724 Y567.254
G01 X118.676 Y574.469
G01 X118.267 Y581.666
G01 X117.499 Y588.826
G01 X116.373 Y595.933
G01 X114.894 Y602.969
G01 X113.064 Y609.915
G01 X110.890 Y616.756
G01 X108.377 Y623.474
G01 X105.531 Y630.053
G01 X102.360 Y636.477
G01 X98.873 Y642.730
G01 X95.078 Y648.796
G01 X90.985 Y654.661
G01 X86.605 Y660.310
G01 X81.948 Y665.730
G01 X77.026 Y670.907
G01 X71.853 Y675.829
G01 X66.440 Y680.484
G01 X60.802 Y684.860
G01 X54.953 Y688.947
G01 X48.907 Y692.734
G01 X42.679 Y696.214
G01 X36.285 Y699.376
G01 X29.741 Y702.214
G01 X23.063 Y704.721
G01 X16.268 Y706.890
G01 X9.372 Y708.717
G01 X5.000 Y709.644
G01 X5.000 Y421.302
G01 X5.805 Y421.444
G01 X12.618 Y422.994
G01 X19.338 Y424.873
G01 X25.947 Y427.077
G01 X32.431 Y429.600
G01 X38.774 Y432.434
G01 X44.961 Y435.572
G01 X50.977 Y439.007
G01 X56.807 Y442.728
G01 X62.438 Y446.727
G01 X67.857 Y450.993
G01 X73.050 Y455.516
G01 X78.006 Y460.282
G01 X82.713 Y465.282
G01 X87.160 Y470.501
G01 X91.336 Y475.926
G01 X95.232 Y481.544
G01 X98.839 Y487.341
G01 X102.148 Y493.302
G01 X105.151 Y499.411
G01 X107.843 Y505.655
G01 X110.217 Y512.016
G01 X112.268 Y518.480
G01 X113.991 Y525.030
G01 X115.383 Y531.650
G01 X116.440 Y538.322
G01 X117.161 Y545.032
G01 X117.545 Y551.761
G01 X117.591 Y558.494
G01 X117.299 Y565.214
G01 X116.672 Y571.903
G01 X115.710 Y578.546
G01 X114.417 Y585.126
G01 X112.796 Y591.627
G01 X110.853 Y598.033
G01 X108.592 Y604.327
G01 X106.019 Y610.496
G01 X103.141 Y616.522
G01 X99.966 Y622.393
G01 X96.501 Y628.093
G01 X92.757 Y633.607
G01 X88.742 Y638.924
G01 X84.466 Y644.030
G01 X79.941 Y648.912
G01 X75.179 Y653.558
G01 X70.190 Y657.957
G01 X64.988 Y662.099
G01 X59.586 Y665.973
G01 X53.997 Y669.570
G01 X48.236 Y672.881
G01 X42.316 Y675.898
G01 X36.253 Y678.614
G01 X30.061 Y681.023
G01 X23.757 Y683.118
G01 X17.355 Y684.895
G01 X10.872 Y686.349
G01 X5.000 Y687.360
G01 X5.000 Y416.055
G01 X11.265 Y417.078
G01 X17.629 Y418.439
G01 X23.909 Y420.108
G01 X30.089 Y422.080
G01 X36.157 Y424.350
G01 X42.096 Y426.911
G01 X47.893 Y429.757
G01 X53.534 Y432.879
G01 X59.006 Y436.271
G01 X64.295 Y439.922
G01 X69.390 Y443.824
G01 X74.278 Y447.966
G01 X78.948 Y452.339
G01 X83.388 Y456.929
G01 X87.589 Y461.727
G01 X91.540 Y466.719
G01 X95.233 Y471.894
G01 X98.659 Y477.237
G01 X101.810 Y482.736
G01 X104.679 Y488.376
G01 X107.260 Y494.144
G01 X109.546 Y500.025
G01 X111.533 Y506.004
G01 X113.216 Y512.067
G01 X114.592 Y518.197
G01 X115.658 Y524.381
G01 X116.412 Y530.602
G01 X116.852 Y536.845
G01 X116.979 Y543.095
G01 X116.793 Y549.335
G01 X116.293 Y555.552
G01 X115.483 Y561.728
G01 X114.365 Y567.849
G01 X112.941 Y573.901
G01 X111.217 Y579.867
G01 X109.197 Y585.733
G01 X106.885 Y591.485
G01 X104.289 Y597.109
G01 X101.416 Y602.591
G01 X98.272 Y607.917
G01 X94.866 Y613.074
G01 X91.207 Y618.050
G01 X87.304 Y622.833
G01 X83.167 Y627.410
G01 X78.807 Y631.771
G01 X74.235 Y635.906
G01 X69.462 Y639.803
G01 X64.500 Y643.454
G01 X59.363 Y646.849
G01 X54.062 Y649.981
G01 X48.612 Y652.842
G01 X43.025 Y655.425
G01 X37.316 Y657.724
G01 X31.499 Y659.733
G01 X25.589 Y661.448
G01 X19.599 Y662.863
G01 X13.546 Y663.978
G01 X7.444 Y664.787
G01 X5.000 Y664.987
G01 X5.000 Y411.593
G01 X5.472 Y411.618
G01 X11.488 Y412.223
G01 X17.458 Y413.119
G01 X23.368 Y414.305
G01 X29.204 Y415.776
G01 X34.951 Y417.528
G01 X40.596 Y419.556
G01 X46.126 Y421.855
G01 X51.526 Y424.418
G01 X56.786 Y427.239
G01 X61.892 Y430.311
G01 X66.831 Y433.624
G01 X71.594 Y437.171
G01 X76.167 Y440.942
G01 X80.541 Y444.928
G01 X84.705 Y449.118
G01 X88.650 Y453.502
G01 X92.366 Y458.068
G01 X95.845 Y462.805
G01 X99.079 Y467.701
G01 X102.061 Y472.743
G01 X104.783 Y477.919
G01 X107.241 Y483.216
G01 X109.427 Y488.619
G01 X111.338 Y494.117
G01 X112.969 Y499.695
G01 X114.317 Y505.338
G01 X115.379 Y511.034
G01 X116.153 Y516.767
G01 X116.639 Y522.523
G01 X116.834 Y528.289
G01 X116.740 Y534.050
G01 X116.356 Y539.791
G01 X115.686 Y545.499
G01 X114.730 Y551.158
G01 X113.492 Y556.756
G01 X111.975 Y562.279
G01 X110.184 Y567.712
G01 X108.123 Y573.042
G01 X105.798 Y578.257
G01 X103.215 Y583.344
G01 X100.382 Y588.289
G01 X97.305 Y593.081
G01 X93.992 Y597.709
G01 X90.452 Y602.160
G01 X86.695 Y606.425
G01 X82.729 Y610.491
G01 X78.566 Y614.351
G01 X74.214 Y617.994
G01 X69.687 Y621.411
G01 X64.994 Y624.595
G01 X60.149 Y627.537
G01 X55.162 Y630.231
G01 X50.047 Y632.669
G01 X44.817 Y634.846
G01 X39.484 Y636.757
G01 X34.062 Y638.398
G01 X28.564 Y639.764
G01 X23.004 Y640.852
G01 X17.397 Y641.659
G01 X11.755 Y642.185
G01 X6.093 Y642.427
G01 X5.000 Y642.419
G01 X5.000 Y408.150
G01 X7.751 Y408.123
G01 X13.322 Y408.340
G01 X18.867 Y408.827
G01 X24.372 Y409.582
G01 X29.825 Y410.604
G01 X35.212 Y411.888
G01 X40.521 Y413.432
G01 X45.739 Y415.230
G01 X50.853 Y417.278
G01 X55.851 Y419.570
G01 X60.722 Y422.100
G01 X65.454 Y424.861
G01 X70.036 Y427.847
G01 X74.458 Y431.048
G01 X78.708 Y434.457
G01 X82.777 Y438.065
G01 X86.655 Y441.863
G01 X90.334 Y445.841
G01 X93.805 Y449.988
G01 X97.060 Y454.294
G01 X100.091 Y458.748
G01 X102.892 Y463.339
G01 X105.456 Y468.056
G01 X107.778 Y472.885
G01 X109.853 Y477.816
G01 X111.676 Y482.835
G01 X113.242 Y487.930
G01 X114.550 Y493.088
G01 X115.596 Y498.297
G01 X116.378 Y503.543
G01 X116.896 Y508.814
G01 X117.147 Y514.095
G01 X117.133 Y519.375
G01 X116.853 Y524.640
G01 X116.310 Y529.876
G01 X115.504 Y535.071
G01 X114.440 Y540.212
G01 X113.118 Y545.287
G01 X111.545 Y550.282
G01 X109.723 Y555.186
G01 X107.658 Y559.987
G01 X105.356 Y564.672
G01 X102.822 Y569.230
G01 X100.063 Y573.650
G01 X97.088 Y577.921
G01 X93.902 Y582.033
G01 X90.515 Y585.976
G01 X86.935 Y589.739
G01 X83.172 Y593.315
G01 X79.235 Y596.694
G01 X75.135 Y599.868
G01 X70.881 Y602.829
G01 X66.484 Y605.570
G01 X61.956 Y608.085
G01 X57.308 Y610.367
G01 X52.552 Y612.412
G01 X47.699 Y614.213
G01 X42.762 Y615.768
G01 X37.754 Y617.072
G01 X32.686 Y618.121
G01 X27.571 Y618.915
G01 X22.423 Y619.450
G01 X17.253 Y619.727
G01 X12.075 Y619.743
G01 X6.902 Y619.500
G01 X5.000 Y619.315
G01 X5.000 Y406.000
G01 X6.593 Y405.809
G01 X11.692 Y405.449
G01 X16.793 Y405.336
G01 X21.886 Y405.471
G01 X26.957 Y405.853
G01 X31.995 Y406.480
G01 X36.987 Y407.349
G01 X41.922 Y408.459
G01 X46.788 Y409.805
G01 X51.573 Y411.385
G01 X56.266 Y413.193
G01 X60.856 Y415.225
G01 X65.332 Y417.475
G01 X69.683 Y419.936
G01 X73.900 Y422.603
G01 X77.972 Y425.469
G01 X81.890 Y428.525
G01 X85.645 Y431.764
G01 X89.229 Y435.177
G01 X92.632 Y438.756
G01 X95.847 Y442.492
G01 X98.867 Y446.374
G01 X101.684 Y450.393
G01 X104.294 Y454.539
G01 X106.689 Y458.801
G01 X108.864 Y463.168
G01 X110.815 Y467.629
G01 X112.537 Y472.173
G01 X114.028 Y476.789
G01 X115.283 Y481.465
G01 X116.300 Y486.189
G01 X117.078 Y490.949
G01 X117.615 Y495.733
G01 X117.910 Y500.531
G01 X117.963 Y505.328
G01 X117.775 Y510.115
G01 X117.346 Y514.878
G01 X116.679 Y519.606
G01 X115.776 Y524.288
G01 X114.638 Y528.911
G01 X113.271 Y533.464
G01 X111.677 Y537.936
G01 X109.860 Y542.317
G01 X107.827 Y546.594
G01 X105.583 Y550.759
G01 X103.133 Y554.799
G01 X100.484 Y558.707
G01 X97.643 Y562.471
G01 X94.617 Y566.084
G01 X91.415 Y569.535
G01 X88.044 Y572.818
G01 X84.514 Y575.923
G01 X80.833 Y578.843
G01 X77.011 Y581.571
G01 X73.057 Y584.101
G01 X68.982 Y586.426
G01 X64.796 Y588.542
G01 X60.509 Y590.442
G01 X56.133 Y592.122
G01 X51.678 Y593.579
G01 X47.156 Y594.809
G01 X42.578 Y595.808
G01 X37.955 Y596.576
G01 X33.299 Y597.109
G01 X28.621 Y597.407
G01 X23.934 Y597.470
G01 X19.248 Y597.296
G01 X14.576 Y596.888
G01 X9.929 Y596.245
G01 X5.319 Y595.370
G01 X5.000 Y595.293
G01 X5.000 Y405.658
G01 X8.133 Y404.933
G01 X12.705 Y404.104
G01 X17.303 Y403.499
G01 X21.918 Y403.117
G01 X26.537 Y402.959
G01 X31.150 Y403.024
G01 X35.746 Y403.313
G01 X40.314 Y403.823
G01 X44.842 Y404.552
G01 X49.321 Y405.499
G01 X53.740 Y406.661
G01 X58.087 Y408.034
G01 X62.354 Y409.613
G01 X66.529 Y411.396
G01 X70.604 Y413.376
G01 X74.567 Y415.548
G01 X78.411 Y417.907
G01 X82.127 Y420.446
G01 X85.704 Y423.159
G01 X89.136 Y426.037
G01 X92.415 Y429.075
G01 X95.533 Y432.264
G01 X98.482 Y435.595
G01 X101.257 Y439.060
G01 X103.850 Y442.650
G01 X106.256 Y446.356
G01 X108.471 Y450.169
G01 X110.488 Y454.079
G01 X112.303 Y458.075
G01 X113.914 Y462.148
G01 X115.315 Y466.287
G01 X116.506 Y470.483
G01 X117.482 Y474.723
G01 X118.243 Y478.999
G01 X118.786 Y483.298
G01 X119.112 Y487.611
G01 X119.221 Y491.927
G01 X119.112 Y496.234
G01 X118.786 Y500.522
G01 X118.245 Y504.781
G01 X117.490 Y509.000
G01 X116.525 Y513.168
G01 X115.352 Y517.275
G01 X113.974 Y521.311
G01 X112.395 Y525.266
G01 X110.620 Y529.130
G01 X108.655 Y532.894
G01 X106.503 Y536.549
G01 X104.170 Y540.085
G01 X101.664 Y543.495
G01 X98.991 Y546.769
G01 X96.157 Y549.900
G01 X93.171 Y552.879
G01 X90.039 Y555.701
G01 X86.771 Y558.358
G01 X83.373 Y560.843
G01 X79.856 Y563.151
G01 X76.228 Y565.276
G01 X72.499 Y567.213
G01 X68.677 Y568.957
G01 X64.773 Y570.505
G01 X60.797 Y571.852
G01 X56.758 Y572.996
G01 X52.667 Y573.933
G01 X48.534 Y574.662
G01 X44.369 Y575.181
G01 X40.183 Y575.489
G01 X35.986 Y575.586
G01 X31.789 Y575.470
G01 X27.602 Y575.143
G01 X23.436 Y574.605
G01 X19.301 Y573.859
G01 X15.207 Y572.906
G01 X11.164 Y571.748
G01 X7.182 Y570.388
G01 X5.000 Y569.519
G01 X5.000 Y407.912
G01 X8.486 Y406.508
G01 X12.438 Y405.133
G01 X16.445 Y403.950
G01 X20.498 Y402.964
G01 X24.587 Y402.174
G01 X28.701 Y401.584
G01 X32.831 Y401.193
G01 X36.968 Y401.001
G01 X41.100 Y401.010
G01 X45.219 Y401.217
G01 X49.314 Y401.623
G01 X53.377 Y402.225
G01 X57.396 Y403.022
G01 X61.363 Y404.010
G01 X65.269 Y405.187
G01 X69.104 Y406.550
G01 X72.859 Y408.094
G01 X76.525 Y409.815
G01 X80.095 Y411.709
G01 X83.558 Y413.770
G01 X86.909 Y415.992
G01 X90.138 Y418.371
G01 X93.239 Y420.898
G01 X96.204 Y423.569
G01 X99.026 Y426.375
G01 X101.700 Y429.309
G01 X104.219 Y432.365
G01 X106.577 Y435.533
G01 X108.770 Y438.806
G01 X110.792 Y442.175
G01 X112.639 Y445.632
G01 X114.308 Y449.168
G01 X115.794 Y452.773
G01 X117.095 Y456.439
G01 X118.208 Y460.157
G01 X119.131 Y463.917
G01 X119.863 Y467.709
G01 X120.401 Y471.525
G01 X120.746 Y475.354
G01 X120.897 Y479.186
G01 X120.854 Y483.013
G01 X120.618 Y486.825
G01 X120.191 Y490.612
G01 X119.574 Y494.365
G01 X118.768 Y498.075
G01 X117.777 Y501.732
G01 X116.604 Y505.327
G01 X115.252 Y508.852
G01 X113.724 Y512.298
G01 X112.026 Y515.656
G01 X110.162 Y518.918
G01 X108.137 Y522.076
G01 X105.956 Y525.122
G01 X103.625 Y528.050
G01 X101.151 Y530.851
G01 X98.540 Y533.520
G01 X95.799 Y536.049
G01 X92.936 Y538.432
G01 X89.956 Y540.664
G01 X86.869 Y542.740
G01 X83.682 Y544.654
G01 X80.404 Y546.402
G01 X77.043 Y547.979
G01 X73.606 Y549.382
G01 X70.105 Y550.608
G01 X66.546 Y551.654
G01 X62.939 Y552.517
G01 X59.294 Y553.196
G01 X55.619 Y553.689
G01 X51.923 Y553.994
G01 X48.217 Y554.112
G01 X44.509 Y554.041
G01 X40.808 Y553.784
G01 X37.124 Y553.339
G01 X33.466 Y552.710
G01 X29.844 Y551.896
G01 X26.265 Y550.901
G01 X22.739 Y549.726
G01 X19.274 Y548.376
G01 X15.880 Y546.853
G01 X12.564 Y545.161
G01 X9.335 Y543.304
G01 X6.201 Y541.288
G01 X5.000 Y540.428
G01 X5.000 Y414.480
G01 X6.561 Y413.337
G01 X9.672 Y411.280
G01 X12.874 Y409.376
G01 X16.158 Y407.630
G01 X19.517 Y406.045
G01 X22.942 Y404.624
G01 X26.426 Y403.371
G01 X29.959 Y402.287
G01 X33.533 Y401.376
G01 X37.140 Y400.638
G01 X40.771 Y400.075
G01 X44.418 Y399.687
G01 X48.071 Y399.475
G01 X51.722 Y399.439
G01 X55.362 Y399.578
G01 X58.983 Y399.892
G01 X62.576 Y400.379
G01 X66.133 Y401.037
G01 X69.645 Y401.864
G01 X73.104 Y402.857
G01 X76.503 Y404.014
G01 X79.832 Y405.331
G01 X83.084 Y406.805
G01 X86.252 Y408.430
G01 X89.329 Y410.203
G01 X92.307 Y412.119
G01 X95.180 Y414.173
G01 X97.940 Y416.359
G01 X100.582 Y418.671
G01 X103.100 Y421.103
G01 X105.489 Y423.648
G01 X107.742 Y426.301
G01 X109.855 Y429.054
G01 X111.823 Y431.900
G01 X113.642 Y434.832
G01 X115.308 Y437.841
G01 X116.818 Y440.921
G01 X118.169 Y444.063
G01 X119.357 Y447.260
G01 X120.381 Y450.503
G01 X121.238 Y453.784
G01 X121.928 Y457.095
G01 X122.448 Y460.428
G01 X122.799 Y463.773
G01 X122.980 Y467.123
G01 X122.992 Y470.469
G01 X122.834 Y473.803
G01 X122.508 Y477.117
G01 X122.015 Y480.402
G01 X121.358 Y483.650
G01 X120.537 Y486.853
G01 X119.557 Y490.003
G01 X118.420 Y493.093
G01 X117.128 Y496.114
G01 X115.687 Y499.060
G01 X114.100 Y501.923
G01 X112.371 Y504.696
G01 X110.505 Y507.372
G01 X108.508 Y509.946
G01 X106.385 Y512.409
G01 X104.141 Y514.757
G01 X101.782 Y516.984
G01 X99.315 Y519.085
G01 X96.747 Y521.054
G01 X94.083 Y522.887
G01 X91.331 Y524.579
G01 X88.498 Y526.127
G01 X85.591 Y527.526
G01 X82.619 Y528.774
G01 X79.587 Y529.867
G01 X76.505 Y530.803
G01 X73.380 Y531.580
G01 X70.220 Y532.196
G01 X67.034 Y532.650
G01 X63.828 Y532.941
G01 X60.611 Y533.068
G01 X57.392 Y533.031
G01 X54.179 Y532.831
G01 X50.979 Y532.467
G01 X47.800 Y531.942
G01 X44.651 Y531.256
G01 X41.539 Y530.411
G01 X38.472 Y529.410
G01 X35.458 Y528.256
G01 X32.505 Y526.950
G01 X29.618 Y525.497
G01 X26.806 Y523.900
G01 X24.076 Y522.163
G01 X21.434 Y520.291
G01 X18.886 Y518.288
G01 X16.439 Y516.159
G01 X14.100 Y513.910
G01 X11.873 Y511.545
G01 X9.763 Y509.072
G01 X7.777 Y506.495
G01 X5.919 Y503.822
G01 X5.000 Y502.351
G01 X5.000 Y431.007
G01 X5.908 Y429.529
G01 X7.751 Y426.825
G01 X9.720 Y424.214
G01 X11.808 Y421.701
G01 X14.012 Y419.292
G01 X16.324 Y416.993
G01 X18.741 Y414.808
G01 X21.256 Y412.744
G01 X23.862 Y410.803
G01 X26.554 Y408.990
G01 X29.325 Y407.310
G01 X32.168 Y405.765
G01 X35.077 Y404.360
G01 X38.043 Y403.096
G01 X41.061 Y401.977
G01 X44.123 Y401.004
G01 X47.221 Y400.180
G01 X50.348 Y399.505
G01 X53.497 Y398.982
G01 X56.660 Y398.610
G01 X59.830 Y398.390
G01 X62.999 Y398.322
G01 X66.160 Y398.405
G01 X69.305 Y398.639
G01 X72.427 Y399.023
G01 X75.518 Y399.554
G01 X78.571 Y400.232
G01 X81.580 Y401.054
G01 X84.536 Y402.017
G01 X87.434 Y403.118
G01 X90.267 Y404.355
G01 X93.028 Y405.723
G01 X95.710 Y407.219
G01 X98.308 Y408.839
G01 X100.816 Y410.577
G01 X103.228 Y412.430
G01 X105.539 Y414.393
G01 X107.743 Y416.459
G01 X109.837 Y418.624
G01 X111.814 Y420.882
G01 X113.671 Y423.226
G01 X115.404 Y425.652
G01 X117.009 Y428.152
G01 X118.483 Y430.719
G01 X119.823 Y433.348
G01 X121.026 Y436.032
G01 X122.089 Y438.763
G01 X123.012 Y441.534
G01 X123.791 Y444.339
G01 X124.427 Y447.171
G01 X124.917 Y450.021
G01 X125.262 Y452.884
G01 X125.460 Y455.751
G01 X125.513 Y458.616
G01 X125.421 Y461.471
G01 X125.184 Y464.310
G01 X124.804 Y467.124
G01 X124.282 Y469.908
G01 X123.621 Y472.654
G01 X122.821 Y475.355
G01 X121.887 Y478.005
G01 X120.821 Y480.597
G01 X119.625 Y483.125
G01 X118.304 Y485.583
G01 X116.862 Y487.964
G01 X115.301 Y490.263
G01 X113.628 Y492.474
G01 X111.846 Y494.591
G01 X109.960 Y496.611
G01 X107.975 Y498.527
G01 X105.897 Y500.335
G01 X103.732 Y502.031
G01 X101.484 Y503.611
G01 X99.161 Y505.071
G01 X96.767 Y506.408
G01 X94.310 Y507.618
G01 X91.796 Y508.699
G01 X89.231 Y509.648
G01 X86.622 Y510.463
G01 X83.975 Y511.142
G01 X81.299 Y511.683
G01 X78.598 Y512.086
G01 X75.881 Y512.350
G01 X73.153 Y512.474
G01 X70.423 Y512.458
G01 X67.697 Y512.303
G01 X64.982 Y512.008
G01 X62.285 Y511.575
G01 X59.612 Y511.005
G01 X56.970 Y510.299
G01 X54.366 Y509.460
G01 X51.807 Y508.490
G01 X49.298 Y507.391
G01 X46.846 Y506.165
G01 X44.457 Y504.817
G01 X42.137 Y503.349
G01 X39.891 Y501.766
G01 X37.726 Y500.071
G01 X35.646 Y498.268
G01 X33.657 Y496.363
G01 X31.763 Y494.359
G01 X29.969 Y492.262
G01 X28.279 Y490.076
G01 X26.698 Y487.808
G01 X25.229 Y485.463
G01 X23.876 Y483.046
G01 X22.641 Y480.564
G01 X21.529 Y478.022
G01 X20.541 Y475.427
G01 X19.680 Y472.785
G01 X18.948 Y470.102
G01 X18.346 Y467.384
G01 X17.877 Y464.640
G01 X17.540 Y461.874
G01 X17.336 Y459.093
G01 X17.267 Y456.305
G01 X17.331 Y453.516
G01 X17.529 Y450.732
G01 X17.861 Y447.960
G01 X18.324 Y445.206
G01 X18.918 Y442.477
G01 X19.642 Y439.780
G01 X20.492 Y437.121
G01 X21.468 Y434.505
G01 X22.567 Y431.939
G01 X23.786 Y429.429
G01 X25.121 Y426.981
G01 X26.570 Y424.600
G01 X28.129 Y422.291
G01 X29.794 Y420.061
G01 X31.561 Y417.913
G01 X33.425 Y415.853
G01 X35.383 Y413.886
G01 X37.428 Y412.015
G01 X39.556 Y410.244
G01 X41.763 Y408.578
G01 X44.042 Y407.021
G01 X46.388 Y405.575
G01 X48.795 Y404.243
G01 X51.258 Y403.028
G01 X53.770 Y401.933
G01 X56.326 Y400.960
G01 X58.920 Y400.110
G01 X61.545 Y399.385
G01 X64.194 Y398.787
G01 X66.863 Y398.315
G01 X69.544 Y397.972
G01 X72.230 Y397.756
G01 X74.917 Y397.668
G01 X77.597 Y397.708
G01 X80.264 Y397.875
G01 X82.912 Y398.168
G01 X85.535 Y398.585
G01 X88.126 Y399.126
G01 X90.680 Y399.787
G01 X93.191 Y400.568
G01 X95.652 Y401.465
G01 X98.059 Y402.476
G01 X100.406 Y403.598
G01 X102.688 Y404.827
G01 X104.899 Y406.160
G01 X107.035 Y407.594
G01 X109.090 Y409.124
G01 X111.061 Y410.745
G01 X112.943 Y412.455
G01 X114.731 Y414.247
G01 X116.423 Y416.118
G01 X118.014 Y418.061
G01 X119.501 Y420.073
G01 X120.881 Y422.147
G01 X122.151 Y424.279
G01 X123.310 Y426.462
G01 X124.353 Y428.691
G01 X125.280 Y430.960
G01 X126.089 Y433.263
G01 X126.779 Y435.595
G01 X127.348 Y437.949
G01 X127.796 Y440.320
G01 X128.121 Y442.701
G01 X128.325 Y445.086
G01 X128.407 Y447.469
G01 X128.368 Y449.845
G01 X128.208 Y452.207
G01 X127.928 Y454.549
G01 X127.530 Y456.865
G01 X127.015 Y459.151
G01 X126.385 Y461.399
G01 X125.642 Y463.605
G01 X124.789 Y465.763
G01 X123.828 Y467.868
G01 X122.763 Y469.914
G01 X121.596 Y471.896
G01 X120.331 Y473.810
G01 X118.971 Y475.652
G01 X117.521 Y477.415
G01 X115.984 Y479.098
G01 X114.365 Y480.694
G01 X112.668 Y482.201
G01 X110.898 Y483.614
G01 X109.059 Y484.931
G01 X107.158 Y486.149
G01 X105.197 Y487.264
G01 X103.184 Y488.274
G01 X101.123 Y489.176
G01 X99.020 Y489.969
G01 X96.880 Y490.651
G01 X94.709 Y491.220
G01 X92.513 Y491.675
G01 X90.296 Y492.016
G01 X88.066 Y492.240
G01 X85.827 Y492.349
G01 X83.586 Y492.342
G01 X81.347 Y492.219
G01 X79.118 Y491.981
G01 X76.903 Y491.628
G01 X74.709 Y491.162
G01 X72.540 Y490.583
G01 X70.402 Y489.894
G01 X68.301 Y489.097
G01 X66.241 Y488.192
G01 X64.229 Y487.184
G01 X62.268 Y486.073
G01 X60.365 Y484.864
G01 X58.522 Y483.560
G01 X56.746 Y482.163
G01 X55.041 Y480.677
G01 X53.410 Y479.106
G01 X51.858 Y477.454
G01 X50.388 Y475.724
G01 X49.004 Y473.922
G01 X47.710 Y472.052
G01 X46.508 Y470.118
G01 X45.401 Y468.125
G01 X44.393 Y466.078
G01 X43.484 Y463.982
G01 X42.679 Y461.842
G01 X41.977 Y459.663
G01 X41.382 Y457.451
G01 X40.894 Y455.211
G01 X40.514 Y452.947
G01 X40.244 Y450.667
G01 X40.083 Y448.374
G01 X40.032 Y446.075
G01 X40.092 Y443.775
G01 X40.261 Y441.479
G01 X40.539 Y439.193
G01 X40.926 Y436.922
G01 X41.420 Y434.672
G01 X42.020 Y432.447
G01 X42.725 Y430.254
G01 X43.532 Y428.096
G01 X44.440 Y425.979
G01 X45.446 Y423.908
G01 X46.548 Y421.888
G01 X47.742 Y419.922
G01 X49.027 Y418.016
G01 X50.398 Y416.174
G01 X51.853 Y414.399
G01 X53.387 Y412.697
G01 X54.997 Y411.069
G01 X56.679 Y409.521
G01 X58.429 Y408.055
G01 X60.242 Y406.674
G01 X62.115 Y405.382
G01 X64.042 Y404.181
G01 X66.020 Y403.073
G01 X68.042 Y402.060
G01 X70.105 Y401.145
G01 X72.203 Y400.330
G01 X74.332 Y399.615
G01 X76.486 Y399.001
G01 X78.661 Y398.491
G01 X80.850 Y398.084
G01 X83.050 Y397.781
G01 X85.254 Y397.582
G01 X87.458 Y397.487
G01 X89.657 Y397.496
G01 X91.845 Y397.608
G01 X94.017 Y397.822
G01 X96.168 Y398.138
G01 X98.294 Y398.553
G01 X100.390 Y399.066
G01 X102.450 Y399.676
G01 X104.471 Y400.381
G01 X106.447 Y401.177
G01 X108.374 Y402.064
G01 X110.249 Y403.037
G01 X112.066 Y404.094
G01 X113.821 Y405.233
G01 X115.512 Y406.449
G01 X117.134 Y407.740
G01 X118.684 Y409.101
G01 X120.159 Y410.529
G01 X121.555 Y412.020
G01 X122.870 Y413.570
G01 X124.101 Y415.175
G01 X125.245 Y416.830
G01 X126.301 Y418.531
G01 X127.266 Y420.274
G01 X128.139 Y422.053
G01 X128.918 Y423.864
G01 X129.602 Y425.703
G01 X130.189 Y427.565
G01 X130.679 Y429.444
G01 X131.072 Y431.336
G01 X131.367 Y433.237
G01 X131.563 Y435.140
G01 X131.662 Y437.042
G01 X131.663 Y438.937
G01 X131.567 Y440.821
G01 X131.375 Y442.689
G01 X131.088 Y444.537
G01 X130.708 Y446.358
G01 X130.235 Y448.150
G01 X129.673 Y449.908
G01 X129.021 Y451.627
G01 X128.284 Y453.303
G01 X127.463 Y454.931
G01 X126.561 Y456.509
G01 X125.581 Y458.032
G01 X124.525 Y459.496
G01 X123.397 Y460.898
G01 X122.200 Y462.235
G01 X120.937 Y463.502
G01 X119.613 Y464.698
G01 X118.231 Y465.820
G01 X116.794 Y466.864
G01 X115.307 Y467.829
G01 X113.774 Y468.711
G01 X112.199 Y469.510
G01 X110.586 Y470.223
G01 X108.940 Y470.849
G01 X107.265 Y471.387
G01 X105.566 Y471.834
G01 X103.847 Y472.191
G01 X102.112 Y472.456
G01 X100.367 Y472.630
G01 X98.615 Y472.711
G01 X96.862 Y472.701
G01 X95.112 Y472.598
G01 X93.369 Y472.404
G01 X91.638 Y472.119
G01 X89.924 Y471.745
G01 X88.230 Y471.282
G01 X86.561 Y470.731
G01 X84.922 Y470.094
G01 X83.316 Y469.373
G01 X81.748 Y468.570
G01 X80.221 Y467.687
G01 X78.740 Y466.726
G01 X77.308 Y465.689
G01 X75.928 Y464.580
G01 X74.604 Y463.402
G01 X73.340 Y462.156
G01 X72.138 Y460.847
G01 X71.001 Y459.477
G01 X69.932 Y458.050
G01 X68.934 Y456.570
G01 X68.009 Y455.041
G01 X67.159 Y453.465
G01 X66.387 Y451.847
G01 X65.693 Y450.192
G01 X65.081 Y448.502
G01 X64.550 Y446.782
G01 X64.103 Y445.037
G01 X63.741 Y443.269
G01 X63.463 Y441.485
G01 X63.271 Y439.687
G01 X63.165 Y437.881
G01 X63.146 Y436.070
G01 X63.212 Y434.259
G01 X63.365 Y432.452
G01 X63.602 Y430.654
G01 X63.925 Y428.867
G01 X64.331 Y427.098
G01 X64.820 Y425.348
G01 X65.390 Y423.624
G01 X66.040 Y421.928
G01 X66.768 Y420.265
G01 X67.573 Y418.638
G01 X68.451 Y417.051
G01 X69.402 Y415.507
G01 X70.423 Y414.010
G01 X71.510 Y412.564
G01 X72.662 Y411.170
G01 X73.875 Y409.833
G01 X75.147 Y408.554
G01 X76.474 Y407.338
G01 X77.853 Y406.186
G01 X79.281 Y405.100
G01 X80.755 Y404.083
G01 X82.270 Y403.137
G01 X83.823 Y402.264
G01 X85.411 Y401.465
G01 X87.029 Y400.742
G01 X88.674 Y400.095
G01 X90.341 Y399.527
G01 X92.028 Y399.037
G01 X93.730 Y398.627
G01 X95.442 Y398.297
G01 X97.162 Y398.047
G01 X98.884 Y397.877
G01 X100.606 Y397.788
G01 X102.322 Y397.778
G01 X104.030 Y397.847
G01 X105.725 Y397.995
G01 X107.403 Y398.221
G01 X109.061 Y398.523
G01 X110.694 Y398.900
G01 X112.300 Y399.351
G01 X113.875 Y399.875
G01 X115.415 Y400.468
G01 X116.917 Y401.130
G01 X118.377 Y401.858
G01 X119.793 Y402.650
G01 X121.162 Y403.504
G01 X122.480 Y404.416
G01 X123.746 Y405.385
G01 X124.955 Y406.407
G01 X126.107 Y407.479
G01 X127.198 Y408.599
G01 X128.227 Y409.763
G01 X129.191 Y410.968
G01 X130.089 Y412.211
G01 X130.919 Y413.487
G01 X131.680 Y414.795
G01 X132.371 Y416.130
G01 X132.990 Y417.488
G01 X133.536 Y418.866
G01 X134.009 Y420.260
G01 X134.408 Y421.667
G01 X134.734 Y423.083
G01 X134.985 Y424.505
G01 X135.162 Y425.927
G01 X135.264 Y427.348
G01 X135.293 Y428.762
G01 X135.249 Y430.168
G01 X135.133 Y431.560
G01 X134.945 Y432.935
G01 X134.687 Y434.291
G01 X134.360 Y435.623
G01 X133.965 Y436.928
G01 X133.505 Y438.204
G01 X132.979 Y439.446
G01 X132.392 Y440.652
G01 X131.744 Y441.818
G01 X131.038 Y442.943
G01 X130.276 Y444.023
G01 X129.460 Y445.056
G01 X128.594 Y446.038
G01 X127.679 Y446.969
G01 X126.719 Y447.845
G01 X125.716 Y448.665
G01 X124.674 Y449.427
G01 X123.595 Y450.128
G01 X122.482 Y450.768
G01 X121.339 Y451.345
G01 X120.169 Y451.858
G01 X118.975 Y452.306
G01 X117.761 Y452.687
G01 X116.530 Y453.001
G01 X115.285 Y453.247
G01 X114.029 Y453.426
G01 X112.767 Y453.536
G01 X111.501 Y453.578
G01 X110.236 Y453.552
G01 X108.973 Y453.457
G01 X107.717 Y453.296
G01 X106.471 Y453.067
G01 X105.239 Y452.772
G01 X104.022 Y452.412
G01 X102.826 Y451.987
G01 X101.652 Y451.500
G01 X100.504 Y450.951
G01 X99.385 Y450.342
G01 X98.297 Y449.675
G01 X97.243 Y448.951
G01 X96.227 Y448.172
G01 X95.250 Y447.341
G01 X94.315 Y446.459
G01 X93.425 Y445.529
G01 X92.581 Y444.554
G01 X91.786 Y443.535
G01 X91.041 Y442.476
G01 X90.349 Y441.378
G01 X89.710 Y440.246
G01 X89.128 Y439.081
G01 X88.602 Y437.886
G01 X88.134 Y436.665
G01 X87.726 Y435.420
G01 X87.378 Y434.155
G01 X87.091 Y432.872
G01 X86.865 Y431.575
G01 X86.701 Y430.267
G01 X86.600 Y428.950
G01 X86.561 Y427.629
G01 X86.585 Y426.305
G01 X86.671 Y424.983
G01 X86.818 Y423.664
G01 X87.028 Y422.354
G01 X87.298 Y421.053
G01 X87.628 Y419.766
G01 X88.018 Y418.495
G01 X88.465 Y417.243
G01 X88.970 Y416.013
G01 X89.530 Y414.808
G01 X90.144 Y413.630
G01 X90.811 Y412.481
G01 X91.528 Y411.366
G01 X92.295 Y410.284
G01 X93.109 Y409.240
G01 X93.967 Y408.235
G01 X94.869 Y407.271
G01 X95.811 Y406.350
G01 X96.792 Y405.474
G01 X97.809 Y404.645
G01 X98.859 Y403.864
G01 X99.940 Y403.133
G01 X101.050 Y402.453
G01 X102.185 Y401.825
G01 X103.343 Y401.251
G01 X104.522 Y400.730
G01 X105.718 Y400.264
G01 X106.928 Y399.854
G01 X108.151 Y399.500
G01 X109.382 Y399.203
G01 X110.620 Y398.961
G01 X111.861 Y398.777
G01 X113.102 Y398.649
G01 X114.342 Y398.577
G01 X115.576 Y398.561
G01 X116.802 Y398.600
G01 X118.018 Y398.694
G01 X119.221 Y398.843
G01 X120.408 Y399.044
G01 X121.576 Y399.297
G01 X122.724 Y399.601
G01 X123.848 Y399.955
G01 X124.947 Y400.357
G01 X126.018 Y400.805
G01 X127.059 Y401.299
G01 X128.067 Y401.836
G01 X129.041 Y402.415
G01 X129.979 Y403.034
G01 X130.880 Y403.690
G01 X131.740 Y404.382
G01 X132.560 Y405.107
G01 X133.337 Y405.864
G01 X134.069 Y406.650
G01 X134.757 Y407.462
G01 X135.398 Y408.299
G01 X135.992 Y409.158
G01 X136.538 Y410.036
G01 X137.035 Y410.931
G01 X137.482 Y411.841
G01 X137.879 Y412.762
G01 X138.226 Y413.693
G01 X138.522 Y414.631
G01 X138.768 Y415.573
G01 X138.963 Y416.516
G01 X139.107 Y417.459
G01 X139.202 Y418.399
G01 X139.246 Y419.333
G01 X139.242 Y420.259
G01 X139.188 Y421.174
G01 X139.088 Y422.076
G01 X138.940 Y422.962
G01 X138.746 Y423.831
G01 X138.507 Y424.681
G01 X138.225 Y425.508
G01 X137.901 Y426.312
G01 X137.535 Y427.089
G01 X137.131 Y427.839
G01 X136.688 Y428.559
G01 X136.210 Y429.248
G01 X135.697 Y429.903
G01 X135.152 Y430.524
G01 X134.576 Y431.109
G01 X133.971 Y431.657
G01 X133.340 Y432.166
G01 X132.684 Y432.635
G01 X132.005 Y433.064
G01 X131.306 Y433.451
G01 X130.589 Y433.796
G01 X129.856 Y434.097
G01 X129.109 Y434.355
G01 X128.351 Y434.569
G01 X127.584 Y434.738
G01 X126.810 Y434.862
G01 X126.031 Y434.942
G01 X125.249 Y434.977
G01 X124.468 Y434.967
G01 X123.688 Y434.913
G01 X122.913 Y434.814
G01 X122.144 Y434.672
G01 X121.384 Y434.487
G01 X120.635 Y434.260
G01 X119.898 Y433.990
G01 X119.176 Y433.680
G01 X118.471 Y433.331
G01 X117.784 Y432.942
G01 X117.118 Y432.516
G01 X116.474 Y432.053
G01 X115.854 Y431.555
G01 X115.260 Y431.024
G01 X114.693 Y430.460
G01 X114.154 Y429.866
G01 X113.645 Y429.243
G01 X113.167 Y428.592
G01 X112.722 Y427.915
G01 X112.310 Y427.215
G01 X111.933 Y426.492
G01 X111.591 Y425.749
G01 X111.285 Y424.987
G01 X111.016 Y424.210
G01 X110.785 Y423.417
G01 X110.592 Y422.612
G01 X110.437 Y421.796
G01 X110.321 Y420.972
G01 X110.244 Y420.141
G01 X110.206 Y419.306
G01 X110.208 Y418.468
G01 X110.248 Y417.629
G01 X110.327 Y416.791
G01 X110.444 Y415.957
G01 X110.599 Y415.127
G01 X110.792 Y414.305
G01 X111.023 Y413.491
G01 X111.289 Y412.689
G01 X111.591 Y411.898
G01 X111.928 Y411.122
G01 X112.298 Y410.361
G01 X112.702 Y409.618
G01 X113.137 Y408.893
G01 X113.603 Y408.189
G01 X114.098 Y407.507
G01 X114.622 Y406.847
G01 X115.172 Y406.212
G01 X115.748 Y405.603
G01 X116.347 Y405.020
G01 X116.969 Y404.465
G01 X117.612 Y403.939
G01 X118.275 Y403.442
G01 X118.955 Y402.975
G01 X119.651 Y402.540
G01 X120.362 Y402.136
G01 X121.085 Y401.764
G01 X121.820 Y401.425
G01 X122.564 Y401.118
G01 X123.316 Y400.845
G01 X124.073 Y400.605
G01 X124.835 Y400.398
G01 X125.599 Y400.225
G01 X126.364 Y400.085
G01 X127.129 Y399.978
G01 X127.890 Y399.904
G01 X128.648 Y399.862
G01 X129.400 Y399.852
G01 X130.144 Y399.874
G01 X130.880 Y399.927
G01 X131.605 Y400.010
G01 X132.319 Y400.122
G01 X133.019 Y400.264
G01 X133.705 Y400.433
G01 X134.375 Y400.629
G01 X135.027 Y400.851
G01 X135.662 Y401.097
G01 X136.277 Y401.368
G01 X136.871 Y401.661
G01 X137.444 Y401.975
G01 X137.995 Y402.310
G01 X138.522 Y402.663
G01 X139.025 Y403.034
G01 X139.504 Y403.422
G01 X139.957 Y403.824
G01 X140.384 Y404.239
G01 X140.785 Y404.666
G01 X141.159 Y405.104
G01 X141.506 Y405.552
G01 X141.825 Y406.006
G01 X142.117 Y406.467
G01 X142.381 Y406.933
G01 X142.617 Y407.402
G01 X142.826 Y407.873
G01 X143.007 Y408.345
G01 X143.160 Y408.815
G01 X143.287 Y409.284
G01 X143.387 Y409.748
G01 X143.460 Y410.207
G01 X143.508 Y410.661
G01 X143.530 Y411.106
G01 X143.528 Y411.543
G01 X143.501 Y411.969
G01 X143.452 Y412.385
G01 X143.379 Y412.788
G01 X143.285 Y413.178
G01 X143.169 Y413.553
G01 X143.034 Y413.914
G01 X142.880 Y414.258
G01 X142.708 Y414.585
G01 X142.518 Y414.894
G01 X142.313 Y415.184
G01 X142.092 Y415.456
G01 X141.858 Y415.707
G01 X141.612 Y415.938
G01 X141.354 Y416.149
G01 X141.085 Y416.338
G01 X140.808 Y416.506
G01 X140.522 Y416.652
G01 X140.230 Y416.775
G01 X139.933 Y416.877
G01 X139.631 Y416.956
G01 X139.326 Y417.013
G01 X139.019 Y417.048
G01 X138.712 Y417.061
G01 X138.404 Y417.051
G01 X138.099 Y417.020
G01 X137.796 Y416.968
G01 X137.496 Y416.894
G01 X137.202 Y416.800
G01 X136.914 Y416.685
G01 X136.632 Y416.550
G01 X136.358 Y416.397
G01 X136.093 Y416.224
G01 X135.838 Y416.034
G01 X135.593 Y415.827
G01 X135.359 Y415.602
G01 X135.138 Y415.363
G01 X134.929 Y415.108
G01 X134.734 Y414.838
G01 X134.552 Y414.556
G01 X134.386 Y414.261
G01 X134.234 Y413.954
G01 X134.098 Y413.637
G01 X133.978 Y413.310
G01 X133.874 Y412.975
G01 X133.787 Y412.631
G01 X133.717 Y412.281
G01 X133.664 Y411.925
G01 X133.628 Y411.564
G01 X133.609 Y411.199
G01 X133.608 Y410.831
G01 X133.623 Y410.461
G01 X133.656 Y410.091
G01 X133.706 Y409.720
G01 X133.773 Y409.349
G01 X133.856 Y408.981
G01 X133.955 Y408.615
G01 X134.071 Y408.252
G01 X134.202 Y407.894
G01 X134.348 Y407.541
G01 X134.509 Y407.193
G01 X134.684 Y406.853
G01 X134.873 Y406.519
G01 X135.076 Y406.193
G01 X135.290 Y405.876
G01 X135.517 Y405.568
G01 X135.755 Y405.270
G01 X136.003 Y404.982
G01 X136.262 Y404.704
G01 X136.530 Y404.438
G01 X136.806 Y404.183
G01 X137.090 Y403.940
G01 X137.380 Y403.708
G01 X137.677 Y403.489
G01 X137.980 Y403.283
G01 X138.287 Y403.089
G01 X138.598 Y402.908
G01 X138.912 Y402.740
G01 X139.229 Y402.584
G01 X139.547 Y402.441
G01 X139.866 Y402.311
G01 X140.185 Y402.193
G01 X140.503 Y402.088
G01 X140.820 Y401.994
G01 X141.135 Y401.913
G01 X141.447 Y401.844
G01 X141.756 Y401.785
G01 X142.061 Y401.738
G01 X142.361 Y401.701
G01 X142.656 Y401.674
G01 X142.946 Y401.657
G01 X143.229 Y401.649
G01 X143.506 Y401.650
G01 X143.776 Y401.659
G01 X144.038 Y401.676
G01 X144.292 Y401.699
G01 X144.539 Y401.730
G01 X144.776 Y401.766
G01 X145.006 Y401.807
G01 X145.226 Y401.853
G01 X145.437 Y401.903
G01 X145.639 Y401.956
G01 X145.832 Y402.012
G01 X146.015 Y402.071
G01 X146.190 Y402.131
G01 X146.354 Y402.191
G01 X146.510 Y402.252
G01 X146.657 Y402.313
G01 X146.794 Y402.372
G01 X146.923 Y402.430
G01 X147.044 Y402.486
G01 X147.156 Y402.539
G01 X147.260 Y402.589
G01 X147.356 Y402.636
G01 X147.445 Y402.678
G01 X147.527 Y402.715
G01 X147.603 Y402.748
G01 X147.672 Y402.775
G01 X147.736 Y402.796
G01 X147.794 Y402.811
G01 X147.848 Y402.820
G01 X147.898 Y402.821
G01 X147.944 Y402.816
G01 X147.987 Y402.804
G01 X148.027 Y402.784
G01 X148.065 Y402.757
G01 X148.102 Y402.722
G01 X148.138 Y402.679
G01 X148.173 Y402.629
G01 X148.209 Y402.571
G01 X148.245 Y402.506
G01 X148.283 Y402.433
G01 X148.323 Y402.352
G01 X148.365 Y402.265
G01 X148.411 Y402.170
G01 X148.459 Y402.069
G01 X148.512 Y401.961
G01 X148.569 Y401.847
G01 X148.632 Y401.727
G01 X148.699 Y401.601
G01 X148.772 Y401.471
G01 X148.852 Y401.335
G01 X148.938 Y401.196
G01 X149.031 Y401.052
G01 X149.131 Y400.906
G01 X149.239 Y400.756
G01 X149.354 Y400.604
G01 X149.477 Y400.451
G01 X149.608 Y400.296
G01 X149.748 Y400.141
G01 X149.895 Y399.985
G01 X150.051 Y399.830
G01 X150.216 Y399.677
G01 X150.389 Y399.525
G01 X150.570 Y399.375
G01 X150.759 Y399.228
G01 X150.956 Y399.085
G01 X151.161 Y398.946
G01 X151.374 Y398.811
G01 X151.594 Y398.682
G01 X151.822 Y398.559
G01 X152.056 Y398.442
G01 X152.297 Y398.331
G01 X152.544 Y398.228
G01 X152.796 Y398.133
G01 X153.054 Y398.046
G01 X153.316 Y397.967
G01 X153.583 Y397.898
G01 X153.853 Y397.838
G01 X154.127 Y397.788
G01 X154.403 Y397.748
G01 X154.681 Y397.718
G01 X154.960 Y397.698
G01 X155.240 Y397.690
G01 X155.520 Y397.692
G01 X155.799 Y397.705
G01 X156.077 Y397.729
G01 X156.353 Y397.765
G01 X156.626 Y397.811
G01 X156.895 Y397.869
G01 X157.160 Y397.937
G01 X157.421 Y398.016
G01 X157.676 Y398.106
G01 X157.924 Y398.206
G01 X158.166 Y398.316
G01 X158.400 Y398.436
G01 X158.626 Y398.566
G01 X158.843 Y398.704
G01 X159.050 Y398.851
G01 X159.247 Y399.006
G01 X159.433 Y399.169
G01 X159.608 Y399.339
G01 X159.772 Y399.515
G01 X159.923 Y399.698
G01 X160.061 Y399.885
G01 X160.186 Y400.077
G01 X160.298 Y400.273
G01 X160.396 Y400.472
G01 X160.479 Y400.673
G01 X160.548 Y400.876
G01 X160.602 Y401.079
G01 X160.642 Y401.283
G01 X160.666 Y401.485
G01 X160.676 Y401.686
G01 X160.670 Y401.884
G01 X160.649 Y402.078
G01 X160.613 Y402.268
G01 X160.562 Y402.453
G01 X160.497 Y402.631
G01 X160.416 Y402.803
G01 X160.322 Y402.967
G01 X160.213 Y403.121
G01 X160.091 Y403.267
G01 X159.956 Y403.401
G01 X159.808 Y403.525
G01 X159.648 Y403.636
G01 X159.476 Y403.735
G01 X159.293 Y403.820
G01 X159.099 Y403.891
G01 X158.896 Y403.947
G01 X158.684 Y403.987
G01 X158.464 Y404.011
G01 X158.236 Y404.018
G01 X158.002 Y404.007
G01 X157.762 Y403.979
G01 X157.518 Y403.933
G01 X157.269 Y403.868
G01 X157.018 Y403.784
G01 X156.765 Y403.680
G01 X156.511 Y403.557
G01 X156.258 Y403.415
G01 X156.006 Y403.252
G01 X155.756 Y403.069
G01 X155.510 Y402.867
G01 X155.268 Y402.644
G01 X155.032 Y402.402
G01 X154.803 Y402.140
G01 X154.581 Y401.859
G01 X154.369 Y401.558
G01 X154.167 Y401.238
G01 X153.975 Y400.900
G01 X153.796 Y400.545
G01 X153.630 Y400.171
G01 X153.478 Y399.781
G01 X153.342 Y399.374
G01 X153.221 Y398.952
G01 X153.118 Y398.516
G01 X153.033 Y398.065
G01 X152.966 Y397.601
G01 X152.919 Y397.124
G01 X152.892 Y396.637
G01 X152.887 Y396.139
G01 X152.903 Y395.632
G01 X152.942 Y395.116
G01 X153.003 Y394.594
G01 X153.088 Y394.066
G01 X153.197 Y393.532
G01 X153.331 Y392.996
G01 X153.489 Y392.457
G01 X153.672 Y391.917
G01 X153.880 Y391.378
G01 X154.113 Y390.840
G01 X154.372 Y390.305
G01 X154.656 Y389.774
G01 X154.965 Y389.249
G01 X155.299 Y388.730
G01 X155.658 Y388.220
G01 X156.042 Y387.720
G01 X156.450 Y387.230
G01 X156.882 Y386.753
G01 X157.337 Y386.290
G01 X157.815 Y385.841
G01 X158.315 Y385.408
G01 X158.836 Y384.992
G01 X159.378 Y384.595
G01 X159.939 Y384.218
G01 X160.520 Y383.861
G01 X161.118 Y383.526
G01 X161.733 Y383.214
G01 X162.364 Y382.926
G01 X163.010 Y382.663
G01 X163.669 Y382.425
G01 X164.340 Y382.214
G01 X165.022 Y382.030
G01 X165.713 Y381.874
G01 X166.413 Y381.746
G01 X167.119 Y381.648
G01 X167.831 Y381.579
G01 X168.546 Y381.540
G01 X169.264 Y381.531
G01 X169.982 Y381.553
G01 X170.699 Y381.606
G01 X171.414 Y381.690
G01 X172.125 Y381.804
G01 X172.831 Y381.950
G01 X173.529 Y382.125
G01 X174.218 Y382.332
G01 X174.897 Y382.568
G01 X175.564 Y382.834
G01 X176.218 Y383.130
G01 X176.856 Y383.454
G01 X177.478 Y383.806
G01 X178.081 Y384.185
G01 X178.665 Y384.591
G01 X179.228 Y385.023
G01 X179.769 Y385.479
G01 X180.286 Y385.959
G01 X180.777 Y386.461
G01 X181.243 Y386.985
G01 X181.681 Y387.528
G01 X182.090 Y388.091
G01 X182.469 Y388.670
G01 X182.818 Y389.266
G01 X183.135 Y389.876
G01 X183.420 Y390.499
G01 X183.672 Y391.133
G01 X183.889 Y391.777
G01 X184.072 Y392.429
G01 X184.220 Y393.086
G01 X184.332 Y393.749
G01 X184.408 Y394.414
G01 X184.448 Y395.080
G01 X184.451 Y395.745
