; file trimmed by trimify2x.pl
; Created by Sandify
; 
;   https://sandify.org
; 
;   Sandify Version: 0.1.4
; 
;   Machine Type: Rectangular
;     MinX: 5 MaxX: 710 MinY: 5 MaxY: 1600
;   Content Type: Shapes
;     Starting Size: 300
;     Offset: X: -646 Y: -261
;     Selected Shape: Circle
;       Circle Lobes: 1
;     Number of Loops: 97
;     Spin: true
;       Spin Value: -0.9
;       Spin Switchbacks: 2
;     Grow: true
;       Grow Value: 4.2
;     Track: true
;       Track Size: -28
;       Track Length: 880.7
;       Track Grow: true
;           Track Grow Value: -6
;   Path Reversed: true
;  24:32
; filename: 'mishegoss6'

; BEGIN PRE
G28  Y
G28 X
G01 F30000; END PRE
G01 X710.000 Y94.853
G01 X710.000 Y1600.000
G01 X692.755 Y1600.000
G01 X700.548 Y1582.756
G01 X710.000 Y1576.573
G01 X710.000 Y1600.000
G01 X667.170 Y1600.000
G01 X674.664 Y1580.688
G01 X710.000 Y1562.529
G01 X710.000 Y1600.000
G01 X642.181 Y1600.000
G01 X649.277 Y1579.146
G01 X702.886 Y1554.722
G01 X710.000 Y1540.157
G01 X710.000 Y1600.000
G01 X617.731 Y1600.000
G01 X624.671 Y1578.017
G01 X685.289 Y1550.745
G01 X710.000 Y1490.002
G01 X710.000 Y1600.000
G01 X593.604 Y1600.000
G01 X601.089 Y1577.121
G01 X667.423 Y1545.279
G01 X692.226 Y1471.372
G01 X710.000 Y1461.385
G01 X710.000 Y1600.000
G01 X569.220 Y1600.000
G01 X578.717 Y1576.216
G01 X649.032 Y1538.478
G01 X667.913 Y1470.472
G01 X710.000 Y1450.285
G01 X710.000 Y1600.000
G01 X543.177 Y1600.000
G01 X557.668 Y1575.017
G01 X629.911 Y1530.564
G01 X644.333 Y1470.062
G01 X700.707 Y1443.956
G01 X710.000 Y1418.675
G01 X710.000 Y1600.000
G01 X512.343 Y1600.000
G01 X515.628 Y1596.360
G01 X537.971 Y1573.222
G01 X609.920 Y1521.814
G01 X621.745 Y1469.965
G01 X684.360 Y1439.360
G01 X706.391 Y1363.338
G01 X710.000 Y1361.101
G01 X710.000 Y1600.000
G01 X481.050 Y1600.000
G01 X491.249 Y1586.752
G01 X519.571 Y1570.530
G01 X588.997 Y1512.537
G01 X600.355 Y1469.941
G01 X667.492 Y1433.375
G01 X683.163 Y1363.027
G01 X710.000 Y1349.471
G01 X710.000 Y1600.000
G01 X452.012 Y1600.000
G01 X466.618 Y1577.724
G01 X502.329 Y1566.667
G01 X567.166 Y1503.057
G01 X580.294 Y1469.702
G01 X649.878 Y1426.222
G01 X660.613 Y1363.282
G01 X710.000 Y1339.845
G01 X710.000 Y1600.000
G01 X424.929 Y1600.000
G01 X442.043 Y1569.398
G01 X486.033 Y1561.407
G01 X544.539 Y1493.682
G01 X561.608 Y1468.934
G01 X631.358 Y1418.175
G01 X639.021 Y1363.934
G01 X697.830 Y1334.843
G01 X710.000 Y1286.130
G01 X710.000 Y1600.000
G01 X399.453 Y1600.000
G01 X417.855 Y1561.812
G01 X470.414 Y1554.594
G01 X521.307 Y1484.687
G01 X544.255 Y1467.325
G01 X611.853 Y1409.551
G01 X618.609 Y1364.743
G01 X682.490 Y1329.661
G01 X695.147 Y1257.200
G01 X710.000 Y1249.284
G01 X710.000 Y1600.000
G01 X375.065 Y1600.000
G01 X394.385 Y1554.911
G01 X455.163 Y1546.149
G01 X497.730 Y1476.286
G01 X528.107 Y1464.582
G01 X591.371 Y1400.683
G01 X599.528 Y1365.418
G01 X666.395 Y1323.252
G01 X673.630 Y1258.067
G01 X710.000 Y1240.457
G01 X710.000 Y1600.000
G01 X336.182 Y1600.000
G01 X353.735 Y1592.845
G01 X371.937 Y1548.557
G01 X439.959 Y1536.087
G01 X474.120 Y1468.620
G01 X512.956 Y1460.461
G01 X570.010 Y1391.894
G01 X581.842 Y1365.638
G01 X649.363 Y1315.892
G01 X653.030 Y1259.415
G01 X707.955 Y1232.100
G01 X710.000 Y1222.595
G01 X710.000 Y1600.000
G01 X290.377 Y1600.000
G01 X334.852 Y1577.308
G01 X350.767 Y1542.534
G01 X424.492 Y1524.513
G01 X450.816 Y1461.745
G01 X498.534 Y1454.784
G01 X547.953 Y1383.475
G01 X565.524 Y1365.076
G01 X631.297 Y1307.900
G01 X633.588 Y1261.008
G01 X694.146 Y1227.708
G01 X704.002 Y1153.364
G01 X710.000 Y1149.979
G01 X710.000 Y8.251
G01 X707.688 Y5.000
G01 X710.000 Y5.000 
G01 X710.000 Y1600.000 
G01 X253.630 Y1600.000
G01 X315.082 Y1561.438
G01 X331.063 Y1536.562
G01 X408.486 Y1511.615
G01 X428.161 Y1455.621
G01 X484.527 Y1447.456
G01 X525.458 Y1375.661
G01 X550.457 Y1363.424
G01 X612.187 Y1299.619
G01 X615.475 Y1262.551
G01 X679.574 Y1222.030
G01 X683.516 Y1154.793
G01 X710.000 Y1141.769
G01 X710.000 Y24.601
G01 X704.094 Y17.691
G01 X700.244 Y5.000
G01 X710.000 Y5.000 
G01 X710.000 Y1600.000 
G01 X175.359 Y1600.000
G01 X182.240 Y1591.652
G01 X225.099 Y1598.473
G01 X294.486 Y1545.578
G01 X312.927 Y1530.321
G01 X391.724 Y1497.658
G01 X406.476 Y1450.120
G01 X470.603 Y1438.471
G01 X502.836 Y1368.612
G01 X536.441 Y1360.419
G01 X592.117 Y1291.386
G01 X598.774 Y1263.718
G01 X664.042 Y1215.340
G01 X663.900 Y1156.785
G01 X710.000 Y1133.911
G01 X710.000 Y40.350
G01 X702.609 Y33.106
G01 X702.569 Y5.000
G01 X710.000 Y5.000 
G01 X710.000 Y1600.000 
G01 X144.026 Y1600.000
G01 X159.917 Y1577.684
G01 X211.518 Y1586.734
G01 X273.217 Y1530.049
G01 X296.371 Y1523.477
G01 X374.065 Y1482.958
G01 X386.038 Y1445.032
G01 X456.437 Y1427.920
G01 X480.435 Y1362.401
G01 X523.207 Y1355.861
G01 X571.260 Y1283.510
G01 X583.474 Y1264.167
G01 X647.430 Y1207.962
G01 X645.417 Y1159.111
G01 X702.591 Y1127.876
G01 X709.875 Y1051.883
G01 X710.000 Y1051.808
G01 X710.000 Y55.531
G01 X701.986 Y48.912
G01 X707.340 Y10.580
G01 X703.225 Y5.000
G01 X710.000 Y5.000 
G01 X710.000 Y1600.000 
G01 X115.837 Y1600.000
G01 X138.246 Y1564.608
G01 X198.638 Y1573.397
G01 X251.508 Y1515.124
G01 X281.310 Y1515.700
G01 X355.459 Y1467.867
G01 X367.053 Y1440.078
G01 X441.736 Y1415.983
G01 X458.610 Y1357.006
G01 X510.439 Y1349.634
G01 X549.868 Y1276.243
G01 X569.471 Y1263.577
G01 X629.709 Y1200.245
G01 X628.256 Y1161.477
G01 X689.544 Y1122.917
G01 X690.415 Y1053.820
G01 X710.000 Y1044.091
G01 X710.000 Y70.143
G01 X702.351 Y64.778
G01 X710.000 Y22.179
G01 X710.000 Y16.829
G01 X699.426 Y5.000
G01 X710.000 Y5.000 
G01 X710.000 Y1600.000 
G01 X64.852 Y1600.000
G01 X107.217 Y1592.932
G01 X129.059 Y1555.669
G01 X197.460 Y1561.050
G01 X240.799 Y1502.925
G01 X278.460 Y1507.902
G01 X346.544 Y1453.225
G01 X359.888 Y1434.703
G01 X436.105 Y1401.976
G01 X447.091 Y1350.664
G01 X506.686 Y1339.377
G01 X536.592 Y1266.749
G01 X564.307 Y1257.980
G01 X618.030 Y1188.214
G01 X618.898 Y1158.599
G01 X681.142 Y1111.338
G01 X676.600 Y1050.294
G01 X710.000 Y1033.217
G01 X710.000 Y85.677
G01 X686.751 Y72.165
G01 X694.479 Y16.585
G01 X681.565 Y5.000
G01 X710.000 Y5.000 
G01 X710.000 Y1600.000 
G01 X48.290 Y1600.000
G01 X116.081 Y1580.628
G01 X133.117 Y1551.200
G01 X207.711 Y1550.139
G01 X241.145 Y1493.886
G01 X286.943 Y1500.141
G01 X346.526 Y1439.682
G01 X363.366 Y1428.934
G01 X437.941 Y1386.693
G01 X444.530 Y1343.789
G01 X509.806 Y1325.956
G01 X529.870 Y1256.117
G01 X565.733 Y1248.392
G01 X610.552 Y1173.689
G01 X615.378 Y1151.906
G01 X675.357 Y1095.546
G01 X666.962 Y1043.473
G01 X710.000 Y1018.191
G01 X710.000 Y99.084
G01 X709.752 Y97.643
G01 X666.343 Y76.604
G01 X670.655 Y13.172
G01 X659.159 Y5.000
G01 X5.000 Y5.000
G01 X5.000 Y1597.952
G01 X13.420 Y1591.324
G01 X37.744 Y1600.000
G01 X46.802 Y1600.000
G01 X123.340 Y1568.127
G01 X137.978 Y1547.391
G01 X216.932 Y1538.129
G01 X241.354 Y1486.163
G01 X295.497 Y1491.174
G01 X345.305 Y1427.172
G01 X367.737 Y1422.758
G01 X438.154 Y1371.460
G01 X442.812 Y1337.667
G01 X511.835 Y1311.646
G01 X523.109 Y1246.952
G01 X567.172 Y1237.737
G01 X601.966 Y1160.414
G01 X612.757 Y1144.889
G01 X667.993 Y1080.044
G01 X658.260 Y1037.485
G01 X710.000 Y1001.197
G01 X710.000 Y963.523
G01 X707.006 Y926.577
G01 X710.000 Y924.719
G01 X710.000 Y200.560
G01 X708.884 Y198.803
G01 X706.995 Y178.997
G01 X682.896 Y96.148
G01 X647.081 Y80.788
G01 X645.670 Y10.566
G01 X635.650 Y5.000
G01 X5.000 Y5.000
G01 X5.000 Y1595.717
G01 X17.851 Y1583.022
G01 X54.114 Y1597.991
G01 X128.990 Y1555.795
G01 X143.800 Y1543.926
G01 X224.844 Y1525.254
G01 X241.780 Y1479.678
G01 X303.770 Y1480.938
G01 X343.177 Y1415.917
G01 X372.834 Y1415.864
G01 X436.767 Y1356.644
G01 X442.078 Y1331.970
G01 X512.511 Y1296.701
G01 X516.660 Y1239.151
G01 X568.270 Y1225.974
G01 X592.581 Y1148.590
G01 X610.849 Y1137.246
G01 X659.100 Y1065.198
G01 X650.614 Y1031.992
G01 X706.083 Y984.643
G01 X693.583 Y919.927
G01 X710.000 Y909.917
G01 X710.000 Y232.419
G01 X684.512 Y201.141
G01 X689.759 Y176.699
G01 X655.852 Y96.477
G01 X628.730 Y84.449
G01 X619.646 Y9.109
G01 X609.945 Y5.000
G01 X5.000 Y5.000
G01 X5.000 Y1596.392
G01 X21.654 Y1575.930
G01 X66.157 Y1593.159
G01 X133.127 Y1543.995
G01 X150.648 Y1540.452
G01 X231.240 Y1511.820
G01 X242.742 Y1474.258
G01 X311.399 Y1469.467
G01 X340.484 Y1406.055
G01 X378.405 Y1407.997
G01 X433.903 Y1342.599
G01 X442.372 Y1326.341
G01 X511.648 Y1281.437
G01 X510.831 Y1232.520
G01 X568.671 Y1213.161
G01 X582.754 Y1138.332
G01 X609.390 Y1128.738
G01 X648.824 Y1051.351
G01 X644.050 Y1026.634
G01 X697.777 Y970.027
G01 X680.918 Y914.533
G01 X710.000 Y894.984
G01 X710.000 Y327.315
G01 X696.519 Y318.215
G01 X710.000 Y269.551
G01 X710.000 Y252.005
G01 X661.275 Y204.779
G01 X671.949 Y173.754
G01 X628.996 Y98.667
G01 X610.988 Y87.392
G01 X592.796 Y9.101
G01 X579.647 Y5.000
G01 X5.000 Y5.000
G01 X5.000 Y1600.000
G01 X5.511 Y1600.000
G01 X25.192 Y1570.112
G01 X78.448 Y1587.047
G01 X135.941 Y1533.048
G01 X158.484 Y1536.611
G01 X235.999 Y1498.184
G01 X244.500 Y1469.647
G01 X318.043 Y1456.897
G01 X337.597 Y1397.624
G01 X384.137 Y1398.979
G01 X429.775 Y1329.633
G01 X443.639 Y1320.425
G01 X509.153 Y1266.218
G01 X505.872 Y1226.788
G01 X568.046 Y1199.452
G01 X572.859 Y1129.653
G01 X608.058 Y1119.207
G01 X637.403 Y1038.797
G01 X638.490 Y1021.058
G01 X687.901 Y955.687
G01 X669.241 Y910.104
G01 X710.000 Y878.080
G01 X710.000 Y836.253
G01 X703.319 Y797.915
G01 X710.000 Y792.411
G01 X710.000 Y343.149
G01 X709.443 Y338.169
G01 X679.808 Y320.043
G01 X692.069 Y249.840
G01 X639.370 Y209.394
G01 X653.275 Y170.371
G01 X602.703 Y102.650
G01 X593.509 Y89.518
G01 X565.412 Y10.779
G01 X539.436 Y5.000
G01 X5.000 Y5.000
G01 X5.000 Y1600.000
G01 X10.212 Y1600.000
G01 X28.834 Y1565.528
G01 X90.632 Y1579.548
G01 X137.706 Y1523.217
G01 X167.174 Y1532.065
G01 X239.099 Y1484.722
G01 X247.235 Y1465.527
G01 X323.404 Y1443.454
G01 X334.884 Y1390.561
G01 X389.672 Y1388.725
G01 X424.675 Y1317.992
G01 X445.724 Y1313.892
G01 X505.030 Y1251.421
G01 X501.943 Y1221.622
G01 X566.114 Y1185.093
G01 X563.263 Y1122.466
G01 X606.493 Y1108.589
G01 X625.146 Y1027.759
G01 X633.763 Y1014.943
G01 X676.489 Y941.999
G01 X658.697 Y906.300
G01 X707.341 Y860.206
G01 X687.140 Y793.001
G01 X710.000 Y776.424
G01 X710.000 Y672.089
G01 X709.424 Y670.566
G01 X710.000 Y668.698
G01 X710.000 Y568.229
G01 X699.215 Y556.876
G01 X710.000 Y539.760
G01 X710.000 Y471.767
G01 X691.997 Y441.095
G01 X705.160 Y419.094
G01 X685.256 Y335.148
G01 X664.069 Y321.392
G01 X669.086 Y244.957
G01 X618.898 Y214.623
G01 X633.512 Y166.836
G01 X577.318 Y108.264
G01 X575.933 Y90.824
G01 X537.843 Y14.295
G01 X503.283 Y8.551
G01 X502.665 Y5.000
G01 X5.000 Y5.000
G01 X5.000 Y1596.144
G01 X18.104 Y1593.896
G01 X32.924 Y1562.039
G01 X102.337 Y1570.655
G01 X138.754 Y1514.681
G01 X176.491 Y1526.523
G01 X240.622 Y1471.810
G01 X251.035 Y1461.540
G01 X327.252 Y1429.441
G01 X332.685 Y1384.705
G01 X394.640 Y1377.253
G01 X418.950 Y1307.831
G01 X448.386 Y1306.466
G01 X499.389 Y1237.414
G01 X499.113 Y1216.661
G01 X562.669 Y1170.399
G01 X554.295 Y1116.586
G01 X604.329 Y1096.924
G01 X612.411 Y1018.370
G01 X629.612 Y1008.026
G01 X663.674 Y929.322
G01 X649.331 Y902.748
G01 X696.812 Y847.249
G01 X671.752 Y789.466
G01 X706.988 Y762.695
G01 X696.388 Y680.480
G01 X699.122 Y666.459
G01 X710.000 Y606.809
G01 X710.000 Y580.025
G01 X684.212 Y556.946
G01 X710.000 Y505.974
G01 X710.000 Y492.641
G01 X671.320 Y442.018
G01 X690.799 Y413.871
G01 X661.019 Y333.992
G01 X649.016 Y322.028
G01 X645.064 Y241.403
G01 X599.857 Y220.088
G01 X612.522 Y163.491
G01 X553.136 Y115.255
G01 X557.909 Y91.413
G01 X510.470 Y19.702
G01 X485.454 Y15.272
G01 X482.491 Y5.000
G01 X5.000 Y5.000
G01 X5.000 Y1589.106
G01 X27.014 Y1582.456
G01 X37.759 Y1559.416
G01 X113.195 Y1560.465
G01 X139.459 Y1507.524
G01 X186.133 Y1519.767
G01 X240.748 Y1459.788
G01 X255.882 Y1457.315
G01 X329.448 Y1415.215
G01 X331.282 Y1379.807
G01 X398.683 Y1364.682
G01 X412.982 Y1299.211
G01 X451.311 Y1297.947
G01 X492.434 Y1224.525
G01 X497.344 Y1211.532
G01 X557.597 Y1155.735
G01 X546.227 Y1111.745
G01 X601.219 Y1084.352
G01 X599.586 Y1010.664
G01 X625.713 Y1000.127
G01 X649.685 Y917.968
G01 X641.084 Y899.082
G01 X684.737 Y834.541
G01 X657.409 Y787.022
G01 X697.207 Y752.473
G01 X677.338 Y675.992
G01 X689.104 Y661.453
G01 X694.028 Y576.215
G01 X670.423 Y556.917
G01 X696.033 Y489.366
G01 X651.867 Y444.043
G01 X675.590 Y408.044
G01 X637.120 Y334.682
G01 X634.310 Y321.809
G01 X620.272 Y239.453
G01 X582.145 Y225.423
G01 X590.264 Y160.710
G01 X530.373 Y123.302
G01 X539.126 Y91.480
G01 X483.682 Y26.953
G01 X468.044 Y21.132
G01 X461.287 Y5.000
G01 X5.000 Y5.000
G01 X5.000 Y1583.985
G01 X34.240 Y1570.940
G01 X43.559 Y1557.355
G01 X122.873 Y1549.172
G01 X140.202 Y1501.726
G01 X195.746 Y1511.666
G01 X239.745 Y1448.941
G01 X261.658 Y1452.497
G01 X329.951 Y1401.164
G01 X330.880 Y1375.550
G01 X401.485 Y1351.227
G01 X407.152 Y1292.086
G01 X454.141 Y1288.227
G01 X484.453 Y1213.018
G01 X496.496 Y1205.888
G01 X550.884 Y1141.487
G01 X539.244 Y1107.612
G01 X596.864 Y1071.107
G01 X587.051 Y1004.569
G01 X621.705 Y991.160
G01 X634.827 Y908.181
G01 X633.797 Y894.959
G01 X671.128 Y822.468
G01 X644.278 Y785.326
G01 X686.228 Y741.764
G01 X658.774 Y673.194
G01 X679.004 Y655.483
G01 X673.192 Y570.357
G01 X657.668 Y556.457
G01 X676.627 Y481.593
G01 X633.783 Y446.809
G01 X659.267 Y401.876
G01 X613.932 Y337.091
G01 X619.579 Y320.690
G01 X595.047 Y239.306
G01 X565.561 Y230.307
G01 X566.804 Y158.868
G01 X509.151 Y132.035
G01 X519.337 Y91.304
G01 X457.842 Y35.893
G01 X450.680 Y26.108
G01 X438.658 Y5.000
G01 X5.000 Y5.000
G01 X5.000 Y1580.998
G01 X39.818 Y1559.739
G01 X50.455 Y1555.499
G01 X131.102 Y1537.059
G01 X141.346 Y1497.162
G01 X204.948 Y1502.195
G01 X237.948 Y1439.469
G01 X268.147 Y1446.776
G01 X328.828 Y1387.673
G01 X331.588 Y1371.569
G01 X402.798 Y1337.185
G01 X401.820 Y1286.306
G01 X456.495 Y1277.303
G01 X475.797 Y1203.073
G01 X496.337 Y1199.432
G01 X542.624 Y1128.038
G01 X533.435 Y1103.816
G01 X591.037 Y1057.502
G01 X575.158 Y999.910
G01 X617.208 Y981.144
G01 X619.465 Y900.116
G01 X627.221 Y890.097
G01 X656.107 Y811.403
G01 X632.426 Y783.996
G01 X673.845 Y730.892
G01 X641.037 Y671.888
G01 X668.449 Y648.590
G01 X652.064 Y566.340
G01 X645.681 Y555.296
G01 X655.983 Y474.995
G01 X617.112 Y449.932
G01 X641.648 Y395.702
G01 X591.784 Y340.997
G01 X604.455 Y318.733
G01 X569.772 Y241.063
G01 X549.824 Y234.484
G01 X542.311 Y158.313
G01 X489.489 Y141.063
G01 X498.381 Y91.229
G01 X433.263 Y46.279
G01 X432.998 Y30.284
G01 X414.056 Y5.000
G01 X5.000 Y5.000
G01 X5.000 Y1580.573
G01 X43.892 Y1549.224
G01 X58.473 Y1553.470
G01 X137.694 Y1524.472
G01 X143.210 Y1493.611
G01 X213.358 Y1491.431
G01 X235.736 Y1431.478
G01 X275.054 Y1439.910
G01 X326.245 Y1375.104
G01 X333.413 Y1367.482
G01 X402.458 Y1322.916
G01 X397.289 Y1281.630
G01 X458.002 Y1265.278
G01 X466.852 Y1194.770
G01 X496.560 Y1191.941
G01 X533.011 Y1115.734
G01 X528.782 Y1099.971
G01 X583.602 Y1043.901
G01 X564.198 Y996.427
G01 X611.862 Y970.203
G01 X603.993 Y893.826
G01 X621.037 Y884.290
G01 X639.890 Y801.678
G01 X621.813 Y782.650
G01 X659.949 Y720.229
G01 X624.402 Y671.792
G01 X657.085 Y640.920
G01 X631.045 Y564.186
G01 X634.133 Y553.247
G01 X634.343 Y469.885
G01 X601.791 Y453.029
G01 X622.648 Y389.896
G01 X570.933 Y346.097
G01 X588.595 Y316.103
G01 X544.847 Y244.720
G01 X534.592 Y237.785
G01 X517.043 Y159.342
G01 X471.300 Y150.005
G01 X476.197 Y91.631
G01 X410.185 Y57.789
G01 X414.665 Y33.843
G01 X386.615 Y5.000
G01 X5.000 Y5.000
G01 X5.000 Y1583.521
G01 X46.697 Y1539.713
G01 X67.533 Y1550.889
G01 X142.561 Y1511.802
G01 X146.039 Y1490.774
G01 X220.628 Y1479.558
G01 X233.503 Y1424.966
G01 X282.023 Y1431.748
G01 X322.465 Y1363.759
G01 X336.251 Y1362.918
G01 X400.408 Y1308.812
G01 X393.790 Y1277.743
G01 X458.327 Y1252.354
G01 X458.017 Y1188.079
G01 X496.802 Y1183.283
G01 X522.326 Y1104.860
G01 X525.164 Y1095.714
G01 X574.527 Y1030.701
G01 X554.381 Y993.788
G01 X605.347 Y958.560
G01 X588.807 Y889.254
G01 X614.877 Y877.429
G01 X622.779 Y793.557
G01 X612.295 Y780.928
G01 X644.535 Y710.169
G01 X609.061 Y672.558
G01 X644.612 Y632.712
G01 X610.527 Y563.814
G01 X622.649 Y550.222
G01 X612.025 Y466.507
G01 X587.654 Y455.747
G01 X602.288 Y384.852
G01 X551.548 Y352.031
G01 X571.714 Y313.057
G01 X520.661 Y250.165
G01 X519.486 Y240.144
G01 X491.336 Y162.174
G01 X454.395 Y158.517
G01 X452.831 Y92.898
G01 X388.751 Y70.047
G01 X395.414 Y37.055
G01 X354.795 Y5.000
G01 X5.000 Y5.000
G01 X5.000 Y1585.587
G01 X8.523 Y1586.574
G01 X48.552 Y1531.452
G01 X77.450 Y1547.416
G01 X145.724 Y1499.449
G01 X149.986 Y1488.292
G01 X226.468 Y1466.848
G01 X231.633 Y1419.824
G01 X288.666 Y1422.239
G01 X317.822 Y1353.863
G01 X339.901 Y1357.546
G01 X396.693 Y1295.273
G01 X391.454 Y1274.276
G01 X457.202 Y1238.822
G01 X449.668 Y1182.867
G01 X496.676 Y1173.434
G01 X510.922 Y1095.618
G01 X522.359 Y1090.724
G01 X563.888 Y1018.296
G01 X545.820 Y991.613
G01 X597.416 Y946.519
G01 X574.279 Y886.240
G01 X608.354 Y869.511
G01 X605.141 Y787.215
G01 X603.632 Y778.523
G01 X627.704 Y701.099
G01 X595.102 Y673.798
G01 X630.802 Y624.284
G01 X590.871 Y565.036
G01 X610.844 Y546.240
G01 X589.407 Y465.009
G01 X574.442 Y457.793
G01 X580.696 Y380.945
G01 X533.694 Y358.402
G01 X553.606 Y309.923
G01 X497.561 Y257.188
G01 X504.124 Y241.603
G01 X465.575 Y166.930
G01 X438.498 Y166.319
G01 X428.435 Y95.394
G01 X369.000 Y82.653
G01 X375.059 Y40.262
G01 X315.500 Y5.000
G01 X5.000 Y5.000
G01 X5.000 Y1575.725
G01 X20.891 Y1578.208
G01 X49.829 Y1524.594
G01 X87.951 Y1542.767
G01 X147.308 Y1487.802
G01 X155.100 Y1485.776
G01 X230.667 Y1453.647
G01 X230.462 Y1415.844
G01 X294.590 Y1411.444
G01 X312.700 Y1345.543
G01 X344.073 Y1351.102
G01 X391.471 Y1282.677
G01 X390.311 Y1270.836
G01 X454.442 Y1225.039
G01 X442.132 Y1178.902
G01 X495.795 Y1162.477
G01 X499.193 Y1088.107
G01 X520.064 Y1084.755
G01 X551.867 Y1007.050
G01 X538.518 Y989.508
G01 X587.911 Y934.448
G01 X560.720 Y884.531
G01 X601.090 Y860.643
G01 X587.377 Y782.726
G01 X595.509 Y775.207
G01 X609.665 Y693.369
G01 X582.506 Y675.116
G01 X615.522 Y616.010
G01 X572.375 Y567.576
G01 X598.350 Y541.430
G01 X566.896 Y465.436
G01 X561.827 Y458.954
G01 X558.102 Y378.508
G01 X517.326 Y364.812
G01 X534.164 Y307.080
G01 X475.828 Y265.489
G01 X488.146 Y242.310
G01 X440.172 Y173.626
G01 X423.267 Y173.220
G01 X403.259 Y99.435
G01 X350.863 Y95.209
G01 X353.517 Y43.845
G01 X282.526 Y13.920
G01 X283.174 Y5.000
G01 X5.000 Y5.000
G01 X5.000 Y1567.696
G01 X32.252 Y1568.517
G01 X50.929 Y1519.183
G01 X98.691 Y1536.746
G01 X147.544 Y1477.199
G01 X161.322 Y1482.836
G01 X233.119 Y1440.348
G01 X230.260 Y1412.728
G01 X299.431 Y1399.530
G01 X307.506 Y1338.818
G01 X348.414 Y1343.410
G01 X384.993 Y1271.346
G01 X390.275 Y1267.036
G01 X449.966 Y1211.404
G01 X435.662 Y1175.869
G01 X493.809 Y1150.602
G01 X487.549 Y1082.319
G01 X517.917 Y1077.653
G01 X538.738 Y997.269
G01 X532.370 Y987.089
G01 X576.777 Y922.748
G01 X548.366 Y883.793
G01 X592.749 Y851.033
G01 X569.898 Y780.052
G01 X587.554 Y770.845
G01 X590.712 Y687.263
G01 X571.144 Y676.133
G01 X598.746 Y608.292
G01 X555.253 Y571.086
G01 X584.845 Y536.019
G01 X544.901 Y467.722
G01 X549.431 Y459.121
G01 X534.818 Y377.805
G01 X502.292 Y370.890
G01 X513.387 Y304.930
G01 X455.654 Y274.704
G01 X471.245 Y242.510
G01 X415.529 Y182.166
G01 X408.316 Y179.128
G01 X377.633 Y105.260
G01 X334.163 Y107.350
G01 X330.812 Y48.201
G01 X261.412 Y29.634
G01 X265.475 Y5.000
G01 X5.000 Y5.000
G01 X5.000 Y1561.476
G01 X42.278 Y1557.746
G01 X52.254 Y1515.154
G01 X109.278 Y1529.256
G01 X146.744 Y1467.910
G01 X168.482 Y1479.110
G01 X233.821 Y1427.366
G01 X231.207 Y1410.119
G01 X302.877 Y1386.760
G01 X302.640 Y1333.595
G01 X352.529 Y1334.397
G01 X377.591 Y1261.529
G01 X391.160 Y1262.525
G01 X443.804 Y1198.329
G01 X430.415 Y1173.398
G01 X490.426 Y1138.089
G01 X476.384 Y1078.134
G01 X515.522 Y1069.368
G01 X524.852 Y989.175
G01 X527.169 Y984.016
G01 X564.074 Y911.826
G01 X537.353 Y883.645
G01 X583.060 Y840.980
G01 X553.092 Y779.048
G01 X579.372 Y765.412
G01 X571.211 Y682.980
G01 X560.787 Y676.520
G01 X580.559 Y601.530
G01 X539.617 Y575.170
G01 X570.079 Y530.319
G01 X523.801 Y471.693
G01 X536.856 Y458.288
G01 X511.225 Y379.007
G01 X488.344 Y376.318
G01 X491.386 Y303.862
G01 X437.124 Y284.430
G01 X453.192 Y242.528
G01 X392.013 Y192.351
G01 X393.250 Y184.063
G01 X351.947 Y113.014
G01 X318.631 Y118.773
G01 X307.080 Y53.711
G01 X242.098 Y45.741
G01 X246.295 Y11.288
G01 X233.991 Y5.000
G01 X5.000 Y5.000
G01 X5.000 Y1557.095
G01 X50.712 Y1546.220
G01 X54.170 Y1512.333
G01 X119.305 Y1520.310
G01 X145.283 Y1460.108
G01 X176.318 Y1474.294
G01 X232.888 Y1415.101
G01 X233.375 Y1407.619
G01 X304.697 Y1373.477
G01 X298.460 Y1329.677
G01 X356.015 Y1324.103
G01 X369.656 Y1253.373
G01 X392.685 Y1257.015
G01 X436.095 Y1186.206
G01 X426.443 Y1171.086
G01 X485.441 Y1125.294
G01 X466.047 Y1075.332
G01 X512.482 Y1059.964
G01 X510.609 Y982.892
G01 X522.616 Y980.017
G01 X549.968 Y902.062
G01 X527.706 Y883.678
G01 X571.842 Y830.848
G01 X537.295 Y779.465
G01 X570.571 Y758.995
G01 X551.570 Y680.614
G01 X551.125 Y676.022
G01 X561.155 Y596.090
G01 X525.469 Y579.419
G01 X553.895 Y524.703
G01 X503.916 Y477.078
G01 X523.720 Y456.566
G01 X487.737 Y382.179
G01 X475.155 Y380.860
G01 X468.378 Y304.228
G01 X420.215 Y294.254
G01 X433.855 Y242.744
G01 X369.927 Y203.887
G01 X377.693 Y188.157
G01 X326.617 Y122.732
G01 X303.925 Y129.260
G01 X282.559 Y60.708
G01 X224.530 Y61.828
G01 X225.947 Y17.962
G01 X188.424 Y5.000
G01 X5.000 Y5.000
G01 X5.000 Y1554.695
G01 X57.397 Y1534.329
G01 X56.988 Y1510.451
G01 X128.378 Y1510.037
G01 X143.573 Y1453.862
G01 X184.488 Y1468.166
G01 X230.535 Y1403.914
G01 X236.724 Y1404.824
G01 X304.761 Y1360.078
G01 X295.260 Y1326.774
G01 X358.490 Y1312.678
G01 X361.603 Y1246.920
G01 X394.497 Y1250.305
G01 X427.084 Y1175.379
G01 X423.681 Y1168.531
G01 X478.751 Y1112.619
G01 X456.815 Y1073.602
G01 X508.426 Y1049.614
G01 X496.430 Y978.431
G01 X518.351 Y974.914
G01 X534.725 Y893.784
G01 X519.339 Y883.494
G01 X559.019 Y821.044
G01 X522.765 Y780.977
G01 X560.794 Y751.788
G01 X532.214 Y680.146
G01 X541.785 Y674.481
G01 X540.820 Y592.279
G01 X512.696 Y583.436
G01 X536.246 Y519.580
G01 X485.483 Y483.531
G01 X509.679 Y454.168
G01 X464.775 Y387.272
G01 X462.344 Y384.379
G01 X444.669 Y306.312
G01 X404.790 Y303.785
G01 X413.211 Y243.566
G01 X349.485 Y216.409
G01 X361.314 Y191.641
G01 X302.061 Y134.336
G01 X289.655 Y138.697
G01 X257.573 Y69.455
G01 X208.549 Y77.509
G01 X204.455 Y25.301
G01 X130.877 Y11.140
G01 X131.806 Y5.000
G01 X5.000 Y5.000
G01 X5.000 Y1554.600
G01 X62.281 Y1522.492
G01 X60.930 Y1509.163
G01 X136.149 Y1498.666
G01 X142.028 Y1449.125
G01 X192.598 Y1460.607
G01 X227.071 Y1394.095
G01 X241.105 Y1401.354
G01 X303.048 Y1346.985
G01 X293.243 Y1324.529
G01 X359.624 Y1300.376
G01 X353.848 Y1242.094
G01 X396.200 Y1242.300
G01 X417.098 Y1166.117
G01 X421.958 Y1165.361
G01 X470.364 Y1100.487
G01 X448.871 Y1072.571
G01 X503.044 Y1038.590
G01 X482.726 Y975.688
G01 X513.972 Y968.633
G01 X518.694 Y887.235
G01 X512.057 Y882.730
G01 X544.631 Y811.986
G01 X509.662 Y783.195
G01 X549.751 Y744.079
G01 X513.546 Y681.445
G01 X532.362 Y671.849
G01 X519.920 Y590.317
G01 X501.084 Y586.870
G01 X517.196 Y515.362
G01 X468.638 Y490.652
G01 X494.460 Y451.398
G01 X442.736 Y394.128
G01 X449.503 Y386.848
G01 X420.638 Y310.308
G01 X390.610 Y312.682
G01 X391.353 Y245.399
G01 X330.797 Y229.507
G01 X343.861 Y194.835
G01 X278.665 Y147.639
G01 X275.413 Y147.081
G01 X232.510 Y80.118
G01 X193.892 Y92.458
G01 X181.936 Y33.701
G01 X112.501 Y30.584
G01 X115.732 Y5.000
G01 X5.000 Y5.000
G01 X5.000 Y1557.450
G01 X65.431 Y1511.131
G01 X66.117 Y1508.075
G01 X142.340 Y1486.518
G01 X141.038 Y1445.738
G01 X200.232 Y1451.608
G01 X222.873 Y1385.844
G01 X246.263 Y1396.883
G01 X299.653 Y1334.614
G01 X292.509 Y1322.535
G01 X359.163 Y1287.531
G01 X346.771 Y1238.712
G01 X397.378 Y1233.017
G01 X406.529 Y1158.594
G01 X421.003 Y1161.265
G01 X460.405 Y1089.304
G01 X442.288 Y1071.828
G01 X496.105 Y1027.243
G01 X469.869 Y974.454
G01 X509.069 Y961.216
G01 X502.277 Y882.562
G01 X505.573 Y881.091
G01 X528.828 Y804.070
G01 X498.035 Y785.703
G01 X537.235 Y736.230
G01 X495.925 Y684.275
G01 X522.453 Y668.190
G01 X498.867 Y590.321
G01 X490.326 Y589.442
G01 X496.924 Y512.432
G01 X453.405 Y498.017
G01 X477.883 Y448.628
G01 X421.962 Y402.484
G01 X436.233 Y388.356
G01 X396.705 Y316.302
G01 X377.353 Y320.685
G01 X368.483 Y248.610
G01 X313.858 Y242.754
G01 X325.177 Y198.117
G01 X256.753 Y162.355
G01 X260.805 Y154.523
G01 X207.797 Y92.753
G01 X180.219 Y106.432
G01 X158.613 Y43.515
G01 X95.999 Y50.030
G01 X97.181 Y13.967
G01 X65.265 Y5.000
G01 X5.000 Y5.000
G01 X5.000 Y1550.927
G01 X13.248 Y1556.004
G01 X67.022 Y1500.639
G01 X72.555 Y1506.769
G01 X146.770 Y1473.982
G01 X140.934 Y1443.443
G01 X206.982 Y1441.277
G01 X218.360 Y1379.249
G01 X251.864 Y1391.165
G01 X294.780 Y1323.344
G01 X293.039 Y1320.378
G01 X356.953 Y1274.544
G01 X340.690 Y1236.493
G01 X397.635 Y1222.589
G01 X395.803 Y1152.870
G01 X420.468 Y1156.018
G01 X449.105 Y1079.434
G01 X437.025 Y1070.956
G01 X487.485 Y1015.976
G01 X458.157 Y974.425
G01 X503.255 Y952.819
G01 X485.908 Y879.796
G01 X499.525 Y878.372
G01 X511.866 Y797.644
G01 X487.817 Y788.083
G01 X523.149 Y728.652
G01 X479.633 Y688.311
G01 X511.681 Y663.681
G01 X478.095 Y592.291
G01 X480.049 Y590.967
G01 X475.708 Y511.117
G01 X439.689 Y505.214
G01 X459.877 Y446.272
G01 X402.714 Y411.995
G01 X422.172 Y389.103
G01 X373.304 Y324.266
G01 X364.635 Y327.629
G01 X344.898 Y253.507
G01 X298.550 Y255.741
G01 X305.217 Y201.904
G01 X236.562 Y178.119
G01 X245.481 Y161.242
G01 X183.861 Y107.302
G01 X167.137 Y119.291
G01 X134.803 Y55.026
G01 X81.223 Y69.077
G01 X77.423 Y24.102
G01 X5.000 Y14.827
G01 X5.000 Y1541.412
G01 X25.003 Y1550.446
G01 X67.332 Y1491.348
G01 X80.136 Y1504.841
G01 X149.367 Y1461.485
G01 X141.965 Y1441.897
G01 X212.480 Y1429.830
G01 X213.960 Y1374.286
G01 X257.514 Y1384.054
G01 X288.732 Y1313.489
G01 X294.700 Y1317.658
G01 X352.953 Y1261.843
G01 X335.833 Y1235.077
G01 X396.619 Y1211.253
G01 X385.350 Y1148.891
G01 X419.951 Y1149.498
G01 X436.786 Y1071.170
G01 X432.927 Y1069.564
G01 X477.171 Y1005.221
G01 X447.801 Y975.228
G01 X496.198 Y943.701
G01 X470.011 Y878.853
G01 X493.508 Y874.474
G01 X494.087 Y792.975
G01 X478.829 Y789.954
G01 X507.508 Y721.772
G01 X464.854 Y693.164
G01 X499.732 Y658.601
G01 X458.026 Y596.113
G01 X469.844 Y591.372
G01 X453.908 Y511.660
G01 X427.290 Y511.869
G01 X440.485 Y444.752
G01 X385.152 Y422.258
G01 X407.023 Y389.381
G01 X350.848 Y334.056
G01 X352.041 Y333.465
G01 X320.974 Y260.305
G01 X284.645 Y268.106
G01 X284.052 Y206.611
G01 X218.227 Y194.517
G01 X229.162 Y167.548
G01 X161.108 Y123.592
G01 X154.226 Y131.008
G01 X110.893 Y68.424
G01 X67.923 Y87.372
G01 X56.632 Y35.187
G01 X5.000 Y36.349
G01 X5.000 Y1533.937
G01 X36.460 Y1543.309
G01 X66.721 Y1483.505
G01 X88.640 Y1501.929
G01 X150.176 Y1449.461
G01 X144.278 Y1440.702
G01 X216.428 Y1417.582
G01 X210.082 Y1370.812
G01 X262.787 Y1375.519
G01 X281.884 Y1305.270
G01 X297.254 Y1314.028
G01 X347.238 Y1249.858
G01 X332.324 Y1234.057
G01 X394.056 Y1199.340
G01 X375.571 Y1146.487
G01 X419.029 Y1141.700
G01 X423.842 Y1064.707
G01 X429.734 Y1067.318
G01 X465.269 Y995.399
G01 X438.897 Y976.442
G01 X487.645 Y934.207
G01 X454.979 Y879.535
G01 X487.100 Y869.418
G01 X475.899 Y790.231
G01 X470.794 Y790.996
G01 X490.448 Y716.003
G01 X451.662 Y698.406
G01 X486.377 Y653.307
G01 X439.039 Y601.563
G01 X459.291 Y590.698
G01 X431.940 Y514.200
G01 X415.907 Y517.677
G01 X419.869 Y444.469
G01 X369.323 Y432.839
G01 X390.580 Y389.561
G01 X329.700 Y345.420
G01 X339.155 Y338.260
G01 X297.136 Y269.113
G01 X271.826 Y279.561
G01 X261.867 Y212.626
G01 X201.763 Y211.109
G01 X211.667 Y173.820
G01 X139.881 Y141.345
G01 X141.075 Y141.675
G01 X87.314 Y83.789
G01 X55.761 Y104.649
G01 X35.018 Y47.597
G01 X5.000 Y52.944
G01 X5.000 Y1528.278
G01 X47.190 Y1534.654
G01 X65.602 Y1477.250
G01 X97.754 Y1497.742
G01 X149.359 Y1438.321
G01 X147.904 Y1439.432
G01 X218.619 Y1404.918
G01 X207.082 Y1368.579
G01 X267.262 Y1365.647
G01 X274.662 Y1298.802
G01 X300.372 Y1309.215
G01 X339.998 Y1238.987
G01 X330.169 Y1233.002
G01 X389.766 Y1187.248
G01 X366.806 Y1145.386
G01 X417.290 Y1132.735
G01 X410.706 Y1060.130
G01 X427.103 Y1063.966
G01 X451.996 Y986.894
G01 X431.428 Y977.639
G01 X477.445 Y924.742
G01 X441.136 Y881.547
G01 X479.898 Y863.338
G01 X457.740 Y789.465
G01 X463.352 Y790.977
G01 X472.211 Y711.710
G01 X440.009 Y703.607
G01 X471.494 Y648.211
G01 X421.440 Y608.321
G01 X447.997 Y589.106
G01 X410.249 Y518.761
G01 X405.171 Y522.429
G01 X398.295 Y445.769
G01 X355.151 Y443.308
G01 X372.748 Y390.059
G01 X310.146 Y358.018
G01 X325.595 Y342.196
G01 X273.828 Y279.925
G01 X259.707 Y289.917
G01 X238.950 Y220.274
G01 X187.070 Y227.468
G01 X192.926 Y180.478
G01 X120.443 Y160.202
G01 X127.312 Y151.494
G01 X64.506 Y101.081
G01 X44.341 Y120.740
G01 X12.887 Y61.637
G01 X5.000 Y64.383
G01 X5.000 Y1524.307
G01 X56.794 Y1524.656
G01 X64.413 Y1472.610
G01 X107.092 Y1492.086
G01 X147.183 Y1428.418
G01 X152.754 Y1437.666
G01 X218.960 Y1392.270
G01 X205.232 Y1367.249
G01 X270.554 Y1354.640
G01 X267.507 Y1294.081
G01 X303.660 Y1303.050
G01 X331.528 Y1229.565
G01 X329.255 Y1231.498
G01 X383.686 Y1175.412
G01 X359.310 Y1145.231
G01 X414.363 Y1122.828
G01 X397.822 Y1057.403
G01 X424.632 Y1059.361
G01 X437.668 Y980.020
G01 X425.254 Y978.407
G01 X465.565 Y915.744
G01 X428.716 Y884.514
G01 X471.548 Y856.481
G01 X440.054 Y790.614
G01 X456.094 Y789.773
G01 X453.134 Y709.184
G01 X429.735 Y708.364
G01 X455.077 Y643.750
G01 X405.438 Y615.998
G01 X435.624 Y586.861
G01 X389.272 Y525.244
G01 X394.664 Y526.024
G01 X376.118 Y448.918
G01 X342.451 Y453.271
G01 X353.549 Y391.307
G01 X292.371 Y371.442
G01 X311.040 Y345.555
G01 X251.479 Y292.611
G01 X247.867 Y299.097
G01 X215.672 Y229.796
G01 X173.933 Y243.210
G01 X172.987 Y187.951
G01 X102.951 Y179.741
G01 X112.636 Y160.767
G01 X42.890 Y120.144
G01 X33.234 Y135.594
G01 X5.000 Y97.114
G01 X5.000 Y1522.021
G01 X64.928 Y1513.600
G01 X63.585 Y1469.488
G01 X116.226 Y1484.879
G01 X144.005 Y1420.024
G01 X158.625 Y1435.021
G01 X217.475 Y1380.084
G01 X204.707 Y1366.423
G01 X272.341 Y1342.801
G01 X260.847 Y1290.980
G01 X306.686 Y1295.476
G01 X322.200 Y1221.840
G01 X329.357 Y1229.173
G01 X375.871 Y1164.274
G01 X353.233 Y1145.611
G01 X409.950 Y1112.300
G01 X385.609 Y1056.374
G01 X421.888 Y1053.472
G01 X422.677 Y974.996
G01 X420.131 Y978.389
G01 X452.090 Y907.649
G01 X417.842 Y888.013
G01 X461.774 Y849.183
G01 X423.249 Y793.493
G01 X448.589 Y787.380
G01 X433.623 Y708.617
G01 X420.571 Y712.332
G01 X437.239 Y640.349
G01 X391.132 Y624.157
G01 X421.921 Y584.313
G01 X369.406 Y533.440
G01 X383.955 Y528.481
G01 X353.756 Y454.080
G01 X330.931 Y462.397
G01 X333.124 Y393.723
G01 X276.442 Y385.250
G01 X295.261 Y348.702
G01 X230.474 Y306.934
G01 X235.874 Y307.148
G01 X192.460 Y241.325
G01 X162.042 Y258.022
G01 X152.017 Y196.642
G01 X87.444 Y199.513
G01 X96.837 Y169.870
G01 X22.831 Y140.711
G01 X22.011 Y149.281
G01 X5.000 Y132.085
G01 X5.000 Y1521.561
G01 X71.336 Y1501.852
G01 X63.508 Y1467.673
G01 X124.717 Y1476.158
G01 X140.241 Y1413.306
G01 X165.214 Y1431.183
G01 X214.309 Y1368.789
G01 X205.563 Y1365.664
G01 X272.393 Y1330.511
G01 X255.059 Y1289.266
G01 X309.016 Y1286.559
G01 X312.446 Y1215.947
G01 X330.155 Y1225.732
G01 X366.496 Y1154.251
G01 X348.604 Y1146.085
G01 X403.848 Y1101.546
G01 X374.432 Y1056.780
G01 X418.444 Y1046.391
G01 X407.462 Y971.929
G01 X415.720 Y977.308
G01 X437.222 Y900.857
G01 X408.518 Y891.599
G01 X450.401 Y841.850
G01 X407.676 Y797.816
G01 X440.416 Y783.912
G01 X414.125 Y710.085
G01 X412.164 Y715.253
G01 X418.211 Y638.395
G01 X378.496 Y632.354
G01 X406.738 Y581.876
G01 X350.983 Y543.035
G01 X372.633 Y529.940
G01 X331.661 Y461.298
G01 X320.224 Y470.450
G01 X311.726 Y397.673
G01 X262.307 Y398.997
G01 X278.135 Y352.056
G01 X211.121 Y322.558
G01 X223.327 Y314.231
G01 X169.767 Y254.875
G01 X151.013 Y271.688
G01 X130.293 Y206.899
G01 X73.840 Y219.076
G01 X79.821 Y179.226
G01 X5.000 Y162.513
G01 X5.000 Y162.397
G01 X10.280 Y161.989
G01 X5.000 Y158.048
G01 X5.000 Y1523.277
G01 X75.869 Y1489.840
G01 X64.500 Y1466.857
G01 X132.145 Y1466.082
G01 X136.341 Y1408.310
G01 X172.140 Y1425.930
G01 X209.718 Y1358.758
G01 X207.733 Y1364.536
G01 X270.593 Y1318.207
G01 X250.443 Y1288.605
G01 X310.247 Y1276.481
G01 X302.718 Y1211.907
G01 X331.257 Y1220.978
G01 X355.843 Y1145.700
G01 X345.332 Y1146.220
G01 X395.968 Y1091.006
G01 X364.571 Y1058.270
G01 X413.911 Y1038.324
G01 X392.481 Y970.808
G01 X411.620 Y974.989
G01 X421.269 Y895.706
G01 X400.626 Y894.844
G01 X437.369 Y834.924
G01 X393.592 Y803.210
G01 X431.201 Y779.600
G01 X395.096 Y713.543
G01 X404.102 Y716.977
G01 X398.320 Y638.200
G01 X367.386 Y640.166
G01 X390.045 Y579.993
G01 X334.237 Y553.640
G01 X360.338 Y530.652
G01 X310.284 Y470.497
G01 X309.907 Y477.302
G01 X289.704 Y403.445
G01 X249.795 Y412.266
G01 X259.661 Y356.059
G01 X193.629 Y339.075
G01 X209.883 Y320.617
G01 X148.038 Y270.336
G01 X140.414 Y284.106
G01 X108.178 Y218.986
G01 X61.939 Y238.021
G01 X61.611 Y189.276
G01 X5.000 Y185.866
G01 X5.000 Y1509.523
G01 X12.658 Y1522.667
G01 X78.498 Y1478.022
G01 X66.782 Y1466.651
G01 X138.148 Y1454.921
G01 X132.750 Y1404.962
G01 X178.970 Y1419.155
G01 X204.052 Y1350.288
G01 X211.032 Y1362.638
G01 X266.942 Y1306.346
G01 X247.199 Y1288.598
G01 X310.035 Y1265.534
G01 X293.461 Y1209.611
G01 X332.227 Y1214.827
G01 X344.283 Y1138.889
G01 X343.209 Y1145.624
G01 X386.345 Y1081.134
G01 X356.202 Y1060.428
G01 X407.966 Y1029.583
G01 X378.169 Y971.495
G01 X407.391 Y971.377
G01 X404.619 Y892.438
G01 X393.935 Y897.368
G01 X422.744 Y828.854
G01 X381.147 Y809.248
G01 X420.644 Y774.771
G01 X376.964 Y718.825
G01 X395.942 Y717.474
G01 X377.971 Y639.981
G01 X357.547 Y647.225
G01 X371.937 Y579.105
G01 X319.290 Y564.814
G01 X346.793 Y530.960
G01 X290.044 Y481.479
G01 X299.539 Y482.949
G01 X267.474 Y411.227
G01 X238.627 Y424.704
G01 X239.960 Y361.142
G01 X178.092 Y356.036
G01 X195.284 Y326.665
G01 X127.677 Y287.483
G01 X129.804 Y295.297
G01 X86.101 Y233.059
G01 X51.439 Y256.012
G01 X42.356 Y200.438
G01 X5.000 Y204.358
G01 X5.000 Y1500.760
G01 X22.442 Y1520.286
G01 X79.318 Y1466.848
G01 X70.463 Y1466.622
G01 X142.446 Y1443.036
G01 X129.881 Y1403.068
G01 X185.254 Y1410.872
G01 X197.732 Y1343.571
G01 X215.168 Y1359.629
G01 X261.569 Y1295.370
G01 X245.409 Y1288.800
G01 X308.126 Y1254.096
G01 X285.074 Y1208.840
G01 X332.617 Y1207.322
G01 X332.249 Y1133.984
G01 X341.924 Y1143.975
G01 X375.136 Y1072.363
G01 X349.380 Y1062.804
G01 X400.383 Y1020.557
G01 X364.916 Y973.741
G01 X402.593 Y966.539
G01 X387.716 Y891.186
G01 X388.114 Y898.867
G01 X406.711 Y824.059
G01 X370.370 Y815.473
G01 X408.544 Y769.827
G01 X360.102 Y725.654
G01 X387.252 Y716.835
G01 X357.617 Y643.837
G01 X348.631 Y653.245
G01 X352.626 Y579.615
G01 X306.142 Y576.099
G01 X331.822 Y531.277
G01 X271.293 Y493.941
G01 X288.690 Y487.509
G01 X245.496 Y421.088
G01 X228.436 Y436.046
G01 X219.269 Y367.691
G01 X164.478 Y372.978
G01 X179.383 Y332.794
G01 X109.015 Y305.989
G01 X118.761 Y305.403
G01 X64.521 Y249.155
G01 X41.958 Y272.806
G01 X22.317 Y213.082
G01 X5.000 Y217.986
G01 X5.000 Y1494.820
G01 X32.744 Y1516.450
G01 X78.544 Y1456.730
G01 X75.526 Y1466.317
G01 X144.865 Y1430.856
G01 X128.076 Y1402.325
G01 X190.559 Y1401.220
G01 X191.213 Y1338.678
G01 X219.766 Y1355.262
G01 X254.714 Y1285.675
G01 X245.030 Y1288.762
G01 X304.378 Y1242.604
G01 X277.883 Y1209.268
G01 X332.007 Y1198.627
G01 X320.205 Y1131.023
G01 X341.088 Y1141.050
G01 X362.611 Y1065.070
G01 X344.037 Y1064.949
G01 X391.047 Y1011.691
G01 X353.026 Y977.199
G01 X396.815 Y960.664
G01 X371.028 Y891.958
G01 X382.763 Y899.139
G01 X389.566 Y820.896
G01 X361.162 Y821.440
G01 X394.817 Y765.216
G01 X344.795 Y733.662
G01 X377.633 Y715.275
G01 X337.725 Y649.746
G01 X340.225 Y658.050
G01 X332.429 Y581.859
G01 X294.666 Y587.052
G01 X315.371 Y532.051
G01 X254.292 Y507.496
G01 X276.978 Y491.217
G01 X224.233 Y432.970
G01 X218.798 Y446.138
G01 X197.927 Y376.020
G01 X152.634 Y389.467
G01 X162.152 Y339.454
G01 X92.289 Y325.446
G01 X106.917 Y314.682
G01 X43.899 Y267.187
G01 X33.058 Y288.272
G01 X5.000 Y233.632
G01 X5.000 Y1490.659
G01 X41.172 Y1510.089
G01 X74.423 Y1447.112
G01 X79.663 Y1464.430
G01 X143.105 Y1418.001
G01 X125.274 Y1401.550
G01 X192.141 Y1389.701
G01 X182.569 Y1334.858
G01 X221.989 Y1348.769
G01 X244.326 Y1277.014
G01 X243.523 Y1287.562
G01 X296.437 Y1231.095
G01 X269.847 Y1210.139
G01 X327.844 Y1188.735
G01 X306.523 Y1129.707
G01 X338.293 Y1136.588
G01 X347.308 Y1059.462
G01 X338.311 Y1066.416
G01 X378.481 Y1003.462
G01 X341.410 Y981.504
G01 X388.636 Y954.130
G01 X354.164 Y894.736
G01 X376.842 Y898.203
G01 X371.365 Y819.725
G01 X353.264 Y826.813
G01 X379.759 Y761.424
G01 X331.783 Y742.384
G01 X367.655 Y713.000
G01 X319.972 Y657.351
G01 X333.458 Y661.258
G01 X313.687 Y585.616
G01 X286.926 Y596.659
G01 X300.190 Y532.930
G01 X242.250 Y520.683
G01 X267.547 Y493.162
G01 X207.958 Y445.192
G01 X213.486 Y453.165
G01 X180.967 Y384.247
G01 X147.297 Y402.699
G01 X149.082 Y344.305
G01 X83.389 Y342.226
G01 X100.141 Y319.899
G01 X31.176 Y282.920
G01 X31.163 Y297.921
G01 X5.000 Y261.626
G01 X5.000 Y1483.970
G01 X30.022 Y1492.765
G01 X50.921 Y1430.704
G01 X67.006 Y1453.862
G01 X122.465 Y1398.976
G01 X107.677 Y1395.050
G01 X176.612 Y1372.074
G01 X159.997 Y1327.946
G01 X209.990 Y1336.702
G01 X220.280 Y1266.671
G01 X230.906 Y1282.359
G01 X275.535 Y1217.956
G01 X253.012 Y1209.293
G01 X312.584 Y1176.620
G01 X285.142 Y1128.701
G01 X327.359 Y1129.710
G01 X324.676 Y1055.017
G01 X327.633 Y1066.299
G01 X359.234 Y995.873
G01 X327.219 Y985.835
G01 X375.498 Y947.008
G01 X335.825 Y898.987
G01 X368.748 Y895.801
G01 X351.934 Y820.373
G01 X346.224 Y830.876
G01 X363.857 Y758.429
G01 X321.857 Y750.810
G01 X358.203 Y709.761
G01 X306.205 Y665.629
G01 X329.632 Y662.059
G01 X298.869 Y590.004
G01 X284.819 Y603.472
G01 X288.897 Y533.069
G01 X237.757 Y531.639
G01 X262.873 Y492.235
G01 X199.796 Y455.830
G01 X214.842 Y455.486
G01 X171.640 Y390.636
G01 X150.867 Y410.474
G01 X143.093 Y345.784
G01 X84.912 Y353.844
G01 X100.739 Y319.440
G01 X29.040 Y294.003
G01 X37.993 Y299.865
G01 X5.000 Y265.912
G01 X5.000 Y1470.881
G01 X18.722 Y1473.460
G01 X27.656 Y1415.618
G01 X55.612 Y1441.432
G01 X100.775 Y1380.508
G01 X92.120 Y1387.878
G01 X159.771 Y1353.545
G01 X139.015 Y1321.742
G01 X197.607 Y1322.630
G01 X196.446 Y1257.601
G01 X219.319 Y1275.190
G01 X253.506 Y1205.419
G01 X238.055 Y1207.629
G01 X295.841 Y1163.679
G01 X265.278 Y1128.298
G01 X315.795 Y1120.857
G01 X302.219 Y1051.837
G01 X317.740 Y1064.168
G01 X338.784 Y988.976
G01 X314.734 Y989.255
G01 X360.710 Y939.188
G01 X318.923 Y903.779
G01 X359.784 Y891.510
G01 X332.646 Y822.320
G01 X339.726 Y832.931
G01 X346.689 Y756.261
G01 X313.469 Y758.282
G01 X346.955 Y706.001
G01 X293.807 Y674.430
G01 X324.719 Y661.110
G01 X284.185 Y595.765
G01 X283.037 Y608.335
G01 X276.307 Y534.207
G01 X234.658 Y541.641
G01 X256.296 Y491.005
G01 X192.963 Y467.007
G01 X214.934 Y456.238
G01 X162.473 Y398.499
G01 X154.578 Y416.396
G01 X135.821 Y348.461
G01 X87.718 Y364.539
G01 X99.375 Y318.922
G01 X28.229 Y305.664
G01 X43.428 Y300.450
G01 X5.000 Y271.182
G01 X5.000 Y1452.327
G01 X6.854 Y1452.391
G01 X5.107 Y1401.858
G01 X45.060 Y1426.956
G01 X78.349 Y1362.962
G01 X78.489 Y1379.586
G01 X141.545 Y1334.587
G01 X119.905 Y1315.870
G01 X184.438 Y1306.793
G01 X173.304 Y1249.773
G01 X208.330 Y1265.895
G01 X230.688 Y1193.826
G01 X224.834 Y1204.706
G01 X277.572 Y1150.386
G01 X247.187 Y1128.100
G01 X303.215 Y1110.291
G01 X280.414 Y1049.858
G01 X308.189 Y1059.886
G01 X317.489 Y983.090
G01 X303.784 Y991.329
G01 X344.259 Y931.143
G01 X303.689 Y908.696
G01 X349.582 Y885.614
G01 X313.973 Y825.470
G01 X333.323 Y832.869
G01 X328.634 Y755.214
G01 X306.422 Y764.373
G01 X333.929 Y702.190
G01 X282.981 Y683.321
G01 X318.370 Y658.715
G01 X270.097 Y602.769
G01 X281.121 Y611.164
G01 X262.816 Y536.612
G01 X232.725 Y550.274
G01 X247.861 Y489.937
G01 X187.630 Y478.275
G01 X213.428 Y455.746
G01 X153.915 Y407.675
G01 X157.965 Y420.409
G01 X127.675 Y352.576
G01 X91.549 Y373.911
G01 X96.123 Y318.806
G01 X28.882 Y317.443
G01 X47.155 Y300.019
G01 X5.000 Y277.046
G01 X5.000 Y1398.056
G01 X34.889 Y1410.369
G01 X55.589 Y1346.611
G01 X66.548 Y1369.775
G01 X121.991 Y1315.679
G01 X102.834 Y1309.888
G01 X170.158 Y1289.535
G01 X151.307 Y1243.030
G01 X197.475 Y1254.437
G01 X207.502 Y1183.423
G01 X213.089 Y1200.138
G01 X257.865 Y1137.214
G01 X231.007 Y1127.652
G01 X289.319 Y1098.375
G01 X259.705 Y1048.892
G01 X298.516 Y1053.446
G01 X295.784 Y978.429
G01 X294.085 Y991.686
G01 X326.264 Y923.338
G01 X290.231 Y913.274
G01 X337.864 Y878.492
G01 X296.346 Y829.604
G01 X326.547 Y830.708
G01 X310.138 Y755.470
G01 X300.405 Y768.729
G01 X319.271 Y698.782
G01 X273.804 Y691.828
G01 X310.330 Y655.268
G01 X257.020 Y610.768
G01 X278.607 Y612.005
G01 X248.880 Y540.436
G01 X231.625 Y557.202
G01 X237.741 Y489.473
G01 X183.842 Y489.157
G01 X210.095 Y454.416
G01 X146.363 Y417.888
G01 X160.564 Y422.588
G01 X119.119 Y358.250
G01 X96.051 Y381.646
G01 X91.180 Y319.520
G01 X31.012 Y328.859
G01 X48.967 Y298.995
G01 X5.000 Y283.293
G01 X5.000 Y1387.194
G01 X24.631 Y1391.740
G01 X32.957 Y1331.614
G01 X55.956 Y1358.124
G01 X101.292 Y1297.274
G01 X87.839 Y1303.327
G01 X154.546 Y1271.283
G01 X130.853 Y1237.098
G01 X186.295 Y1240.913
G01 X184.420 Y1174.333
G01 X202.461 Y1193.625
G01 X236.933 Y1124.600
G01 X216.748 Y1126.481
G01 X273.912 Y1085.546
G01 X240.471 Y1048.636
G01 X288.268 Y1044.969
G01 X274.150 Y975.085
G01 X285.258 Y990.048
G01 X306.965 Y916.191
G01 X278.528 Y917.035
G01 X324.465 Y870.591
G01 X280.123 Y834.392
G01 X318.954 Y826.596
G01 X291.687 Y757.088
G01 X295.023 Y771.094
G01 X303.248 Y696.177
G01 X266.224 Y699.476
G01 X300.460 Y651.223
G01 X245.289 Y619.408
G01 X275.056 Y611.035
G01 X234.985 Y545.702
G01 X230.944 Y562.192
G01 X226.227 Y489.994
G01 X181.515 Y499.176
G01 X204.822 Y452.709
G01 X140.126 Y428.760
G01 X161.949 Y423.134
G01 X110.635 Y365.475
G01 X100.791 Y387.534
G01 X84.858 Y321.425
G01 X34.499 Y339.440
G01 X48.780 Y297.840
G01 X5.000 Y289.798
G01 X5.000 Y1370.668
G01 X13.851 Y1371.267
G01 X10.943 Y1317.996
G01 X46.293 Y1344.422
G01 X79.749 Y1279.764
G01 X74.829 Y1295.722
G01 X137.501 Y1252.513
G01 X112.249 Y1231.604
G01 X174.366 Y1225.545
G01 X161.933 Y1166.552
G01 X192.517 Y1184.978
G01 X215.103 Y1112.914
G01 X204.289 Y1124.127
G01 X256.926 Y1072.284
G01 X222.995 Y1048.697
G01 X277.037 Y1034.702
G01 X253.076 Y973.017
G01 X276.860 Y986.249
G01 X286.711 Y910.049
G01 X268.430 Y919.526
G01 X309.345 Y862.390
G01 X265.561 Y839.422
G01 X310.152 Y820.804
G01 X273.766 Y759.993
G01 X289.821 Y771.330
G01 X286.229 Y694.695
G01 X260.059 Y705.817
G01 X288.752 Y647.059
G01 X235.133 Y628.257
G01 X270.096 Y608.543
G01 X221.610 Y552.304
G01 X230.218 Y565.133
G01 X213.707 Y491.793
G01 X180.436 Y507.898
G01 X197.630 Y451.103
G01 X135.402 Y439.845
G01 X161.761 Y422.360
G01 X102.694 Y374.111
G01 X105.298 Y391.494
G01 X77.562 Y324.788
G01 X39.102 Y348.766
G01 X46.642 Y297.031
G01 X5.000 Y296.485
G01 X5.000 Y1312.948
G01 X37.093 Y1328.577
G01 X57.759 Y1263.447
G01 X63.583 Y1286.653
G01 X119.056 Y1233.717
G01 X95.688 Y1226.107
G01 X161.339 Y1208.665
G01 X140.514 Y1159.942
G01 X182.787 Y1174.135
G01 X192.789 Y1102.426
G01 X193.384 Y1120.182
G01 X238.425 Y1059.075
G01 X207.442 Y1048.618
G01 X264.497 Y1022.997
G01 X233.027 Y972.057
G01 X268.417 Y980.257
G01 X265.934 Y905.151
G01 X259.664 Y920.352
G01 X292.601 Y854.369
G01 X252.795 Y844.224
G01 X299.836 Y813.702
G01 X256.826 Y763.983
G01 X284.324 Y769.430
G01 X268.660 Y694.547
G01 X255.012 Y710.474
G01 X275.331 Y643.247
G01 X226.656 Y636.835
G01 X263.445 Y604.917
G01 X209.190 Y560.008
G01 X228.970 Y566.048
G01 X200.636 Y495.049
G01 X180.283 Y514.961
G01 X188.672 Y450.056
G01 X132.264 Y450.655
G01 X159.742 Y420.669
G01 X95.714 Y383.896
G01 X109.094 Y393.577
G01 X69.755 Y329.757
G01 X44.474 Y356.495
G01 X42.733 Y297.013
G01 X5.000 Y303.319
G01 X5.000 Y1304.129
G01 X27.876 Y1310.633
G01 X35.785 Y1248.508
G01 X53.774 Y1275.775
G01 X99.374 Y1215.367
G01 X81.236 Y1220.128
G01 X146.966 Y1190.697
G01 X120.582 Y1154.243
G01 X172.795 Y1161.167
G01 X170.468 Y1093.289
G01 X183.682 Y1114.319
G01 X218.604 Y1046.377
G01 X193.849 Y1047.916
G01 X250.425 Y1010.290
G01 X214.404 Y971.914
G01 X259.460 Y972.171
G01 X245.119 Y901.618
G01 X251.860 Y919.208
G01 X274.454 Y846.969
G01 X241.830 Y848.310
G01 X287.814 Y805.734
G01 X241.251 Y768.742
G01 X278.068 Y765.521
G01 X251.032 Y695.818
G01 X250.693 Y713.161
G01 X260.445 Y640.209
G01 X219.828 Y644.654
G01 X254.935 Y600.613
G01 X198.086 Y568.472
G01 X226.743 Y565.090
G01 X187.509 Y499.814
G01 X180.645 Y520.104
G01 X178.222 Y449.973
G01 X130.649 Y460.701
G01 X155.754 Y418.523
G01 X90.028 Y394.462
G01 X111.732 Y393.965
G01 X61.932 Y336.348
G01 X50.187 Y362.390
G01 X37.349 Y298.173
G01 X5.000 Y310.314
G01 X5.000 Y1289.348
G01 X18.186 Y1290.766
G01 X14.324 Y1235.001
G01 X44.984 Y1262.845
G01 X78.741 Y1197.876
G01 X68.824 Y1213.189
G01 X131.118 Y1172.119
G01 X102.471 Y1149.091
G01 X162.099 Y1146.279
G01 X148.642 Y1085.521
G01 X174.755 Y1106.322
G01 X197.774 Y1034.582
G01 X182.114 Y1046.113
G01 X234.726 Y997.064
G01 X197.517 Y972.202
G01 X249.559 Y962.218
G01 X224.769 Y899.432
G01 X244.575 Y915.902
G01 X255.242 Y840.559
G01 X232.534 Y851.209
G01 X274.019 Y797.389
G01 X227.323 Y773.861
G01 X270.638 Y759.856
G01 X233.843 Y698.456
G01 X246.645 Y713.713
G01 X244.454 Y638.291
G01 X214.490 Y651.248
G01 X244.532 Y596.117
G01 X188.554 Y577.267
G01 X223.139 Y562.537
G01 X174.820 Y506.002
G01 X181.057 Y523.189
G01 X166.658 Y451.174
G01 X130.363 Y469.528
G01 X149.790 Y416.410
G01 X85.864 Y405.364
G01 X112.828 Y392.956
G01 X54.577 Y344.446
G01 X55.761 Y366.343
G01 X30.886 Y300.804
G01 X5.000 Y317.584
G01 X5.000 Y1269.432
G01 X7.628 Y1269.274
G01 X5.000 Y1260.405
G01 X5.000 Y1229.307
G01 X36.742 Y1247.745
G01 X57.545 Y1181.571
G01 X58.250 Y1204.847
G01 X113.801 Y1153.435
G01 X86.404 Y1144.045
G01 X150.325 Y1129.789
G01 X127.799 Y1079.007
G01 X166.124 Y1096.100
G01 X176.344 Y1023.988
G01 X172.012 Y1042.780
G01 X217.439 Y983.820
G01 X182.560 Y972.464
G01 X238.362 Y950.740
G01 X205.365 Y898.446
G01 X237.327 Y910.371
G01 X235.393 Y835.409
G01 X224.654 Y852.502
G01 X258.523 Y789.159
G01 X215.206 Y778.868
G01 X261.705 Y752.796
G01 X217.565 Y702.280
G01 X242.383 Y712.097
G01 X227.800 Y637.730
G01 X210.356 Y656.212
G01 X232.336 Y591.916
G01 X180.724 Y585.909
G01 X217.850 Y558.766
G01 X163.024 Y513.400
G01 X181.027 Y524.212
G01 X154.437 Y453.866
G01 X131.096 Y476.748
G01 X141.979 Y414.806
G01 X83.319 Y416.109
G01 X112.097 Y390.948
G01 X48.130 Y353.804
G01 X60.706 Y368.378
G01 X23.811 Y305.080
G01 X5.000 Y325.562
G01 X5.000 Y1222.301
G01 X28.557 Y1230.495
G01 X36.250 Y1166.663
G01 X49.199 Y1194.731
G01 X95.158 Y1135.132
G01 X72.472 Y1138.621
G01 X137.194 Y1112.113
G01 X108.383 Y1073.504
G01 X157.301 Y1083.700
G01 X154.793 Y1014.775
G01 X163.201 Y1037.563
G01 X198.737 Y971.031
G01 X169.596 Y972.207
G01 X225.619 Y938.167
G01 X187.331 Y898.384
G01 X229.630 Y902.691
G01 X215.393 Y831.663
G01 X217.827 Y851.856
G01 X241.528 Y781.505
G01 X204.931 Y783.265
G01 X251.045 Y744.782
G01 X202.605 Y706.986
G01 X237.426 Y708.417
G01 X210.980 Y638.639
G01 X207.045 Y659.236
G01 X218.578 Y588.453
G01 X174.594 Y593.896
G01 X210.680 Y554.231
G01 X152.507 Y521.677
G01 X180.081 Y523.305
G01 X142.057 Y458.126
G01 X132.445 Y482.072
G01 X132.580 Y414.139
G01 X82.356 Y426.193
G01 X109.371 Y388.404
G01 X42.953 Y364.066
G01 X64.555 Y368.658
G01 X16.625 Y311.047
G01 X5.000 Y336.541
G01 X5.000 Y1208.932
G01 X19.955 Y1211.246
G01 X15.360 Y1153.235
G01 X41.259 Y1182.572
G01 X75.457 Y1117.648
G01 X60.631 Y1132.325
G01 X122.553 Y1093.734
G01 X90.752 Y1068.659
G01 X147.824 Y1069.304
G01 X133.630 Y1006.989
G01 X155.256 Y1030.217
G01 X178.917 Y959.116
G01 X158.548 Y970.938
G01 X211.207 Y924.988
G01 X171.007 Y898.870
G01 X221.036 Y893.071
G01 X195.756 Y829.333
G01 X211.610 Y849.050
G01 X223.357 Y774.822
G01 X196.389 Y786.562
G01 X238.566 Y736.309
G01 X189.272 Y712.173
G01 X231.338 Y702.906
G01 X194.504 Y640.993
G01 X204.100 Y660.125
G01 X203.606 Y586.101
G01 X170.024 Y600.745
G01 X201.566 Y549.429
G01 X143.552 Y530.408
G01 X177.799 Y520.728
G01 X130.027 Y463.894
G01 X133.938 Y485.335
G01 X121.959 Y414.755
G01 X82.802 Y435.141
G01 X104.617 Y385.821
G01 X39.298 Y374.790
G01 X66.900 Y367.466
G01 X9.828 Y318.612
G01 X9.613 Y344.861
G01 X5.000 Y331.196
G01 X5.000 Y1190.405
G01 X10.517 Y1190.281
G01 X5.000 Y1172.397
G01 X5.000 Y1147.957
G01 X33.956 Y1168.223
G01 X55.077 Y1101.336
G01 X50.701 Y1124.695
G01 X106.379 Y1075.163
G01 X75.157 Y1064.033
G01 X137.294 Y1053.216
G01 X113.361 Y1000.538
G01 X147.694 Y1020.624
G01 X158.380 Y948.398
G01 X149.207 Y968.206
G01 X195.137 Y911.711
G01 X156.612 Y899.445
G01 X211.166 Y881.838
G01 X176.981 Y828.292
G01 X205.516 Y843.996
G01 X204.432 Y769.406
G01 X189.343 Y788.319
G01 X224.312 Y727.881
G01 X177.761 Y717.367
G01 X223.762 Y695.914
G01 X178.862 Y644.631
G01 X201.025 Y658.819
G01 X187.858 Y585.123
G01 X166.746 Y606.028
G01 X190.584 Y544.859
G01 X136.318 Y539.107
G01 X173.843 Y516.848
G01 X118.822 Y470.977
G01 X135.076 Y486.504
G01 X110.571 Y416.887
G01 X84.361 Y442.541
G01 X97.940 Y383.692
G01 X37.292 Y385.476
G01 X67.428 Y365.190
G01 X5.000 Y328.210
G01 X5.000 Y329.387
G01 X15.658 Y346.901
G01 X5.000 Y327.295
G01 X5.000 Y1142.423
G01 X26.789 Y1151.674
G01 X34.478 Y1086.434
G01 X42.379 Y1115.333
G01 X88.792 Y1056.904
G01 X61.719 Y1059.135
G01 X125.407 Y1035.847
G01 X94.449 Y995.197
G01 X140.014 Y1008.803
G01 X137.603 Y939.086
G01 X141.246 Y963.631
G01 X177.560 Y898.831
G01 X144.238 Y899.610
G01 X199.741 Y869.416
G01 X159.515 Y828.283
G01 X199.046 Y836.741
G01 X185.242 Y765.430
G01 X183.441 Y788.176
G01 X208.465 Y719.978
G01 X168.126 Y722.061
G01 X214.446 Y687.879
G01 X164.484 Y649.264
G01 X197.326 Y655.395
G01 X171.831 Y585.661
G01 X164.386 Y609.405
G01 X177.945 Y540.986
G01 X130.830 Y547.262
G01 X167.990 Y512.119
G01 X108.852 Y479.058
G01 X135.367 Y485.688
G01 X98.919 Y420.643
G01 X86.634 Y448.077
G01 X89.579 Y382.465
G01 X36.922 Y395.610
G01 X65.942 Y362.295
G01 X5.000 Y339.673
G01 X5.000 Y340.116
G01 X20.674 Y347.126
G01 X5.000 Y327.360
G01 X5.000 Y1130.054
G01 X19.267 Y1133.056
G01 X14.173 Y1073.054
G01 X35.262 Y1103.944
G01 X70.041 Y1039.417
G01 X50.420 Y1053.459
G01 X111.977 Y1017.675
G01 X77.281 Y990.624
G01 X131.738 Y994.914
G01 X117.104 Y931.254
G01 X134.244 Y956.940
G01 X158.757 Y886.787
G01 X133.833 Y898.859
G01 X186.610 Y856.296
G01 X143.723 Y828.937
G01 X191.730 Y827.474
G01 X166.307 Y762.933
G01 X178.245 Y785.883
G01 X191.332 Y713.019
G01 X160.285 Y725.750
G01 X203.270 Y679.298
G01 X151.708 Y654.499
G01 X192.545 Y650.069
G01 X156.047 Y587.717
G01 X162.488 Y610.654
G01 X163.982 Y538.205
G01 X126.969 Y554.371
G01 X160.149 Y507.041
G01 X100.428 Y487.717
G01 X134.369 Y483.128
G01 X87.522 Y425.989
G01 X89.152 Y451.552
G01 X79.889 Y382.512
G01 X38.038 Y404.699
G01 X62.380 Y359.284
G01 X5.000 Y349.584
G01 X5.000 Y347.338
G01 X24.232 Y345.804
G01 X5.000 Y328.737
G01 X5.000 Y1112.505
G01 X10.948 Y1112.632
G01 X5.000 Y1093.811
G01 X5.000 Y1069.970
G01 X28.873 Y1090.349
G01 X50.494 Y1023.080
G01 X41.100 Y1046.524
G01 X96.956 Y999.222
G01 X62.135 Y986.384
G01 X122.440 Y979.245
G01 X97.403 Y924.833
G01 X127.715 Y947.983
G01 X139.118 Y875.931
G01 X125.210 Y896.718
G01 X171.757 Y842.995
G01 X129.855 Y829.799
G01 X183.165 Y816.507
G01 X148.143 Y761.811
G01 X173.261 Y781.321
G01 X173.327 Y707.328
G01 X154.019 Y727.970
G01 X190.249 Y670.687
G01 X140.755 Y659.863
G01 X186.298 Y643.175
G01 X141.014 Y591.151
G01 X160.550 Y609.684
G01 X149.126 Y536.811
G01 X124.486 Y559.983
G01 X150.367 Y502.127
G01 X93.739 Y496.469
G01 X131.715 Y479.182
G01 X76.876 Y432.751
G01 X91.405 Y452.908
G01 X69.318 Y384.096
G01 X40.359 Y412.304
G01 X56.822 Y356.664
G01 X5.000 Y358.351
G01 X5.000 Y353.551
G01 X25.989 Y343.314
G01 X5.000 Y330.517
G01 X5.000 Y1065.344
G01 X22.704 Y1074.511
G01 X30.608 Y1008.163
G01 X33.475 Y1037.909
G01 X80.437 Y981.006
G01 X49.163 Y981.985
G01 X111.790 Y962.195
G01 X78.984 Y919.620
G01 X121.150 Y936.754
G01 X119.119 Y866.499
G01 X118.054 Y892.782
G01 X155.307 Y830.026
G01 X118.030 Y830.365
G01 X173.044 Y804.256
G01 X131.221 Y761.827
G01 X167.978 Y774.512
G01 X154.937 Y703.108
G01 X148.989 Y728.336
G01 X175.544 Y662.544
G01 X131.711 Y664.843
G01 X178.305 Y635.147
G01 X127.185 Y595.693
G01 X158.065 Y606.548
G01 X133.877 Y536.972
G01 X123.016 Y563.732
G01 X138.835 Y497.861
G01 X88.835 Y504.792
G01 X127.155 Y474.297
G01 X67.414 Y440.628
G01 X92.887 Y452.227
G01 X58.373 Y387.353
G01 X43.496 Y418.082
G01 X49.486 Y354.905
G01 X5.000 Y366.246
G01 X5.000 Y359.287
G01 X25.718 Y340.117
G01 X5.000 Y332.235
G01 X5.000 Y1053.433
G01 X16.248 Y1056.536
G01 X10.898 Y994.802
G01 X27.147 Y1027.286
G01 X62.652 Y963.508
G01 X38.371 Y976.907
G01 X99.572 Y944.243
G01 X62.260 Y915.286
G01 X114.049 Y923.388
G01 X99.282 Y858.595
G01 X111.952 Y886.748
G01 X137.525 Y817.849
G01 X108.224 Y830.115
G01 X161.185 Y791.211
G01 X115.930 Y762.622
G01 X161.908 Y765.622
G01 X136.692 Y700.424
G01 X144.762 Y726.568
G01 X159.444 Y655.312
G01 X124.517 Y668.917
G01 X168.415 Y626.483
G01 X114.925 Y600.959
G01 X154.552 Y601.440
G01 X118.765 Y538.718
G01 X122.108 Y565.364
G01 X125.870 Y494.663
G01 X85.623 Y512.167
G01 X120.566 Y468.978
G01 X59.476 Y449.211
G01 X93.132 Y449.730
G01 X47.585 Y392.276
G01 X46.979 Y421.808
G01 X40.713 Y354.404
G01 X5.000 Y373.509
G01 X5.000 Y364.853
G01 X23.330 Y336.723
G01 X5.000 Y333.549
G01 X5.000 Y1036.376
G01 X9.040 Y1036.668
G01 X5.000 Y1024.018
G01 X5.000 Y996.849
G01 X21.644 Y1014.449
G01 X43.953 Y947.133
G01 X29.627 Y970.652
G01 X85.709 Y925.916
G01 X47.539 Y911.403
G01 X105.967 Y908.156
G01 X80.141 Y852.176
G01 X106.417 Y878.438
G01 X118.788 Y806.843
G01 X100.270 Y828.555
G01 X147.543 Y777.900
G01 X102.552 Y763.747
G01 X154.622 Y754.945
G01 X119.121 Y699.198
G01 X140.839 Y722.516
G01 X142.352 Y649.341
G01 X118.975 Y671.601
G01 X156.617 Y617.708
G01 X104.485 Y606.479
G01 X149.603 Y594.679
G01 X104.314 Y541.935
G01 X121.255 Y564.761
G01 X111.894 Y492.856
G01 X83.873 Y518.121
G01 X111.970 Y463.748
G01 X53.279 Y458.014
G01 X91.748 Y445.762
G01 X37.467 Y398.714
G01 X50.293 Y423.392
G01 X30.944 Y355.455
G01 X5.000 Y380.529
G01 X5.000 Y370.858
G01 X18.876 Y333.652
G01 X5.000 Y334.095
G01 X5.000 Y992.100
G01 X16.448 Y999.333
G01 X24.792 Y932.179
G01 X22.659 Y962.772
G01 X70.268 Y907.745
G01 X34.999 Y907.473
G01 X96.542 Y891.443
G01 X62.202 Y847.059
G01 X100.930 Y867.816
G01 X99.566 Y797.275
G01 X93.871 Y825.255
G01 X132.221 Y764.847
G01 X91.233 Y764.694
G01 X145.785 Y742.888
G01 X102.717 Y699.213
G01 X136.701 Y716.177
G01 X124.754 Y644.865
G01 X114.760 Y672.483
G01 X143.045 Y609.339
G01 X95.979 Y611.734
G01 X142.908 Y586.690
G01 X91.001 Y546.371
G01 X119.935 Y561.947
G01 X97.407 Y492.639
G01 X83.233 Y522.261
G01 X101.532 Y459.111
G01 X48.902 Y466.505
G01 X88.453 Y440.764
G01 X28.476 Y406.384
G01 X52.917 Y422.892
G01 X20.689 Y358.222
G01 X5.000 Y388.725
G01 X5.000 Y380.886
G01 X12.552 Y331.395
G01 X5.000 Y333.330
G01 X5.000 Y979.885
G01 X11.037 Y982.015
G01 X5.685 Y918.813
G01 X17.084 Y952.914
G01 X53.459 Y890.233
G01 X24.680 Y902.971
G01 X85.532 Y873.726
G01 X45.901 Y842.932
G01 X94.976 Y854.991
G01 X80.388 Y789.276
G01 X88.622 Y819.883
G01 X115.460 Y752.537
G01 X81.978 Y764.930
G01 X135.185 Y729.940
G01 X87.897 Y700.125
G01 X131.840 Y707.689
G01 X107.185 Y641.979
G01 X111.445 Y671.254
G01 X127.971 Y601.840
G01 X89.376 Y616.188
G01 X134.286 Y577.971
G01 X79.217 Y551.653
G01 X117.649 Y557.093
G01 X82.947 Y494.070
G01 X83.255 Y524.303
G01 X89.553 Y455.513
G01 X46.279 Y474.154
G01 X83.095 Y435.242
G01 X20.979 Y414.887
G01 X54.363 Y420.507
G01 X10.486 Y362.725
G01 X7.688 Y396.047
G01 X5.000 Y337.279
G01 X5.000 Y930.899
G01 X12.431 Y940.841
G01 X35.619 Y873.809
G01 X16.469 Y897.379
G01 X72.827 Y855.535
G01 X31.576 Y839.374
G01 X88.086 Y840.215
G01 X61.800 Y782.831
G01 X84.037 Y812.231
G01 X97.625 Y741.375
G01 X74.643 Y763.942
G01 X122.748 Y716.633
G01 X74.969 Y701.491
G01 X125.803 Y697.330
G01 X90.189 Y640.630
G01 X108.533 Y667.734
G01 X111.785 Y595.591
G01 X84.499 Y619.338
G01 X123.696 Y569.057
G01 X69.244 Y557.317
G01 X113.963 Y550.501
G01 X69.053 Y497.059
G01 X83.431 Y524.098
G01 X76.445 Y453.303
G01 X45.199 Y480.465
G01 X75.668 Y429.731
G01 X15.223 Y423.739
G01 X54.212 Y416.565
G01 X5.000 Y372.538
G01 X5.000 Y379.624
G01 X12.008 Y397.904
G01 X5.000 Y369.108
G01 X5.000 Y923.999
G01 X8.178 Y926.456
G01 X17.192 Y858.800
G01 X10.118 Y890.226
G01 X58.469 Y837.415
G01 X19.436 Y835.888
G01 X79.871 Y823.859
G01 X44.324 Y777.782
G01 X79.588 Y802.231
G01 X79.180 Y731.656
G01 X68.949 Y761.276
G01 X108.549 Y703.507
G01 X64.112 Y702.798
G01 X118.227 Y685.494
G01 X74.278 Y640.622
G01 X105.492 Y661.888
G01 X94.969 Y590.852
G01 X81.040 Y620.745
G01 X111.247 Y560.479
G01 X61.224 Y562.837
G01 X108.538 Y542.587
G01 X56.222 Y501.375
G01 X83.225 Y521.642
G01 X62.705 Y452.709
G01 X45.325 Y485.016
G01 X66.312 Y424.752
G01 X11.317 Y432.404
G01 X52.154 Y411.500
G01 X5.000 Y383.766
G01 X5.000 Y387.865
G01 X15.723 Y397.634
G01 X5.000 Y374.293
G01 X5.000 Y879.745
G01 X5.255 Y881.131
G01 X42.643 Y819.887
G01 X9.548 Y831.939
G01 X70.059 Y806.394
G01 X28.423 Y773.831
G01 X74.747 Y789.968
G01 X60.656 Y723.543
G01 X64.501 Y756.571
G01 X92.807 Y691.068
G01 X55.358 Y703.505
G01 X108.869 Y672.666
G01 X59.894 Y641.628
G01 X101.799 Y653.831
G01 X78.062 Y587.750
G01 X78.581 Y620.069
G01 X97.190 Y552.725
G01 X55.154 Y567.668
G01 X101.162 Y533.847
G01 X44.875 Y506.661
G01 X82.122 Y517.082
G01 X48.876 Y453.821
G01 X46.217 Y487.496
G01 X55.307 Y420.773
G01 X9.221 Y440.335
G01 X48.005 Y405.819
G01 X5.000 Y391.372
G01 X5.000 Y391.111
G01 X18.325 Y395.411
G01 X5.000 Y376.902
G01 X5.000 Y860.002
G01 X25.670 Y803.407
G01 X5.000 Y823.855
G01 X5.000 Y824.831
G01 X58.510 Y788.354
G01 X14.464 Y770.568
G01 X69.021 Y775.670
G01 X42.608 Y717.049
G01 X60.817 Y749.587
G01 X75.872 Y679.746
G01 X48.588 Y703.082
G01 X97.625 Y659.384
G01 X47.377 Y643.211
G01 X96.976 Y643.820
G01 X61.620 Y586.261
G01 X76.623 Y617.102
G01 X81.900 Y546.200
G01 X50.881 Y571.287
G01 X91.764 Y524.822
G01 X35.320 Y512.457
G01 X79.661 Y510.700
G01 X35.512 Y456.575
G01 X47.362 Y487.722
G01 X43.053 Y418.172
G01 X8.747 Y447.017
G01 X41.729 Y400.064
G01 X5.000 Y396.243
G01 X5.000 Y392.303
G01 X19.371 Y391.547
G01 X5.000 Y378.164
G01 X5.000 Y808.743
G01 X7.984 Y788.330
G01 X5.000 Y796.388
G01 X5.000 Y811.410
G01 X45.235 Y770.294
G01 X5.000 Y767.652
G01 X5.000 Y767.195
G01 X61.995 Y759.693
G01 X25.579 Y712.039
G01 X57.362 Y740.228
G01 X58.200 Y669.867
G01 X43.545 Y701.049
G01 X84.541 Y646.200
G01 X36.936 Y644.861
G01 X90.634 Y632.234
G01 X46.175 Y586.210
G01 X74.629 Y611.777
G01 X65.856 Y541.196
G01 X48.117 Y573.227
G01 X80.426 Y516.058
G01 X27.732 Y518.235
G01 X75.476 Y502.900
G01 X23.132 Y460.762
G01 X48.218 Y485.664
G01 X30.044 Y417.209
G01 X9.575 Y452.003
G01 X33.440 Y394.774
G01 X5.000 Y398.607
G01 X5.000 Y391.596
G01 X18.518 Y386.465
G01 X5.000 Y378.236
G01 X5.000 Y791.936
G01 X30.396 Y752.754
G01 X5.000 Y760.486
G01 X5.000 Y759.847
G01 X53.367 Y742.502
G01 X10.055 Y708.236
G01 X53.594 Y728.548
G01 X40.323 Y661.623
G01 X39.844 Y697.017
G01 X69.814 Y633.639
G01 X28.631 Y646.026
G01 X82.498 Y619.554
G01 X32.195 Y587.289
G01 X72.059 Y604.182
G01 X49.596 Y537.870
G01 X46.452 Y573.123
G01 X67.375 Y508.063
G01 X22.137 Y523.441
G01 X69.321 Y494.175
G01 X12.180 Y466.041
G01 X48.250 Y481.438
G01 X16.828 Y418.002
G01 X11.272 Y454.948
G01 X23.396 Y390.439
G01 X5.000 Y398.094
G01 X5.000 Y388.431
G01 X15.554 Y380.672
G01 X5.000 Y376.995
G01 X5.000 Y760.061
G01 X14.295 Y736.213
G01 X5.000 Y743.927
G01 X5.000 Y748.012
G01 X42.965 Y724.630
G01 X5.000 Y708.811
G01 X5.000 Y706.791
G01 X49.000 Y714.752
G01 X22.804 Y655.058
G01 X37.007 Y690.715
G01 X53.775 Y622.159
G01 X22.371 Y646.160
G01 X72.432 Y606.321
G01 X20.048 Y589.072
G01 X68.413 Y594.551
G01 X33.688 Y536.226
G01 X45.392 Y570.731
G01 X52.973 Y501.272
G01 X18.409 Y527.532
G01 X61.097 Y485.071
G01 X5.000 Y472.412
G01 X5.000 Y472.113
G01 X46.975 Y475.310
G01 X5.000 Y421.831
G01 X5.000 Y424.386
G01 X13.328 Y455.642
G01 X11.985 Y387.466
G01 X5.000 Y393.156
G01 X5.000 Y381.254
G01 X10.410 Y374.716
G01 X5.000 Y374.108
G01 X5.000 Y731.016
G01 X30.770 Y706.642
G01 X5.000 Y704.347
G01 X5.000 Y701.399
G01 X43.139 Y699.180
G01 X6.204 Y650.063
G01 X34.499 Y682.014
G01 X36.872 Y612.113
G01 X17.920 Y644.760
G01 X60.454 Y593.097
G01 X9.974 Y591.047
G01 X63.274 Y583.250
G01 X18.683 Y536.117
G01 X44.391 Y565.956
G01 X37.687 Y496.005
G01 X16.275 Y530.017
G01 X50.855 Y476.148
G01 X5.000 Y477.683
G01 X5.000 Y476.019
G01 X43.995 Y467.667
G01 X5.000 Y435.340
G01 X5.000 Y441.075
G01 X15.190 Y454.021
G01 X5.000 Y409.392
G01 X5.000 Y706.256
G01 X16.919 Y689.095
G01 X5.000 Y692.159
G01 X5.000 Y691.189
G01 X35.675 Y682.286
G01 X5.000 Y657.616
G01 X5.000 Y654.804
G01 X31.761 Y670.941
G01 X19.632 Y603.726
G01 X14.908 Y641.408
G01 X46.734 Y580.427
G01 X5.000 Y591.855
G01 X5.000 Y591.474
G01 X56.334 Y570.749
G01 X5.073 Y537.251
G01 X42.895 Y558.856
G01 X22.060 Y492.450
G01 X15.342 Y530.502
G01 X38.799 Y467.934
G01 X5.000 Y478.902
G01 X5.000 Y476.269
G01 X39.036 Y458.998
G01 X5.000 Y441.771
G01 X5.000 Y443.583
G01 X16.307 Y450.175
G01 X5.000 Y425.597
G01 X5.000 Y676.284
G01 X26.408 Y664.602
G01 X5.000 Y655.382
G01 X5.000 Y651.210
G01 X28.262 Y657.673
G01 X5.000 Y602.676
G01 X5.000 Y606.041
G01 X12.864 Y635.801
G01 X31.585 Y568.793
G01 X5.000 Y587.268
G01 X5.000 Y587.236
G01 X47.429 Y557.592
G01 X5.000 Y543.199
G01 X5.000 Y541.813
G01 X40.384 Y549.641
G01 X6.666 Y490.642
G01 X15.117 Y528.711
G01 X25.273 Y460.888
G01 X5.000 Y475.461
G01 X5.000 Y472.999
G01 X31.964 Y449.853
G01 X5.000 Y443.505
G01 X5.000 Y442.174
G01 X16.174 Y444.345
G01 X5.000 Y429.410
G01 X5.000 Y655.601
G01 X15.287 Y646.703
G01 X5.000 Y645.566
G01 X5.000 Y642.138
G01 X23.534 Y642.533
G01 X5.000 Y617.320
G01 X5.000 Y618.786
G01 X11.248 Y627.779
G01 X15.443 Y558.578
G01 X5.000 Y573.946
G01 X5.000 Y578.764
G01 X36.543 Y544.351
G01 X5.000 Y542.656
G01 X5.000 Y541.500

; BEGIN POST
; file: mishegoss6
; 24:32
; END POST
; file trimmed by trimify2x.pl
; QQQQQQQ

