; file trimmed by trimify2x.pl
; Created by Sandify
; 
;   https://sandify.org
; 
;   Sandify Version: 0.1.4
; 
;   Machine Type: Rectangular
;     MinX: 5 MaxX: 710 MinY: 5 MaxY: 1600
;   Content Type: Shapes
;     Starting Size: 300
;     Offset: X: 51 Y: -1000
;     Selected Shape: Circle
;       Circle Lobes: 1.47
;     Number of Loops: 244
;     Spin: true
;       Spin Value: -0.6
;       Spin Switchbacks: 0
;     Grow: true
;       Grow Value: 5
;     Track: true
;       Track Count: -34
;       Track Size: 880.45
;       Track Grow: false
;   Path Reversed: false
; 
; filename: 'mishegoss3'
; 57:51
; BEGIN PRE
G28  Y
G28 X
G01 F30000; END PRE
G01 X674.500 Y5.000
G01 X610.243 Y5.000
G01 X596.328 Y13.480
G01 X600.776 Y5.000
G01 X610.112 Y5.000
G01 X601.466 Y34.016
G01 X586.527 Y5.000
G01 X589.917 Y5.000
G01 X602.908 Y25.809
G01 X539.452 Y5.000
G01 X568.418 Y5.000
G01 X510.518 Y29.287
G01 X522.205 Y5.000
G01 X523.408 Y5.000
G01 X509.414 Y36.683
G01 X495.705 Y5.000
G01 X501.023 Y5.000
G01 X506.912 Y15.198
G01 X485.335 Y5.000
G01 X479.472 Y5.000
G01 X472.187 Y15.646
G01 X480.275 Y5.000
G01 X523.096 Y5.000
G01 X529.535 Y33.562
G01 X521.163 Y5.000
G01 X552.237 Y5.000
G01 X579.649 Y23.393
G01 X528.260 Y11.395
G01 X566.404 Y5.000
G01 X599.547 Y5.000
G01 X566.135 Y39.385
G01 X590.332 Y5.000
G01 X612.132 Y5.000
G01 X617.955 Y43.904
G01 X608.587 Y5.000
G01 X640.543 Y5.000
G01 X663.066 Y19.783
G01 X629.118 Y5.000
G01 X645.872 Y5.000
G01 X638.344 Y9.986
G01 X641.522 Y5.000
G01 X619.061 Y5.000
G01 X594.771 Y15.289
G01 X603.286 Y5.000
G01 X614.175 Y5.000
G01 X596.683 Y41.156
G01 X585.059 Y5.000
G01 X586.551 Y5.000
G01 X599.124 Y38.162
G01 X532.591 Y5.000
G01 X536.832 Y5.000
G01 X582.440 Y13.136
G01 X505.251 Y32.643
G01 X525.521 Y5.000
G01 X526.734 Y5.000
G01 X500.223 Y44.563
G01 X489.649 Y5.000
G01 X490.985 Y5.000
G01 X498.053 Y27.728
G01 X463.419 Y5.000
G01 X477.600 Y5.000
G01 X463.664 Y19.224
G01 X479.013 Y5.000
G01 X518.358 Y5.000
G01 X521.127 Y42.329
G01 X518.346 Y5.000
G01 X540.604 Y5.000
G01 X575.559 Y36.464
G01 X528.401 Y13.281
G01 X608.310 Y11.782
G01 X562.718 Y42.830
G01 X599.690 Y5.000
G01 X615.024 Y5.000
G01 X613.947 Y51.780
G01 X611.353 Y5.000
G01 X633.413 Y5.000
G01 X662.660 Y31.460
G01 X625.194 Y5.000
G01 X654.011 Y5.000
G01 X638.399 Y11.012
G01 X643.640 Y5.000
G01 X680.573 Y5.000
G01 X680.328 Y6.387
G01 X680.247 Y5.000
G01 X637.776 Y5.000
G01 X594.260 Y16.375
G01 X608.842 Y5.000
G01 X621.410 Y5.000
G01 X592.186 Y47.128
G01 X586.227 Y5.000
G01 X586.918 Y5.000
G01 X594.783 Y49.671
G01 X532.478 Y6.307
G01 X581.490 Y27.218
G01 X501.091 Y35.416
G01 X534.199 Y5.000
G01 X535.217 Y5.000
G01 X491.394 Y51.376
G01 X486.222 Y5.000
G01 X485.662 Y5.000
G01 X488.681 Y39.470
G01 X449.228 Y5.000
G01 X480.562 Y5.000
G01 X456.079 Y22.064
G01 X481.999 Y5.000
G01 X516.310 Y5.000
G01 X512.823 Y50.003
G01 X518.577 Y5.000
G01 X534.121 Y5.000
G01 X570.792 Y48.857
G01 X529.772 Y15.274
G01 X609.788 Y25.383
G01 X560.292 Y45.485
G01 X614.529 Y5.000
G01 X621.047 Y5.000
G01 X610.103 Y58.469
G01 X616.482 Y5.000
G01 X631.549 Y5.000
G01 X661.597 Y42.324
G01 X626.289 Y5.000
G01 X680.829 Y5.000
G01 X639.446 Y11.225
G01 X646.739 Y5.000
G01 X681.131 Y5.000
G01 X679.140 Y9.885
G01 X679.607 Y5.000
G01 X675.364 Y5.000
G01 X676.139 Y12.443
G01 X666.442 Y5.000
G01 X668.378 Y5.000
G01 X672.700 Y8.176
G01 X594.881 Y16.901
G01 X620.265 Y5.000
G01 X632.599 Y5.000
G01 X588.157 Y51.965
G01 X589.933 Y5.000
G01 X590.351 Y5.000
G01 X590.027 Y60.212
G01 X535.831 Y9.247
G01 X579.675 Y41.138
G01 X498.116 Y37.771
G01 X543.694 Y10.718
G01 X483.106 Y57.166
G01 X485.374 Y5.000
G01 X484.251 Y5.000
G01 X478.948 Y50.311
G01 X439.485 Y5.000
G01 X449.110 Y5.000
G01 X464.944 Y15.818
G01 X406.177 Y5.000
G01 X362.412 Y5.000
G01 X361.943 Y5.261
G01 X361.962 Y5.000
G01 X446.176 Y5.000
G01 X449.311 Y9.867
G01 X444.229 Y5.000
G01 X494.349 Y5.000
G01 X449.549 Y24.310
G01 X492.240 Y5.000
G01 X517.104 Y5.000
G01 X504.809 Y56.584
G01 X521.821 Y5.000
G01 X531.149 Y5.000
G01 X565.466 Y60.425
G01 X532.320 Y17.552
G01 X610.395 Y38.981
G01 X558.965 Y47.498
G01 X628.631 Y10.333
G01 X606.608 Y63.980
G01 X623.973 Y5.000
G01 X633.204 Y5.000
G01 X660.004 Y52.238
G01 X629.961 Y5.000
G01 X656.175 Y5.000
G01 X697.946 Y14.554
G01 X641.582 Y10.782
G01 X650.781 Y5.000
G01 X683.286 Y5.000
G01 X678.309 Y12.160
G01 X680.102 Y5.000
G01 X675.126 Y5.000
G01 X674.384 Y19.326
G01 X661.014 Y5.000
G01 X660.642 Y5.000
G01 X674.038 Y19.531
G01 X596.692 Y17.041
G01 X647.977 Y6.106
G01 X584.766 Y55.731
G01 X596.412 Y5.000
G01 X596.670 Y5.000
G01 X585.018 Y69.691
G01 X540.175 Y12.791
G01 X577.026 Y54.709
G01 X496.373 Y39.886
G01 X544.791 Y24.100
G01 X475.529 Y62.006
G01 X487.327 Y5.000
G01 X486.649 Y5.000
G01 X469.020 Y60.165
G01 X432.825 Y5.000
G01 X435.475 Y5.000
G01 X456.770 Y29.310
G01 X383.043 Y5.000
G01 X359.597 Y5.000
G01 X348.900 Y8.914
G01 X349.760 Y5.000
G01 X431.144 Y5.000
G01 X438.259 Y20.024
G01 X429.135 Y5.000
G01 X467.181 Y5.000
G01 X492.510 Y16.935
G01 X444.160 Y26.123
G01 X519.261 Y5.000
G01 X521.270 Y5.000
G01 X497.267 Y62.105
G01 X528.446 Y5.000
G01 X530.946 Y5.000
G01 X559.725 Y71.047
G01 X535.964 Y20.279
G01 X610.129 Y52.384
G01 X558.813 Y49.037
G01 X634.472 Y22.039
G01 X603.639 Y68.359
G01 X634.077 Y5.000
G01 X637.635 Y5.000
G01 X658.028 Y61.089
G01 X635.440 Y5.000
G01 X647.931 Y5.000
G01 X700.719 Y25.801
G01 X644.873 Y9.854
G01 X655.833 Y5.000
G01 X687.110 Y5.000
G01 X678.010 Y13.264
G01 X681.425 Y5.000
G01 X676.541 Y5.000
G01 X672.438 Y25.029
G01 X659.369 Y5.000
G01 X658.617 Y5.000
G01 X674.541 Y30.337
G01 X599.715 Y16.977
G01 X652.751 Y17.977
G01 X582.173 Y58.520
G01 X604.768 Y8.541
G01 X579.930 Y78.044
G01 X545.375 Y17.066
G01 X573.606 Y67.753
G01 X495.876 Y41.942
G01 X545.117 Y37.886
G01 X468.815 Y66.001
G01 X491.031 Y9.222
G01 X459.077 Y68.980
G01 X428.622 Y5.000
G01 X428.852 Y5.000
G01 X447.842 Y42.325
G01 X370.897 Y5.000
G01 X370.344 Y5.000
G01 X336.735 Y11.876
G01 X339.360 Y5.000
G01 X419.029 Y5.000
G01 X426.868 Y29.278
G01 X419.616 Y5.000
G01 X447.716 Y5.000
G01 X486.611 Y30.028
G01 X439.972 Y27.678
G01 X522.315 Y16.954
G01 X490.371 Y66.630
G01 X534.771 Y10.735
G01 X553.730 Y80.629
G01 X540.594 Y23.606
G01 X609.021 Y65.405
G01 X559.882 Y50.278
G01 X639.622 Y34.228
G01 X601.365 Y71.678
G01 X645.164 Y8.188
G01 X655.836 Y68.792
G01 X642.450 Y5.000
G01 X648.637 Y5.000
G01 X702.635 Y36.533
G01 X649.352 Y8.622
G01 X662.285 Y5.000
G01 X693.254 Y5.000
G01 X678.403 Y13.284
G01 X683.319 Y5.000
G01 X679.371 Y5.000
G01 X670.480 Y29.510
G01 X660.235 Y5.000
G01 X659.896 Y5.000
G01 X674.291 Y40.423
G01 X603.942 Y16.893
G01 X656.681 Y30.046
G01 X580.515 Y60.454
G01 X611.715 Y18.182
G01 X574.945 Y85.237
G01 X551.275 Y22.174
G01 X569.509 Y80.105
G01 X496.608 Y44.125
G01 X544.607 Y51.897
G01 X463.097 Y69.278
G01 X493.234 Y20.408
G01 X449.305 Y76.732
G01 X426.617 Y5.000
G01 X426.539 Y5.000
G01 X438.266 Y54.705
G01 X364.993 Y6.472
G01 X410.084 Y9.246
G01 X325.575 Y14.284
G01 X330.899 Y5.000
G01 X309.846 Y5.000
G01 X307.910 Y6.858
G01 X307.448 Y5.000
G01 X409.339 Y5.000
G01 X415.312 Y37.554
G01 X413.755 Y5.000
G01 X435.199 Y5.000
G01 X479.896 Y42.723
G01 X437.012 Y29.157
G01 X522.333 Y30.019
G01 X484.279 Y70.254
G01 X539.680 Y19.993
G01 X547.656 Y89.106
G01 X546.075 Y27.661
G01 X607.135 Y77.868
G01 X562.185 Y51.405
G01 X643.986 Y46.736
G01 X599.936 Y74.043
G01 X654.125 Y16.466
G01 X653.603 Y75.293
G01 X650.926 Y5.000
G01 X652.937 Y5.000
G01 X703.764 Y46.577
G01 X655.022 Y7.270
G01 X672.541 Y5.000
G01 X704.960 Y5.000
G01 X679.634 Y12.333
G01 X685.526 Y5.000
G01 X683.507 Y5.000
G01 X668.694 Y32.758
G01 X663.002 Y5.000
G01 X663.466 Y5.000
G01 X673.399 Y49.639
G01 X609.333 Y16.970
G01 X659.721 Y42.126
G01 X579.905 Y61.675
G01 X618.283 Y28.610
G01 X570.248 Y91.273
G01 X557.702 Y28.190
G01 X564.854 Y91.621
G01 X498.518 Y46.610
G01 X543.228 Y65.946
G01 X458.482 Y71.987
G01 X495.020 Y32.443
G01 X439.889 Y83.434
G01 X427.794 Y11.076
G01 X428.169 Y66.313
G01 X361.796 Y9.173
G01 X402.753 Y23.027
G01 X315.519 Y16.293
G01 X324.794 Y5.000
G01 X302.971 Y5.000
G01 X292.549 Y12.076
G01 X291.726 Y5.000
G01 X336.047 Y5.000
G01 X335.397 Y5.691
G01 X336.601 Y5.000
G01 X401.840 Y5.000
G01 X403.773 Y44.810
G01 X410.916 Y5.000
G01 X426.738 Y5.000
G01 X472.448 Y54.849
G01 X435.271 Y30.744
G01 X521.517 Y43.381
G01 X479.130 Y73.097
G01 X544.382 Y30.171
G01 X541.686 Y96.445
G01 X552.250 Y32.545
G01 X604.564 Y89.607
G01 X565.705 Y52.601
G01 X647.497 Y59.385
G01 X599.482 Y75.581
G01 X662.805 Y25.553
G01 X651.514 Y80.573
G01 X660.746 Y6.504
G01 X704.209 Y55.776
G01 X661.852 Y5.981
G01 X710.000 Y6.780
G01 X710.000 Y8.854
G01 X681.822 Y10.548
G01 X687.729 Y5.000
G01 X688.959 Y5.000
G01 X667.260 Y34.798
G01 X667.405 Y5.000
G01 X668.866 Y5.000
G01 X671.999 Y57.856
G01 X615.813 Y17.378
G01 X661.858 Y54.029
G01 X580.430 Y62.345
G01 X624.318 Y39.712
G01 X566.021 Y96.183
G01 X564.473 Y35.156
G01 X559.784 Y102.178
G01 X501.524 Y49.564
G01 X540.979 Y79.843
G01 X455.046 Y74.295
G01 X496.243 Y45.205
G01 X431.010 Y89.130
G01 X429.562 Y19.188
G01 X417.705 Y77.036
G01 X359.649 Y12.506
G01 X394.540 Y36.707
G01 X306.637 Y18.074
G01 X322.126 Y5.000
G01 X302.068 Y5.000
G01 X277.745 Y16.429
G01 X277.908 Y5.000
G01 X328.017 Y5.000
G01 X325.033 Y7.180
G01 X330.680 Y5.000
G01 X396.492 Y5.000
G01 X392.437 Y51.036
G01 X411.072 Y5.000
G01 X421.090 Y5.000
G01 X464.381 Y66.257
G01 X434.711 Y32.619
G01 X519.825 Y56.854
G01 X475.039 Y75.303
G01 X548.708 Y41.184
G01 X536.005 Y102.648
G01 X558.946 Y38.332
G01 X601.426 Y100.478
G01 X570.388 Y54.044
G01 X650.120 Y71.987
G01 X600.109 Y76.443
G01 X671.039 Y35.354
G01 X649.750 Y84.642
G01 X671.061 Y10.549
G01 X704.096 Y63.993
G01 X669.818 Y5.000
G01 X670.201 Y5.000
G01 X710.000 Y11.598
G01 X710.000 Y11.948
G01 X685.063 Y8.086
G01 X689.431 Y5.000
G01 X695.888 Y5.000
G01 X666.356 Y35.684
G01 X673.426 Y5.000
G01 X675.904 Y5.000
G01 X670.246 Y64.970
G01 X623.280 Y18.274
G01 X663.112 Y65.567
G01 X582.146 Y62.640
G01 X629.690 Y51.349
G01 X562.436 Y100.033
G01 X571.401 Y43.083
G01 X554.461 Y111.684
G01 X505.515 Y53.136
G01 X537.892 Y93.401
G01 X452.838 Y76.380
G01 X496.783 Y58.549
G01 X422.837 Y93.893
G01 X431.427 Y28.360
G01 X407.040 Y86.791
G01 X358.435 Y16.613
G01 X385.489 Y50.102
G01 X298.966 Y19.810
G01 X326.182 Y5.000
G01 X313.666 Y5.000
G01 X263.662 Y20.003
G01 X265.897 Y5.000
G01 X322.974 Y5.000
G01 X315.754 Y8.255
G01 X330.004 Y5.000
G01 X393.461 Y5.000
G01 X381.490 Y56.255
G01 X414.669 Y5.000
G01 X417.676 Y5.000
G01 X455.831 Y76.816
G01 X435.259 Y34.952
G01 X517.245 Y70.250
G01 X472.093 Y77.034
G01 X552.507 Y52.919
G01 X530.794 Y107.748
G01 X565.982 Y45.065
G01 X597.864 Y110.360
G01 X576.151 Y55.900
G01 X651.854 Y84.353
G01 X601.892 Y76.796
G01 X678.682 Y45.746
G01 X648.491 Y87.545
G01 X681.621 Y15.471
G01 X703.572 Y71.115
G01 X678.973 Y5.000
G01 X680.920 Y5.000
G01 X710.000 Y14.489
G01 X710.000 Y12.802
G01 X689.422 Y5.120
G01 X689.654 Y5.000
G01 X704.695 Y5.000
G01 X666.140 Y35.503
G01 X681.346 Y5.000
G01 X684.561 Y5.000
G01 X668.309 Y70.908
G01 X631.607 Y19.792
G01 X663.535 Y76.559
G01 X585.077 Y62.741
G01 X634.294 Y63.363
G01 X559.649 Y102.917
G01 X578.296 Y51.946
G01 X549.059 Y120.074
G01 X510.357 Y57.453
G01 X534.032 Y106.442
G01 X451.871 Y78.424
G01 X496.544 Y72.308
G01 X415.523 Y97.830
G01 X433.203 Y38.559
G01 X396.355 Y95.523
G01 X358.013 Y21.613
G01 X375.678 Y63.038
G01 X292.512 Y21.683
G01 X334.988 Y9.995
G01 X250.451 Y22.911
G01 X255.730 Y5.000
G01 X228.364 Y5.000
G01 X228.140 Y5.258
G01 X228.030 Y5.000
G01 X329.404 Y5.000
G01 X307.629 Y9.088
G01 X354.006 Y5.000
G01 X393.198 Y5.000
G01 X371.110 Y60.522
G01 X418.119 Y9.973
G01 X446.955 Y86.425
G01 X436.817 Y37.900
G01 X513.799 Y83.380
G01 X470.350 Y78.464
G01 X555.647 Y65.236
G01 X526.226 Y111.811
G01 X573.167 Y52.754
G01 X594.040 Y119.158
G01 X582.885 Y58.317
G01 X652.731 Y96.297
G01 X604.876 Y76.818
G01 X685.609 Y56.585
G01 X647.902 Y89.358
G01 X692.235 Y21.270
G01 X702.803 Y77.060
G01 X688.676 Y5.000
G01 X690.147 Y5.000
G01 X710.000 Y15.117
G01 X710.000 Y11.073
G01 X700.101 Y5.000
G01 X710.000 Y5.000
G01 X710.000 Y8.736
G01 X666.759 Y34.367
G01 X692.013 Y5.000
G01 X694.962 Y5.000
G01 X666.367 Y75.629
G01 X640.640 Y22.045
G01 X663.210 Y86.835
G01 X589.214 Y62.832
G01 X638.054 Y75.578
G01 X557.799 Y104.956
G01 X584.978 Y61.691
G01 X543.762 Y127.315
G01 X515.892 Y62.618
G01 X529.492 Y118.802
G01 X452.127 Y80.610
G01 X495.463 Y86.305
G01 X409.200 Y101.067
G01 X434.715 Y49.719
G01 X385.835 Y103.211
G01 X358.221 Y27.599
G01 X365.210 Y75.358
G01 X287.247 Y23.876
G01 X327.527 Y23.656
G01 X238.235 Y25.290
G01 X247.620 Y5.000
G01 X219.105 Y5.000
G01 X211.215 Y11.403
G01 X209.350 Y5.000
G01 X328.628 Y5.000
G01 X339.000 Y13.322
G01 X300.696 Y9.859
G01 X391.451 Y13.746
G01 X361.461 Y63.923
G01 X419.929 Y18.549
G01 X437.926 Y95.008
G01 X439.256 Y41.596
G01 X509.540 Y96.063
G01 X469.834 Y79.775
G01 X558.025 Y77.977
G01 X522.459 Y114.929
G01 X580.314 Y61.376
G01 X590.127 Y126.810
G01 X590.451 Y61.424
G01 X652.811 Y107.640
G01 X609.074 Y76.692
G01 X691.725 Y67.705
G01 X648.135 Y90.184
G01 X702.716 Y27.911
G01 X701.965 Y81.774
G01 X699.067 Y5.000
G01 X699.439 Y5.000
G01 X710.000 Y12.759
G01 X710.000 Y5.963
G01 X708.929 Y5.000
G01 X710.000 Y5.000
G01 X710.000 Y14.747
G01 X668.332 Y32.416
G01 X707.081 Y5.558
G01 X664.605 Y79.121
G01 X650.213 Y25.116
G01 X662.248 Y96.245
G01 X594.515 Y63.095
G01 X640.924 Y87.811
G01 X556.999 Y106.295
G01 X591.277 Y72.233
G01 X538.753 Y133.410
G01 X521.950 Y68.703
G01 X524.392 Y130.338
G01 X453.555 Y83.117
G01 X493.507 Y100.352
G01 X403.974 Y103.755
G01 X435.799 Y61.744
G01 X375.667 Y109.868
G01 X358.887 Y34.635
G01 X354.216 Y86.924
G01 X283.112 Y26.563
G01 X319.162 Y37.425
G01 X227.115 Y27.297
G01 X242.082 Y5.000
G01 X214.881 Y5.000
G01 X194.661 Y16.654
G01 X192.736 Y5.000
G01 X308.387 Y5.000
G01 X328.024 Y24.916
G01 X294.959 Y10.754
G01 X387.441 Y26.495
G01 X352.689 Y66.570
G01 X421.569 Y28.133
G01 X428.926 Y102.523
G01 X442.427 Y46.154
G01 X504.554 Y108.129
G01 X470.537 Y81.152
G01 X559.566 Y90.967
G01 X519.630 Y117.226
G01 X587.242 Y70.875
G01 X586.309 Y133.284
G01 X598.693 Y65.322
G01 X652.189 Y118.220
G01 X614.465 Y76.602
G01 X696.962 Y78.928
G01 X649.318 Y90.154
G01 X710.000 Y37.817
G01 X710.000 Y47.692
G01 X701.241 Y85.237
G01 X710.000 Y7.562
G01 X710.000 Y19.146
G01 X670.954 Y29.805
G01 X710.000 Y15.464
G01 X710.000 Y21.033
G01 X663.205 Y81.411
G01 X660.142 Y29.059
G01 X660.783 Y104.661
G01 X600.907 Y63.698
G01 X642.893 Y99.873
G01 X557.336 Y107.095
G01 X597.041 Y83.456
G01 X534.216 Y138.392
G01 X528.346 Y75.751
G01 X518.877 Y140.927
G01 X456.073 Y86.110
G01 X490.676 Y114.261
G01 X399.924 Y106.062
G01 X436.312 Y74.512
G01 X366.031 Y115.539
G01 X359.825 Y42.753
G01 X342.847 Y97.625
G01 X280.016 Y29.907
G01 X309.907 Y51.113
G01 X217.160 Y29.103
G01 X240.329 Y5.000
G01 X219.417 Y5.000
G01 X178.656 Y21.068
G01 X177.977 Y5.000
G01 X233.351 Y5.000
G01 X233.478 Y9.381
G01 X235.650 Y5.000
G01 X292.192 Y5.000
G01 X316.359 Y35.913
G01 X290.392 Y11.954
G01 X382.539 Y39.487
G01 X344.920 Y68.602
G01 X422.866 Y38.649
G01 X420.140 Y108.962
G01 X446.164 Y51.655
G01 X498.952 Y119.429
G01 X472.419 Y82.775
G01 X560.225 Y104.022
G01 X517.853 Y118.845
G01 X593.782 Y81.165
G01 X582.769 Y138.580
G01 X607.439 Y70.084
G01 X650.984 Y127.892
G01 X620.997 Y76.725
G01 X701.287 Y90.068
G01 X651.554 Y89.419
G01 X710.000 Y51.573
G01 X710.000 Y68.874
G01 X700.813 Y87.463
G01 X710.000 Y52.552
G01 X710.000 Y22.076
G01 X674.690 Y26.707
G01 X710.000 Y22.974
G01 X710.000 Y35.564
G01 X662.340 Y82.552
G01 X670.241 Y33.894
G01 X658.970 Y111.979
G01 X608.287 Y64.799
G01 X643.980 Y111.574
G01 X558.864 Y107.531
G01 X602.140 Y95.222
G01 X530.320 Y142.325
G01 X534.893 Y83.771
G01 X513.107 Y150.476
G01 X459.571 Y89.737
G01 X487.004 Y127.843
G01 X397.095 Y108.165
G01 X436.134 Y87.876
G01 X357.096 Y120.298
G01 X360.848 Y51.951
G01 X331.273 Y107.377
G01 X277.842 Y34.048
G01 X299.806 Y64.536
G01 X208.408 Y30.890
G01 X245.731 Y5.000
G01 X244.916 Y5.000
G01 X163.367 Y24.729
G01 X164.991 Y5.000
G01 X219.194 Y5.000
G01 X218.324 Y14.195
G01 X225.381 Y5.000
G01 X278.909 Y5.000
G01 X304.136 Y46.177
G01 X286.932 Y13.634
G01 X376.726 Y52.534
G01 X338.251 Y70.175
G01 X423.662 Y49.991
G01 X411.754 Y114.348
G01 X450.287 Y58.152
G01 X492.871 Y129.832
G01 X475.407 Y84.814
G01 X559.991 Y116.951
G01 X517.215 Y119.948
G01 X599.780 Y92.132
G01 X579.688 Y142.734
G01 X616.503 Y75.754
G01 X649.338 Y136.535
G01 X628.586 Y77.227
G01 X704.698 Y100.936
G01 X654.920 Y88.145
G01 X710.000 Y62.261
G01 X710.000 Y77.686
G01 X700.859 Y88.497
G01 X710.000 Y66.765
G01 X710.000 Y23.552
G01 X679.573 Y23.304
G01 X710.000 Y27.233
G01 X710.000 Y46.499
G01 X662.173 Y82.632
G01 X680.319 Y39.609
G01 X656.980 Y118.126
G01 X616.526 Y66.531
G01 X644.239 Y122.734
G01 X561.609 Y107.785
G01 X606.468 Y107.373
G01 X527.225 Y145.306
G01 X541.403 Y92.741
G01 X507.258 Y158.922
G01 X463.913 Y94.125
G01 X482.554 Y140.921
G01 X395.502 Y110.247
G01 X435.170 Y101.671
G01 X349.016 Y124.251
G01 X361.774 Y62.195
G01 X319.674 Y116.127
G01 X276.450 Y39.106
G01 X288.938 Y77.521
G01 X200.864 Y32.843
G01 X238.407 Y18.167
G01 X148.943 Y27.753
G01 X153.820 Y5.000
G01 X206.614 Y5.000
G01 X203.649 Y18.117
G01 X217.923 Y5.000
G01 X267.926 Y5.000
G01 X291.507 Y55.596
G01 X284.490 Y15.956
G01 X370.012 Y65.446
G01 X332.749 Y71.461
G01 X423.823 Y62.029
G01 X403.943 Y118.735
G01 X454.610 Y65.666
G01 X486.467 Y139.237
G01 X479.399 Y87.423
G01 X558.887 Y129.568
G01 X517.772 Y120.710
G01 X605.108 Y103.638
G01 X577.238 Y145.810
G01 X625.696 Y82.341
G01 X647.411 Y144.057
G01 X637.119 Y78.258
G01 X707.225 Y111.344
G01 X659.460 Y86.511
G01 X710.000 Y70.599
G01 X710.000 Y82.417
G01 X701.545 Y88.415
G01 X710.000 Y74.168
G01 X710.000 Y23.482
G01 X685.605 Y19.780
G01 X710.000 Y28.588
G01 X710.000 Y54.958
G01 X662.847 Y81.764
G01 X690.190 Y46.161
G01 X654.993 Y123.061
G01 X625.472 Y69.006
G01 X643.754 Y133.185
G01 X565.559 Y108.042
G01 X609.951 Y119.733
G01 X525.067 Y147.456
G01 X547.694 Y102.603
G01 X501.514 Y166.233
G01 X468.942 Y99.378
G01 X477.421 Y153.333
G01 X395.127 Y112.492
G01 X433.356 Y115.720
G01 X341.923 Y127.526
G01 X362.425 Y73.419
G01 X308.235 Y123.855
G01 X275.678 Y45.175
G01 X277.406 Y89.911
G01 X194.500 Y35.142
G01 X229.753 Y31.954
G01 X135.507 Y30.277
G01 X144.656 Y5.000
G01 X106.612 Y5.000
G01 X98.922 Y10.310
G01 X97.159 Y5.000
G01 X195.685 Y5.000
G01 X189.623 Y21.224
G01 X214.027 Y5.000
G01 X258.911 Y5.000
G01 X278.643 Y64.088
G01 X282.947 Y19.062
G01 X362.444 Y78.040
G01 X328.451 Y72.640
G01 X423.235 Y74.611
G01 X396.871 Y122.211
G01 X458.945 Y74.186
G01 X479.913 Y147.569
G01 X484.267 Y90.739
G01 X556.965 Y141.690
G01 X519.547 Y121.313
G01 X609.659 Y115.523
G01 X575.576 Y147.905
G01 X634.831 Y89.821
G01 X645.378 Y150.394
G01 X646.459 Y79.945
G01 X708.932 Y121.117
G01 X665.184 Y84.702
G01 X710.000 Y76.959
G01 X710.000 Y84.677
G01 X703.021 Y87.322
G01 X710.000 Y78.518
G01 X710.000 Y21.626
G01 X692.752 Y16.320
G01 X710.000 Y26.855
G01 X710.000 Y61.516
G01 X664.483 Y80.087
G01 X699.681 Y53.474
G01 X653.191 Y126.776
G01 X634.957 Y72.308
G01 X642.635 Y142.776
G01 X570.674 Y108.482
G01 X612.544 Y132.118
G01 X523.961 Y148.919
G01 X553.599 Y113.273
G01 X496.059 Y172.412
G01 X474.487 Y105.566
G01 X471.727 Y164.932
G01 X395.917 Y115.076
G01 X430.662 Y129.834
G01 X335.921 Y130.274
G01 X362.639 Y85.528
G01 X297.144 Y130.574
G01 X275.352 Y52.317
G01 X265.343 Y101.569
G01 X189.257 Y37.963
G01 X220.189 Y45.873
G01 X123.161 Y32.457
G01 X137.952 Y5.000
G01 X103.019 Y5.000
G01 X81.025 Y15.798
G01 X78.742 Y5.000
G01 X186.671 Y5.000
G01 X176.401 Y23.622
G01 X215.645 Y5.000
G01 X251.713 Y5.000
G01 X265.723 Y71.600
G01 X282.164 Y23.071
G01 X354.097 Y90.143
G01 X325.361 Y73.897
G01 X421.815 Y87.566
G01 X390.686 Y124.888
G01 X463.108 Y83.664
G01 X473.390 Y154.788
G01 X489.862 Y94.871
G01 X554.310 Y153.149
G01 X522.531 Y121.941
G01 X613.359 Y127.613
G01 X574.839 Y149.139
G01 X643.725 Y98.139
G01 X643.420 Y155.517
G01 X656.449 Y82.390
G01 X709.911 Y130.091
G01 X672.072 Y82.901
G01 X710.000 Y81.507
G01 X710.000 Y84.834
G01 X705.415 Y85.350
G01 X710.000 Y80.923
G01 X710.000 Y17.512
G01 X700.951 Y13.097
G01 X710.000 Y21.278
G01 X710.000 Y66.473
G01 X667.174 Y77.757
G01 X708.632 Y61.442
G01 X651.757 Y129.293
G01 X644.799 Y76.489
G01 X641.018 Y151.379
G01 X576.879 Y109.275
G01 X614.236 Y144.339
G01 X523.991 Y149.858
G01 X558.964 Y124.635
G01 X491.075 Y177.492
G01 X480.365 Y112.733
G01 X465.615 Y175.601
G01 X397.791 Y118.166
G01 X427.088 Y143.825
G01 X331.090 Y132.663
G01 X362.274 Y98.397
G01 X286.582 Y136.330
G01 X275.289 Y60.564
G01 X252.901 Y112.384
G01 X185.044 Y41.467
G01 X209.727 Y59.733
G01 X111.974 Y34.467
G01 X134.723 Y5.000
G01 X110.478 Y5.000
G01 X63.673 Y20.477
G01 X62.200 Y5.000
G01 X180.236 Y5.000
G01 X164.116 Y25.441
G01 X228.078 Y5.000
G01 X246.318 Y5.000
G01 X252.934 Y78.114
G01 X281.978 Y28.078
G01 X345.077 Y101.599
G01 X323.449 Y75.414
G01 X419.511 Y100.712
G01 X385.508 Y126.904
G01 X466.927 Y94.027
G01 X467.082 Y160.884
G01 X496.015 Y99.903
G01 X551.033 Y163.796
G01 X526.682 Y122.776
G01 X616.164 Y139.723
G01 X575.139 Y149.659
G01 X652.208 Y107.208
G01 X641.722 Y159.426
G01 X666.914 Y85.667
G01 X710.000 Y137.782
G01 X710.000 Y137.593
G01 X680.069 Y81.286
G01 X710.000 Y84.255
G01 X710.000 Y82.799
G01 X708.829 Y82.649
G01 X710.000 Y81.783
G01 X710.000 Y69.970
G01 X670.986 Y74.947
G01 X710.000 Y70.689
G01 X710.000 Y76.285
G01 X650.866 Y130.669
G01 X654.811 Y81.570
G01 X639.058 Y158.890
G01 X584.072 Y110.577
G01 X615.048 Y156.207
G01 X525.213 Y150.446
G01 X563.661 Y136.551
G01 X486.734 Y181.539
G01 X486.387 Y120.887
G01 X459.248 Y185.244
G01 X400.638 Y121.910
G01 X422.668 Y157.505
G01 X327.476 Y134.871
G01 X361.210 Y111.881
G01 X276.716 Y141.197
G01 X275.302 Y69.914
G01 X240.249 Y122.273
G01 X181.744 Y45.797
G01 X198.413 Y73.351
G01 X101.982 Y36.487
G01 X134.790 Y7.480
G01 X47.033 Y24.435
G01 X47.439 Y5.000
G01 X178.200 Y5.000
G01 X152.876 Y26.833
G01 X242.694 Y10.176
G01 X240.462 Y83.642
G01 X282.215 Y34.144
G01 X335.513 Y112.270
G01 X322.653 Y77.366
G01 X416.301 Y113.862
G01 X381.435 Y128.416
G01 X470.244 Y105.167
G01 X461.175 Y165.881
G01 X502.546 Y105.887
G01 X547.272 Y173.500
G01 X531.926 Y123.986
G01 X618.062 Y151.664
G01 X576.562 Y149.625
G01 X660.129 Y116.915
G01 X640.463 Y162.157
G01 X677.669 Y89.817
G01 X710.000 Y144.778
G01 X710.000 Y144.521
G01 X689.091 Y80.024
G01 X710.000 Y85.066
G01 X710.000 Y72.036
G01 X675.952 Y71.838
G01 X710.000 Y76.734
G01 X710.000 Y88.987
G01 X650.679 Y130.992
G01 X664.802 Y87.538
G01 X636.925 Y165.239
G01 X592.123 Y112.521
G01 X615.033 Y167.541
G01 X527.650 Y150.868
G01 X567.585 Y148.861
G01 X483.193 Y184.649
G01 X492.366 Y130.005
G01 X452.801 Y193.800
G01 X404.323 Y126.435
G01 X417.467 Y170.697
G01 X325.092 Y137.080
G01 X359.353 Y125.815
G01 X267.702 Y145.281
G01 X275.208 Y80.332
G01 X227.569 Y131.184
G01 X179.217 Y51.070
G01 X186.327 Y86.555
G01 X93.192 Y38.702
G01 X125.697 Y21.250
G01 X31.253 Y27.785
G01 X34.474 Y5.000
G01 X162.128 Y5.000
G01 X174.246 Y11.811
G01 X142.758 Y27.966
G01 X238.963 Y21.838
G01 X228.490 Y88.231
G01 X282.691 Y41.302
G01 X325.559 Y122.047
G01 X322.882 Y79.913
G01 X412.198 Y126.827
G01 X378.534 Y129.596
G01 X472.924 Y116.954
G01 X455.843 Y169.835
G01 X509.268 Y112.843
G01 X543.183 Y182.160
G01 X538.161 Y125.727
G01 X619.075 Y163.248
G01 X579.162 Y149.213
G01 X667.356 Y127.120
G01 X639.815 Y163.777
G01 X688.525 Y94.850
G01 X709.783 Y150.908
G01 X699.025 Y79.263
G01 X710.000 Y83.618
G01 X710.000 Y72.597
G01 X682.071 Y68.616
G01 X710.000 Y79.612
G01 X710.000 Y99.070
G01 X651.340 Y130.375
G01 X674.587 Y94.348
G01 X634.800 Y170.382
G01 X600.880 Y115.219
G01 X614.276 Y178.174
G01 X531.294 Y151.307
G01 X570.662 Y161.390
G01 X480.590 Y186.944
G01 X498.123 Y140.030
G01 X446.459 Y201.237
G01 X408.690 Y131.843
G01 X411.581 Y183.239
G01 X323.921 Y139.475
G01 X356.641 Y140.020
G01 X259.670 Y148.713
G01 X274.831 Y91.752
G01 X215.046 Y139.098
G01 X177.301 Y57.380
G01 X173.573 Y99.188
G01 X85.576 Y41.294
G01 X115.705 Y35.364
G01 X16.459 Y30.665
G01 X23.450 Y5.000
G01 X135.290 Y5.000
G01 X162.554 Y24.342
G01 X133.812 Y29.018
G01 X234.493 Y34.177
G01 X217.186 Y91.958
G01 X283.220 Y49.549
G01 X315.382 Y130.846
G01 X324.018 Y83.198
G01 X407.246 Y139.422
G01 X376.839 Y130.625
G01 X474.853 Y129.234
G01 X451.249 Y172.833
G01 X515.992 Y120.758
G01 X538.936 Y189.704
G01 X545.259 Y128.133
G01 X619.256 Y174.294
G01 X582.963 Y148.607
G01 X673.785 Y137.665
G01 X639.932 Y164.381
G01 X699.293 Y100.743
G01 X709.248 Y155.508
G01 X709.733 Y79.131
G01 X710.000 Y79.285
G01 X710.000 Y71.454
G01 X689.311 Y65.464
G01 X710.000 Y79.232
G01 X710.000 Y107.152
G01 X652.968 Y128.956
G01 X683.992 Y101.924
G01 X632.867 Y174.313
G01 X610.175 Y118.754
G01 X612.888 Y187.956
G01 X536.101 Y151.943
G01 X572.848 Y173.954
G01 X479.038 Y188.569
G01 X503.487 Y150.876
G01 X440.406 Y207.558
G01 X413.566 Y138.206
G01 X405.131 Y194.986
G01 X323.909 Y142.233
G01 X353.042 Y154.310
G01 X252.726 Y151.643
G01 X274.009 Y104.078
G01 X202.867 Y146.027
G01 X175.823 Y64.790
G01 X160.284 Y111.113
G01 X79.073 Y44.438
G01 X104.796 Y49.634
G01 X5.000 Y33.596
G01 X5.000 Y27.926
G01 X14.714 Y5.000
G01 X50.177 Y5.000
G01 X50.949 Y7.613
G01 X52.093 Y5.000
G01 X114.104 Y5.000
G01 X150.032 Y36.522
G01 X126.052 Y30.175
G01 X229.192 Y47.028
G01 X206.703 Y94.927
G01 X283.618 Y58.851
G01 X305.162 Y138.616
G01 X325.917 Y87.339
G01 X401.522 Y151.476
G01 X376.354 Y131.686
G01 X475.948 Y141.839
G01 X447.539 Y174.988
G01 X522.535 Y129.587
G01 X534.712 Y196.090
G01 X553.066 Y131.316
G01 X618.690 Y184.635
G01 X587.954 Y147.991
G01 X679.340 Y148.375
G01 X640.953 Y164.093
G01 X709.791 Y107.440
G01 X708.762 Y158.862
G01 X710.000 Y150.895
G01 X710.000 Y68.216
G01 X697.608 Y62.556
G01 X710.000 Y74.832
G01 X710.000 Y113.575
G01 X655.657 Y126.893
G01 X692.859 Y110.162
G01 X631.307 Y177.056
G01 X619.827 Y123.178
G01 X611.005 Y196.757
G01 X541.997 Y152.946
G01 X574.132 Y186.364
G01 X478.623 Y189.685
G01 X508.308 Y162.427
G01 X434.824 Y212.798
G01 X418.768 Y145.565
G01 X398.263 Y205.819
G01 X324.976 Y145.519
G01 X348.560 Y168.493
G01 X246.949 Y154.238
G01 X272.601 Y117.187
G01 X191.215 Y152.018
G01 X174.599 Y73.331
G01 X146.613 Y122.221
G01 X73.594 Y48.295
G01 X92.984 Y63.871
G01 X5.000 Y39.727
G01 X5.000 Y11.555
G01 X9.025 Y5.000
G01 X31.723 Y5.000
G01 X33.456 Y14.385
G01 X40.051 Y5.000
G01 X96.626 Y5.000
G01 X136.776 Y48.189
G01 X119.461 Y31.620
G01 X223.000 Y60.211
G01 X197.175 Y97.271
G01 X283.708 Y69.143
G01 X295.086 Y145.338
G01 X328.418 Y92.429
G01 X395.130 Y162.830
G01 X377.046 Y132.963
G01 X476.156 Y154.585
G01 X444.834 Y176.438
G01 X528.724 Y139.254
G01 X530.697 Y201.309
G01 X561.416 Y135.357
G01 X617.488 Y194.119
G01 X594.091 Y147.544
G01 X683.978 Y159.066
G01 X642.987 Y163.057
G01 X710.000 Y121.031
G01 X710.000 Y154.909
G01 X708.509 Y160.973
G01 X710.000 Y156.076
G01 X710.000 Y62.125
G01 X706.865 Y60.053
G01 X710.000 Y64.513
G01 X710.000 Y118.521
G01 X659.473 Y124.359
G01 X701.048 Y118.929
G01 X630.296 Y178.667
G01 X629.647 Y128.511
G01 X608.783 Y204.477
G01 X548.879 Y154.471
G01 X574.536 Y198.431
G01 X479.399 Y190.469
G01 X512.458 Y174.545
G01 X429.885 Y217.023
G01 X424.109 Y153.929
G01 X391.138 Y215.645
G01 X327.010 Y149.481
G01 X343.228 Y182.386
G01 X242.385 Y156.678
G01 X270.487 Y130.931
G01 X180.257 Y157.148
G01 X173.444 Y83.000
G01 X132.730 Y132.428
G01 X69.021 Y53.006
G01 X80.318 Y77.892
G01 X5.000 Y48.387
G01 X5.000 Y8.657
G01 X6.729 Y6.709
G01 X5.000 Y6.976
G01 X5.000 Y5.000
G01 X15.027 Y5.000
G01 X16.197 Y20.255
G01 X31.323 Y5.000
G01 X81.842 Y5.000
G01 X122.911 Y59.201
G01 X113.989 Y33.531
G01 X215.887 Y73.542
G01 X188.706 Y99.140
G01 X283.330 Y80.327
G01 X285.340 Y151.025
G01 X331.345 Y98.531
G01 X388.200 Y173.351
G01 X378.855 Y134.629
G01 X475.455 Y167.285
G01 X443.229 Y177.341
G01 X534.400 Y149.651
G01 X527.072 Y205.387
G01 X570.127 Y140.309
G01 X615.787 Y202.620
G01 X601.301 Y147.437
G01 X687.686 Y169.548
G01 X646.121 Y161.436
G01 X710.000 Y131.825
G01 X710.000 Y159.361
G01 X708.668 Y161.877
G01 X710.000 Y158.986
G01 X710.000 Y122.061
G01 X664.447 Y121.534
G01 X708.447 Y128.073
G01 X629.993 Y179.234
G01 X639.446 Y134.740
G01 X606.394 Y211.042
G01 X556.618 Y156.653
G01 X574.115 Y209.975
G01 X481.391 Y191.103
G01 X515.831 Y187.070
G01 X425.747 Y220.329
G01 X429.402 Y163.273
G01 X383.934 Y224.401
G01 X329.876 Y154.246
G01 X337.112 Y195.809
G01 X239.047 Y159.145
G01 X267.574 Y145.147
G01 X170.148 Y161.521
G01 X172.173 Y93.762
G01 X118.817 Y141.684
G01 X65.213 Y58.691
G01 X66.876 Y91.524
G01 X5.000 Y59.588
G01 X5.000 Y21.041
G01 X26.454 Y5.000
G01 X69.193 Y5.000
G01 X108.584 Y69.438
G01 X109.554 Y36.075
G01 X207.854 Y86.831
G01 X181.375 Y100.703
G01 X282.340 Y92.281
G01 X276.103 Y155.725
G01 X334.513 Y105.675
G01 X380.884 Y182.926
G01 X381.686 Y136.845
G01 X473.858 Y179.749
G01 X442.790 Y177.869
G01 X539.427 Y160.648
G01 X524.014 Y208.380
G01 X579.010 Y146.191
G01 X613.742 Y210.036
G01 X609.479 Y147.825
G01 X690.486 Y179.634
G01 X650.406 Y159.407
G01 X710.000 Y140.334
G01 X710.000 Y161.017
G01 X709.409 Y161.642
G01 X710.000 Y160.707
G01 X710.000 Y124.176
G01 X670.579 Y118.605
G01 X710.000 Y135.318
G01 X710.000 Y139.864
G01 X630.544 Y178.870
G01 X649.038 Y141.819
G01 X604.016 Y216.414
G01 X565.062 Y159.601
G01 X572.954 Y220.827
G01 X484.587 Y191.771
G01 X518.356 Y199.827
G01 X422.547 Y222.839
G01 X434.467 Y173.542
G01 X376.834 Y232.058
G01 X333.418 Y159.916
G01 X330.310 Y208.601
G01 X236.916 Y161.823
G01 X263.802 Y159.655
G01 X161.019 Y165.269
G01 X170.613 Y105.552
G01 X105.060 Y149.969
G01 X62.011 Y65.442
G01 X52.765 Y104.612
G01 X5.000 Y73.484
G01 X5.000 Y17.256
G01 X26.973 Y5.000
G01 X58.359 Y5.000
G01 X93.959 Y78.809
G01 X106.047 Y39.400
G01 X198.939 Y99.892
G01 X175.229 Y102.139
G01 X280.621 Y104.859
G01 X267.544 Y159.514
G01 X337.736 Y113.859
G01 X373.350 Y191.474
G01 X385.420 Y139.752
G01 X471.410 Y191.794
G01 X443.552 Y178.202
G01 X543.692 Y172.093
G01 X521.684 Y210.375
G01 X587.877 Y152.991
G01 X611.523 Y216.294
G01 X618.496 Y148.843
G01 X692.432 Y189.144
G01 X655.866 Y157.152
G01 X710.000 Y146.933
G01 X710.000 Y124.747
G01 X677.836 Y115.754
G01 X710.000 Y139.128
G01 X710.000 Y150.491
G01 X632.067 Y177.716
G01 X658.251 Y149.672
G01 X601.834 Y220.582
G01 X574.043 Y163.400
G01 X571.164 Y230.839
G01 X488.946 Y192.652
G01 X519.988 Y212.631
G01 X420.398 Y224.697
G01 X439.135 Y184.648
G01 X370.023 Y238.619
G01 X337.463 Y166.562
G01 X322.943 Y220.618
G01 X235.941 Y164.889
G01 X259.139 Y174.269
G01 X152.976 Y168.542
G01 X168.603 Y118.271
G01 X91.647 Y157.298
G01 X59.240 Y73.322
G01 X38.119 Y117.019
G01 X5.000 Y90.403
G01 X5.000 Y17.782
G01 X36.456 Y5.000
G01 X49.174 Y5.000
G01 X79.216 Y87.253
G01 X103.334 Y43.634
G01 X189.209 Y112.549
G01 X170.282 Y103.631
G01 X278.079 Y117.895
G01 X259.816 Y162.498
G01 X340.828 Y123.048
G01 X365.777 Y198.944
G01 X389.913 Y143.470
G01 X468.186 Y203.248
G01 X445.514 Y178.526
G01 X547.111 Y183.813
G01 X520.226 Y211.487
G01 X596.544 Y160.662
G01 X609.312 Y221.355
G01 X628.199 Y150.601
G01 X693.608 Y197.910
G01 X662.488 Y154.857
G01 X710.000 Y151.815
G01 X710.000 Y123.515
G01 X686.153 Y113.155
G01 X710.000 Y139.334
G01 X710.000 Y159.360
G01 X634.657 Y175.927
G01 X666.926 Y158.193
G01 X600.031 Y223.574
G01 X583.378 Y168.099
G01 X568.882 Y239.881
G01 X494.393 Y193.918
G01 X520.718 Y225.293
G01 X419.386 Y226.067
G01 X443.257 Y196.476
G01 X363.685 Y244.118
G01 X341.830 Y174.226
G01 X315.156 Y231.740
G01 X236.040 Y168.510
G01 X253.590 Y188.798
G01 X146.097 Y171.509
G01 X166.000 Y131.797
G01 X78.759 Y163.716
G01 X56.717 Y82.360
G01 X23.089 Y128.636
G01 X5.000 Y110.918
G01 X5.000 Y21.471
G01 X43.085 Y10.900
G01 X64.540 Y94.741
G01 X101.261 Y48.878
G01 X178.761 Y124.641
G01 X166.513 Y105.364
G01 X274.654 Y131.211
G01 X253.050 Y164.808
G01 X343.614 Y133.175
G01 X358.351 Y205.317
G01 X395.003 Y148.090
G01 X464.290 Y213.954
G01 X448.645 Y179.022
G01 X549.631 Y195.629
G01 X519.761 Y211.854
G01 X604.837 Y169.128
G01 X607.293 Y225.210
G01 X638.418 Y153.182
G01 X694.125 Y205.784
G01 X670.229 Y152.701
G01 X710.000 Y155.043
G01 X710.000 Y119.983
G01 X695.435 Y110.970
G01 X710.000 Y134.440
G01 X710.000 Y166.719
G01 X638.377 Y173.678
G01 X674.924 Y167.251
G01 X598.782 Y225.445
G01 X592.880 Y173.719
G01 X566.265 Y247.854
G01 X500.824 Y195.723
G01 X520.568 Y237.626
G01 X419.566 Y227.124
G01 X446.703 Y208.887
G01 X357.991 Y248.624
G01 X346.330 Y182.915
G01 X307.114 Y241.877
G01 X237.102 Y172.831
G01 X247.189 Y203.056
G01 X140.429 Y174.349
G01 X162.687 Y145.984
G01 X66.567 Y169.302
G01 X54.258 Y92.555
G01 X7.849 Y139.381
G01 X5.000 Y135.990
G01 X5.000 Y27.722
G01 X38.204 Y22.318
G01 X50.119 Y101.276
G01 X99.656 Y55.205
G01 X167.720 Y136.024
G01 X163.873 Y107.515
G01 X270.314 Y144.621
G01 X247.350 Y166.596
G01 X345.931 Y144.143
G01 X351.257 Y210.607
G01 X400.513 Y153.674
G01 X459.852 Y223.776
G01 X452.882 Y179.864
G01 X551.231 Y207.350
G01 X520.382 Y211.633
G01 X612.598 Y178.283
G01 X605.647 Y227.885
G01 X648.973 Y156.637
G01 X694.119 Y212.637
G01 X679.012 Y150.855
G01 X710.000 Y156.571
G01 X710.000 Y113.145
G01 X705.558 Y109.340
G01 X710.000 Y120.198
G01 X710.000 Y172.709
G01 X643.260 Y171.150
G01 X682.133 Y176.692
G01 X598.246 Y226.284
G01 X602.360 Y180.246
G01 X563.483 Y254.684
G01 X508.110 Y198.200
G01 X519.595 Y249.448
G01 X420.960 Y228.051
G01 X449.371 Y221.720
G01 X353.098 Y252.231
G01 X350.777 Y192.605
G01 X298.993 Y250.965
G01 X238.990 Y177.982
G01 X240.003 Y216.868
G01 X135.984 Y177.244
G01 X158.572 Y160.665
G01 X55.222 Y174.161
G01 X51.679 Y103.871
G01 X5.000 Y139.675
G01 X5.000 Y36.208
G01 X32.739 Y34.639
G01 X36.137 Y106.896
G01 X98.340 Y62.656
G01 X156.230 Y146.579
G01 X162.279 Y110.250
G01 X265.063 Y157.935
G01 X242.793 Y168.030
G01 X347.636 Y155.830
G01 X344.674 Y214.861
G01 X406.257 Y160.253
G01 X455.024 Y232.606
G01 X458.130 Y181.213
G01 X551.922 Y218.790
G01 X522.155 Y210.997
G01 X619.689 Y187.995
G01 X604.549 Y229.439
G01 X659.675 Y160.986
G01 X693.746 Y218.369
G01 X688.734 Y149.475
G01 X710.000 Y156.231
G01 X710.000 Y177.389
G01 X649.305 Y168.527
G01 X688.468 Y186.347
G01 X598.568 Y226.205
G01 X611.633 Y187.634
G01 X560.718 Y260.333
G01 X516.100 Y201.460
G01 X517.882 Y260.592
G01 X423.558 Y229.032
G01 X451.188 Y234.800
G01 X349.144 Y255.065
G01 X354.992 Y203.239
G01 X290.977 Y258.977
G01 X241.550 Y184.061
G01 X232.130 Y230.070
G01 X132.744 Y180.379
G01 X153.594 Y175.663
G01 X44.858 Y178.424
G01 X48.805 Y116.241
G01 X5.000 Y141.934
G01 X5.000 Y46.759
G01 X26.565 Y47.725
G01 X22.769 Y111.667
G01 X97.125 Y71.239
G01 X144.458 Y156.217
G01 X161.620 Y113.717
G01 X258.937 Y170.968
G01 X239.425 Y169.289
G01 X348.610 Y168.088
G01 X338.770 Y218.157
G01 X412.048 Y167.824
G01 X449.973 Y240.361
G01 X464.269 Y183.210
G01 X551.750 Y229.763
G01 X525.112 Y210.128
G01 X625.998 Y198.110
G01 X604.160 Y229.957
G01 X670.333 Y166.216
G01 X693.177 Y222.909
G01 X699.263 Y148.695
G01 X710.000 Y153.691
G01 X710.000 Y180.746
G01 X656.478 Y165.993
G01 X693.875 Y196.034
G01 X599.867 Y225.347
G01 X620.525 Y195.806
G01 X558.154 Y264.792
G01 X524.624 Y205.585
G01 X515.543 Y270.908
G01 X427.317 Y230.247
G01 X452.112 Y247.943
G01 X346.242 Y257.269
G01 X358.807 Y214.730
G01 X283.252 Y265.914
G01 X244.609 Y191.141
G01 X223.693 Y242.520
G01 X130.658 Y183.931
G01 X147.725 Y190.789
G01 X35.579 Y182.243
G01 X45.478 Y129.568
G01 X5.000 Y147.401
G01 X5.000 Y59.316
G01 X19.582 Y61.416
G01 X10.174 Y115.688
G01 X95.828 Y80.931
G01 X132.581 Y164.875
G01 X161.761 Y118.044
G01 X252.003 Y183.544
G01 X237.258 Y170.557
G01 X348.762 Y180.752
G01 X333.695 Y220.601
G01 X417.699 Y176.351
G01 X444.878 Y246.990
G01 X471.153 Y185.974
G01 X550.789 Y240.099
G01 X529.254 Y209.209
G01 X631.441 Y208.460
G01 X604.623 Y229.556
G01 X680.764 Y172.280
G01 X692.591 Y226.217
G01 X710.000 Y150.569
G01 X710.000 Y182.682
G01 X664.714 Y163.721
G01 X698.332 Y205.565
G01 X602.237 Y223.869
G01 X628.880 Y204.656
G01 X555.973 Y268.088
G01 X533.501 Y210.626
G01 X512.716 Y280.269
G01 X432.163 Y231.865
G01 X452.134 Y260.960
G01 X344.477 Y259.007
G01 X362.071 Y226.961
G01 X276.001 Y271.813
G01 X247.986 Y199.262
G01 X214.837 Y254.099
G01 X129.642 Y188.064
G01 X140.967 Y205.855
G01 X27.465 Y185.786
G01 X41.555 Y143.728
G01 X5.000 Y155.266
G01 X5.000 Y73.902
G01 X11.720 Y75.539
G01 X5.000 Y97.660
G01 X5.000 Y117.220
G01 X94.269 Y91.675
G01 X120.784 Y172.525
G01 X162.546 Y123.331
G01 X244.357 Y195.500
G01 X236.272 Y172.019
G01 X348.027 Y193.644
G01 X329.581 Y222.324
G01 X423.036 Y185.767
G01 X439.923 Y252.475
G01 X478.619 Y189.597
G01 X549.144 Y249.642
G01 X534.546 Y208.425
G01 X635.965 Y218.861
G01 X606.058 Y228.374
G01 X690.793 Y179.103
G01 X692.171 Y228.287
G01 X710.000 Y181.287
G01 X710.000 Y182.979
G01 X673.917 Y161.873
G01 X701.851 Y214.752
G01 X605.741 Y221.943
G01 X636.558 Y214.051
G01 X554.349 Y270.277
G01 X542.544 Y216.602
G01 X509.557 Y288.575
G01 X437.993 Y234.041
G01 X451.277 Y273.662
G01 X343.904 Y260.454
G01 X364.659 Y239.794
G01 X269.396 Y276.741
G01 X251.492 Y208.432
G01 X205.728 Y264.715
G01 X129.585 Y192.928
G01 X133.358 Y220.675
G01 X20.561 Y189.232
G01 X36.920 Y158.575
G01 X5.000 Y165.086
G01 X5.000 Y118.937
G01 X92.284 Y103.383
G01 X109.254 Y179.171
G01 X163.804 Y129.649
G01 X236.124 Y206.694
G01 X236.415 Y173.850
G01 X346.377 Y206.576
G01 X326.530 Y223.479
G01 X427.894 Y195.975
G01 X435.293 Y256.832
G01 X486.490 Y194.139
G01 X546.944 Y258.256
G01 X540.925 Y207.948
G01 X639.547 Y229.126
G01 X608.559 Y226.571
G01 X700.262 Y186.577
G01 X692.100 Y229.145
G01 X710.000 Y195.793
G01 X710.000 Y181.196
G01 X683.964 Y160.590
G01 X704.475 Y223.412
G01 X610.412 Y219.750
G01 X643.449 Y223.840
G01 X553.445 Y271.449
G01 X551.563 Y223.498
G01 X506.237 Y295.753
G01 X444.676 Y236.909
G01 X449.598 Y285.870
G01 X344.546 Y261.794
G01 X366.467 Y253.067
G01 X263.595 Y280.796
G01 X254.942 Y218.626
G01 X196.542 Y274.307
G01 X130.354 Y198.647
G01 X124.966 Y235.071
G01 X14.881 Y192.765
G01 X31.482 Y173.943
G01 X5.000 Y176.613
G01 X5.000 Y122.519
G01 X89.725 Y115.940
G01 X98.176 Y184.850
G01 X165.353 Y137.041
G01 X227.448 Y217.008
G01 X237.602 Y176.217
G01 X343.814 Y219.360
G01 X324.619 Y224.234
G01 X432.131 Y206.851
G01 X431.166 Y260.107
G01 X494.579 Y199.632
G01 X544.340 Y265.832
G01 X548.295 Y207.938
G01 X642.201 Y239.067
G01 X612.187 Y224.318
G01 X709.034 Y194.571
G01 X692.551 Y228.850
G01 X710.000 Y204.279
G01 X710.000 Y176.395
G01 X694.711 Y159.991
G01 X706.280 Y231.373
G01 X616.247 Y217.477
G01 X649.468 Y233.851
G01 X553.402 Y271.718
G01 X560.375 Y231.270
G01 X502.939 Y301.765
G01 X452.061 Y240.578
G01 X447.181 Y297.415
G01 X346.392 Y263.210
G01 X367.423 Y266.607
G01 X258.734 Y284.102
G01 X258.156 Y229.787
G01 X187.464 Y282.847
G01 X131.791 Y205.322
G01 X115.887 Y248.884
G01 X10.405 Y196.568
G01 X25.182 Y189.652
G01 X5.000 Y189.708
G01 X5.000 Y127.698
G01 X86.465 Y129.208
G01 X87.721 Y189.630
G01 X167.007 Y145.513
G01 X218.495 Y226.351
G01 X239.722 Y179.269
G01 X340.374 Y231.810
G01 X323.891 Y224.768
G01 X435.627 Y218.249
G01 X427.710 Y262.380
G01 X502.698 Y206.071
G01 X541.500 Y272.290
G01 X556.533 Y208.538
G01 X643.970 Y248.501
G01 X616.976 Y221.797
G01 X710.000 Y204.251
G01 X710.000 Y210.301
G01 X693.684 Y227.489
G01 X710.000 Y209.563
G01 X710.000 Y166.243
G01 X705.990 Y160.168
G01 X707.368 Y238.481
G01 X623.214 Y215.304
G01 X654.561 Y243.902
G01 X554.342 Y271.223
G01 X568.806 Y239.838
G01 X499.845 Y306.604
G01 X459.980 Y245.130
G01 X444.143 Y308.149
G01 X349.399 Y264.883
G01 X367.486 Y280.228
G01 X254.927 Y286.802
G01 X260.969 Y241.826
G01 X178.680 Y290.337
G01 X133.725 Y213.025
G01 X106.247 Y261.968
G01 X7.082 Y200.819
G01 X17.990 Y205.517
G01 X5.000 Y204.313
G01 X5.000 Y134.306
G01 X82.405 Y143.025
G01 X78.049 Y193.609
G01 X168.579 Y155.041
G01 X209.442 Y234.663
G01 X242.640 Y183.130
G01 X336.123 Y243.750
G01 X324.358 Y225.266
G01 X438.289 Y230.003
G01 X425.074 Y263.757
G01 X510.661 Y213.421
G01 X538.600 Y277.578
G01 X565.496 Y209.866
G01 X644.929 Y257.255
G01 X622.924 Y219.194
G01 X710.000 Y212.561
G01 X710.000 Y218.263
G01 X695.642 Y225.180
G01 X710.000 Y212.719
G01 X710.000 Y226.381
G01 X707.869 Y244.601
G01 X631.247 Y213.407
G01 X658.708 Y253.806
G01 X556.356 Y270.123
G01 X576.699 Y249.096
G01 X497.140 Y310.295
G01 X468.250 Y250.616
G01 X440.619 Y317.945
G01 X353.493 Y266.983
G01 X366.648 Y293.740
G01 X252.260 Y289.062
G01 X263.230 Y254.628
G01 X170.374 Y296.815
G01 X135.974 Y221.796
G01 X96.193 Y274.207
G01 X5.000 Y205.810
G01 X5.000 Y206.208
G01 X9.913 Y221.347
G01 X5.000 Y220.425
G01 X5.000 Y142.241
G01 X77.473 Y157.218
G01 X69.298 Y196.911
G01 X169.891 Y165.567
G01 X200.473 Y241.915
G01 X246.197 Y187.902
G01 X331.158 Y255.018
G01 X325.998 Y225.910
G01 X440.055 Y241.934
G01 X423.387 Y264.369
G01 X518.290 Y221.615
G01 X535.827 Y281.681
G01 X575.017 Y212.012
G01 X645.183 Y265.175
G01 X629.997 Y216.692
G01 X710.000 Y219.384
G01 X710.000 Y221.337
G01 X698.544 Y222.061
G01 X710.000 Y214.228
G01 X710.000 Y241.299
G01 X707.933 Y249.623
G01 X640.249 Y211.945
G01 X661.921 Y263.374
G01 X559.508 Y268.590
G01 X583.917 Y258.912
G01 X494.998 Y312.897
G01 X476.685 Y257.054
G01 X436.767 Y326.703
G01 X358.569 Y269.662
G01 X364.933 Y306.956
G01 X250.786 Y291.057
G01 X264.813 Y268.052
G01 X162.718 Y302.350
G01 X138.351 Y231.642
G01 X85.889 Y285.510
G01 X5.000 Y212.623
G01 X5.000 Y151.454
G01 X71.632 Y171.602
G01 X61.581 Y199.682
G01 X170.777 Y177.004
G01 X191.774 Y248.112
G01 X250.222 Y193.656
G01 X325.602 Y265.473
G01 X328.757 Y226.879
G01 X440.895 Y253.855
G01 X422.752 Y264.370
G01 X525.422 Y230.556
G01 X533.362 Y284.613
G01 X584.919 Y215.040
G01 X644.861 Y272.127
G01 X638.129 Y214.463
G01 X710.000 Y224.815
G01 X710.000 Y220.620
G01 X702.481 Y218.291
G01 X710.000 Y214.314
G01 X710.000 Y247.515
G01 X707.726 Y253.469
G01 X650.099 Y211.061
G01 X664.244 Y272.424
G01 X563.830 Y266.807
G01 X590.348 Y269.133
G01 X493.580 Y314.498
G01 X485.096 Y264.430
G01 X432.760 Y334.351
G01 X364.499 Y273.054
G01 X362.399 Y319.696
G01 X250.528 Y292.970
G01 X265.617 Y281.939
G01 X155.869 Y307.037
G01 X140.670 Y242.537
G01 X75.512 Y295.815
G01 X5.000 Y219.894
G01 X5.000 Y161.942
G01 X64.874 Y185.987
G01 X54.985 Y202.086
G01 X171.088 Y189.236
G01 X183.529 Y253.291
G01 X254.532 Y200.433
G01 X319.600 Y274.996
G01 X332.551 Y228.338
G01 X440.811 Y265.578
G01 X423.244 Y263.927
G01 X531.915 Y240.118
G01 X531.385 Y286.423
G01 X595.015 Y218.977
G01 X644.113 Y278.002
G01 X647.224 Y212.670
G01 X710.000 Y228.880
G01 X710.000 Y215.788
G01 X707.517 Y214.045
G01 X710.000 Y213.068
G01 X710.000 Y251.167
G01 X707.425 Y256.090
G01 X660.648 Y210.873
G01 X665.753 Y280.784
G01 X569.321 Y264.959
G01 X595.910 Y279.587
G01 X493.028 Y315.214
G01 X493.299 Y272.696
G01 X428.779 Y340.851
G01 X371.131 Y277.270
G01 X359.131 Y331.793
G01 X251.477 Y294.985
G01 X265.570 Y296.113
G01 X149.964 Y311.002
G01 X142.754 Y254.424
G01 X65.249 Y305.094
G01 X5.000 Y227.538
G01 X5.000 Y173.746
G01 X57.227 Y200.188
G01 X49.566 Y204.299
G01 X170.699 Y202.123
G01 X175.909 Y257.521
G01 X258.939 Y208.239
G01 X313.318 Y283.498
G01 X337.268 Y230.434
G01 X439.838 Y276.917
G01 X424.904 Y263.222
G01 X537.648 Y250.156
G01 X530.060 Y287.190
G01 X605.115 Y223.822
G01 X643.107 Y282.720
G01 X657.158 Y211.453
G01 X710.000 Y231.536
G01 X710.000 Y253.356
G01 X707.215 Y257.467
G01 X671.733 Y211.472
G01 X666.552 Y288.300
G01 X575.947 Y263.227
G01 X600.550 Y290.094
G01 X493.464 Y315.185
G01 X501.122 Y281.775
G01 X425.009 Y346.196
G01 X378.296 Y282.390
G01 X355.245 Y343.098
G01 X253.588 Y297.282
G01 X264.632 Y310.388
G01 X145.118 Y314.390
G01 X144.436 Y267.214
G01 X55.286 Y313.352
G01 X5.000 Y235.463
G01 X5.000 Y186.958
G01 X48.748 Y214.023
G01 X45.346 Y206.506
G01 X169.508 Y215.506
G01 X169.071 Y260.899
G01 X263.257 Y217.049
G01 X306.930 Y290.917
G01 X342.768 Y233.293
G01 X438.043 Y287.697
G01 X427.744 Y262.437
G01 X542.528 Y260.503
G01 X529.538 Y287.021
G01 X615.032 Y229.537
G01 X642.019 Y286.231
G01 X667.786 Y210.930
G01 X710.000 Y232.652
G01 X710.000 Y254.427
G01 X707.276 Y257.619
G01 X683.175 Y212.919
G01 X666.770 Y294.836
G01 X583.641 Y261.786
G01 X604.246 Y300.464
G01 X494.978 Y314.569
G01 X508.407 Y291.559
G01 X421.633 Y350.412
G01 X385.813 Y288.464
G01 X350.879 Y353.484
G01 X256.786 Y300.030
G01 X262.796 Y324.577
G01 X141.414 Y317.365
G01 X145.567 Y280.791
G01 X45.807 Y320.625
G01 X5.000 Y243.550
G01 X5.000 Y201.728
G01 X39.526 Y227.327
G01 X42.316 Y208.890
G01 X167.445 Y229.209
G01 X163.154 Y263.551
G01 X267.307 Y226.807
G01 X300.621 Y297.227
G01 X348.896 Y237.017
G01 X435.522 Y297.755
G01 X431.741 Y261.757
G01 X546.493 Y270.982
G01 X529.945 Y286.049
G01 X624.591 Y236.056
G01 X641.034 Y288.520
G01 X678.942 Y211.194
G01 X710.000 Y231.977
G01 X710.000 Y254.508
G01 X707.787 Y256.594
G01 X694.785 Y215.244
G01 X666.558 Y300.286
G01 X592.307 Y260.796
G01 X607.013 Y310.509
G01 X497.636 Y313.539
G01 X515.019 Y301.917
G01 X418.826 Y353.560
G01 X393.494 Y295.510
G01 X346.191 Y362.851
G01 X260.969 Y303.383
G01 X260.086 Y338.490
G01 X138.908 Y320.102
G01 X146.022 Y295.015
G01 X36.983 Y326.984
G01 X6.120 Y254.259
G01 X5.000 Y255.242
G01 X5.000 Y218.281
G01 X29.679 Y239.951
G01 X40.434 Y211.631
G01 X164.471 Y243.047
G01 X158.269 Y265.623
G01 X270.923 Y237.422
G01 X294.577 Y302.433
G01 X355.476 Y241.675
G01 X432.399 Y306.952
G01 X436.839 Y261.359
G01 X549.512 Y281.405
G01 X531.384 Y284.427
G01 X633.626 Y243.280
G01 X640.335 Y289.602
G01 X690.447 Y212.305
G01 X710.000 Y229.043
G01 X710.000 Y253.647
G01 X708.912 Y254.472
G01 X706.374 Y218.445
G01 X666.082 Y304.569
G01 X601.822 Y260.398
G01 X608.896 Y320.048
G01 X501.468 Y312.276
G01 X520.848 Y312.693
G01 X416.749 Y355.727
G01 X401.152 Y303.513
G01 X341.354 Y371.130
G01 X266.006 Y307.474
G01 X256.562 Y351.949
G01 X137.622 Y322.786
G01 X145.700 Y309.724
G01 X28.973 Y332.525
G01 X7.206 Y266.087
G01 X5.000 Y267.662
G01 X5.000 Y236.949
G01 X19.346 Y251.769
G01 X39.626 Y214.900
G01 X160.579 Y256.831
G01 X154.501 Y267.279
G01 X273.954 Y248.780
G01 X288.979 Y306.572
G01 X362.326 Y247.308
G01 X428.818 Y315.169
G01 X442.953 Y261.409
G01 X551.588 Y291.584
G01 X533.928 Y282.324
G01 X641.995 Y251.086
G01 X640.098 Y289.527
G01 X702.114 Y214.293
G01 X710.000 Y222.948
G01 X710.000 Y235.128
G01 X665.522 Y307.637
G01 X612.040 Y260.710
G01 X609.970 Y328.909
G01 X506.472 Y310.967
G01 X525.809 Y323.717
G01 X415.544 Y357.029
G01 X408.603 Y312.425
G01 X336.550 Y378.281
G01 X271.747 Y312.412
G01 X252.310 Y364.785
G01 X137.546 Y325.600
G01 X144.530 Y324.744
G01 X21.914 Y337.372
G01 X8.058 Y278.934
G01 X5.000 Y280.703
G01 X5.000 Y258.211
G01 X8.688 Y262.682
G01 X39.788 Y218.849
G01 X155.794 Y270.375
G01 X151.906 Y268.696
G01 X276.275 Y260.741
G01 X283.998 Y309.714
G01 X369.258 Y253.923
G01 X424.942 Y322.316
G01 X449.969 Y262.054
G01 X552.755 Y301.334
G01 X537.619 Y279.920
G01 X649.577 Y259.327
G01 X640.489 Y288.375
G01 X710.000 Y220.802
G01 X710.000 Y251.488
G01 X665.059 Y309.473
G01 X622.796 Y261.823
G01 X610.340 Y336.936
G01 X512.614 Y309.793
G01 X529.851 Y334.807
G01 X415.332 Y357.607
G01 X415.675 Y322.169
G01 X331.963 Y384.300
G01 X278.021 Y318.278
G01 X247.446 Y376.852
G01 X138.635 Y328.723
G01 X142.474 Y339.890
G01 X15.920 Y341.673
G01 X8.511 Y292.711
G01 X5.000 Y294.330
G01 X5.000 Y264.487
G01 X40.793 Y223.613
G01 X150.177 Y283.498
G01 X150.504 Y270.057
G01 X277.784 Y273.143
G01 X279.792 Y311.958
G01 X376.084 Y261.493
G01 X420.948 Y328.335
G01 X457.748 Y263.420
G01 X553.080 Y310.479
G01 X542.465 Y277.400
G01 X656.279 Y267.837
G01 X641.657 Y286.253
G01 X710.000 Y232.737
G01 X710.000 Y263.153
G01 X664.876 Y310.095
G01 X633.911 Y263.797
G01 X610.138 Y343.998
G01 X519.829 Y308.928
G01 X532.956 Y345.776
G01 X416.206 Y357.619
G01 X422.212 Y332.636
G01 X327.778 Y389.212
G01 X284.650 Y325.122
G01 X242.108 Y388.022
G01 X140.816 Y332.326
G01 X139.524 Y354.971
G01 X11.075 Y345.590
G01 X8.417 Y307.301
G01 X5.000 Y308.518
G01 X5.000 Y264.661
G01 X42.490 Y229.300
G01 X143.814 Y296.035
G01 X150.285 Y271.546
G01 X278.412 Y285.812
G01 X276.495 Y313.427
G01 X382.625 Y269.962
G01 X417.019 Y333.199
G01 X466.132 Y265.607
G01 X552.659 Y318.860
G01 X548.443 Y274.948
G01 X662.039 Y276.439
G01 X643.727 Y283.296
G01 X710.000 Y241.750
G01 X710.000 Y271.693
G01 X665.152 Y309.552
G01 X645.197 Y266.663
G01 X609.512 Y349.984
G01 X528.019 Y308.531
G01 X535.136 Y356.434
G01 X418.228 Y357.238
G01 X428.079 Y343.694
G01 X324.169 Y393.077
G01 X291.445 Y332.960
G01 X236.457 Y398.196
G01 X143.985 Y336.561
G01 X135.708 Y369.800
G01 X7.434 Y349.300
G01 X7.651 Y322.563
G01 X5.000 Y323.253
G01 X5.000 Y267.133
G01 X44.711 Y235.992
G01 X136.823 Y307.838
G01 X151.205 Y273.345
G01 X278.118 Y298.563
G01 X274.220 Y314.271
G01 X388.713 Y279.240
G01 X413.340 Y336.913
G01 X474.946 Y268.686
G01 X551.615 Y326.334
G01 X555.497 Y272.741
G01 X666.825 Y284.944
G01 X646.801 Y279.657
G01 X710.000 Y248.529
G01 X710.000 Y277.931
G01 X666.050 Y307.924
G01 X656.465 Y270.415
G01 X608.632 Y354.817
G01 X537.062 Y308.744
G01 X536.438 Y366.599
G01 X421.429 Y356.647
G01 X433.165 Y355.188
G01 X321.298 Y395.984
G01 X298.218 Y341.777
G01 X230.664 Y407.304
G01 X148.011 Y341.561
G01 X131.084 Y384.199
G01 X5.020 Y352.987
G01 X6.114 Y338.337
G01 X5.000 Y338.526
G01 X5.000 Y271.243
G01 X47.277 Y243.736
G01 X129.342 Y318.780
G01 X153.189 Y275.621
G01 X276.895 Y311.208
G01 X273.050 Y314.652
G01 X394.200 Y289.211
G01 X410.092 Y339.515
G01 X484.007 Y272.697
G01 X550.093 Y332.786
G01 X563.540 Y270.945
G01 X670.641 Y293.166
G01 X650.951 Y275.505
G01 X710.000 Y253.479
G01 X710.000 Y282.331
G01 X667.719 Y305.321
G01 X667.528 Y275.018
G01 X607.675 Y358.448
G01 X546.810 Y309.684
G01 X536.938 Y376.100
G01 X425.808 Y356.030
G01 X437.389 Y366.947
G01 X319.307 Y398.050
G01 X304.788 Y351.526
G01 X224.913 Y415.308
G01 X152.744 Y347.435
G01 X125.740 Y397.999
G01 X5.000 Y357.232
G01 X5.000 Y276.599
G01 X50.001 Y252.552
G01 X121.532 Y328.763
G01 X156.134 Y278.529
G01 X274.769 Y323.559
G01 X273.039 Y314.748
G01 X398.957 Y299.735
G01 X407.444 Y341.077
G01 X493.124 Y277.646
G01 X548.255 Y338.126
G01 X572.456 Y269.707
G01 X673.520 Y300.920
G01 X656.218 Y271.022
G01 X710.000 Y256.846
G01 X710.000 Y285.162
G01 X670.285 Y301.874
G01 X678.209 Y280.403
G01 X606.824 Y360.861
G01 X557.100 Y311.442
G01 X536.743 Y384.783
G01 X431.331 Y355.569
G01 X440.700 Y378.790
G01 X318.316 Y399.415
G01 X310.983 Y362.127
G01 X219.389 Y422.203
G01 X158.015 Y354.262
G01 X119.793 Y411.053
G01 X5.000 Y361.540
G01 X5.000 Y282.951
G01 X52.697 Y262.423
G01 X113.567 Y337.717
G01 X159.909 Y282.202
G01 X271.798 Y335.437
G01 X274.206 Y314.742
G01 X402.885 Y310.652
G01 X405.553 Y341.697
G01 X502.111 Y283.507
G01 X546.277 Y342.297
G01 X582.107 Y269.155
G01 X675.530 Y308.030
G01 X662.609 Y266.392
G01 X710.000 Y258.771
G01 X710.000 Y286.579
G01 X673.848 Y297.740
G01 X688.344 Y286.472
G01 X606.264 Y362.074
G01 X567.751 Y314.077
G01 X535.983 Y392.514
G01 X437.930 Y355.438
G01 X443.079 Y390.527
G01 X318.418 Y400.238
G01 X316.647 Y373.472
G01 X214.276 Y428.017
G01 X163.644 Y362.093
G01 X113.382 Y423.235
G01 X5.000 Y365.786
G01 X5.000 Y290.127
G01 X55.183 Y273.302
G01 X105.628 Y345.605
G01 X164.362 Y286.749
G01 X268.071 Y346.676
G01 X276.540 Y314.820
G01 X405.912 Y321.785
G01 X404.554 Y341.500
G01 X510.787 Y290.223
G01 X544.342 Y345.271
G01 X592.333 Y269.386
G01 X676.767 Y314.338
G01 X670.100 Y261.800
G01 X710.000 Y259.325
G01 X710.000 Y286.662
G01 X678.480 Y293.086
G01 X697.791 Y293.100
G01 X606.170 Y362.137
G01 X578.578 Y317.619
G01 X534.809 Y399.186
G01 X445.509 Y355.796
G01 X444.540 Y401.970
G01 X319.676 Y400.692
G01 X321.645 Y385.427
G01 X209.749 Y432.808
G01 X169.443 Y370.943
G01 X106.667 Y434.445
G01 X6.930 Y371.072
G01 X5.000 Y375.015
G01 X5.000 Y298.006
G01 X57.290 Y285.109
G01 X97.904 Y352.423
G01 X169.326 Y292.250
G01 X263.704 Y357.128
G01 X279.997 Y315.161
G01 X407.998 Y332.952
G01 X404.556 Y340.635
G01 X518.985 Y297.704
G01 X542.634 Y347.055
G01 X602.959 Y270.473
G01 X677.353 Y319.702
G01 X678.634 Y257.424
G01 X710.000 Y258.524
G01 X710.000 Y285.432
G01 X684.222 Y288.096
G01 X706.428 Y300.141
G01 X606.708 Y361.131
G01 X589.390 Y322.062
G01 X533.389 Y404.720
G01 X453.946 Y356.784
G01 X445.131 Y412.937
G01 X322.121 Y400.960
G01 X325.869 Y397.839
G01 X205.969 Y436.668
G01 X175.227 Y380.797
G01 X99.822 Y444.616
G01 X9.860 Y377.224
G01 X5.000 Y385.473
G01 X5.000 Y306.499
G01 X58.864 Y297.737
G01 X90.577 Y358.198
G01 X174.618 Y298.753
G01 X258.835 Y366.668
G01 X284.499 Y315.934
G01 X409.136 Y343.963
G01 X405.643 Y339.267
G01 X526.555 Y305.834
G01 X541.334 Y347.690
G01 X613.799 Y272.454
G01 X677.433 Y324.008
G01 X688.123 Y253.429
G01 X710.000 Y256.329
G01 X710.000 Y282.862
G01 X691.081 Y282.953
G01 X710.000 Y303.013
G01 X710.000 Y309.459
G01 X608.026 Y359.163
G01 X600.001 Y327.370
G01 X531.903 Y409.069
G01 X463.094 Y358.518
G01 X444.929 Y423.258
G01 X325.750 Y401.226
G01 X329.237 Y410.536
G01 X203.079 Y439.711
G01 X180.812 Y391.606
G01 X93.030 Y453.708
G01 X13.502 Y384.277
G01 X5.000 Y396.424
G01 X5.000 Y315.541
G01 X59.770 Y311.051
G01 X83.824 Y362.990
G01 X180.054 Y306.277
G01 X253.624 Y375.199
G01 X289.941 Y317.294
G01 X409.351 Y354.631
G01 X407.867 Y337.572
G01 X533.369 Y314.472
G01 X540.610 Y347.245
G01 X624.664 Y275.336
G01 X677.168 Y327.167
G01 X698.451 Y249.963
G01 X710.000 Y252.650
G01 X710.000 Y278.874
G01 X699.032 Y277.842
G01 X710.000 Y296.339
G01 X710.000 Y318.895
G01 X610.250 Y356.369
G01 X610.235 Y333.473
G01 X530.533 Y412.216
G01 X472.787 Y361.090
G01 X444.041 Y432.778
G01 X330.530 Y401.671
G01 X331.698 Y423.335
G01 X201.200 Y442.080
G01 X186.028 Y403.291
G01 X86.478 Y461.717
G01 X17.689 Y392.312
G01 X5.000 Y407.706
G01 X5.000 Y325.084
G01 X59.901 Y324.898
G01 X77.806 Y366.890
G01 X185.445 Y314.805
G01 X248.244 Y382.651
G01 X296.193 Y319.373
G01 X408.703 Y364.778
G01 X411.246 Y335.734
G01 X539.327 Y323.459
G01 X540.617 Y345.822
G01 X635.366 Y279.094
G01 X676.735 Y329.121
G01 X709.478 Y247.152
G01 X710.000 Y247.329
G01 X710.000 Y273.329
G01 X708.016 Y272.941
G01 X710.000 Y278.147
G01 X710.000 Y326.583
G01 X613.480 Y352.903
G01 X619.928 Y340.275
G01 X529.463 Y414.180
G01 X482.847 Y364.558
G01 X442.598 Y441.363
G01 X336.393 Y402.470
G01 X333.236 Y436.048
G01 X200.423 Y443.932
G01 X190.719 Y415.742
G01 X80.348 Y468.670
G01 X22.240 Y401.378
G01 X5.000 Y419.226
G01 X5.000 Y335.094
G01 X59.177 Y339.105
G01 X72.667 Y370.015
G01 X190.610 Y324.289
G01 X242.877 Y388.988
G01 X303.102 Y322.280
G01 X407.278 Y374.237
G01 X415.768 Y333.940
G01 X544.357 Y332.620
G01 X541.489 Y343.545
G01 X645.725 Y283.668
G01 X676.315 Y329.845
G01 X710.000 Y266.020
G01 X710.000 Y332.736
G01 X617.788 Y348.934
G01 X628.938 Y347.648
G01 X528.871 Y415.011
G01 X493.086 Y368.950
G01 X440.752 Y448.908
G01 X343.243 Y403.782
G01 X333.866 Y448.487
G01 X200.812 Y445.443
G01 X194.753 Y428.827
G01 X74.816 Y474.629
G01 X26.970 Y411.490
G01 X5.000 Y430.922
G01 X5.000 Y345.547
G01 X57.549 Y353.492
G01 X68.527 Y372.506
G01 X195.377 Y334.650
G01 X237.710 Y394.205
G01 X310.498 Y326.095
G01 X405.192 Y382.863
G01 X421.387 Y332.368
G01 X548.419 Y341.769
G01 X543.337 Y340.564
G01 X655.572 Y288.970
G01 X676.093 Y329.347
G01 X710.000 Y278.389
G01 X710.000 Y337.490
G01 X623.214 Y344.643
G01 X637.146 Y355.446
G01 X528.922 Y414.791
G01 X503.317 Y374.262
G01 X438.671 Y455.332
G01 X350.957 Y405.746
G01 X333.636 Y460.469
G01 X202.397 Y446.792
G01 X198.020 Y442.390
G01 X70.045 Y479.683
G01 X31.692 Y422.632
G01 X5.000 Y442.751
G01 X5.000 Y356.427
G01 X55.003 Y367.868
G01 X65.478 Y374.522
G01 X199.592 Y345.778
G01 X232.924 Y398.332
G01 X318.201 Y330.866
G01 X402.584 Y390.531
G01 X428.024 Y331.189
G01 X551.506 Y350.719
G01 X546.240 Y337.044
G01 X664.758 Y294.884
G01 X676.248 Y327.667
G01 X710.000 Y286.393
G01 X710.000 Y340.929
G01 X629.764 Y340.216
G01 X644.459 Y363.503
G01 X529.763 Y413.628
G01 X513.353 Y380.455
G01 X436.535 Y460.590
G01 X359.389 Y408.479
G01 X332.623 Y471.824
G01 X205.177 Y448.166
G01 X200.440 Y456.259
G01 X66.176 Y483.949
G01 X36.223 Y434.755
G01 X5.000 Y454.680
G01 X5.000 Y367.728
G01 X51.553 Y382.047
G01 X63.585 Y376.238
G01 X203.122 Y357.541
G01 X228.696 Y401.429
G01 X326.022 Y336.611
G01 X399.613 Y397.143
G01 X435.575 Y330.556
G01 X553.644 Y359.284
G01 X550.251 Y333.163
G01 X673.155 Y301.270
G01 X676.948 Y324.877
G01 X710.000 Y291.557
G01 X710.000 Y343.093
G01 X637.415 Y335.837
G01 X650.818 Y371.641
G01 X531.520 Y411.656
G01 X523.017 Y387.460
G01 X434.528 Y464.666
G01 X368.373 Y412.071
G01 X330.936 Y482.397
G01 X209.116 Y449.747
G01 X201.965 Y470.253
G01 X63.331 Y487.568
G01 X40.395 Y447.778
G01 X5.000 Y466.681
G01 X5.000 Y379.447
G01 X47.250 Y395.846
G01 X62.877 Y377.835
G01 X205.857 Y369.784
G01 X225.186 Y403.587
G01 X333.773 Y343.313
G01 X396.451 Y402.631
G01 X443.906 Y330.601
G01 X554.889 Y367.284
G01 X555.387 Y329.105
G01 X680.661 Y307.966
G01 X678.348 Y321.079
G01 X710.000 Y294.657
G01 X710.000 Y343.983
G01 X646.106 Y331.684
G01 X656.191 Y379.672
G01 X534.294 Y409.031
G01 X532.148 Y395.179
G01 X432.834 Y467.578
G01 X377.730 Y416.580
G01 X328.707 Y492.057
G01 X214.148 Y451.706
G01 X202.577 Y484.182
G01 X61.600 Y490.699
G01 X44.051 Y461.593
G01 X5.000 Y478.730
G01 X5.000 Y391.586
G01 X42.173 Y409.094
G01 X63.355 Y379.498
G01 X207.718 Y382.335
G01 X222.535 Y404.923
G01 X341.272 Y350.924
G01 X393.281 Y406.959
G01 X452.865 Y331.435
G01 X555.331 Y374.556
G01 X561.635 Y325.056
G01 X687.206 Y314.799
G01 X680.580 Y316.398
G01 X710.000 Y296.125
G01 X710.000 Y343.562
G01 X655.751 Y327.922
G01 X660.584 Y387.409
G01 X538.156 Y405.922
G01 X540.603 Y403.485
G01 X431.630 Y469.377
G01 X387.275 Y422.034
G01 X326.087 Y500.695
G01 X220.176 Y454.203
G01 X202.292 Y497.857
G01 X61.048 Y493.516
G01 X47.061 Y476.065
G01 X5.000 Y490.807
G01 X5.000 Y404.149
G01 X36.431 Y421.637
G01 X64.982 Y381.410
G01 X208.656 Y395.013
G01 X220.865 Y405.581
G01 X348.348 Y359.364
G01 X390.287 Y410.124
G01 X462.281 Y333.135
G01 X555.085 Y380.953
G01 X568.946 Y321.196
G01 X692.749 Y321.585
G01 X683.753 Y310.985
G01 X710.000 Y296.214
G01 X710.000 Y341.748
G01 X666.233 Y324.697
G01 X664.031 Y394.668
G01 X543.145 Y402.510
G01 X548.264 Y412.231
G01 X431.080 Y470.145
G01 X396.818 Y428.427
G01 X323.247 Y508.235
G01 X227.077 Y457.377
G01 X201.160 Y511.098
G01 X61.705 Y496.200
G01 X49.316 Y491.039
G01 X5.000 Y502.890
G01 X5.000 Y417.132
G01 X30.158 Y433.344
G01 X67.693 Y383.744
G01 X208.655 Y407.628
G01 X220.265 Y405.718
G01 X354.845 Y368.524
G01 X387.652 Y412.156
G01 X471.971 Y335.752
G01 X554.288 Y386.352
G01 X577.242 Y317.696
G01 X697.283 Y328.135
G01 X687.948 Y305.004
G01 X710.000 Y295.077
G01 X710.000 Y338.403
G01 X677.411 Y322.136
G01 X666.602 Y401.274
G01 X549.270 Y398.981
G01 X555.040 Y421.250
G01 X431.334 Y469.991
G01 X406.174 Y435.722
G01 X320.366 Y514.628
G01 X234.705 Y461.345
G01 X199.260 Y523.733
G01 X63.569 Y498.936
G01 X50.736 Y506.343
G01 X5.000 Y514.959
G01 X5.000 Y430.517
G01 X23.507 Y444.107
G01 X71.392 Y386.658
G01 X207.731 Y419.994
G01 X220.798 Y405.511
G01 X360.629 Y378.272
G01 X385.549 Y413.116
G01 X481.748 Y339.301
G01 X553.100 Y390.654
G01 X586.417 Y314.708
G01 X700.834 Y334.263
G01 X693.214 Y298.636
G01 X710.000 Y292.802
G01 X710.000 Y333.301
G01 X689.124 Y320.338
G01 X668.393 Y407.069
G01 X556.503 Y395.518
G01 X560.870 Y430.364
G01 X432.517 Y469.050
G01 X415.168 Y443.847
G01 X317.628 Y519.861
G01 X242.895 Y466.195
G01 X196.700 Y535.608
G01 X66.605 Y501.907
G01 X51.273 Y521.794
G01 X5.000 Y526.994
G01 X5.000 Y444.246
G01 X16.649 Y453.848
G01 X75.955 Y390.292
G01 X205.934 Y431.928
G01 X222.494 Y405.141
G01 X365.593 Y388.452
G01 X384.140 Y413.096
G01 X491.423 Y343.767
G01 X551.692 Y393.795
G01 X596.337 Y312.365
G01 X703.459 Y339.793
G01 X699.570 Y292.065
G01 X710.000 Y289.435
G01 X710.000 Y326.076
G01 X701.196 Y319.372
G01 X669.528 Y411.913
G01 X564.787 Y392.299
G01 X565.726 Y439.386
G01 X434.729 Y467.476
G01 X423.637 Y452.703
G01 X315.217 Y523.953
G01 X251.468 Y471.987
G01 X193.613 Y546.591
G01 X70.746 Y505.284
G01 X50.913 Y537.203
G01 X5.000 Y538.972
G01 X5.000 Y458.183
G01 X9.765 Y462.521
G01 X81.238 Y394.762
G01 X203.342 Y443.261
G01 X225.351 Y404.794
G01 X369.655 Y398.893
G01 X383.564 Y412.215
G01 X500.812 Y349.100
G01 X550.247 Y395.738
G01 X606.848 Y310.777
G01 X705.247 Y344.561
G01 X706.999 Y285.477
G01 X710.000 Y284.991
G01 X710.000 Y326.944
G01 X670.152 Y415.693
G01 X574.034 Y389.489
G01 X569.612 Y448.128
G01 X438.041 Y465.439
G01 X431.440 Y462.165
G01 X313.312 Y526.953
G01 X260.239 Y478.745
G01 X190.152 Y556.575
G01 X75.896 Y509.226
G01 X49.671 Y552.382
G01 X5.000 Y550.871
G01 X5.000 Y468.481
G01 X87.074 Y400.157
G01 X200.064 Y453.838
G01 X229.331 Y404.651
G01 X372.766 Y409.413
G01 X383.940 Y410.614
G01 X509.745 Y355.222
G01 X548.948 Y396.481
G01 X617.779 Y310.023
G01 X706.311 Y348.419
G01 X710.000 Y320.427
G01 X710.000 Y347.935
G01 X670.428 Y418.321
G01 X584.126 Y387.234
G01 X572.566 Y456.405
G01 X442.493 Y463.121
G01 X438.460 Y472.084
G01 X312.077 Y528.945
G01 X269.018 Y486.465
G01 X186.486 Y565.482
G01 X81.931 Y513.871
G01 X47.598 Y567.149
G01 X5.000 Y562.663
G01 X5.000 Y470.590
G01 X93.288 Y406.535
G01 X196.234 Y463.528
G01 X234.369 Y404.886
G01 X374.911 Y419.824
G01 X385.359 Y408.455
G01 X518.065 Y362.023
G01 X547.978 Y396.055
G01 X628.946 Y310.152
G01 X706.792 Y351.246
G01 X710.000 Y337.339
G01 X710.000 Y362.125
G01 X670.532 Y419.741
G01 X594.923 Y385.659
G01 X574.656 Y464.044
G01 X448.092 Y460.706
G01 X444.606 Y482.294
G01 X311.660 Y530.038
G01 X277.621 Y495.108
G01 X182.797 Y573.267
G01 X88.706 Y519.337
G01 X44.774 Y581.333
G01 X5.000 Y574.318
G01 X5.000 Y473.260
G01 X99.692 Y413.924
G01 X192.005 Y472.226
G01 X240.366 Y405.659
G01 X376.105 Y429.939
G01 X387.881 Y405.912
G01 X525.639 Y369.370
G01 X547.508 Y394.522
G01 X640.162 Y311.180
G01 X706.846 Y352.946
G01 X710.000 Y343.388
G01 X710.000 Y372.012
G01 X670.647 Y419.930
G01 X606.264 Y384.864
G01 X575.980 Y470.886
G01 X454.812 Y458.379
G01 X449.819 Y492.614
G01 X312.188 Y530.367
G01 X285.873 Y504.601
G01 X179.268 Y579.914
G01 X96.055 Y525.710
G01 X41.307 Y594.780
G01 X5.000 Y585.800
G01 X5.000 Y476.385
G01 X106.099 Y422.315
G01 X187.546 Y479.853
G01 X247.199 Y407.108
G01 X376.397 Y439.576
G01 X391.535 Y403.169
G01 X532.357 Y377.109
G01 X547.699 Y391.975
G01 X651.236 Y313.092
G01 X706.646 Y353.453
G01 X710.000 Y345.698
G01 X710.000 Y378.897
G01 X670.956 Y418.896
G01 X617.973 Y384.917
G01 X576.662 Y476.792
G01 X462.594 Y456.316
G01 X454.071 Y502.858
G01 X313.760 Y530.086
G01 X293.612 Y514.847
G01 X176.085 Y585.443
G01 X103.800 Y533.049
G01 X37.332 Y607.358
G01 X5.000 Y597.066
G01 X5.000 Y479.866
G01 X112.326 Y431.672
G01 X183.038 Y486.365
G01 X254.720 Y409.349
G01 X375.867 Y448.566
G01 X396.318 Y400.410
G01 X538.140 Y385.067
G01 X548.692 Y388.534
G01 X661.986 Y315.837
G01 X706.373 Y352.733
G01 X710.000 Y346.025
G01 X710.000 Y383.518
G01 X671.638 Y416.682
G01 X629.865 Y385.856
G01 X576.848 Y481.647
G01 X471.349 Y454.682
G01 X457.367 Y512.839
G01 X316.447 Y529.365
G01 X300.699 Y525.717
G01 X173.426 Y589.906
G01 X111.755 Y541.380
G01 X33.002 Y618.960
G01 X5.000 Y608.060
G01 X5.000 Y483.618
G01 X118.196 Y441.922
G01 X178.667 Y491.748
G01 X262.765 Y412.472
G01 X374.623 Y456.755
G01 X402.192 Y397.819
G01 X542.937 Y393.065
G01 X550.602 Y384.341
G01 X672.239 Y319.338
G01 X706.211 Y350.785
G01 X710.000 Y345.021
G01 X710.000 Y386.325
G01 X672.862 Y413.361
G01 X641.750 Y387.686
G01 X576.702 Y485.366
G01 X480.962 Y453.623
G01 X459.745 Y522.372
G01 X320.289 Y528.387
G01 X307.015 Y537.063
G01 X171.455 Y593.384
G01 X119.733 Y550.695
G01 X28.489 Y629.510
G01 X5.000 Y618.714
G01 X5.000 Y487.565
G01 X123.552 Y452.965
G01 X174.616 Y496.021
G01 X271.154 Y416.535
G01 X372.797 Y464.015
G01 X409.088 Y395.569
G01 X546.733 Y400.913
G01 X553.520 Y379.557
G01 X681.839 Y323.484
G01 X706.341 Y347.639
G01 X710.000 Y342.985
G01 X710.000 Y387.604
G01 X674.781 Y409.036
G01 X653.440 Y390.381
G01 X576.400 Y487.893
G01 X491.291 Y453.263
G01 X461.275 Y531.282
G01 X325.292 Y527.334
G01 X312.472 Y548.718
G01 X170.320 Y595.987
G01 X127.549 Y560.955
G01 X23.972 Y638.961
G01 X5.000 Y628.940
G01 X5.000 Y491.643
G01 X128.251 Y464.676
G01 X171.063 Y499.236
G01 X279.701 Y421.563
G01 X370.542 Y470.238
G01 X416.909 Y393.819
G01 X549.544 Y408.425
G01 X557.505 Y374.360
G01 X690.653 Y328.144
G01 X706.936 Y343.361
G01 X710.000 Y340.070
G01 X710.000 Y387.540
G01 X677.527 Y403.833
G01 X664.755 Y393.879
G01 X576.124 Y489.204
G01 X502.176 Y453.701
G01 X462.055 Y539.411
G01 X331.431 Y526.392
G01 X317.011 Y560.503
G01 X170.148 Y597.851
G01 X135.028 Y572.089
G01 X19.637 Y647.299
G01 X5.000 Y638.624
G01 X5.000 Y495.797
G01 X132.179 Y476.905
G01 X168.174 Y501.477
G01 X288.219 Y427.551
G01 X368.029 Y475.348
G01 X425.530 Y392.709
G01 X551.419 Y415.421
G01 X562.585 Y368.931
G01 X698.572 Y333.162
G01 X708.153 Y338.043
G01 X710.000 Y336.361
G01 X710.000 Y386.256
G01 X681.207 Y397.905
G01 X675.527 Y398.090
G01 X576.060 Y489.308
G01 X513.440 Y455.006
G01 X462.210 Y546.622
G01 X338.647 Y525.737
G01 X320.606 Y572.230
G01 X171.039 Y599.130
G01 X142.010 Y583.996
G01 X15.668 Y654.544
G01 X5.000 Y647.620
G01 X5.000 Y499.978
G01 X135.247 Y489.484
G01 X166.097 Y502.854
G01 X296.521 Y434.459
G01 X365.437 Y479.302
G01 X434.802 Y392.355
G01 X552.436 Y421.732
G01 X568.755 Y363.457
G01 X705.514 Y338.367
G01 X710.000 Y331.994
G01 X710.000 Y383.832
G01 X685.901 Y391.416
G01 X685.609 Y402.899
G01 X576.385 Y488.249
G01 X524.898 Y457.214
G01 X461.887 Y552.798
G01 X346.851 Y525.533
G01 X323.261 Y583.711
G01 X173.064 Y599.994
G01 X148.356 Y596.548
G01 X12.245 Y660.747
G01 X5.000 Y655.746
G01 X5.000 Y504.147
G01 X137.396 Y502.235
G01 X164.957 Y503.502
G01 X304.433 Y442.217
G01 X362.951 Y482.085
G01 X444.559 Y392.845
G01 X552.704 Y427.205
G01 X575.978 Y358.121
G01 X710.000 Y343.733
G01 X710.000 Y380.319
G01 X691.657 Y384.548
G01 X694.873 Y408.162
G01 X577.269 Y486.100
G01 X536.361 Y460.330
G01 X461.250 Y557.855
G01 X355.926 Y525.925
G01 X325.017 Y594.762
G01 X176.262 Y600.625
G01 X153.948 Y609.597
G01 X9.532 Y665.991
G01 X5.000 Y662.796
G01 X5.000 Y508.274
G01 X138.601 Y514.970
G01 X164.856 Y503.577
G01 X311.795 Y450.724
G01 X360.753 Y483.720
G01 X454.622 Y394.238
G01 X552.355 Y431.711
G01 X584.183 Y353.096
G01 X710.000 Y348.824
G01 X710.000 Y375.750
G01 X698.492 Y377.484
G01 X703.221 Y413.719
G01 X578.864 Y482.962
G01 X547.642 Y464.325
G01 X460.476 Y561.737
G01 X365.732 Y527.038
G01 X325.943 Y605.209
G01 X180.639 Y601.206
G01 X158.699 Y622.975
G01 X7.678 Y670.386
G01 X5.000 Y668.576
G01 X5.000 Y512.337
G01 X138.870 Y527.502
G01 X165.862 Y503.250
G01 X318.466 Y459.854
G01 X359.022 Y484.259
G01 X464.804 Y396.559
G01 X551.542 Y435.145
G01 X593.272 Y348.543
G01 X710.000 Y352.896
G01 X710.000 Y370.143
G01 X706.388 Y370.411
G01 X710.000 Y412.602
G01 X710.000 Y419.664
G01 X581.303 Y478.965
G01 X558.560 Y469.140
G01 X459.748 Y564.421
G01 X376.107 Y528.969
G01 X326.138 Y614.893
G01 X186.169 Y601.922
G01 X162.551 Y636.502
G01 X6.808 Y674.066
G01 X5.000 Y673.021
G01 X5.000 Y516.328
G01 X138.241 Y539.645
G01 X168.016 Y502.701
G01 X324.329 Y469.457
G01 X357.921 Y483.785
G01 X474.915 Y399.804
G01 X550.435 Y437.432
G01 X603.117 Y344.601
G01 X710.000 Y356.002
G01 X710.000 Y427.585
G01 X584.693 Y474.259
G01 X568.950 Y474.683
G01 X459.250 Y565.917
G01 X386.877 Y531.786
G01 X325.730 Y623.675
G01 X192.794 Y602.949
G01 X165.477 Y649.991
G01 X7.023 Y677.187
G01 X5.000 Y676.410
G01 X5.000 Y520.258
G01 X136.787 Y551.227
G01 X171.324 Y502.117
G01 X329.297 Y479.367
G01 X357.598 Y482.410
G01 X484.771 Y403.932
G01 X549.212 Y438.527
G01 X613.572 Y341.386
G01 X710.000 Y358.180
G01 X710.000 Y433.916
G01 X589.113 Y469.011
G01 X578.663 Y480.836
G01 X459.162 Y566.267
G01 X397.855 Y535.526
G01 X324.864 Y631.442
G01 X200.425 Y604.450
G01 X167.485 Y663.253
G01 X8.394 Y679.920
G01 X5.000 Y679.655
G01 X5.000 Y524.164
G01 X134.607 Y562.088
G01 X175.759 Y501.680
G01 X333.311 Y489.405
G01 X358.177 Y480.271
G01 X494.196 Y408.872
G01 X548.058 Y438.421
G01 X624.467 Y338.986
G01 X710.000 Y359.454
G01 X710.000 Y438.811
G01 X594.612 Y463.400
G01 X587.572 Y487.458
G01 X459.651 Y565.545
G01 X408.854 Y540.192
G01 X323.705 Y638.108
G01 X208.945 Y606.571
G01 X168.615 Y676.103
G01 X10.959 Y682.444
G01 X5.000 Y684.362
G01 X5.000 Y535.564
G01 X11.553 Y530.400
G01 X131.827 Y572.091
G01 X181.264 Y501.568
G01 X336.345 Y499.384
G01 X359.759 Y477.523
G01 X503.029 Y414.524
G01 X547.156 Y437.134
G01 X635.625 Y337.461
G01 X710.000 Y359.838
G01 X710.000 Y442.380
G01 X601.205 Y457.611
G01 X595.581 Y494.388
G01 X460.873 Y563.855
G01 X419.686 Y545.755
G01 X322.432 Y643.618
G01 X218.213 Y609.434
G01 X168.937 Y688.368
G01 X14.725 Y684.945
G01 X5.000 Y692.212
G01 X5.000 Y547.589
G01 X18.976 Y537.816
G01 X128.596 Y581.121
G01 X187.748 Y501.944
G01 X338.406 Y509.116
G01 X362.411 Y474.339
G01 X511.131 Y420.763
G01 X546.682 Y434.720
G01 X646.857 Y336.837
G01 X710.000 Y359.342
G01 X710.000 Y444.704
G01 X608.876 Y451.830
G01 X602.619 Y501.449
G01 X462.957 Y561.324
G01 X430.171 Y552.154
G01 X321.226 Y647.949
G01 X228.068 Y613.137
G01 X168.553 Y699.889
G01 X19.666 Y687.605
G01 X5.000 Y703.836
G01 X5.000 Y559.421
G01 X26.454 Y546.233
G01 X125.080 Y589.094
G01 X195.096 Y502.954
G01 X339.534 Y518.418
G01 X366.173 Y470.899
G01 X518.383 Y427.439
G01 X546.800 Y431.264
G01 X657.972 Y337.107
G01 X710.000 Y357.983
G01 X710.000 Y445.839
G01 X617.574 Y446.237
G01 X608.649 Y508.457
G01 X466.012 Y558.102
G01 X440.144 Y559.297
G01 X320.274 Y651.112
G01 X238.336 Y617.747
G01 X167.587 Y710.528
G01 X25.724 Y690.600
G01 X5.000 Y718.358
G01 X5.000 Y571.017
G01 X33.801 Y555.621
G01 X121.457 Y595.955
G01 X203.165 Y504.721
G01 X339.799 Y527.116
G01 X371.049 Y467.389
G01 X524.698 Y434.385
G01 X547.656 Y426.879
G01 X668.787 Y338.231
G01 X710.000 Y355.817
G01 X710.000 Y445.826
G01 X627.220 Y441.001
G01 X613.667 Y515.225
G01 X470.117 Y554.358
G01 X449.457 Y567.067
G01 X319.754 Y653.148
G01 X248.831 Y623.300
G01 X166.189 Y720.170
G01 X32.808 Y694.093
G01 X5.000 Y734.160
G01 X5.000 Y582.354
G01 X40.839 Y565.918
G01 X117.910 Y601.680
G01 X211.797 Y507.342
G01 X339.303 Y535.053
G01 X377.013 Y463.995
G01 X530.017 Y441.423
G01 X549.374 Y421.701
G01 X679.125 Y340.140
G01 X710.000 Y352.993
G01 X710.000 Y444.697
G01 X637.702 Y436.275
G01 X617.700 Y521.567
G01 X475.320 Y550.270
G01 X457.985 Y575.320
G01 X319.836 Y654.132
G01 X259.364 Y629.799
G01 X164.523 Y728.731
G01 X40.803 Y698.229
G01 X5.000 Y749.871
G01 X5.000 Y593.422
G01 X47.402 Y577.032
G01 X114.625 Y606.280
G01 X220.814 Y510.886
G01 X338.170 Y542.092
G01 X384.004 Y460.892
G01 X534.314 Y448.367
G01 X552.052 Y415.888
G01 X688.825 Y342.733
G01 X710.000 Y349.902
G01 X710.000 Y442.492
G01 X648.888 Y432.192
G01 X620.810 Y527.308
G01 X481.636 Y546.022
G01 X465.631 Y583.894
G01 X320.672 Y654.168
G01 X269.750 Y637.213
G01 X162.768 Y736.156
G01 X49.567 Y703.132
G01 X5.000 Y764.728
G01 X5.000 Y604.214
G01 X53.345 Y588.843
G01 X111.782 Y609.799
G01 X230.033 Y515.386
G01 X336.549 Y548.119
G01 X391.932 Y458.245
G01 X537.597 Y455.029
G01 X555.759 Y409.612
G01 X697.747 Y345.884
G01 X710.000 Y347.509
G01 X710.000 Y439.282
G01 X660.621 Y428.858
G01 X623.086 Y532.282
G01 X489.048 Y541.801
G01 X472.326 Y592.615
G01 X322.394 Y653.383
G01 X279.808 Y645.481
G01 X161.108 Y742.421
G01 X58.941 Y708.895
G01 X5.000 Y778.456
G01 X5.000 Y614.728
G01 X58.545 Y601.209
G01 X109.550 Y612.311
G01 X239.266 Y520.848
G01 X334.605 Y553.051
G01 X400.680 Y456.200
G01 X539.905 Y461.226
G01 X560.532 Y403.055
G01 X705.773 Y349.444
G01 X710.000 Y348.104
G01 X710.000 Y435.216
G01 X672.728 Y426.350
G01 X624.644 Y536.348
G01 X497.507 Y537.787
G01 X478.033 Y601.297
G01 X325.111 Y651.929
G01 X289.375 Y654.510
G01 X159.726 Y747.538
G01 X68.748 Y715.588
G01 X5.000 Y791.041
G01 X5.000 Y624.961
G01 X62.904 Y613.968
G01 X108.084 Y613.919
G01 X248.324 Y527.240
G01 X332.515 Y556.833
G01 X410.106 Y454.880
G01 X541.308 Y466.787
G01 X566.376 Y396.403
G01 X710.000 Y354.077
G01 X710.000 Y430.633
G01 X685.026 Y424.717
G01 X625.627 Y539.384
G01 X506.931 Y534.147
G01 X482.748 Y609.751
G01 X328.899 Y649.971
G01 X298.302 Y664.182
G01 X158.804 Y751.549
G01 X78.805 Y723.243
G01 X5.000 Y802.574
G01 X5.000 Y634.911
G01 X66.356 Y626.942
G01 X107.515 Y614.751
G01 X257.031 Y534.501
G01 X330.464 Y559.444
G01 X420.048 Y454.382
G01 X541.907 Y471.553
G01 X573.261 Y389.843
G01 X710.000 Y359.099
G01 X710.000 Y426.315
G01 X697.326 Y423.973
G01 X626.193 Y541.296
G01 X517.211 Y531.035
G01 X486.502 Y617.794
G01 X333.809 Y647.690
G01 X306.466 Y674.353
G01 X158.511 Y754.529
G01 X88.922 Y731.863
G01 X5.000 Y813.168
G01 X5.000 Y644.578
G01 X68.866 Y639.947
G01 X107.952 Y614.958
G01 X265.221 Y542.540
G01 X328.636 Y560.895
G01 X430.331 Y454.774
G01 X541.829 Y475.390
G01 X581.127 Y383.550
G01 X710.000 Y363.051
G01 X710.000 Y424.118
G01 X709.439 Y424.099
G01 X626.515 Y542.021
G01 X528.212 Y528.581
G01 X489.354 Y625.247
G01 X339.854 Y645.269
G01 X313.770 Y684.862
G01 X158.998 Y756.581
G01 X98.914 Y741.419
G01 X5.000 Y822.925
G01 X5.000 Y653.958
G01 X70.430 Y652.795
G01 X109.474 Y614.708
G01 X272.747 Y551.237
G01 X327.210 Y561.230
G01 X440.768 Y456.092
G01 X541.219 Y478.185
G01 X589.883 Y377.689
G01 X710.000 Y366.017
G01 X710.000 Y438.841
G01 X626.776 Y541.527
G01 X539.778 Y526.893
G01 X491.396 Y631.948
G01 X347.018 Y642.895
G01 X320.146 Y695.531
G01 X160.399 Y757.833
G01 X108.603 Y751.846
G01 X5.000 Y831.931
G01 X5.000 Y663.053
G01 X71.081 Y665.298
G01 X112.128 Y614.179
G01 X279.486 Y560.449
G01 X326.355 Y560.525
G01 X451.171 Y458.339
G01 X540.245 Y479.854
G01 X599.411 Y372.406
G01 X710.000 Y368.060
G01 X710.000 Y450.785
G01 X627.158 Y539.816
G01 X551.737 Y526.046
G01 X492.745 Y637.754
G01 X355.251 Y640.745
G01 X325.558 Y706.175
G01 X162.820 Y758.436
G01 X117.823 Y763.052
G01 X5.000 Y840.248
G01 X5.000 Y671.864
G01 X70.879 Y677.281
G01 X115.931 Y613.556
G01 X285.341 Y570.014
G01 X326.224 Y558.884
G01 X461.353 Y461.485
G01 X539.082 Y480.345
G01 X609.567 Y367.826
G01 X710.000 Y369.232
G01 X710.000 Y459.883
G01 X627.844 Y536.921
G01 X563.906 Y526.088
G01 X493.543 Y642.542
G01 X364.471 Y638.990
G01 X330.004 Y716.607
G01 X166.340 Y758.557
G01 X126.429 Y774.917
G01 X5.000 Y847.922
G01 X5.000 Y680.399
G01 X69.918 Y688.579
G01 X120.866 Y613.023
G01 X290.245 Y579.756
G01 X326.948 Y556.437
G01 X471.136 Y465.469
G01 X537.914 Y479.637
G01 X620.191 Y364.046
G01 X710.000 Y369.576
G01 X710.000 Y466.664
G01 X629.004 Y532.908
G01 X576.095 Y527.033
G01 X493.949 Y646.221
G01 X374.569 Y637.780
G01 X333.513 Y726.640
G01 X171.008 Y758.374
G01 X134.297 Y787.297
G01 X5.000 Y854.985
G01 X5.000 Y688.675
G01 X68.316 Y699.049
G01 X126.884 Y612.761
G01 X294.163 Y589.490
G01 X328.634 Y553.334
G01 X480.353 Y470.199
G01 X536.925 Y477.744
G01 X631.104 Y361.132
G01 X710.000 Y369.131
G01 X710.000 Y471.510
G01 X630.798 Y527.873
G01 X588.115 Y528.861
G01 X494.138 Y648.726
G01 X385.409 Y637.246
G01 X336.147 Y736.099
G01 X176.838 Y758.072
G01 X141.330 Y800.030
G01 X5.000 Y861.462
G01 X5.000 Y696.725
G01 X66.215 Y708.570
G01 X133.903 Y612.937
G01 X297.092 Y599.029
G01 X331.361 Y549.745
G01 X488.858 Y475.555
G01 X536.294 Y474.709
G01 X642.122 Y359.122
G01 X710.000 Y367.942
G01 X710.000 Y474.700
G01 X633.362 Y521.939
G01 X599.785 Y531.521
G01 X494.291 Y650.027
G01 X396.837 Y637.494
G01 X337.998 Y744.818
G01 X183.813 Y757.836
G01 X147.463 Y812.938
G01 X5.000 Y867.369
G01 X5.000 Y704.607
G01 X63.778 Y717.047
G01 X141.814 Y613.703
G01 X299.063 Y608.187
G01 X335.175 Y545.848
G01 X496.527 Y481.395
G01 X536.189 Y470.611
G01 X653.055 Y358.018
G01 X710.000 Y366.076
G01 X710.000 Y476.447
G01 X636.812 Y515.251
G01 X610.934 Y534.930
G01 X494.592 Y650.124
G01 X408.680 Y638.599
G01 X339.184 Y752.656
G01 X191.882 Y757.845
G01 X152.660 Y825.837
G01 X5.000 Y872.720
G01 X5.000 Y712.419
G01 X61.179 Y724.417
G01 X150.483 Y615.189
G01 X300.137 Y616.788
G01 X340.092 Y541.828
G01 X503.264 Y487.558
G01 X536.762 Y465.553
G01 X663.715 Y357.791
G01 X710.000 Y363.647
G01 X710.000 Y476.913
G01 X641.234 Y507.972
G01 X621.407 Y538.979
G01 X495.224 Y649.052
G01 X420.754 Y640.609
G01 X339.848 Y759.491
G01 X200.964 Y758.267
G01 X156.919 Y838.536
G01 X5.000 Y877.530
G01 X5.000 Y720.320
G01 X58.600 Y730.648
G01 X159.755 Y617.501
G01 X300.408 Y624.668
G01 X346.093 Y537.872
G01 X509.002 Y493.868
G01 X538.143 Y459.667
G01 X673.923 Y358.379
G01 X710.000 Y360.872
G01 X710.000 Y476.229
G01 X646.685 Y500.279
G01 X631.073 Y543.532
G01 X496.357 Y646.877
G01 X432.870 Y643.535
G01 X340.149 Y765.230
G01 X210.950 Y759.252
G01 X160.271 Y850.851
G01 X5.000 Y881.821
G01 X5.000 Y728.551
G01 X56.228 Y735.741
G01 X169.458 Y620.714
G01 X299.994 Y631.686
G01 X353.129 Y534.160
G01 X513.705 Y500.141
G01 X540.440 Y453.105
G01 X683.514 Y359.692
G01 X710.000 Y358.175
G01 X710.000 Y474.508
G01 X653.190 Y492.357
G01 X639.826 Y548.434
G01 X498.149 Y643.694
G01 X444.842 Y647.358
G01 X340.262 Y769.810
G01 X221.705 Y760.930
G01 X162.778 Y862.604
G01 X5.000 Y885.626
G01 X5.000 Y737.461
G01 X54.245 Y739.731
G01 X179.409 Y624.873
G01 X299.037 Y637.720
G01 X361.116 Y530.859
G01 X517.370 Y506.189
G01 X543.728 Y446.035
G01 X692.342 Y361.609
G01 X710.000 Y356.385
G01 X710.000 Y471.854
G01 X660.741 Y484.393
G01 X647.588 Y553.511
G01 X500.739 Y639.627
G01 X456.485 Y652.025
G01 X340.370 Y773.198
G01 X233.072 Y763.407
G01 X164.534 Y873.633
G01 X5.000 Y888.998
G01 X5.000 Y747.501
G01 X52.823 Y742.682
G01 X189.420 Y629.992
G01 X297.698 Y642.679
G01 X369.945 Y528.122
G01 X520.029 Y511.828
G01 X548.055 Y438.638
G01 X700.282 Y363.989
G01 X710.000 Y357.054
G01 X710.000 Y468.379
G01 X669.297 Y476.569
G01 X654.313 Y558.583
G01 X504.241 Y634.820
G01 X467.632 Y657.454
G01 X340.656 Y775.399
G01 X244.880 Y766.758
G01 X165.656 Y883.793
G01 X9.464 Y891.792
G01 X5.000 Y898.452
G01 X5.000 Y759.156
G01 X52.122 Y744.690
G01 X199.304 Y636.049
G01 X296.152 Y646.499
G01 X379.482 Y526.079
G01 X521.743 Y516.882
G01 X553.435 Y431.101
G01 X707.238 Y366.671
G01 X710.000 Y362.814
G01 X710.000 Y464.218
G01 X678.786 Y469.059
G01 X659.987 Y563.463
G01 X508.742 Y629.438
G01 X478.127 Y663.534
G01 X341.302 Y776.444
G01 X256.946 Y771.028
G01 X166.288 Y892.963
G01 X18.529 Y894.675
G01 X5.000 Y916.176
G01 X5.000 Y772.763
G01 X52.279 Y745.877
G01 X208.879 Y642.993
G01 X294.581 Y649.149
G01 X389.569 Y524.835
G01 X522.605 Y521.190
G01 X559.847 Y423.609
G01 X710.000 Y370.588
G01 X710.000 Y459.556
G01 X689.104 Y462.022
G01 X664.630 Y567.964
G01 X514.298 Y623.656
G01 X487.840 Y670.127
G01 X342.481 Y776.402
G01 X269.080 Y776.228
G01 X166.591 Y901.052
G01 X28.528 Y898.139
G01 X5.000 Y935.856
G01 X5.000 Y788.243
G01 X53.411 Y746.389
G01 X217.976 Y650.740
G01 X293.170 Y650.633
G01 X400.034 Y524.467
G01 X522.734 Y524.609
G01 X567.242 Y416.343
G01 X710.000 Y374.560
G01 X710.000 Y454.678
G01 X700.126 Y455.596
G01 X668.294 Y571.908
G01 X520.934 Y617.660
G01 X496.665 Y677.079
G01 X344.350 Y775.366
G01 X281.096 Y782.339
G01 X166.739 Y907.994
G01 X39.324 Y902.313
G01 X5.000 Y955.757
G01 X5.000 Y802.457
G01 X7.415 Y802.089
G01 X55.605 Y746.387
G01 X226.442 Y659.178
G01 X292.102 Y650.984
G01 X410.694 Y525.020
G01 X522.271 Y527.020
G01 X575.536 Y409.471
G01 X710.000 Y377.515
G01 X710.000 Y455.128
G01 X671.060 Y575.128
G01 X528.641 Y611.635
G01 X504.525 Y684.217
G01 X347.047 Y773.462
G01 X292.811 Y789.307
G01 X166.916 Y913.760
G01 X50.763 Y907.302
G01 X5.000 Y974.776
G01 X5.000 Y815.555
G01 X9.566 Y815.062
G01 X58.918 Y746.047
G01 X234.147 Y668.171
G01 X291.547 Y650.271
G01 X421.360 Y526.508
G01 X521.378 Y528.332
G01 X584.618 Y403.146
G01 X710.000 Y379.522
G01 X710.000 Y480.742
G01 X673.040 Y577.474
G01 X537.378 Y605.765
G01 X511.375 Y691.357
G01 X350.686 Y770.832
G01 X304.056 Y797.047
G01 X167.305 Y918.351
G01 X62.672 Y913.179
G01 X5.000 Y992.370
G01 X5.000 Y827.953
G01 X10.845 Y827.554
G01 X63.376 Y745.555
G01 X240.987 Y677.562
G01 X291.664 Y648.588
G01 X431.846 Y528.909
G01 X520.229 Y528.483
G01 X594.353 Y397.500
G01 X710.000 Y380.633
G01 X710.000 Y498.889
G01 X674.367 Y578.821
G01 X547.073 Y600.221
G01 X517.203 Y698.314
G01 X355.355 Y767.641
G01 X314.678 Y805.449
G01 X168.089 Y921.801
G01 X74.868 Y919.990
G01 X5.000 Y1008.368
G01 X5.000 Y839.617
G01 X11.336 Y839.397
G01 X68.971 Y745.095
G01 X246.884 Y687.178
G01 X292.592 Y646.060
G01 X441.967 Y532.171
G01 X519.005 Y527.444
G01 X604.584 Y392.636
G01 X710.000 Y380.882
G01 X710.000 Y511.549
G01 X675.197 Y579.068
G01 X557.624 Y595.162
G01 X522.028 Y704.900
G01 X361.108 Y764.066
G01 X324.546 Y814.376
G01 X169.440 Y924.178
G01 X87.164 Y927.744
G01 X5.000 Y1022.791
G01 X5.000 Y850.494
G01 X11.150 Y850.442
G01 X75.662 Y744.849
G01 X251.796 Y696.838
G01 X294.444 Y642.832
G01 X451.557 Y536.212
G01 X517.893 Y525.219
G01 X615.138 Y388.632
G01 X710.000 Y380.295
G01 X710.000 Y520.136
G01 X675.699 Y578.142
G01 X568.901 Y590.726
G01 X525.903 Y710.936
G01 X367.971 Y760.290
G01 X333.556 Y823.669
G01 X171.515 Y925.576
G01 X99.371 Y936.421
G01 X5.000 Y1035.747
G01 X5.000 Y860.519
G01 X10.423 Y860.560
G01 X83.378 Y744.988
G01 X255.710 Y706.352
G01 X297.307 Y639.068
G01 X460.461 Y540.919
G01 X517.072 Y521.842
G01 X625.830 Y385.534
G01 X710.000 Y378.882
G01 X710.000 Y525.637
G01 X676.054 Y576.004
G01 X580.755 Y587.027
G01 X528.910 Y716.257
G01 X375.935 Y756.500
G01 X341.632 Y833.157
G01 X174.453 Y926.118
G01 X111.308 Y945.966
G01 X5.000 Y1047.370
G01 X5.000 Y869.604
G01 X9.312 Y869.650
G01 X92.017 Y745.670
G01 X258.646 Y715.535
G01 X301.237 Y634.945
G01 X468.549 Y546.157
G01 X516.715 Y517.384
G01 X636.473 Y383.355
G01 X710.000 Y376.651
G01 X710.000 Y528.739
G01 X676.446 Y572.647
G01 X593.016 Y584.149
G01 X531.162 Y720.712
G01 X384.959 Y752.877
G01 X348.729 Y842.657
G01 X178.367 Y925.950
G01 X122.807 Y956.295
G01 X5.000 Y1057.790
G01 X5.000 Y877.651
G01 X7.988 Y877.638
G01 X101.451 Y747.032
G01 X260.659 Y724.208
G01 X306.260 Y630.647
G01 X475.716 Y551.770
G01 X516.978 Y511.940
G01 X646.878 Y382.074
G01 X710.000 Y373.606
G01 X710.000 Y529.927
G01 X677.057 Y568.097
G01 X605.504 Y582.150
G01 X532.793 Y724.175
G01 X394.969 Y749.594
G01 X354.835 Y851.980
G01 X183.345 Y925.235
G01 X133.715 Y967.295
G01 X5.000 Y1067.124
G01 X5.000 Y884.554
G01 X6.632 Y884.484
G01 X111.532 Y749.187
G01 X261.833 Y732.203
G01 X312.366 Y626.361
G01 X481.887 Y557.585
G01 X517.999 Y505.635
G01 X656.862 Y381.639
G01 X710.000 Y369.769
G01 X710.000 Y529.554
G01 X678.061 Y562.412
G01 X618.031 Y581.051
G01 X533.958 Y726.545
G01 X405.863 Y746.808
G01 X359.970 Y860.940
G01 X189.441 Y924.149
G01 X143.902 Y978.828
G01 X5.000 Y1075.473
G01 X5.000 Y890.228
G01 X5.430 Y890.179
G01 X122.090 Y752.218
G01 X262.278 Y739.371
G01 X319.514 Y622.268
G01 X487.018 Y563.419
G01 X519.893 Y498.617
G01 X666.257 Y381.968
G01 X710.000 Y365.215
G01 X710.000 Y527.880
G01 X679.622 Y555.679
G01 X630.408 Y580.843
G01 X534.828 Y727.750
G01 X417.513 Y744.656
G01 X364.189 Y869.358
G01 X196.681 Y922.875
G01 X153.264 Y990.736
G01 X5.000 Y1082.926
G01 X5.000 Y894.280
G01 X132.946 Y756.181
G01 X262.131 Y745.586
G01 X327.630 Y618.542
G01 X491.096 Y569.088
G01 X522.743 Y491.049
G01 X674.910 Y382.949
G01 X710.000 Y360.144
G01 X710.000 Y525.103
G01 X681.883 Y548.016
G01 X642.450 Y581.485
G01 X535.583 Y727.752
G01 X429.767 Y743.250
G01 X367.575 Y877.067
G01 X205.055 Y921.600
G01 X161.725 Y1002.846
G01 X5.000 Y1089.561
G01 X5.000 Y897.477
G01 X143.913 Y761.097
G01 X261.549 Y750.747
G01 X336.614 Y615.340
G01 X494.142 Y574.403
G01 X526.608 Y483.110
G01 X682.691 Y384.447
G01 X710.000 Y355.029
G01 X710.000 Y521.385
G01 X684.966 Y539.563
G01 X653.982 Y582.902
G01 X536.407 Y726.543
G01 X442.458 Y742.677
G01 X370.239 Y883.918
G01 X214.522 Y920.504
G01 X169.243 Y1014.975
G01 X5.000 Y1095.453
G01 X5.000 Y900.357
G01 X154.803 Y766.956
G01 X260.702 Y754.781
G01 X346.336 Y612.798
G01 X496.211 Y579.188
G01 X531.509 Y474.984
G01 X689.494 Y386.305
G01 X710.000 Y350.863
G01 X710.000 Y516.863
G01 X688.964 Y530.478
G01 X664.846 Y584.991
G01 X537.483 Y724.148
G01 X455.405 Y742.990
G01 X372.318 Y889.783
G01 X225.008 Y919.760
G01 X175.804 Y1026.933
G01 X5.000 Y1100.679
G01 X5.000 Y903.004
G01 X5.687 Y902.418
G01 X165.431 Y773.714
G01 X259.772 Y757.650
G01 X356.645 Y611.031
G01 X497.387 Y583.277
G01 X537.437 Y466.860
G01 X695.245 Y388.353
G01 X710.000 Y349.371
G01 X710.000 Y511.667
G01 X693.945 Y520.936
G01 X674.904 Y587.625
G01 X538.986 Y720.627
G01 X468.419 Y744.212
G01 X373.966 Y894.562
G01 X236.411 Y919.524
G01 X181.433 Y1038.535
G01 X5.000 Y1105.329
G01 X5.000 Y906.519
G01 X7.779 Y903.341
G01 X175.625 Y781.297
G01 X258.942 Y759.347
G01 X367.375 Y610.122
G01 X497.780 Y586.520
G01 X544.350 Y458.920
G01 X699.899 Y390.409
G01 X710.000 Y352.633
G01 X710.000 Y505.930
G01 X699.940 Y511.122
G01 X684.041 Y590.653
G01 X541.078 Y716.067
G01 X481.312 Y746.333
G01 X375.356 Y898.183
G01 X248.602 Y919.932
G01 X186.181 Y1049.601
G01 X10.472 Y1107.700
G01 X5.000 Y1115.514
G01 X5.000 Y912.158
G01 X10.910 Y903.693
G01 X185.226 Y789.600
G01 X258.397 Y759.896
G01 X378.343 Y610.127
G01 X497.528 Y588.793
G01 X552.175 Y451.336
G01 X703.444 Y392.286
G01 X710.000 Y361.233
G01 X710.000 Y499.809
G01 X706.952 Y501.222
G01 X692.173 Y593.907
G01 X543.904 Y710.585
G01 X493.899 Y749.308
G01 X376.667 Y900.608
G01 X261.430 Y921.097
G01 X190.134 Y1059.963
G01 X19.462 Y1109.192
G01 X5.000 Y1133.714
G01 X5.000 Y920.665
G01 X15.147 Y903.648
G01 X194.098 Y798.494
G01 X258.312 Y759.357
G01 X389.362 Y611.068
G01 X496.786 Y589.995
G01 X560.808 Y444.267
G01 X705.903 Y393.800
G01 X710.000 Y372.222
G01 X710.000 Y524.754
G01 X699.245 Y597.208
G01 X547.583 Y704.320
G01 X506.006 Y753.063
G01 X378.084 Y901.829
G01 X274.727 Y923.101
G01 X193.404 Y1069.471
G01 X29.581 Y1110.874
G01 X5.000 Y1157.210
G01 X5.000 Y932.042
G01 X20.524 Y903.388
G01 X202.128 Y807.828
G01 X258.849 Y757.818
G01 X400.245 Y612.935
G01 X495.725 Y590.057
G01 X570.121 Y437.851
G01 X707.329 Y394.773
G01 X710.000 Y380.851
G01 X710.000 Y570.063
G01 X705.234 Y600.371
G01 X552.210 Y697.433
G01 X517.476 Y757.496
G01 X379.789 Y901.872
G01 X288.312 Y926.000
G01 X196.127 Y1078.000
G01 X40.756 Y1112.917
G01 X5.000 Y1183.711
G01 X5.000 Y945.567
G01 X27.044 Y903.098
G01 X209.231 Y817.434
G01 X260.153 Y755.394
G01 X410.806 Y615.683
G01 X494.526 Y588.939
G01 X579.962 Y432.200
G01 X707.807 Y395.040
G01 X710.000 Y384.585
G01 X710.000 Y603.295
G01 X557.852 Y690.097
G01 X528.169 Y762.476
G01 X381.959 Y900.796
G01 X301.997 Y929.814
G01 X198.459 Y1085.448
G01 X52.885 Y1115.477
G01 X5.000 Y1210.652
G01 X5.000 Y960.173
G01 X34.675 Y902.963
G01 X215.355 Y827.130
G01 X262.346 Y752.225
G01 X420.872 Y619.239
G01 X493.373 Y586.637
G01 X590.162 Y427.400
G01 X707.447 Y394.455
G01 X710.000 Y383.783
G01 X710.000 Y607.621
G01 X564.540 Y682.495
G01 X537.975 Y767.853
G01 X384.754 Y898.688
G01 X315.594 Y934.531
G01 X200.573 Y1091.743
G01 X65.837 Y1118.690
G01 X5.000 Y1236.081
G01 X5.000 Y974.875
G01 X43.354 Y903.156
G01 X220.477 Y836.730
G01 X265.521 Y748.471
G01 X430.286 Y623.499
G01 X492.450 Y583.178
G01 X600.541 Y423.506
G01 X706.387 Y392.892
G01 X710.000 Y379.863
G01 X710.000 Y610.457
G01 X572.276 Y674.815
G01 X546.806 Y773.459
G01 X388.319 Y895.665
G01 X328.918 Y940.108
G01 X202.648 Y1096.848
G01 X79.463 Y1122.666
G01 X5.000 Y1258.937
G01 X5.000 Y988.990
G01 X52.987 Y903.841
G01 X224.609 Y846.046
G01 X269.746 Y744.305
G01 X438.910 Y628.334
G01 X491.932 Y578.620
G01 X610.911 Y420.540
G01 X704.783 Y390.253
G01 X710.000 Y374.061
G01 X710.000 Y611.911
G01 X581.027 Y667.241
G01 X554.610 Y779.113
G01 X392.775 Y891.866
G01 X341.796 Y946.469
G01 X204.869 Y1100.753
G01 X93.594 Y1127.488
G01 X5.000 Y1278.890
G01 X5.000 Y1002.148
G01 X63.454 Y905.160
G01 X227.797 Y854.898
G01 X275.053 Y739.911
G01 X446.633 Y633.593
G01 X491.980 Y573.053
G01 X621.083 Y418.493
G01 X702.805 Y386.470
G01 X710.000 Y367.173
G01 X710.000 Y612.072
G01 X590.729 Y659.950
G01 X561.365 Y784.629
G01 X398.215 Y887.452
G01 X354.070 Y953.510
G01 X207.420 Y1103.486
G01 X108.048 Y1133.210
G01 X8.410 Y1290.652
G01 X5.000 Y1291.496
G01 X5.000 Y1014.214
G01 X74.611 Y907.233
G01 X230.114 Y863.114
G01 X281.443 Y735.475
G01 X453.368 Y639.108
G01 X492.738 Y566.595
G01 X630.873 Y417.321
G01 X700.635 Y381.505
G01 X710.000 Y359.656
G01 X710.000 Y611.022
G01 X601.287 Y653.103
G01 X567.082 Y789.822
G01 X404.705 Y882.595
G01 X365.603 Y961.100
G01 X210.475 Y1105.104
G01 X122.639 Y1139.851
G01 X11.677 Y1300.987
G01 X5.000 Y1302.537
G01 X5.000 Y1025.189
G01 X86.295 Y910.153
G01 X231.666 Y870.539
G01 X288.884 Y731.181
G01 X459.064 Y644.699
G01 X494.328 Y559.386
G01 X640.107 Y416.950
G01 X698.456 Y375.353
G01 X710.000 Y351.758
G01 X710.000 Y608.850
G01 X612.580 Y646.847
G01 X571.805 Y794.509
G01 X412.277 Y877.479
G01 X376.283 Y969.088
G01 X214.196 Y1105.697
G01 X137.178 Y1147.399
G01 X14.768 Y1310.173
G01 X5.000 Y1312.409
G01 X5.000 Y1035.142
G01 X98.328 Y913.984
G01 X232.581 Y877.040
G01 X297.312 Y727.205
G01 X463.700 Y650.181
G01 X496.843 Y551.586
G01 X648.628 Y417.277
G01 X696.452 Y368.044
G01 X710.000 Y343.616
G01 X710.000 Y605.669
G01 X624.462 Y641.300
G01 X575.609 Y798.520
G01 X420.932 Y872.291
G01 X386.024 Y977.305
G01 X218.727 Y1105.379
G01 X151.481 Y1155.809
G01 X17.863 Y1318.170
G01 X5.000 Y1321.278
G01 X5.000 Y1044.170
G01 X110.526 Y918.757
G01 X233.011 Y882.508
G01 X306.633 Y723.709
G01 X467.287 Y655.367
G01 X500.348 Y543.371
G01 X656.298 Y418.173
G01 X694.797 Y359.637
G01 X710.000 Y335.305
G01 X710.000 Y601.661
G01 X636.771 Y636.559
G01 X578.597 Y801.702
G01 X430.637 Y867.214
G01 X394.775 Y985.570
G01 X224.188 Y1104.291
G01 X165.374 Y1165.004
G01 X21.149 Y1324.970
G01 X5.000 Y1329.412
G01 X5.000 Y1052.377
G01 X122.699 Y924.470
G01 X233.123 Y886.863
G01 X316.726 Y720.837
G01 X469.869 Y660.076
G01 X504.877 Y534.925
G01 X663.006 Y419.488
G01 X693.654 Y350.223
G01 X710.000 Y326.873
G01 X710.000 Y597.142
G01 X649.326 Y632.686
G01 X580.900 Y803.921
G01 X441.327 Y862.424
G01 X402.513 Y993.696
G01 X230.674 Y1102.592
G01 X178.702 Y1174.879
G01 X24.808 Y1330.601
G01 X5.000 Y1337.249
G01 X5.000 Y1059.863
G01 X134.661 Y931.090
G01 X233.096 Y890.056
G01 X327.446 Y718.710
G01 X471.523 Y664.137
G01 X510.428 Y526.434
G01 X668.667 Y421.055
G01 X693.164 Y339.921
G01 X710.000 Y318.352
G01 X710.000 Y592.702
G01 X661.943 Y629.715
G01 X582.666 Y805.069
G01 X452.908 Y858.083
G01 X409.252 Y1001.497
G01 X238.249 Y1100.455
G01 X191.326 Y1185.302
G01 X29.014 Y1335.120
G01 X5.000 Y1345.487
G01 X5.000 Y1066.723
G01 X146.237 Y938.550
G01 X233.114 Y892.071
G01 X338.630 Y717.420
G01 X472.353 Y667.399
G01 X516.971 Y518.084
G01 X673.229 Y422.694
G01 X693.449 Y328.873
G01 X710.000 Y309.774
G01 X710.000 Y589.487
G01 X674.432 Y627.645
G01 X584.064 Y805.069
G01 X465.257 Y854.334
G01 X415.035 Y1008.791
G01 X246.946 Y1098.063
G01 X203.135 Y1196.122
G01 X33.931 Y1338.616
G01 X5.000 Y1355.201
G01 X5.000 Y1073.050
G01 X157.262 Y946.754
G01 X233.361 Y892.925
G01 X350.100 Y717.032
G01 X472.487 Y669.727
G01 X524.439 Y510.051
G01 X676.671 Y424.219
G01 X694.603 Y317.240
G01 X710.000 Y301.171
G01 X710.000 Y589.775
G01 X686.605 Y626.442
G01 X585.271 Y803.871
G01 X478.230 Y851.298
G01 X419.938 Y1015.408
G01 X256.764 Y1095.602
G01 X214.045 Y1207.169
G01 X39.700 Y1341.203
G01 X5.000 Y1367.946
G01 X5.000 Y1078.936
G01 X167.594 Y955.581
G01 X234.016 Y892.666
G01 X361.669 Y717.577
G01 X472.079 Y671.015
G01 X532.738 Y502.498
G01 X679.006 Y425.447
G01 X696.689 Y305.198
G01 X710.000 Y292.583
G01 X710.000 Y598.156
G01 X698.286 Y626.043
G01 X586.471 Y801.460
G01 X491.662 Y849.069
G01 X424.065 Y1021.192
G01 X267.671 Y1093.255
G01 X224.004 Y1218.260
G01 X46.444 Y1343.023
G01 X5.000 Y1385.781
G01 X5.000 Y1084.484
G01 X177.113 Y964.884
G01 X235.245 Y891.374
G01 X373.150 Y719.054
G01 X471.294 Y671.184
G01 X541.746 Y495.568
G01 X680.277 Y426.196
G01 X699.740 Y292.933
G01 X710.000 Y284.062
G01 X710.000 Y623.789
G01 X709.312 Y626.352
G01 X587.847 Y797.854
G01 X505.375 Y847.708
G01 X427.546 Y1026.012
G01 X279.600 Y1091.197
G01 X232.991 Y1229.210
G01 X54.255 Y1344.233
G01 X5.000 Y1411.006
G01 X5.000 Y1089.808
G01 X185.725 Y974.499
G01 X237.199 Y889.158
G01 X384.356 Y721.429
G01 X470.311 Y670.186
G01 X551.319 Y489.384
G01 X680.562 Y426.297
G01 X703.756 Y280.631
G01 X710.000 Y275.679
G01 X710.000 Y639.419
G01 X589.578 Y793.102
G01 X519.183 Y847.248
G01 X430.531 Y1029.759
G01 X292.458 Y1089.590
G01 X241.020 Y1239.831
G01 X63.197 Y1345.007
G01 X10.382 Y1436.128
G01 X5.000 Y1441.125
G01 X5.000 Y1110.192
G01 X13.310 Y1090.159
G01 X193.368 Y984.250
G01 X240.006 Y886.152
G01 X395.110 Y724.636
G01 X469.314 Y668.007
G01 X561.291 Y484.039
G01 X679.964 Y425.599
G01 X708.702 Y268.479
G01 X710.000 Y267.528
G01 X710.000 Y650.410
G01 X591.829 Y787.285
G01 X532.895 Y847.687
G01 X433.189 Y1032.354
G01 X306.122 Y1088.576
G01 X248.134 Y1249.940
G01 X73.303 Y1345.526
G01 X23.618 Y1449.946
G01 X5.000 Y1465.778
G01 X5.000 Y1133.046
G01 X23.298 Y1090.390
G01 X200.011 Y993.949
G01 X243.769 Y882.509
G01 X405.249 Y728.581
G01 X468.489 Y664.664
G01 X571.486 Y479.596
G01 X678.614 Y423.969
G01 X710.000 Y277.694
G01 X710.000 Y658.847
G01 X594.750 Y780.513
G01 X546.327 Y848.991
G01 X435.696 Y1033.750
G01 X320.446 Y1088.274
G01 X254.411 Y1259.367
G01 X84.572 Y1345.977
G01 X35.998 Y1463.985
G01 X5.000 Y1488.147
G01 X5.000 Y1155.611
G01 X34.271 Y1091.053
G01 X205.657 Y1003.410
G01 X248.562 Y878.400
G01 X414.631 Y733.140
G01 X468.012 Y660.207
G01 X581.717 Y476.088
G01 X676.663 Y421.303
G01 X710.000 Y289.271
G01 X710.000 Y665.123
G01 X598.469 Y772.920
G01 X559.301 Y851.095
G01 X438.238 Y1033.930
G01 X335.266 Y1088.777
G01 X259.955 Y1267.956
G01 X96.971 Y1346.542
G01 X47.468 Y1478.063
G01 X5.000 Y1508.453
G01 X5.000 Y1176.860
G01 X46.116 Y1092.299
G01 X210.341 Y1012.450
G01 X254.428 Y874.006
G01 X423.135 Y738.170
G01 X468.050 Y654.719
G01 X591.795 Y473.513
G01 X674.278 Y417.521
G01 X710.000 Y296.643
G01 X710.000 Y669.553
G01 X603.087 Y764.662
G01 X571.654 Y853.902
G01 X440.998 Y1032.912
G01 X350.405 Y1090.146
G01 X264.896 Y1275.576
G01 X110.434 Y1347.396
G01 X58.010 Y1491.992
G01 X5.000 Y1526.905
G01 X5.000 Y1196.321
G01 X58.696 Y1094.255
G01 X214.129 Y1020.892
G01 X261.377 Y869.513
G01 X430.668 Y743.506
G01 X468.753 Y648.308
G01 X601.534 Y471.839
G01 X671.639 Y412.579
G01 X710.000 Y300.694
G01 X710.000 Y672.401
G01 X608.679 Y755.908
G01 X583.241 Y857.290
G01 X444.153 Y1030.746
G01 X365.675 Y1092.413
G01 X269.384 Y1282.118
G01 X124.865 Y1348.698
G01 X67.637 Y1505.585
G01 X5.000 Y1543.708
G01 X5.000 Y1213.879
G01 X71.851 Y1097.021
G01 X217.118 Y1028.577
G01 X269.386 Y865.107
G01 X437.169 Y748.971
G01 X470.248 Y641.109
G01 X610.758 Y471.001
G01 X668.929 Y406.463
G01 X710.000 Y302.223
G01 X710.000 Y673.896
G01 X615.285 Y746.842
G01 X593.943 Y861.115
G01 X447.870 Y1027.513
G01 X380.887 Y1095.575
G01 X273.589 Y1287.503
G01 X140.143 Y1350.590
G01 X76.394 Y1518.658
G01 X5.000 Y1559.071
G01 X5.000 Y1229.619
G01 X85.408 Y1100.670
G01 X219.430 Y1035.366
G01 X278.401 Y860.966
G01 X442.607 Y754.381
G01 X472.639 Y633.278
G01 X619.303 Y470.902
G01 X666.332 Y399.191
G01 X710.000 Y301.851
G01 X710.000 Y674.247
G01 X622.916 Y737.649
G01 X603.668 Y865.212
G01 X452.297 Y1023.322
G01 X395.855 Y1099.596
G01 X277.688 Y1291.682
G01 X156.121 Y1353.191
G01 X84.358 Y1531.040
G01 X5.000 Y1573.220
G01 X5.000 Y1243.712
G01 X99.184 Y1105.242
G01 X221.211 Y1041.142
G01 X288.336 Y857.257
G01 X446.985 Y759.550
G01 X475.998 Y624.987
G01 X627.027 Y471.422
G01 X664.026 Y390.815
G01 X710.000 Y300.039
G01 X710.000 Y673.665
G01 X631.549 Y728.517
G01 X612.352 Y869.404
G01 X457.562 Y1018.307
G01 X410.403 Y1104.410
G01 X281.866 Y1294.641
G01 X172.635 Y1356.593
G01 X91.634 Y1542.577
G01 X5.000 Y1586.423
G01 X5.000 Y1256.360
G01 X112.989 Y1110.745
G01 X222.622 Y1045.816
G01 X299.077 Y854.130
G01 X450.338 Y764.293
G01 X480.367 Y616.416
G01 X633.810 Y472.415
G01 X662.178 Y381.418
G01 X710.000 Y297.126
G01 X710.000 Y672.385
G01 X641.126 Y719.624
G01 X619.966 Y873.507
G01 X463.767 Y1012.623
G01 X424.367 Y1109.920
G01 X286.305 Y1296.396
G01 X189.507 Y1360.855
G01 X98.353 Y1553.135
G01 X5.000 Y1599.014
G01 X5.000 Y1267.767
G01 X126.636 Y1117.155
G01 X223.842 Y1049.331
G01 X310.486 Y851.712
G01 X452.733 Y768.438
G01 X485.758 Y607.753
G01 X639.560 Y473.720
G01 X660.937 Y371.112
G01 X710.000 Y293.363
G01 X710.000 Y670.699
G01 X651.563 Y711.138
G01 X626.511 Y877.334
G01 X470.985 Y1006.441
G01 X437.604 Y1116.003
G01 X291.184 Y1296.997
G01 X206.550 Y1366.008
G01 X104.667 Y1562.607
