; file trimmed by trimify2x.pl
; Created by Sandify
; 
;   https://jeffeb3.github.io/sandify/
; 
;   Sandify Version: 0.1.3
; 
;   Machine Type: Rectangular
;     MinX: 5 MaxX: 710 MinY: 5 MaxY: 1570
;   Content Type: Shapes
;     Starting Size: 300
;     Offset: X: 51 Y: -308
;     Selected Shape: Circle
;       Circle Lobes: 1.47
;     Number of Loops: 103
;     Spin: true
;       Spin Value: 1.8
;       Spin Switchbacks: 0
;     Grow: true
;       Grow Value: 5
;     Track: true
;       Track Count: 40
;       Track Size: 880.45
;       Track Grow: false
;   Path Reversed: false
; 
; filename: 'mishegoss2.gcode'

; BEGIN PRE
G28 Y
G28 X
G01 F30000; END PRE
G01 X710.000 Y479.500
G01 X710.000 Y495.563
G01 X672.145 Y511.358
G01 X710.000 Y490.690
G01 X710.000 Y530.322
G01 X695.915 Y562.403
G01 X695.854 Y498.747
G01 X710.000 Y541.837
G01 X710.000 Y575.965
G01 X661.462 Y546.675
G01 X710.000 Y570.595
G01 X710.000 Y588.230
G01 X649.793 Y606.767
G01 X708.285 Y574.760
G01 X662.394 Y653.729
G01 X662.092 Y586.816
G01 X681.225 Y670.185
G01 X617.205 Y624.669
G01 X681.855 Y658.958
G01 X594.620 Y674.480
G01 X651.330 Y640.708
G01 X597.426 Y711.289
G01 X597.710 Y638.645
G01 X608.687 Y716.922
G01 X544.348 Y661.447
G01 X603.902 Y693.019
G01 X513.071 Y696.797
G01 X568.973 Y659.715
G01 X508.472 Y720.243
G01 X510.628 Y640.944
G01 X514.756 Y712.940
G01 X451.713 Y647.034
G01 X507.405 Y675.381
G01 X414.775 Y667.269
G01 X471.200 Y627.136
G01 X405.871 Y677.798
G01 X411.484 Y592.776
G01 X410.367 Y659.162
G01 X350.482 Y584.229
G01 X403.784 Y610.677
G01 X311.355 Y592.370
G01 X369.799 Y551.225
G01 X301.565 Y593.972
G01 X312.316 Y505.860
G01 X307.659 Y568.946
G01 X252.832 Y487.973
G01 X305.244 Y515.334
G01 X215.004 Y489.956
G01 X276.919 Y451.148
G01 X207.646 Y489.165
G01 X225.102 Y401.710
G01 X218.495 Y464.814
G01 X170.456 Y381.688
G01 X223.302 Y413.531
G01 X137.026 Y384.871
G01 X203.615 Y352.249
G01 X134.912 Y389.120
G01 X160.334 Y306.316
G01 X153.065 Y372.872
G01 X113.189 Y291.472
G01 X167.435 Y331.202
G01 X86.507 Y302.775
G01 X158.562 Y279.755
G01 X91.622 Y318.523
G01 X125.807 Y243.679
G01 X118.715 Y316.314
G01 X87.881 Y239.601
G01 X144.006 Y289.566
G01 X69.297 Y263.750
G01 X147.084 Y252.473
G01 X82.573 Y294.836
G01 X125.759 Y229.803
G01 X119.146 Y309.615
G01 X97.658 Y238.946
G01 X155.585 Y299.805
G01 X87.389 Y277.257
G01 X170.595 Y278.061
G01 X108.612 Y323.904
G01 X160.448 Y268.668
G01 X154.055 Y354.873
G01 X141.627 Y289.717
G01 X200.720 Y360.225
G01 X138.758 Y339.728
G01 X226.509 Y351.068
G01 X166.608 Y398.445
G01 X226.182 Y351.175
G01 X219.230 Y441.232
G01 X215.035 Y379.358
G01 X274.155 Y456.616
G01 X217.645 Y435.401
G01 X308.580 Y454.224
G01 X249.850 Y499.806
G01 X315.785 Y457.360
G01 X307.072 Y547.529
G01 X309.849 Y485.619
G01 X367.470 Y565.742
G01 X315.238 Y540.196
G01 X407.635 Y562.704
G01 X348.832 Y602.570
G01 X419.418 Y561.322
G01 X407.461 Y647.531
G01 X415.660 Y582.065
G01 X470.016 Y661.093
G01 X420.656 Y627.690
G01 X512.590 Y650.278
G01 X452.299 Y680.867
G01 X525.664 Y637.660
G01 X508.868 Y716.452
G01 X520.820 Y644.654
G01 X570.084 Y719.485
G01 X522.132 Y675.696
G01 X611.658 Y695.844
G01 X548.469 Y714.822
G01 X622.757 Y667.801
G01 X599.596 Y737.136
G01 X613.697 Y657.732
G01 X656.163 Y726.837
G01 X608.273 Y671.804
G01 X693.606 Y688.696
G01 X626.295 Y695.523
G01 X699.846 Y644.646
G01 X669.038 Y704.353
G01 X683.923 Y617.956
G01 X710.000 Y666.496
G01 X710.000 Y670.806
G01 X669.293 Y616.500
G01 X710.000 Y624.021
G01 X710.000 Y629.091
G01 X676.661 Y627.270
G01 X710.000 Y602.603
G01 X710.000 Y624.586
G01 X708.831 Y626.125
G01 X710.000 Y618.883
G01 X710.000 Y540.206
G01 X698.083 Y523.070
G01 X710.000 Y519.077
G01 X710.000 Y513.184
G01 X693.698 Y517.105
G01 X710.000 Y512.074
G01 X710.000 Y577.045
G01 X686.377 Y556.310
G01 X710.000 Y573.820
G01 X710.000 Y610.373
G01 X667.399 Y616.481
G01 X710.000 Y603.547
G01 X710.000 Y623.967
G01 X674.118 Y668.229
G01 X686.661 Y604.030
G01 X691.766 Y691.229
G01 X637.517 Y636.968
G01 X695.743 Y683.916
G01 X607.583 Y685.711
G01 X669.623 Y664.302
G01 X604.252 Y726.185
G01 X617.228 Y656.605
G01 X614.023 Y737.477
G01 X560.008 Y673.432
G01 X612.476 Y716.849
G01 X521.608 Y706.452
G01 X582.196 Y681.606
G01 X510.860 Y732.363
G01 X525.616 Y656.455
G01 X515.550 Y729.802
G01 X463.441 Y655.550
G01 X511.494 Y694.916
G01 X419.794 Y672.275
G01 X480.317 Y644.269
G01 X404.886 Y684.193
G01 X423.020 Y602.967
G01 X407.798 Y669.556
G01 X359.461 Y586.643
G01 X404.631 Y623.375
G01 X314.123 Y590.373
G01 X376.082 Y561.356
G01 X298.527 Y592.597
G01 X321.684 Y508.845
G01 X303.057 Y571.169
G01 X260.345 Y482.800
G01 X304.147 Y519.873
G01 X216.793 Y479.893
G01 X281.602 Y453.383
G01 X203.790 Y479.384
G01 X233.458 Y397.058
G01 X213.025 Y458.662
G01 X177.581 Y368.978
G01 X221.320 Y410.155
G01 X138.833 Y367.264
G01 X207.631 Y347.296
G01 X131.145 Y371.908
G01 X168.482 Y295.208
G01 X147.518 Y359.750
G01 X120.613 Y272.865
G01 X165.224 Y321.727
G01 X88.914 Y279.689
G01 X162.426 Y269.828
G01 X88.424 Y296.319
G01 X134.129 Y228.707
G01 X113.464 Y298.985
G01 X95.878 Y218.031
G01 X141.824 Y277.034
G01 X72.496 Y238.402
G01 X150.936 Y240.857
G01 X80.068 Y271.068
G01 X134.304 Y214.457
G01 X114.254 Y291.647
G01 X106.216 Y218.052
G01 X153.431 Y287.866
G01 X91.343 Y253.366
G01 X174.384 Y268.439
G01 X106.762 Y302.292
G01 X169.133 Y256.616
G01 X149.487 Y339.907
G01 X150.671 Y273.099
G01 X198.567 Y352.380
G01 X143.435 Y320.756
G01 X230.223 Y346.754
G01 X165.446 Y382.234
G01 X235.036 Y345.506
G01 X215.094 Y432.231
G01 X224.665 Y369.835
G01 X272.182 Y455.493
G01 X223.245 Y423.842
G01 X312.470 Y457.483
G01 X249.693 Y491.111
G01 X325.139 Y459.954
G01 X303.798 Y546.178
G01 X320.501 Y484.666
G01 X366.208 Y572.570
G01 X322.321 Y537.094
G01 X412.319 Y574.302
G01 X350.367 Y601.971
G01 X429.981 Y572.490
G01 X405.851 Y653.925
G01 X428.136 Y589.547
G01 X470.355 Y675.484
G01 X430.125 Y632.466
G01 X519.022 Y669.365
G01 X456.524 Y687.341
G01 X538.432 Y656.130
G01 X509.987 Y729.133
G01 X536.157 Y658.914
G01 X573.118 Y739.569
G01 X535.058 Y686.336
G01 X620.922 Y720.189
G01 X556.474 Y726.025
G01 X638.781 Y691.041
G01 X604.518 Y753.459
G01 X632.897 Y675.997
G01 X662.904 Y749.715
G01 X625.599 Y685.347
G01 X706.610 Y715.209
G01 X638.941 Y708.342
G01 X710.000 Y674.205
G01 X710.000 Y681.803
G01 X678.509 Y721.095
G01 X707.610 Y636.973
G01 X710.000 Y644.400
G01 X710.000 Y666.217
G01 X691.484 Y629.702
G01 X710.000 Y636.384
G01 X710.000 Y642.488
G01 X694.242 Y638.515
G01 X710.000 Y630.257
G01 X710.000 Y627.344
G01 X685.501 Y626.977
G01 X710.000 Y624.747
G01 X710.000 Y660.521
G01 X685.641 Y682.596
G01 X710.000 Y624.298
G01 X710.000 Y626.882
G01 X700.998 Y712.021
G01 X657.905 Y650.961
G01 X707.575 Y709.335
G01 X620.903 Y697.545
G01 X685.993 Y689.330
G01 X610.834 Y740.721
G01 X635.728 Y676.471
G01 X618.058 Y757.480
G01 X575.660 Y686.890
G01 X619.008 Y740.792
G01 X530.528 Y716.502
G01 X593.502 Y704.588
G01 X513.135 Y743.879
G01 X539.609 Y673.581
G01 X515.237 Y745.811
G01 X475.255 Y665.310
G01 X513.741 Y714.222
G01 X425.397 Y677.476
G01 X487.701 Y662.160
G01 X404.089 Y689.764
G01 X433.754 Y614.499
G01 X404.477 Y678.826
G01 X368.774 Y590.100
G01 X403.991 Y635.535
G01 X317.816 Y588.410
G01 X380.958 Y571.951
G01 X296.105 Y590.224
G01 X330.562 Y512.939
G01 X298.169 Y572.048
G01 X268.536 Y478.515
G01 X302.009 Y523.620
G01 X219.918 Y469.755
G01 X285.271 Y455.841
G01 X201.026 Y468.490
G01 X241.675 Y393.338
G01 X207.760 Y451.010
G01 X185.737 Y357.057
G01 X218.744 Y405.796
G01 X142.368 Y349.534
G01 X211.002 Y342.385
G01 X128.899 Y353.532
G01 X176.790 Y284.910
G01 X142.602 Y345.035
G01 X129.340 Y255.005
G01 X162.781 Y311.138
G01 X93.336 Y256.489
G01 X165.903 Y259.817
G01 X87.050 Y272.960
G01 X142.777 Y214.474
G01 X109.126 Y280.029
G01 X105.295 Y197.214
G01 X139.611 Y263.313
G01 X77.823 Y213.000
G01 X154.490 Y229.082
G01 X79.507 Y246.208
G01 X143.155 Y199.825
G01 X110.365 Y272.072
G01 X116.115 Y197.963
G01 X151.255 Y274.714
G01 X97.334 Y229.529
G01 X177.764 Y258.628
G01 X106.769 Y279.697
G01 X177.909 Y245.296
G01 X145.815 Y323.404
G01 X160.783 Y257.379
G01 X196.214 Y343.345
G01 X149.870 Y301.986
G01 X233.246 Y342.266
G01 X165.881 Y365.197
G01 X243.601 Y340.628
G01 X211.589 Y421.811
G01 X234.937 Y361.342
G01 X269.694 Y453.252
G01 X230.189 Y412.679
G01 X315.270 Y460.626
G01 X250.759 Y481.794
G01 X333.733 Y463.438
G01 X300.804 Y543.575
G01 X331.297 Y484.916
G01 X364.059 Y578.398
G01 X330.283 Y534.621
G01 X415.488 Y585.886
G01 X352.728 Y600.998
G01 X439.307 Y584.688
G01 X404.177 Y659.282
G01 X440.277 Y598.444
G01 X469.470 Y689.038
G01 X440.052 Y638.145
G01 X523.571 Y688.581
G01 X461.243 Y693.730
G01 X549.571 Y675.803
G01 X510.788 Y741.030
G01 X550.784 Y674.829
G01 X574.708 Y759.017
G01 X548.141 Y698.182
G01 X628.075 Y744.835
G01 X564.778 Y737.460
G01 X652.936 Y715.680
G01 X609.023 Y769.276
G01 X651.173 Y696.173
G01 X668.152 Y772.174
G01 X642.948 Y700.405
G01 X710.000 Y738.020
G01 X710.000 Y739.874
G01 X651.866 Y721.714
G01 X710.000 Y704.259
G01 X710.000 Y719.079
G01 X687.646 Y737.610
G01 X710.000 Y696.005
G01 X710.000 Y639.484
G01 X704.081 Y638.443
G01 X710.000 Y639.097
G01 X710.000 Y688.393
G01 X697.105 Y696.917
G01 X710.000 Y678.214
G01 X710.000 Y729.121
G01 X709.090 Y732.460
G01 X678.170 Y666.765
G01 X710.000 Y722.113
G01 X710.000 Y732.759
G01 X634.558 Y710.163
G01 X700.304 Y715.561
G01 X617.317 Y754.987
G01 X652.963 Y698.160
G01 X620.979 Y776.841
G01 X591.109 Y701.922
G01 X623.570 Y764.612
G01 X539.810 Y727.129
G01 X602.777 Y728.426
G01 X515.448 Y754.897
G01 X552.377 Y692.230
G01 X514.016 Y760.892
G01 X486.965 Y676.411
G01 X514.242 Y733.073
G01 X431.563 Y683.063
G01 X493.266 Y680.578
G01 X403.638 Y694.635
G01 X443.473 Y627.280
G01 X400.621 Y686.920
G01 X378.237 Y594.698
G01 X401.983 Y646.953
G01 X322.411 Y586.685
G01 X384.364 Y582.789
G01 X294.457 Y587.003
G01 X338.751 Y518.055
G01 X293.224 Y571.561
G01 X277.225 Y475.224
G01 X298.969 Y526.396
G01 X224.354 Y459.762
G01 X287.883 Y458.315
G01 X199.509 Y456.660
G01 X249.569 Y390.468
G01 X202.939 Y441.867
G01 X194.746 Y346.038
G01 X215.733 Y400.300
G01 X147.601 Y331.916
G01 X213.704 Y337.322
G01 X128.328 Y334.193
G01 X185.086 Y275.344
G01 X138.561 Y328.765
G01 X139.193 Y238.006
G01 X160.278 Y299.304
G01 X99.733 Y233.420
G01 X168.986 Y249.538
G01 X87.648 Y248.665
G01 X151.588 Y200.904
G01 X105.945 Y259.507
G01 X115.953 Y177.263
G01 X137.551 Y248.289
G01 X85.226 Y187.793
G01 X157.750 Y216.968
G01 X81.024 Y220.484
G01 X152.157 Y185.825
G01 X107.719 Y250.966
G01 X127.169 Y178.780
G01 X149.246 Y260.242
G01 X105.296 Y205.984
G01 X180.754 Y248.444
G01 X108.756 Y256.351
G01 X186.624 Y234.608
G01 X143.273 Y305.445
G01 X171.767 Y242.634
G01 X193.854 Y333.014
G01 X157.981 Y283.642
G01 X235.603 Y337.407
G01 X168.016 Y347.558
G01 X251.730 Y336.416
G01 X208.940 Y410.049
G01 X245.649 Y353.929
G01 X266.886 Y449.778
G01 X238.378 Y402.110
G01 X317.011 Y463.440
G01 X253.132 Y472.064
G01 X341.418 Y467.660
G01 X298.305 Y539.791
G01 X342.024 Y486.387
G01 X361.217 Y583.104
G01 X339.007 Y532.952
G01 X417.173 Y597.225
G01 X355.976 Y599.846
G01 X447.245 Y597.735
G01 X402.636 Y663.665
G01 X451.858 Y608.742
G01 X467.551 Y701.628
G01 X450.295 Y644.877
G01 X526.274 Y707.681
G01 X466.494 Y700.218
G01 X558.929 Y696.477
G01 X511.452 Y752.205
G01 X564.462 Y692.361
G01 X575.037 Y777.700
G01 X561.216 Y711.364
G01 X633.155 Y769.531
G01 X573.395 Y749.304
G01 X665.068 Y741.498
G01 X613.274 Y784.656
G01 X668.275 Y718.202
G01 X672.081 Y794.096
G01 X660.135 Y717.099
G01 X710.000 Y756.607
G01 X710.000 Y760.530
G01 X665.063 Y735.820
G01 X710.000 Y729.651
G01 X710.000 Y746.895
G01 X696.594 Y753.979
G01 X710.000 Y736.374
G01 X710.000 Y710.673
G01 X708.629 Y711.306
G01 X710.000 Y710.016
G01 X710.000 Y729.139
G01 X698.090 Y684.459
G01 X710.000 Y717.803
G01 X710.000 Y753.271
G01 X648.489 Y723.745
G01 X710.000 Y742.019
G01 X710.000 Y743.478
G01 X623.824 Y769.103
G01 X668.701 Y721.554
G01 X622.979 Y795.502
G01 X606.138 Y718.596
G01 X626.267 Y788.090
G01 X549.393 Y738.511
G01 X609.948 Y752.868
G01 X517.925 Y765.547
G01 X563.705 Y712.277
G01 X512.096 Y775.007
G01 X498.362 Y688.917
G01 X513.125 Y751.267
G01 X438.232 Y689.220
G01 X496.961 Y699.278
G01 X403.659 Y698.956
G01 X451.979 Y641.183
G01 X396.449 Y693.827
G01 X387.648 Y600.504
G01 X398.758 Y657.449
G01 X327.848 Y585.392
G01 X386.273 Y593.639
G01 X293.712 Y583.105
G01 X346.074 Y524.072
G01 X288.450 Y569.729
G01 X286.214 Y472.999
G01 X295.196 Y528.049
G01 X230.037 Y450.125
G01 X289.434 Y460.594
G01 X199.367 Y444.093
G01 X256.976 Y388.337
G01 X198.794 Y431.285
G01 X204.415 Y335.999
G01 X212.470 Y393.543
G01 X154.464 Y314.633
G01 X215.751 Y331.913
G01 X129.554 Y314.115
G01 X193.218 Y266.407
G01 X135.629 Y311.021
G01 X149.979 Y221.950
G01 X157.910 Y286.125
G01 X108.030 Y210.714
G01 X171.706 Y238.811
G01 X90.329 Y223.676
G01 X160.421 Y187.892
G01 X104.155 Y237.522
G01 X127.656 Y158.253
G01 X135.849 Y231.879
G01 X94.619 Y163.009
G01 X160.760 Y204.338
G01 X84.719 Y194.146
G01 X161.176 Y172.341
G01 X106.548 Y228.443
G01 X139.182 Y160.563
G01 X147.616 Y244.377
G01 X115.131 Y182.954
G01 X183.406 Y237.708
G01 X112.806 Y232.499
G01 X195.152 Y224.423
G01 X142.086 Y286.146
G01 X183.425 Y228.906
G01 X191.701 Y321.313
G01 X167.653 Y265.925
G01 X237.356 Y331.987
G01 X171.919 Y329.552
G01 X259.300 Y332.718
G01 X207.360 Y397.061
G01 X256.593 Y347.608
G01 X263.970 Y444.995
G01 X247.680 Y392.312
G01 X317.761 Y465.719
G01 X256.860 Y462.141
G01 X348.075 Y472.440
G01 X296.497 Y534.932
G01 X352.468 Y489.059
G01 X357.889 Y586.603
G01 X348.342 Y532.234
G01 X417.446 Y608.100
G01 X360.138 Y598.718
G01 X453.680 Y611.427
G01 X401.411 Y667.173
G01 X462.657 Y620.390
G01 X464.799 Y713.163
G01 X460.687 Y652.783
G01 X527.202 Y726.434
G01 X472.279 Y706.993
G01 X566.388 Y717.925
G01 X512.142 Y762.755
G01 X576.961 Y711.433
G01 X574.299 Y795.528
G01 X574.096 Y725.982
G01 X636.232 Y794.039
G01 X582.303 Y761.737
G01 X675.059 Y768.255
G01 X617.415 Y799.698
G01 X683.963 Y741.989
G01 X674.878 Y815.396
G01 X676.953 Y735.515
G01 X710.000 Y771.653
G01 X710.000 Y777.392
G01 X678.481 Y750.836
G01 X710.000 Y751.414
G01 X710.000 Y769.020
G01 X705.477 Y770.312
G01 X710.000 Y765.977
G01 X710.000 Y771.256
G01 X662.599 Y738.462
G01 X710.000 Y763.970
G01 X710.000 Y772.326
G01 X630.448 Y783.211
G01 X682.728 Y746.498
G01 X624.253 Y813.446
G01 X620.520 Y736.944
G01 X627.234 Y811.032
G01 X559.184 Y750.814
G01 X614.976 Y777.657
G01 X520.661 Y775.981
G01 X573.400 Y733.559
G01 X509.681 Y788.157
G01 X509.226 Y702.853
G01 X510.548 Y768.627
G01 X445.309 Y696.117
G01 X498.775 Y718.013
G01 X404.250 Y702.896
G01 X459.100 Y656.050
G01 X392.175 Y699.572
G01 X396.795 Y607.545
G01 X394.492 Y666.871
G01 X334.033 Y584.712
G01 X386.697 Y604.271
G01 X293.965 Y578.725
G01 X352.373 Y530.840
G01 X284.068 Y566.607
G01 X295.299 Y471.872
G01 X290.884 Y528.457
G01 X236.870 Y441.037
G01 X289.957 Y462.466
G01 X200.690 Y431.006
G01 X263.754 Y386.802
G01 X195.550 Y419.351
G01 X214.542 Y326.980
G01 X209.162 Y385.432
G01 X162.853 Y297.891
G01 X217.195 Y325.965
G01 X132.658 Y293.535
G01 X201.059 Y257.962
G01 X134.031 Y291.918
G01 X161.499 Y206.878
G01 X155.894 Y271.535
G01 X118.113 Y188.582
G01 X174.130 Y227.458
G01 X95.165 Y198.245
G01 X169.160 Y175.305
G01 X103.976 Y214.210
G01 X140.208 Y140.223
G01 X134.726 Y214.035
G01 X105.880 Y138.861
G01 X163.601 Y191.023
G01 X90.652 Y167.452
G01 X170.107 Y159.238
G01 X107.063 Y204.653
G01 X151.956 Y143.339
G01 X146.591 Y227.081
G01 X126.706 Y160.634
G01 X185.812 Y226.248
G01 X118.965 Y208.397
G01 X203.395 Y214.588
G01 X142.455 Y265.663
G01 X195.555 Y216.196
G01 X189.982 Y308.207
G01 X178.742 Y249.013
G01 X238.602 Y325.828
G01 X177.617 Y311.423
G01 X266.220 Y329.360
G01 X207.039 Y382.994
G01 X267.568 Y342.351
G01 X261.171 Y438.861
G01 X257.936 Y383.434
G01 X317.624 Y467.272
G01 X261.951 Y452.251
G01 X353.618 Y477.582
G01 X295.558 Y529.139
G01 X362.423 Y492.871
G01 X354.298 Y588.847
G01 X358.113 Y532.588
G01 X416.416 Y618.304
G01 X365.200 Y597.820
G01 X458.527 Y625.542
G01 X400.659 Y669.938
G01 X472.461 Y633.297
G01 X461.428 Y723.590
G01 X471.034 Y661.956
G01 X526.465 Y744.622
G01 X478.561 Y714.242
G01 X571.867 Y739.905
G01 X512.998 Y772.804
G01 X588.060 Y731.927
G01 X572.697 Y812.448
G01 X586.569 Y742.105
G01 X637.416 Y818.139
G01 X591.440 Y774.935
G01 X682.829 Y795.697
G01 X621.564 Y814.526
G01 X698.010 Y767.399
G01 X676.734 Y836.029
G01 X693.173 Y755.705
G01 X710.000 Y781.445
G01 X710.000 Y789.297
G01 X692.038 Y766.933
G01 X710.000 Y770.071
G01 X710.000 Y786.358
G01 X676.759 Y754.467
G01 X710.000 Y782.207
G01 X710.000 Y798.632
G01 X637.251 Y797.472
G01 X694.855 Y772.805
G01 X624.989 Y830.692
G01 X634.014 Y756.959
G01 X626.636 Y833.273
G01 X569.053 Y764.189
G01 X617.869 Y802.535
G01 X523.719 Y786.368
G01 X581.294 Y755.885
G01 X506.971 Y800.379
G01 X519.328 Y718.208
G01 X506.694 Y785.008
G01 X452.669 Y703.906
G01 X498.737 Y736.537
G01 X405.472 Y706.640
G01 X464.686 Y671.692
G01 X388.003 Y704.221
G01 X405.459 Y615.810
G01 X389.385 Y675.100
G01 X340.837 Y584.808
G01 X385.690 Y614.457
G01 X295.273 Y574.066
G01 X357.519 Y538.178
G01 X280.285 Y562.289
G01 X304.269 Y471.839
G01 X286.246 Y527.531
G01 X244.722 Y432.671
G01 X289.524 Y463.726
G01 X203.530 Y417.625
G01 X269.794 Y385.697
G01 X193.415 Y406.191
G01 X224.925 Y318.982
G01 X206.032 Y375.910
G01 X172.632 Y281.873
G01 X218.125 Y319.298
G01 X137.685 Y272.701
G01 X208.513 Y249.856
G01 X133.970 Y271.609
G01 X173.554 Y192.797
G01 X154.459 Y255.503
G01 X129.843 Y167.212
G01 X176.360 Y215.313
G01 X102.189 Y172.632
G01 X177.722 Y162.992
G01 X105.606 Y189.746
G01 X153.413 Y123.173
G01 X134.418 Y194.747
G01 X118.861 Y115.531
G01 X166.387 Y176.869
G01 X98.841 Y140.667
G01 X178.877 Y146.359
G01 X109.454 Y179.780
G01 X165.296 Y127.094
G01 X146.405 Y208.355
G01 X139.862 Y139.197
G01 X188.096 Y213.912
G01 X127.236 Y184.304
G01 X211.291 Y204.937
G01 X144.558 Y244.178
G01 X207.965 Y204.470
G01 X188.931 Y293.698
G01 X191.078 Y233.054
G01 X239.475 Y318.769
G01 X185.099 Y293.412
G01 X272.436 Y326.158
G01 X208.142 Y368.028
G01 X278.379 Y338.096
G01 X258.719 Y431.375
G01 X268.965 Y375.596
G01 X316.737 Y467.929
G01 X268.375 Y442.614
G01 X357.999 Y482.874
G01 X295.635 Y522.578
G01 X371.692 Y497.731
G01 X350.666 Y589.827
G01 X368.126 Y534.100
G01 X414.221 Y627.655
G01 X371.112 Y597.349
G01 X461.743 Y639.846
G01 X400.512 Y672.114
G01 X481.072 Y647.338
G01 X457.654 Y732.893
G01 X481.129 Y672.451
G01 X524.203 Y762.055
G01 X485.269 Y722.144
G01 X575.326 Y762.166
G01 X514.128 Y782.500
G01 X597.559 Y753.694
G01 X570.437 Y828.443
G01 X598.412 Y759.765
G01 X636.846 Y841.637
G01 X600.712 Y789.061
G01 X688.339 Y823.562
G01 X625.807 Y829.288
G01 X710.000 Y794.351
G01 X710.000 Y794.668
G01 X677.841 Y855.987
G01 X708.556 Y777.686
G01 X710.000 Y780.963
G01 X710.000 Y792.559
G01 X705.614 Y784.268
G01 X710.000 Y785.760
G01 X710.000 Y797.439
G01 X690.808 Y771.893
G01 X710.000 Y795.737
G01 X710.000 Y823.144
G01 X644.258 Y812.056
G01 X704.921 Y800.259
G01 X625.364 Y847.295
G01 X646.384 Y778.595
G01 X624.655 Y854.681
G01 X578.843 Y778.761
G01 X618.669 Y827.250
G01 X527.125 Y796.885
G01 X587.249 Y779.038
G01 X504.146 Y811.746
G01 X528.444 Y734.930
G01 X501.762 Y800.299
G01 X460.155 Y712.716
G01 X496.917 Y754.612
G01 X407.348 Y710.379
G01 X468.625 Y687.898
G01 X384.121 Y707.870
G01 X413.427 Y625.250
G01 X383.650 Y682.055
G01 X348.106 Y585.813
G01 X383.340 Y623.982
G01 X297.658 Y569.341
G01 X361.419 Y545.889
G01 X277.289 Y556.904
G01 X312.921 Y472.858
G01 X281.507 Y525.220
G01 X253.437 Y425.172
G01 X288.244 Y464.185
G01 X207.900 Y404.184
G01 X275.016 Y384.838
G01 X192.573 Y391.963
G01 X235.366 Y311.972
G01 X203.313 Y364.959
G01 X183.642 Y266.733
G01 X218.664 Y311.744
G01 X144.638 Y251.861
G01 X215.516 Y241.913
G01 X135.626 Y250.278
G01 X185.955 Y179.674
G01 X153.843 Y238.039
G01 X143.053 Y146.761
G01 X178.533 Y202.232
G01 X111.393 Y147.097
G01 X186.056 Y150.787
G01 X109.215 Y164.331
G01 X167.085 Y107.068
G01 X135.161 Y174.044
G01 X133.387 Y93.170
G01 X169.263 Y161.741
G01 X109.267 Y114.051
G01 X187.448 Y133.537
G01 X113.881 Y154.037
G01 X179.021 Y111.780
G01 X147.297 Y188.237
G01 X154.418 Y118.778
G01 X190.412 Y200.570
G01 X137.586 Y160.470
G01 X218.811 Y195.290
G01 X148.543 Y221.905
G01 X220.476 Y193.659
G01 X188.782 Y277.828
G01 X204.472 Y218.159
G01 X240.135 Y310.677
G01 X194.313 Y275.755
G01 X277.928 Y322.914
G01 X210.802 Y352.365
G01 X288.852 Y334.744
G01 X256.846 Y422.574
G01 X280.569 Y368.881
G01 X315.267 Y467.544
G01 X276.064 Y433.443
G01 X361.207 Y488.101
G01 X296.846 Y515.439
G01 X380.103 Y503.508
G01 X347.216 Y589.573
G01 X378.174 Y536.821
G01 X411.031 Y635.997
G01 X377.786 Y597.493
G01 X463.323 Y654.102
G01 X401.067 Y673.877
G01 X488.315 Y662.355
G01 X453.687 Y741.096
G01 X490.752 Y684.289
G01 X520.585 Y778.567
G01 X492.295 Y730.861
G01 X576.763 Y784.453
G01 X515.610 Y792.007
G01 X605.281 Y776.548
G01 X567.715 Y843.535
G01 X609.394 Y778.957
G01 X634.687 Y864.366
G01 X609.988 Y804.261
G01 X691.590 Y851.587
G01 X630.200 Y844.145
G01 X710.000 Y824.887
G01 X710.000 Y835.469
G01 X678.382 Y875.297
G01 X710.000 Y822.788
G01 X710.000 Y801.312
G01 X704.558 Y790.845
G01 X710.000 Y801.174
G01 X710.000 Y846.396
G01 X651.459 Y827.139
G01 X710.000 Y828.557
G01 X710.000 Y829.739
G01 X625.535 Y863.343
G01 X657.395 Y801.768
G01 X621.489 Y875.161
G01 X588.370 Y794.629
G01 X617.459 Y851.564
G01 X530.867 Y807.714
G01 X591.165 Y802.781
G01 X501.370 Y822.363
G01 X536.355 Y752.931
G01 X495.965 Y814.426
G01 X467.586 Y722.645
G01 X493.420 Y772.018
G01 X409.867 Y714.308
G01 X470.836 Y704.440
G01 X380.692 Y710.647
G01 X420.495 Y635.780
G01 X377.512 Y687.689
G01 X355.660 Y587.833
G01 X379.773 Y632.650
G01 X301.101 Y564.759
G01 X364.012 Y553.759
G01 X275.241 Y550.608
G01 X321.061 Y474.851
G01 X276.897 Y521.514
G01 X262.835 Y418.654
G01 X286.256 Y463.673
G01 X213.776 Y390.909
G01 X279.378 Y384.027
G01 X193.180 Y376.851
G01 X245.680 Y305.876
G01 X201.239 Y352.599
G01 X195.699 Y252.592
G01 X218.966 Y303.161
G01 X153.482 Y231.260
G01 X222.041 Y233.953
G01 X139.146 Y228.136
G01 X198.523 Y167.443
G01 X154.281 Y219.191
G01 X157.556 Y127.353
G01 X180.813 Y188.093
G01 X122.731 Y121.892
G01 X194.148 Y138.515
G01 X114.941 Y138.193
G01 X181.053 Y91.839
G01 X137.192 Y151.996
G01 X149.268 Y71.898
G01 X172.405 Y145.532
G01 X121.868 Y87.856
G01 X195.817 Y120.599
G01 X120.470 Y127.657
G01 X192.967 Y97.317
G01 X149.498 Y166.809
G01 X170.178 Y99.481
G01 X192.942 Y186.117
G01 X149.939 Y137.137
G01 X225.965 Y185.467
G01 X154.524 Y199.076
G01 X232.929 Y183.662
G01 X189.764 Y260.679
G01 X218.723 Y204.408
G01 X240.771 Y301.443
G01 X205.171 Y258.674
G01 X282.716 Y319.432
G01 X215.117 Y336.226
G01 X298.831 Y332.169
G01 X255.771 Y412.534
G01 X292.541 Y363.334
G01 X313.405 Y466.002
G01 X284.914 Y424.933
G01 X363.268 Y493.047
G01 X299.273 Y507.929
G01 X387.503 Y510.045
G01 X344.160 Y588.153
G01 X388.042 Y540.764
G01 X407.038 Y643.204
G01 X385.103 Y598.419
G01 X463.301 Y668.076
G01 X402.388 Y675.419
G01 X494.043 Y678.161
G01 X449.728 Y748.260
G01 X499.680 Y697.450
G01 X515.801 Y794.026
G01 X499.499 Y740.538
G01 X576.216 Y806.518
G01 X517.486 Y801.506
G01 X611.080 Y800.282
G01 X564.718 Y857.784
G01 X619.281 Y799.635
G01 X631.126 Y886.195
G01 X619.110 Y820.659
G01 X692.621 Y879.515
G01 X634.760 Y859.269
G01 X710.000 Y853.047
G01 X710.000 Y867.202
G01 X678.524 Y894.022
G01 X710.000 Y857.150
G01 X710.000 Y868.800
G01 X658.806 Y842.894
G01 X710.000 Y855.566
G01 X710.000 Y859.578
G01 X625.637 Y878.949
G01 X666.827 Y826.352
G01 X617.344 Y894.655
G01 X597.430 Y811.858
G01 X614.358 Y875.256
G01 X534.898 Y819.031
G01 X592.978 Y826.862
G01 X498.778 Y832.361
G01 X542.857 Y772.082
G01 X489.520 Y827.353
G01 X474.763 Y733.757
G01 X488.383 Y788.554
G01 X412.978 Y718.612
G01 X471.277 Y721.079
G01 X377.851 Y712.709
G01 X426.472 Y647.276
G01 X371.196 Y691.998
G01 X363.303 Y590.938
G01 X375.143 Y640.286
G01 X305.547 Y560.522
G01 X365.276 Y561.565
G01 X274.273 Y543.582
G01 X328.511 Y477.704
G01 X272.647 Y516.439
G01 X272.720 Y413.196
G01 X283.731 Y462.046
G01 X221.094 Y378.021
G01 X282.875 Y383.061
G01 X195.360 Y361.066
G01 X255.703 Y300.592
G01 X200.042 Y338.891
G01 X208.608 Y239.536
G01 X219.212 Y293.435
G01 X164.143 Y211.130
G01 X228.096 Y225.788
G01 X144.644 Y205.414
G01 X211.101 Y156.004
G01 X156.003 Y199.048
G01 X173.153 Y109.076
G01 X183.389 Y172.804
G01 X136.116 Y97.257
G01 X202.020 Y126.002
G01 X122.886 Y111.580
G01 X195.168 Y77.386
G01 X140.736 Y128.709
G01 X166.302 Y51.796
G01 X176.007 Y128.165
G01 X136.549 Y62.319
G01 X204.019 Y107.371
G01 X129.310 Y100.895
G01 X206.990 Y83.595
G01 X153.230 Y144.189
G01 X186.937 Y81.369
G01 X195.887 Y170.483
G01 X164.187 Y114.529
G01 X232.797 Y175.289
G01 X162.575 Y175.938
G01 X245.190 Y174.350
G01 X192.091 Y242.369
G01 X233.623 Y191.840
G01 X241.587 Y290.996
G01 X217.551 Y242.368
G01 X286.856 Y315.520
G01 X221.148 Y319.848
G01 X308.190 Y330.217
G01 X255.701 Y401.368
G01 X304.670 Y358.965
G01 X311.359 Y463.223
G01 X294.790 Y417.256
G01 X364.250 Y497.503
G01 X302.959 Y500.265
G01 X393.774 Y517.160
G01 X341.694 Y585.669
G01 X397.514 Y545.902
G01 X402.451 Y649.186
G01 X392.913 Y600.270
G01 X461.749 Y681.542
G01 X404.501 Y676.938
G01 X498.141 Y694.545
G01 X445.960 Y754.479
G01 X507.693 Y711.877
G01 X510.057 Y808.338
G01 X506.716 Y751.290
G01 X573.763 Y828.122
G01 X519.761 Y811.177
G01 X614.842 Y824.661
G01 X561.612 Y871.278
G01 X627.847 Y821.714
G01 X626.362 Y907.026
G01 X627.894 Y838.351
G01 X691.513 Y907.103
G01 X639.469 Y874.833
G01 X710.000 Y879.766
G01 X710.000 Y894.791
G01 X678.417 Y912.256
G01 X710.000 Y885.498
G01 X710.000 Y890.711
G01 X666.215 Y859.486
G01 X710.000 Y881.251
G01 X710.000 Y887.940
G01 X625.775 Y894.254
G01 X674.479 Y852.191
G01 X612.426 Y913.142
G01 X605.804 Y830.477
G01 X609.513 Y898.132
G01 X539.133 Y831.003
G01 X592.663 Y851.026
G01 X496.476 Y841.893
G01 X547.767 Y792.225
G01 X482.643 Y839.086
G01 X481.476 Y746.081
G01 X481.975 Y804.048
G01 X416.594 Y723.467
G01 X469.949 Y737.570
G01 X375.702 Y714.230
G01 X431.192 Y659.586
G01 X364.924 Y695.014
G01 X370.829 Y595.163
G01 X369.635 Y646.748
G01 X310.904 Y556.820
G01 X365.229 Y569.082
G01 X274.482 Y536.029
G01 X335.119 Y481.272
G01 X268.980 Y510.062
G01 X282.887 Y408.841
G01 X280.864 Y459.192
G01 X229.753 Y365.721
G01 X285.541 Y381.736
G01 X199.201 Y344.832
G01 X265.290 Y295.987
G01 X199.943 Y323.932
G01 X222.163 Y227.614
G01 X219.604 Y282.481
G01 X176.513 Y191.685
G01 X233.730 Y217.235
G01 X152.197 Y182.360
G01 X223.557 Y145.233
G01 X159.226 Y177.734
G01 X189.639 Y91.979
G01 X186.471 Y156.306
G01 X151.430 Y73.411
G01 X209.732 Y113.077
G01 X133.115 Y84.751
G01 X209.306 Y63.583
G01 X146.004 Y104.329
G01 X184.282 Y32.905
G01 X180.285 Y109.596
G01 X153.178 Y37.654
G01 X212.126 Y93.688
G01 X140.451 Y74.012
G01 X220.978 Y70.480
G01 X158.697 Y120.529
G01 X204.488 Y64.471
G01 X199.466 Y153.632
G01 X180.189 Y92.844
G01 X239.392 Y164.588
G01 X172.733 Y152.748
G01 X257.154 Y165.571
G01 X195.958 Y223.052
G01 X248.965 Y180.456
G01 X242.805 Y279.298
G01 X231.302 Y227.014
G01 X290.441 Y311.000
G01 X228.918 Y303.472
G01 X316.834 Y328.711
G01 X256.822 Y389.222
G01 X316.749 Y355.743
G01 X309.351 Y459.163
G01 X305.530 Y410.560
G01 X364.254 Y501.275
G01 X307.911 Y492.667
G01 X398.829 Y524.651
G01 X339.994 Y582.257
G01 X406.384 Y552.173
G01 X397.491 Y653.893
G01 X401.040 Y603.162
G01 X458.777 Y694.290
G01 X407.392 Y678.632
G01 X500.528 Y711.281
G01 X442.544 Y759.878
G01 X514.582 Y727.474
G01 X503.570 Y821.443
G01 X513.757 Y763.203
G01 X569.516 Y849.044
G01 X522.401 Y821.202
G01 X616.492 Y849.439
G01 X558.541 Y884.137
G01 X634.877 Y845.073
G01 X620.605 Y926.801
G01 X636.133 Y857.397
G01 X688.379 Y934.125
G01 X644.272 Y891.007
G01 X710.000 Y905.741
G01 X710.000 Y920.345
G01 X678.183 Y930.118
G01 X710.000 Y910.847
G01 X710.000 Y912.483
G01 X673.568 Y877.063
G01 X710.000 Y906.417
G01 X710.000 Y915.666
G01 X626.021 Y909.413
G01 X680.174 Y879.092
G01 X606.936 Y930.641
G01 X613.266 Y850.477
G01 X603.099 Y920.027
G01 X543.454 Y843.777
G01 X590.238 Y875.014
G01 X494.538 Y851.131
G01 X550.928 Y813.169
G01 X475.541 Y849.664
G01 X487.506 Y759.609
G01 X474.387 Y818.359
G01 X420.596 Y729.029
G01 X466.888 Y753.673
G01 X374.313 Y715.400
G01 X434.515 Y672.525
G01 X358.905 Y696.809
G01 X378.025 Y600.502
G01 X363.452 Y651.923
G01 X317.049 Y553.819
G01 X363.928 Y576.093
G01 X275.928 Y528.161
G01 X340.759 Y485.386
G01 X266.105 Y502.486
G01 X293.129 Y405.591
G01 X277.866 Y455.032
G01 X239.624 Y354.192
G01 X287.447 Y379.860
G01 X204.754 Y328.388
G01 X274.328 Y291.903
G01 X201.145 Y307.858
G01 X236.157 Y216.836
G01 X220.362 Y270.252
G01 X190.450 Y173.116
G01 X239.026 Y208.122
G01 X161.842 Y159.229
G01 X235.786 Y134.982
G01 X164.146 Y155.412
G01 X206.807 Y76.075
G01 X190.281 Y138.577
G01 X168.521 Y50.547
G01 X217.379 Y99.583
G01 X145.649 Y57.974
G01 X223.374 Y50.284
G01 X153.184 Y79.034
G01 X203.002 Y15.233
G01 X185.461 Y89.823
G01 X171.595 Y14.048
G01 X220.241 Y79.401
G01 X153.903 Y47.277
G01 X234.847 Y57.818
G01 X166.076 Y96.017
G01 X222.628 Y48.774
G01 X203.905 Y135.569
G01 X197.775 Y72.253
G01 X245.864 Y153.210
G01 X184.993 Y129.765
G01 X268.752 Y157.158
G01 X201.534 Y202.913
G01 X264.549 Y170.221
G01 X244.652 Y266.352
G01 X246.248 Y212.757
G01 X293.598 Y305.709
G01 X238.406 Y287.336
G01 X324.703 Y327.462
G01 X259.294 Y376.272
G01 X328.581 Y353.601
G01 X307.609 Y453.818
G01 X316.949 Y404.958
G01 X363.415 Y504.187
G01 X314.095 Y485.353
G01 X402.617 Y532.302
G01 X339.205 Y578.081
G01 X414.457 Y559.476
G01 X392.381 Y657.311
G01 X409.291 Y607.176
G01 X454.526 Y706.132
G01 X411.013 Y680.696
G01 X501.162 Y728.131
G01 X439.612 Y764.607
G01 X520.151 Y744.109
G01 X496.558 Y833.321
G01 X520.416 Y776.327
G01 X563.620 Y869.087
G01 X525.338 Y831.755
G01 X615.993 Y874.359
G01 X555.618 Y896.504
G01 X640.176 Y869.553
G01 X614.064 Y945.501
G01 X643.611 Y877.825
G01 X683.364 Y960.383
G01 X649.078 Y907.950
G01 X710.000 Y931.570
G01 X710.000 Y945.024
G01 X677.916 Y947.751
G01 X710.000 Y934.600
G01 X710.000 Y934.569
G01 X680.716 Y895.753
G01 X710.000 Y932.019
G01 X710.000 Y943.466
G01 X626.414 Y924.594
G01 X683.765 Y906.839
G01 X601.061 Y947.205
G01 X619.591 Y871.812
G01 X595.313 Y940.809
G01 X547.716 Y857.482
G01 X585.759 Y898.575
G01 X492.998 Y860.253
G01 X552.214 Y834.698
G01 X468.406 Y859.163
G01 X492.637 Y774.291
G01 X465.827 Y831.381
G01 X424.836 Y735.431
G01 X462.171 Y769.156
G01 X373.714 Y716.417
G01 X436.332 Y685.890
G01 X353.330 Y697.487
G01 X384.683 Y606.914
G01 X356.814 Y655.737
G01 X323.830 Y551.664
G01 X361.465 Y582.391
G01 X278.635 Y520.197
G01 X345.336 Y489.855
G01 X264.208 Y493.847
G01 X303.240 Y403.413
G01 X274.963 Y449.525
G01 X250.548 Y343.586
G01 X288.699 Y377.250
G01 X212.028 Y311.972
G01 X282.737 Y288.164
G01 X203.828 Y290.836
G01 X250.389 Y207.177
G01 X221.711 Y256.740
G01 X205.789 Y155.586
G01 X244.102 Y198.290
G01 X173.576 Y136.278
G01 X247.720 Y125.084
G01 X170.934 Y132.272
G01 X224.458 Y61.339
G01 X195.045 Y119.634
G01 X187.216 Y28.829
G01 X225.087 Y85.379
G01 X160.471 Y31.513
G01 X237.313 Y37.329
G01 X162.435 Y53.033
G01 X215.376 Y5.000
G01 X219.548 Y5.000
G01 X191.766 Y68.878
G01 X191.644 Y5.000
G01 X198.386 Y5.000
G01 X228.504 Y64.379
G01 X169.633 Y20.954
G01 X248.551 Y45.446
G01 X175.518 Y70.868
G01 X241.166 Y34.232
G01 X209.431 Y116.334
G01 X216.757 Y52.894
G01 X252.361 Y141.027
G01 X199.311 Y107.240
G01 X279.946 Y148.932
G01 X208.960 Y182.164
G01 X280.189 Y161.063
G01 X247.356 Y252.199
G01 X262.192 Y199.708
G01 X296.483 Y299.511
G01 X249.557 Y271.675
G01 X331.774 Y326.274
G01 X263.245 Y362.719
G01 X339.986 Y352.439
G01 X306.358 Y447.222
G01 X328.845 Y400.529
G01 X361.897 Y506.092
G01 X321.442 Y478.531
G01 X405.128 Y539.895
G01 X339.444 Y573.326
G01 X421.558 Y567.677
G01 X387.345 Y659.466
G01 X417.460 Y612.357
G01 X449.167 Y716.908
G01 X415.277 Y683.310
G01 X500.042 Y744.852
G01 X437.264 Y768.840
G01 X524.230 Y761.619
G01 X489.235 Y843.993
G01 X526.478 Y790.677
G01 X556.249 Y888.082
G01 X528.469 Y842.993
G01 X613.351 Y899.162
G01 X552.926 Y908.539
G01 X643.573 Y894.968
G01 X606.941 Y963.141
G01 X650.101 Y899.623
G01 X676.640 Y985.705
G01 X653.764 Y925.801
G01 X710.000 Y957.867
G01 X710.000 Y969.657
G01 X677.674 Y965.310
G01 X710.000 Y957.543
G01 X710.000 Y957.738
G01 X687.483 Y915.656
G01 X710.000 Y959.861
G01 X710.000 Y972.056
G01 X626.956 Y939.970
G01 X685.140 Y935.191
G01 X594.973 Y962.920
G01 X624.556 Y894.393
G01 X586.363 Y960.382
G01 X551.745 Y872.214
G01 X579.320 Y921.472
G01 X491.856 Y869.442
G01 X551.535 Y856.579
G01 X461.410 Y867.693
G01 X496.661 Y790.042
G01 X456.518 Y843.045
G01 X429.142 Y742.774
G01 X455.912 Y783.804
G01 X373.900 Y717.480
G01 X436.573 Y699.458
G01 X348.370 Y697.185
G01 X390.603 Y614.319
G01 X349.947 Y658.154
G01 X331.070 Y550.465
G01 X357.969 Y587.786
G01 X282.585 Y512.356
G01 X348.795 Y494.474
G01 X263.452 Y484.313
G01 X313.027 Y402.236
G01 X272.385 Y442.669
G01 X262.343 Y334.027
G01 X289.436 Y373.747
G01 X220.995 Y295.824
G01 X290.470 Y284.581
G01 X208.145 Y273.060
G01 X264.670 Y198.572
G01 X223.883 Y241.973
G01 X222.340 Y139.222
G01 X249.104 Y187.606
G01 X187.355 Y113.759
G01 X259.324 Y115.365
G01 X179.729 Y108.533
G01 X242.408 Y47.711
G01 X200.994 Y99.533
G01 X207.317 Y8.386
G01 X233.013 Y70.353
G01 X177.525 Y5.628
G01 X251.100 Y24.548
G01 X173.886 Y26.559
G01 X207.846 Y5.000
G01 X227.428 Y5.000
G01 X199.423 Y46.835
G01 X206.898 Y5.000
G01 X223.655 Y5.000
G01 X237.077 Y48.518
G01 X196.598 Y5.000
G01 X206.651 Y5.000
G01 X262.078 Y33.190
G01 X187.139 Y45.319
G01 X259.929 Y20.766
G01 X216.268 Y96.009
G01 X236.929 Y34.870
G01 X259.055 Y127.936
G01 X215.604 Y85.414
G01 X290.739 Y140.712
G01 X218.341 Y161.036
G01 X295.719 Y152.881
G01 X251.138 Y236.920
G01 X278.928 Y187.943
G01 X299.277 Y292.297
G01 X262.277 Y256.706
G01 X338.062 Y324.944
G01 X268.769 Y348.783
G01 X350.807 Y352.124
G01 X305.817 Y439.448
G01 X341.010 Y397.317
G01 X359.891 Y506.871
G01 X329.844 Y472.391
G01 X406.388 Y547.208
G01 X340.792 Y568.195
G01 X427.537 Y576.615
G01 X382.594 Y660.420
G01 X425.331 Y618.712
G01 X442.893 Y726.488
G01 X420.066 Y686.639
G01 X497.204 Y761.205
G01 X435.565 Y772.760
G01 X526.674 Y779.811
G01 X481.806 Y853.513
G01 X531.725 Y806.228
G01 X547.597 Y905.892
G01 X531.658 Y855.055
G01 X608.608 Y923.593
G01 X550.510 Y920.416
G01 X644.927 Y921.100
G01 X599.429 Y979.776
G01 X655.376 Y922.739
G01 X668.400 Y1009.955
G01 X658.175 Y944.681
G01 X710.000 Y985.393
G01 X710.000 Y995.046
G01 X677.483 Y982.963
G01 X710.000 Y980.204
G01 X710.000 Y983.932
G01 X693.673 Y936.843
G01 X710.000 Y996.040
G01 X710.000 Y1002.296
G01 X627.609 Y955.712
G01 X684.223 Y963.894
G01 X588.817 Y977.900
G01 X627.955 Y918.098
G01 X576.467 Y978.691
G01 X555.347 Y888.041
G01 X571.049 Y943.489
G01 X491.074 Y878.878
G01 X548.837 Y878.564
G01 X454.699 Y875.388
G01 X499.383 Y806.738
G01 X446.686 Y853.322
G01 X433.323 Y751.130
G01 X448.256 Y797.424
G01 X374.826 Y718.782
G01 X435.201 Y712.996
G01 X344.165 Y696.064
G01 X395.600 Y622.602
G01 X343.082 Y659.176
G01 X338.577 Y550.301
G01 X353.597 Y592.115
G01 X287.723 Y504.849
G01 X351.115 Y499.028
G01 X263.968 Y474.073
G01 X322.313 Y401.955
G01 X270.362 Y434.501
G01 X274.811 Y325.601
G01 X289.827 Y369.217
G01 X231.586 Y280.169
G01 X297.521 Y280.960
G01 X214.213 Y254.749
G01 X278.828 Y190.925
G01 X227.103 Y226.022
G01 X239.900 Y124.120
G01 X254.209 Y175.963
G01 X203.098 Y91.912
G01 X270.600 Y105.646
G01 X190.637 Y84.435
G01 X260.490 Y35.098
G01 X208.346 Y78.369
G01 X225.046 Y5.000
G01 X231.682 Y5.000
G01 X241.338 Y54.416
G01 X211.481 Y5.000
G01 X249.989 Y5.000
G01 X264.749 Y11.771
G01 X220.895 Y5.000
G01 X226.879 Y5.000
G01 X208.649 Y23.807
G01 X215.624 Y5.000
G01 X242.677 Y5.000
G01 X246.147 Y31.745
G01 X229.308 Y5.000
G01 X254.050 Y5.000
G01 X275.454 Y20.881
G01 X201.018 Y19.624
G01 X278.764 Y8.265
G01 X224.628 Y74.714
G01 X258.077 Y18.245
G01 X266.141 Y113.866
G01 X233.755 Y64.509
G01 X301.169 Y132.318
G01 X229.743 Y139.778
G01 X310.999 Y145.542
G01 X256.205 Y220.631
G01 X296.240 Y177.499
G01 X302.182 Y283.993
G01 X276.437 Y242.627
G01 X343.619 Y323.281
G01 X275.921 Y334.694
G01 X360.913 Y352.499
G01 X306.188 Y430.607
G01 X353.229 Y395.323
G01 X357.602 Y506.440
G01 X339.166 Y467.102
G01 X406.462 Y554.028
G01 X343.292 Y562.901
G01 X432.275 Y586.101
G01 X378.325 Y660.275
G01 X432.692 Y626.210
G01 X435.916 Y734.780
G01 X425.232 Y690.819
G01 X492.725 Y776.959
G01 X434.544 Y776.562
G01 X527.373 Y798.470
G01 X474.458 Y861.972
G01 X535.940 Y822.916
G01 X537.876 Y922.417
G01 X534.745 Y868.050
G01 X601.848 Y947.410
G01 X548.381 Y932.313
G01 X644.132 Y947.712
G01 X591.700 Y995.492
G01 X659.214 Y947.084
G01 X658.850 Y1033.032
G01 X662.134 Y964.677
G01 X710.000 Y1015.283
G01 X710.000 Y1022.262
G01 X677.329 Y1000.879
G01 X710.000 Y1002.997
G01 X710.000 Y1021.921
G01 X699.071 Y959.346
G01 X704.376 Y1031.030
G01 X628.304 Y971.983
G01 X680.981 Y992.683
G01 X582.710 Y992.286
G01 X629.597 Y942.767
G01 X565.843 Y995.718
G01 X558.317 Y904.992
G01 X561.108 Y964.432
G01 X490.578 Y888.730
G01 X544.108 Y900.399
G01 X448.386 Y882.407
G01 X500.628 Y824.225
G01 X436.553 Y862.221
G01 X437.173 Y760.531
G01 X439.380 Y809.850
G01 X376.411 Y720.504
G01 X432.222 Y726.267
G01 X340.822 Y694.308
G01 X399.512 Y631.615
G01 X336.444 Y658.846
G01 X346.147 Y551.214
G01 X348.537 Y595.242
G01 X293.960 Y497.872
G01 X352.314 Y503.302
G01 X265.853 Y463.338
G01 X330.945 Y402.435
G01 X269.113 Y425.097
G01 X287.745 Y318.359
G01 X290.062 Y363.555
G01 X243.699 Y265.221
G01 X303.918 Y277.107
G01 X222.117 Y236.137
G01 X292.716 Y184.113
G01 X231.585 Y208.992
G01 X258.258 Y110.336
G01 X259.611 Y163.286
G01 X220.687 Y70.958
G01 X281.588 Y95.750
G01 X203.725 Y60.231
G01 X278.563 Y23.380
G01 X217.309 Y56.274
G01 X237.665 Y5.000
G01 X250.577 Y5.000
G01 X250.261 Y37.518
G01 X237.270 Y5.000
G01 X256.290 Y5.000
G01 X255.919 Y14.019
G01 X252.384 Y5.000
G01 X285.510 Y5.000
G01 X288.740 Y8.356
G01 X271.959 Y5.000
G01 X288.120 Y5.000
G01 X234.703 Y52.603
G01 X278.198 Y5.000
G01 X279.859 Y5.000
G01 X273.826 Y98.783
G01 X253.612 Y44.724
G01 X311.311 Y123.580
G01 X243.194 Y118.642
G01 X325.917 Y138.895
G01 X262.745 Y203.486
G01 X313.916 Y168.373
G01 X305.412 Y274.561
G01 X291.881 Y229.611
G01 X348.535 Y321.100
G01 X284.718 Y320.691
G01 X370.208 Y353.386
G01 X307.653 Y420.842
G01 X365.294 Y394.515
G01 X355.252 Y504.752
G01 X349.243 Y462.805
G01 X405.453 Y560.158
G01 X346.948 Y557.659
G01 X435.686 Y595.928
G01 X374.713 Y659.160
G01 X439.336 Y634.783
G01 X428.457 Y741.725
G01 X430.602 Y695.960
G01 X486.716 Y791.899
G01 X434.191 Y780.440
G01 X526.249 Y817.365
G01 X467.353 Y869.490
G01 X538.917 Y840.640
G01 X527.307 Y937.595
G01 X537.544 Y882.059
G01 X593.189 Y970.386
G01 X546.510 Y944.406
G01 X641.117 Y974.553
G01 X583.901 Y1010.404
G01 X661.410 Y972.531
G01 X648.205 Y1054.874
G01 X665.442 Y985.847
G01 X710.000 Y1049.571
G01 X710.000 Y1053.210
G01 X677.164 Y1019.223
G01 X710.000 Y1026.314
G01 X710.000 Y1053.925
G01 X704.053 Y1058.867
G01 X703.454 Y983.164
G01 X694.898 Y1057.598
G01 X628.934 Y988.930
G01 X675.417 Y1021.293
G01 X576.737 Y1006.233
G01 X629.319 Y968.211
G01 X554.704 Y1011.481
G01 X560.440 Y923.061
G01 X549.682 Y984.141
G01 X490.260 Y899.149
G01 X537.375 Y921.831
G01 X442.555 Y888.925
G01 X500.249 Y842.316
G01 X426.336 Y869.789
G01 X440.484 Y770.974
G01 X429.480 Y820.946
G01 X378.542 Y722.810
G01 X427.680 Y739.039
G01 X338.414 Y692.113
G01 X402.204 Y641.183
G01 X330.244 Y657.242
G01 X353.569 Y553.206
G01 X342.992 Y597.066
G01 X301.172 Y491.602
G01 X352.449 Y507.087
G01 X269.166 Y452.330
G01 X338.795 Y403.514
G01 X268.846 Y414.569
G01 X300.934 Y312.312
G01 X290.352 Y356.694
G01 X257.198 Y251.167
G01 X309.728 Y272.836
G01 X231.899 Y217.469
G01 X306.215 Y177.984
G01 X237.525 Y191.028
G01 X277.200 Y97.886
G01 X265.521 Y149.535
G01 X239.975 Y51.094
G01 X292.364 Y85.512
G01 X219.021 Y36.184
G01 X296.516 Y12.416
G01 X228.070 Y33.416
G01 X244.792 Y5.000
G01 X263.177 Y5.000
G01 X259.994 Y19.640
G01 X256.747 Y5.000
G01 X285.727 Y5.000
G01 X246.664 Y29.863
G01 X280.816 Y5.000
G01 X299.052 Y5.000
G01 X282.330 Y82.689
G01 X275.000 Y26.228
G01 X321.275 Y114.345
G01 X258.682 Y97.887
G01 X340.396 Y132.768
G01 X270.922 Y185.668
G01 X331.750 Y160.527
G01 X309.188 Y263.999
G01 X308.426 Y217.798
G01 X352.931 Y318.238
G01 X295.137 Y307.011
G01 X378.628 Y354.589
G01 X310.370 Y410.324
G01 X377.004 Y394.819
G01 X353.064 Y501.799
G01 X359.889 Y459.611
G01 X403.496 Y565.418
G01 X351.727 Y552.683
G01 X437.720 Y605.879
G01 X371.905 Y657.235
G01 X445.071 Y644.325
G01 X420.745 Y747.309
G01 X435.984 Y702.139
G01 X479.323 Y805.835
G01 X434.459 Y784.583
G01 X523.267 Y836.251
G01 X460.629 Y876.215
G01 X540.469 Y859.265
G01 X516.113 Y951.402
G01 X539.857 Y897.128
G01 X582.783 Y992.322
G01 X544.834 Y956.863
G01 X635.855 Y1001.360
G01 X576.154 Y1024.650
G01 X661.772 Y998.918
G01 X636.681 Y1075.457
G01 X667.887 Y1008.213
G01 X709.116 Y1090.926
G01 X676.902 Y1038.148
G01 X710.000 Y1050.589
G01 X710.000 Y1070.710
G01 X694.883 Y1079.802
G01 X706.598 Y1008.254
G01 X683.801 Y1083.004
G01 X629.363 Y1006.680
G01 X667.577 Y1049.460
G01 X570.948 Y1019.910
G01 X626.986 Y994.211
G01 X543.248 Y1026.037
G01 X561.499 Y942.202
G01 X536.977 Y1002.488
G01 X489.983 Y910.266
G01 X528.703 Y942.612
G01 X437.248 Y895.126
G01 X498.130 Y860.802
G01 X416.234 Y876.108
G01 X443.046 Y782.416
G01 X418.774 Y830.616
G01 X381.076 Y725.838
G01 X421.657 Y751.086
G01 X336.975 Y689.687
G01 X403.573 Y651.110
G01 X324.678 Y654.479
G01 X360.639 Y556.244
G01 X337.186 Y597.520
G01 X309.207 Y486.190
G01 X351.615 Y510.184
G01 X273.928 Y441.277
G01 X345.769 Y405.010
G01 X269.745 Y403.064
G01 X314.172 Y307.436
G01 X290.917 Y348.600
G01 X271.920 Y238.170
G01 X315.054 Y267.976
G01 X243.564 Y198.994
G01 X319.238 Y172.371
G01 X245.098 Y172.305
G01 X296.517 Y86.750
G01 X272.160 Y134.710
G01 X260.784 Y32.490
G01 X303.036 Y74.781
G01 X236.511 Y12.556
G01 X292.410 Y5.000
G01 X286.946 Y5.000
G01 X240.789 Y9.992
G01 X244.876 Y5.000
G01 X264.655 Y5.000
G01 X260.651 Y6.709
G01 X264.346 Y5.000
G01 X314.658 Y5.000
G01 X291.871 Y65.625
G01 X297.719 Y9.156
G01 X331.200 Y104.481
G01 X276.155 Y77.761
G01 X354.395 Y126.980
G01 X280.867 Y167.384
G01 X349.551 Y153.886
G01 X313.734 Y252.347
G01 X325.873 Y207.298
G01 X356.959 Y314.554
G01 X307.117 Y293.881
G01 X386.147 Y355.908
G01 X314.463 Y399.251
G01 X388.179 Y396.132
G01 X351.264 Y497.612
G01 X370.902 Y457.592
G01 X400.755 Y569.655
G01 X357.558 Y548.175
G01 X438.369 Y615.726
G01 X370.019 Y654.681
G01 X449.724 Y654.698
G01 X413.001 Y751.551
G01 X441.174 Y709.395
G01 X470.720 Y818.601
G01 X435.265 Y789.167
G01 X518.428 Y854.882
G01 X454.389 Y882.312
G01 X540.427 Y878.620
G01 X504.513 Y963.854
G01 X541.472 Y913.265
G01 X570.808 Y1013.043
G01 X543.256 Y969.838
G01 X628.355 Y1027.871
G01 X568.546 Y1038.387
G01 X660.138 Y1026.050
G01 X624.489 Y1094.794
G01 X669.250 Y1031.759
G01 X697.226 Y1117.981
G01 X676.428 Y1057.792
G01 X710.000 Y1076.377
G01 X710.000 Y1096.923
G01 X704.728 Y1096.098
G01 X710.000 Y1094.824
G01 X710.000 Y1089.547
G01 X685.284 Y1099.774
G01 X708.280 Y1034.534
G01 X671.292 Y1107.136
G01 X629.427 Y1025.333
G01 X657.547 Y1076.936
G01 X565.355 Y1033.492
G01 X622.499 Y1020.532
G01 X531.659 Y1039.475
G01 X561.286 Y962.331
G01 X523.214 Y1019.381
G01 X489.584 Y922.183
G01 X518.198 Y962.512
G01 X432.473 Y901.199
G01 X494.189 Y879.452
G01 X406.426 Y881.295
G01 X444.657 Y794.778
G01 X407.489 Y838.797
G01 X383.846 Y729.698
G01 X414.271 Y762.203
G01 X336.502 Y687.235
G01 X403.548 Y661.181
G01 X319.917 Y650.700
G01 X367.156 Y560.256
G01 X331.345 Y596.577
G01 X317.889 Y481.756
G01 X349.939 Y512.415
G01 X280.120 Y430.407
G01 X351.809 Y406.726
G01 X271.969 Y390.756
G01 X327.260 Y303.667
G01 X291.984 Y339.281
G01 X287.677 Y226.360
G01 X320.029 Y262.373
G01 X257.076 Y180.958
G01 X331.734 Y167.092
G01 X254.446 Y153.024
G01 X316.012 Y76.873
G01 X279.749 Y118.846
G01 X282.919 Y15.280
G01 X313.745 Y63.429
G01 X268.155 Y5.000
G01 X326.375 Y5.000
G01 X302.664 Y47.673
G01 X317.576 Y5.000
G01 X323.794 Y5.000
G01 X341.250 Y93.886
G01 X295.521 Y58.503
G01 X367.907 Y121.348
G01 X292.679 Y148.866
G01 X367.147 Y148.344
G01 X319.265 Y239.682
G01 X344.008 Y198.180
G01 X360.799 Y309.937
G01 X320.559 Y281.516
G01 X392.777 Y357.138
G01 X320.022 Y387.838
G01 X398.660 Y398.316
G01 X350.068 Y492.260
G01 X382.071 Y456.786
G01 X397.418 Y572.748
G01 X364.335 Y544.321
G01 X437.660 Y625.246
G01 X369.136 Y651.697
G01 X453.147 Y665.733
G01 X405.442 Y754.513
G01 X445.961 Y717.730
G01 X461.104 Y830.063
G01 X436.494 Y794.351
G01 X511.774 Y873.015
G01 X448.703 Y887.965
G01 X538.655 Y898.509
G01 X492.717 Y975.002
G01 X542.177 Y930.442
G01 X557.466 Y1032.410
G01 X541.645 Y983.464
G01 X618.669 Y1053.827
G01 X561.129 Y1051.784
G01 X656.375 Y1053.709
G01 X611.825 Y1112.935
G01 X669.310 Y1056.428
G01 X683.739 Y1143.766
G01 X675.594 Y1078.268
G01 X710.000 Y1104.487
G01 X710.000 Y1119.742
G01 X699.310 Y1115.413
G01 X710.000 Y1114.453
G01 X710.000 Y1110.212
G01 X675.413 Y1118.884
G01 X708.289 Y1061.886
G01 X657.591 Y1129.917
G01 X628.942 Y1044.957
G01 X645.446 Y1103.488
G01 X559.936 Y1047.151
G01 X615.794 Y1046.918
G01 X520.091 Y1051.914
G01 X559.604 Y983.326
G01 X508.622 Y1034.769
G01 X488.879 Y934.969
G01 X505.998 Y981.319
G01 X428.201 Y907.328
G01 X488.380 Y898.027
G01 X397.064 Y885.490
G01 X445.130 Y807.942
G01 X395.857 Y845.468
G01 X386.666 Y734.467
G01 X405.675 Y772.203
G01 X336.955 Y684.959
G01 X402.101 Y671.171
G01 X316.103 Y646.078
G01 X372.940 Y565.134
G01 X325.701 Y594.250
G01 X327.025 Y478.386
G01 X347.579 Y513.624
G01 X287.686 Y419.938
G01 X356.893 Y408.456
G01 X275.645 Y377.845
G01 X340.019 Y300.909
G01 X293.777 Y328.783
G01 X304.268 Y215.832
G01 X324.816 Y255.903
G01 X272.360 Y163.594
G01 X343.688 Y161.961
G01 X265.681 Y133.413
G01 X335.507 Y68.165
G01 X288.506 Y102.020
G01 X305.229 Y5.000
G01 X308.108 Y5.000
G01 X324.656 Y51.356
G01 X298.744 Y5.000
G01 X333.319 Y5.000
G01 X314.911 Y28.949
G01 X330.153 Y5.000
G01 X347.602 Y5.000
G01 X351.612 Y82.485
G01 X316.656 Y40.332
G01 X380.967 Y115.688
G01 X306.418 Y130.356
G01 X384.391 Y143.767
G01 X325.982 Y226.119
G01 X362.613 Y190.477
G01 X364.645 Y304.309
G01 X335.333 Y270.110
G01 X398.569 Y358.082
G01 X327.101 Y376.313
G01 X408.315 Y401.208
G01 X349.678 Y485.850
G01 X393.181 Y457.192
G01 X393.695 Y574.609
G01 X371.921 Y541.285
G01 X435.660 Y634.222
G01 X369.299 Y648.490
G01 X455.224 Y677.239
G01 X398.266 Y756.288
G01 X450.134 Y727.110
G01 X450.690 Y840.125
G01 X438.002 Y800.267
G01 X503.386 Y890.414
G01 X443.603 Y893.362
G01 X535.046 Y918.712
G01 X480.917 Y984.932
G01 X541.760 Y948.590
G01 X542.975 Y1050.319
G01 X539.847 Y997.848
G01 X606.887 Y1078.982
G01 X553.919 Y1065.016
G01 X650.383 Y1081.654
G01 X598.869 Y1129.964
G01 X667.855 Y1082.128
G01 X668.870 Y1168.177
G01 X674.228 Y1099.662
G01 X710.000 Y1136.247
G01 X710.000 Y1146.190
G01 X693.852 Y1134.792
G01 X710.000 Y1135.705
G01 X710.000 Y1132.735
G01 X665.398 Y1137.258
G01 X706.433 Y1090.156
G01 X642.918 Y1151.310
G01 X627.708 Y1065.588
G01 X631.430 Y1128.907
G01 X554.630 Y1061.052
G01 X606.851 Y1073.110
G01 X508.674 Y1063.495
G01 X556.274 Y1005.033
G01 X493.427 Y1048.639
G01 X487.672 Y948.661
G01 X492.273 Y998.846
G01 X424.366 Y913.688
G01 X480.701 Y916.278
G01 X388.271 Y888.861
G01 X444.299 Y821.761
G01 X384.108 Y850.646
G01 X389.336 Y740.186
G01 X396.047 Y780.929
G01 X338.254 Y683.049
G01 X399.237 Y680.853
G01 X313.345 Y640.804
G01 X377.829 Y570.740
G01 X320.478 Y590.590
G01 X336.410 Y476.130
G01 X344.721 Y513.684
G01 X296.533 Y410.077
G01 X361.037 Y409.995
G01 X280.867 Y364.551
G01 X352.290 Y299.033
G01 X296.513 Y317.190
G01 X321.478 Y206.643
G01 X329.602 Y248.470
G01 X289.306 Y147.123
G01 X355.124 Y156.790
G01 X278.878 Y113.711
G01 X354.847 Y60.506
G01 X298.634 Y84.347
G01 X324.032 Y5.000
G01 X332.391 Y5.000
G01 X335.955 Y38.493
G01 X323.359 Y5.000
G01 X333.585 Y5.000
G01 X328.798 Y9.608
G01 X333.470 Y5.000
G01 X368.322 Y5.000
G01 X362.488 Y70.243
G01 X339.401 Y23.442
G01 X393.642 Y109.828
G01 X322.105 Y112.107
G01 X401.168 Y139.998
G01 X334.069 Y211.806
G01 X381.470 Y184.182
G01 X368.711 Y297.627
G01 X351.276 Y259.830
G01 X403.610 Y358.552
G01 X335.713 Y364.909
G01 X417.044 Y404.625
G01 X350.274 Y478.520
G01 X404.024 Y458.770
G01 X389.803 Y575.186
G01 X380.152 Y539.204
G01 X432.473 Y642.450
G01 X370.516 Y645.273
G01 X455.871 Y689.004
G01 X391.650 Y757.006
G01 X453.490 Y737.459
G01 X439.704 Y848.727
G01 X439.619 Y807.021
G01 X493.382 Y906.862
G01 X439.084 Y898.693
G01 X529.529 Y938.994
G01 X469.281 Y993.764
G01 X540.024 Y967.604
G01 X527.561 Y1066.705
G01 X537.683 Y1013.065
G01 X593.134 Y1103.107
G01 X546.894 Y1078.256
G01 X642.100 Y1109.627
G01 X585.777 Y1145.993
G01 X664.684 Y1108.726
G01 X652.841 Y1191.151
G01 X672.140 Y1122.027
G01 X710.000 Y1174.125
G01 X710.000 Y1178.690
G01 X688.314 Y1154.398
G01 X710.000 Y1158.823
G01 X710.000 Y1157.325
G01 X655.336 Y1155.040
G01 X702.540 Y1119.155
G01 X627.490 Y1171.315
G01 X625.514 Y1087.223
G01 X615.678 Y1153.014
G01 X549.342 Y1075.344
G01 X595.685 Y1098.843
G01 X497.503 Y1074.381
G01 X551.144 Y1027.265
G01 X477.854 Y1061.015
G01 X485.757 Y963.255
G01 X477.218 Y1014.939
G01 X420.867 Y920.438
G01 X471.185 Y933.959
G01 X380.132 Y891.588
G01 X442.021 Y836.054
G01 X372.461 Y854.388
G01 X391.651 Y746.858
G01 X385.591 Y788.256
G01 X340.291 Y681.674
G01 X395.005 Y690.000
G01 X311.716 Y635.085
G01 X381.689 Y576.906
G01 X315.888 Y585.685
G01 X345.834 Y475.000
G01 X341.568 Y512.504
G01 X306.534 Y401.006
G01 X364.295 Y411.140
G01 X287.689 Y351.103
G01 X363.945 Y297.886
G01 X300.392 Y304.624
G01 X339.092 Y198.813
G01 X334.589 Y240.013
G01 X307.772 Y131.739
G01 X366.101 Y151.401
G01 X294.071 Y94.172
G01 X373.904 Y53.753
G01 X310.323 Y65.976
G01 X339.639 Y5.000
G01 X350.614 Y5.000
G01 X347.845 Y24.805
G01 X343.576 Y5.000
G01 X386.250 Y5.000
G01 X374.088 Y57.159
G01 X363.571 Y8.000
G01 X406.036 Y103.612
G01 X339.721 Y94.370
G01 X417.395 Y136.861
G01 X343.683 Y196.924
G01 X400.368 Y179.253
G01 X373.213 Y289.888
G01 X368.204 Y250.812
G01 X408.019 Y358.380
G01 X345.833 Y353.858
G01 X424.786 Y408.369
G01 X352.012 Y470.438
G01 X414.399 Y461.443
G01 X385.971 Y574.468
G01 X388.843 Y538.181
G01 X428.236 Y649.748
G01 X372.752 Y642.254
G01 X455.043 Y700.804
G01 X385.745 Y756.819
G01 X455.841 Y748.668
G01 X428.377 Y855.847
G01 X441.157 Y814.685
G01 X481.911 Y922.163
G01 X435.103 Y904.144
G01 X522.075 Y959.107
G01 X457.951 Y1001.639
G01 X536.786 Y987.343
G01 X511.454 Y1081.541
G01 X534.960 Y1029.158
G01 X577.569 Y1125.998
G01 X539.998 Y1091.669
G01 X631.505 Y1137.365
G01 X572.675 Y1161.157
G01 X659.615 Y1136.058
G01 X635.875 Y1212.660
G01 X669.125 Y1145.382
G01 X710.000 Y1223.508
G01 X710.000 Y1223.754
G01 X682.616 Y1174.381
G01 X710.000 Y1184.227
G01 X710.000 Y1184.380
G01 X645.293 Y1172.391
G01 X696.470 Y1148.668
G01 X611.515 Y1189.970
G01 X622.148 Y1109.821
G01 X598.395 Y1175.661
G01 X543.950 Y1090.157
G01 X582.355 Y1123.861
G01 X486.638 Y1084.743
G01 X544.090 Y1049.811
G01 X462.111 Y1071.961
G01 X482.928 Y978.712
G01 X461.048 Y1029.475
G01 X417.574 Y927.713
G01 X459.907 Y950.831
G01 X372.700 Y893.865
G01 X438.186 Y850.620
G01 X361.121 Y856.783
G01 X393.406 Y754.448
G01 X374.526 Y794.094
G01 X342.923 Y680.983
G01 X389.490 Y698.399
G01 X311.252 Y629.134
G01 X384.417 Y583.445
G01 X312.127 Y579.659
G01 X355.090 Y474.969
G01 X338.339 Y510.026
G01 X317.535 Y392.887
G01 X366.759 Y411.702
G01 X296.128 Y337.739
G01 X374.883 Y297.294
G01 X305.593 Y291.239
G01 X356.896 Y192.323
G01 X339.991 Y230.508
G01 X327.585 Y117.612
G01 X376.714 Y145.629
G01 X311.256 Y75.050
G01 X392.583 Y47.743
G01 X323.735 Y47.087
G01 X351.681 Y5.000
G01 X362.701 Y5.000
G01 X360.535 Y10.297
G01 X360.179 Y5.000
G01 X401.392 Y5.000
G01 X386.624 Y43.272
G01 X388.445 Y5.000
G01 X392.062 Y5.000
G01 X418.282 Y96.904
G01 X359.207 Y77.392
G01 X433.026 Y134.171
G01 X354.952 Y181.676
G01 X419.113 Y175.609
G01 X378.370 Y281.127
G01 X385.913 Y243.160
G01 X411.946 Y357.421
G01 X357.396 Y343.383
G01 X431.512 Y412.233
G01 X355.015 Y461.798
G01 X424.125 Y465.101
G01 X382.421 Y572.481
G01 X397.792 Y538.286
G01 X423.115 Y655.958
G01 X375.940 Y639.630
G01 X452.732 Y712.410
G01 X380.670 Y755.907
G01 X457.017 Y760.593
G01 X416.936 Y861.505
G01 X442.417 Y823.292
G01 X469.153 Y936.149
G01 X431.583 Y909.887
G01 X512.691 Y978.800
G01 X447.036 Y1008.721
G01 X531.885 Y1007.635
G01 X494.881 Y1094.841
G01 X531.474 Y1046.132
G01 X560.379 Y1147.480
G01 X533.139 Y1105.405
G01 X618.616 Y1164.602
G01 X559.657 Y1175.612
G01 X652.494 Y1163.926
G01 X618.189 Y1232.716
G01 X664.970 Y1169.707
G01 X694.853 Y1255.675
G01 X676.649 Y1194.876
G01 X710.000 Y1212.598
G01 X710.000 Y1172.335
G01 X706.351 Y1166.989
G01 X710.000 Y1174.445
G01 X710.000 Y1214.525
G01 X635.294 Y1189.478
G01 X688.115 Y1178.456
G01 X595.185 Y1207.348
G01 X617.400 Y1133.303
G01 X579.802 Y1196.740
G01 X538.300 Y1105.594
G01 X566.957 Y1147.917
G01 X476.102 Y1094.762
G01 X535.024 Y1072.436
G01 X446.388 Y1081.571
G01 X478.984 Y994.952
G01 X443.994 Y1042.373
G01 X414.333 Y935.622
G01 X446.980 Y966.669
G01 X365.987 Y895.886
G01 X432.718 Y865.238
G01 X350.273 Y857.957
G01 X394.404 Y762.885
G01 X363.083 Y798.390
G01 X345.987 Y681.093
G01 X382.812 Y705.851
G01 X311.950 Y623.168
G01 X385.945 Y590.150
G01 X309.362 Y572.665
G01 X363.977 Y475.974
G01 X335.262 Y506.233
G01 X329.356 Y385.846
G01 X368.554 Y411.512
G01 X306.159 Y324.693
G01 X385.041 Y297.066
G01 X312.269 Y277.217
G01 X374.687 Y187.117
G01 X346.030 Y219.969
G01 X348.551 Y104.877
G01 X387.089 Y139.328
G01 X330.387 Y56.596
G01 X410.824 Y42.301
G01 X339.005 Y27.889
G01 X359.248 Y5.000
G01 X413.447 Y5.000
G01 X400.302 Y28.660
G01 X407.925 Y5.000
G01 X418.605 Y5.000
G01 X430.538 Y89.598
G01 X380.465 Y61.406
G01 X448.051 Y131.740
G01 X367.966 Y166.290
G01 X437.529 Y173.140
G01 X384.394 Y271.416
G01 X404.186 Y236.938
G01 X415.568 Y355.561
G01 X370.304 Y333.694
G01 X437.234 Y416.008
G01 X359.373 Y452.810
G01 X433.045 Y469.602
G01 X379.371 Y569.291
G01 X406.789 Y539.551
G01 X417.301 Y660.956
G01 X379.975 Y637.584
G01 X448.970 Y723.593
G01 X376.508 Y754.464
G01 X456.876 Y773.063
G01 X405.600 Y865.756
G01 X443.192 Y832.843
G01 X455.311 Y948.683
G01 X428.412 Y916.076
G01 X501.425 Y997.827
G01 X436.612 Y1015.190
G01 X525.189 Y1028.278
G01 X478.056 Y1106.652
G01 X527.018 Y1063.954
G01 X541.772 Y1167.410
G01 X526.195 Y1119.594
G01 X603.494 Y1191.076
G01 X546.783 Y1189.523
G01 X643.195 Y1192.109
G01 X599.990 Y1251.368
G01 X659.465 Y1194.944
G01 X675.798 Y1282.023
G01 X670.275 Y1215.993
G01 X710.000 Y1245.046
G01 X710.000 Y1256.279
G01 X699.586 Y1251.590
G01 X710.000 Y1250.602
G01 X710.000 Y1206.084
G01 X702.033 Y1189.604
G01 X710.000 Y1221.549
G01 X710.000 Y1248.732
G01 X625.331 Y1206.468
G01 X677.402 Y1208.266
G01 X578.667 Y1223.551
G01 X611.074 Y1157.553
G01 X560.128 Y1216.177
G01 X532.219 Y1121.728
G01 X549.625 Y1170.784
G01 X465.883 Y1104.614
G01 X523.893 Y1094.893
G01 X430.852 Y1089.971
G01 X473.739 Y1011.861
G01 X426.290 Y1053.586
G01 X410.967 Y944.243
G01 X432.548 Y981.269
G01 X359.968 Y897.845
G01 X425.580 Y879.673
G01 X340.071 Y858.059
G01 X394.460 Y772.060
G01 X351.497 Y801.134
G01 X349.296 Y682.090
G01 X375.123 Y712.180
G01 X313.768 Y617.396
G01 X386.243 Y596.806
G01 X307.736 Y564.884
G01 X372.312 Y477.915
G01 X332.564 Y501.147
G01 X341.801 Y379.978
G01 X369.833 Y410.422
G01 X317.721 Y312.193
G01 X394.394 Y297.007
G01 X320.541 Y262.768
G01 X392.278 Y183.105
G01 X352.920 Y208.451
G01 X370.460 Y93.636
G01 X397.382 Y132.379
G01 X351.382 Y39.051
G01 X428.605 Y37.244
G01 X356.233 Y8.613
G01 X360.450 Y5.000
G01 X421.678 Y5.000
G01 X415.319 Y13.436
G01 X420.788 Y5.000
G01 X442.658 Y5.000
G01 X442.987 Y81.616
G01 X403.365 Y46.626
G01 X462.499 Y129.381
G01 X382.783 Y151.003
G01 X455.467 Y171.706
G01 X391.484 Y260.867
G01 X422.803 Y232.174
G01 X419.080 Y352.716
G01 X384.421 Y324.980
G01 X442.004 Y419.491
G01 X365.137 Y443.697
G01 X441.027 Y474.779
G01 X377.023 Y564.999
G01 X415.621 Y541.969
G01 X411.004 Y664.649
G01 X384.721 Y636.274
G01 X443.829 Y734.132
G01 X373.307 Y752.693
G01 X455.304 Y785.880
G01 X394.573 Y868.693
G01 X443.277 Y843.296
G01 X440.605 Y959.666
G01 X425.452 Y922.841
G01 X488.365 Y1015.950
G01 X426.716 Y1021.231
G01 X516.601 Y1049.051
G01 X461.178 Y1117.061
G01 X521.391 Y1082.553
G01 X521.973 Y1185.683
G01 X519.017 Y1134.339
G01 X586.235 Y1216.540
G01 X534.077 Y1203.062
G01 X631.627 Y1220.362
G01 X581.463 Y1268.696
G01 X652.403 Y1220.995
G01 X655.326 Y1306.782
G01 X663.328 Y1237.816
G01 X710.000 Y1283.485
G01 X710.000 Y1288.126
G01 X688.613 Y1271.507
G01 X710.000 Y1272.526
G01 X710.000 Y1255.672
G01 X696.899 Y1213.110
G01 X699.913 Y1281.616
G01 X615.360 Y1223.524
G01 X664.301 Y1237.830
G01 X562.103 Y1238.708
G01 X602.988 Y1182.417
G01 X539.608 Y1233.939
G01 X525.519 Y1138.597
G01 X530.523 Y1192.259
G01 X455.930 Y1114.470
G01 X510.686 Y1116.928
G01 X415.640 Y1097.309
G01 X467.022 Y1029.290
G01 X408.173 Y1063.111
G01 X407.286 Y953.617
G01 X416.790 Y994.455
G01 X354.583 Y899.924
G01 X416.771 Y893.687
G01 X330.642 Y857.265
G01 X393.413 Y781.831
G01 X339.999 Y802.352
G01 X352.655 Y684.022
G01 X366.606 Y717.238
G01 X316.628 Y612.017
G01 X385.318 Y603.193
G01 X307.355 Y556.516
G01 X379.932 Y480.662
G01 X330.467 Y494.827
G01 X354.660 Y375.340
G01 X370.778 Y408.314
G01 X330.716 Y300.452
G01 X402.951 Y296.916
G01 X330.493 Y248.116
G01 X409.505 Y180.164
G01 X360.872 Y196.044
G01 X393.090 Y83.951
G01 X407.769 Y124.694
G01 X374.118 Y22.637
G01 X445.939 Y32.391
G01 X400.940 Y5.000
G01 X464.697 Y5.000
G01 X455.823 Y72.919
G01 X427.742 Y33.243
G01 X476.433 Y126.916
G01 X399.418 Y136.063
G01 X472.807 Y171.143
G01 X399.819 Y249.624
G01 X441.543 Y228.857
G01 X422.691 Y348.841
G01 X399.584 Y317.402
G01 X445.906 Y422.492
G01 X372.321 Y434.687
G01 X447.972 Y480.442
G01 X375.558 Y559.742
G01 X424.081 Y545.495
G01 X404.447 Y666.983
G01 X390.017 Y635.832
G01 X437.415 Y743.819
G01 X371.076 Y750.803
G01 X452.223 Y798.830
G01 X384.035 Y870.440
G01 X442.473 Y854.573
G01 X425.266 Y969.034
G01 X422.538 Y930.282
G01 X473.635 Y1032.948
G01 X417.349 Y1027.032
G01 X506.057 Y1069.714
G01 X444.423 Y1126.181
G01 X514.399 Y1101.819
G01 X501.216 Y1202.231
G01 X511.435 Y1149.715
G01 X566.974 Y1240.763
G01 X521.523 Y1216.402
G01 X617.737 Y1248.427
G01 X562.772 Y1284.812
G01 X643.592 Y1247.729
G01 X633.668 Y1329.888
G01 X655.625 Y1260.396
G01 X710.000 Y1331.520
G01 X710.000 Y1331.776
G01 X677.525 Y1291.441
G01 X710.000 Y1297.643
G01 X710.000 Y1309.312
G01 X702.009 Y1315.764
G01 X690.742 Y1237.511
G01 X680.152 Y1309.253
G01 X605.298 Y1240.795
G01 X648.819 Y1266.880
G01 X545.604 Y1252.969
G01 X592.986 Y1207.713
G01 X518.471 Y1250.033
G01 X518.002 Y1156.204
G01 X509.844 Y1212.169
G01 X446.158 Y1124.485
G01 X495.431 Y1138.283
G01 X400.856 Y1103.754
G01 X458.690 Y1047.060
G01 X389.873 Y1070.980
G01 X403.091 Y963.749
G01 X399.906 Y1006.079
G01 X349.737 Y902.290
G01 X406.333 Y907.041
G01 X322.076 Y855.765
G01 X391.123 Y792.030
G01 X328.813 Y802.108
G01 X355.858 Y686.901
G01 X357.463 Y720.909
G01 X320.419 Y607.211
G01 X383.216 Y609.095
G01 X308.290 Y547.777
G01 X386.700 Y484.057
G01 X329.179 Y487.371
G01 X367.720 Y371.951
G01 X371.588 Y405.105
G01 X345.010 Y289.661
G01 X410.762 Y296.599
G01 X342.176 Y233.499
G01 X426.230 Y178.149
G01 X370.076 Y182.876
G01 X416.216 Y75.847
G01 X418.446 Y116.216
G01 X398.445 Y7.557
G01 X462.877 Y27.567
G01 X436.591 Y5.000
G01 X484.989 Y5.000
G01 X469.250 Y63.501
G01 X453.407 Y21.416
G01 X489.952 Y124.185
G01 X417.848 Y121.716
G01 X489.464 Y171.274
G01 X409.553 Y237.862
G01 X460.194 Y226.936
G01 X426.617 Y343.926
G01 X415.609 Y311.092
G01 X449.061 Y424.837
G01 X380.899 Y426.008
G01 X453.820 Y486.389
G01 X375.133 Y553.682
G01 X431.971 Y550.049
G01 X397.857 Y667.941
G01 X395.680 Y636.357
G01 X429.868 Y752.469
G01 X369.786 Y748.998
G01 X447.593 Y811.684
G01 X374.141 Y871.148
G01 X440.596 Y866.561
G01 X409.530 Y976.765
G01 X419.489 Y938.469
G01 X457.392 Y1048.624
G01 X408.474 Y1032.776
G01 X493.534 Y1090.018
G01 X427.938 Y1134.156
G01 X505.867 Y1121.611
G01 X479.739 Y1217.027
G01 X503.261 Y1165.760
G01 X545.877 Y1263.538
G01 X509.072 Y1229.705
G01 X601.511 Y1276.039
G01 X544.051 Y1299.850
G01 X632.860 Y1274.976
G01 X611.056 Y1351.311
G01 X646.970 Y1283.749
G01 X692.677 Y1365.786
G01 X666.253 Y1311.539
G01 X710.000 Y1326.478
G01 X710.000 Y1321.281
G01 X682.027 Y1337.804
G01 X683.354 Y1262.775
G01 X658.661 Y1335.347
G01 X595.036 Y1258.411
G01 X631.006 Y1295.148
G01 X529.245 Y1266.496
G01 X580.938 Y1233.229
G01 X496.936 Y1264.502
G01 X509.464 Y1174.512
G01 X487.804 Y1230.372
G01 X436.454 Y1134.795
G01 X478.195 Y1158.707
G01 X386.567 Y1109.486
G01 X448.628 Y1064.964
G01 X371.607 Y1077.265
G01 X398.183 Y974.606
G01 X382.118 Y1016.030
G01 X345.304 Y905.087
G01 X394.344 Y919.507
G01 X314.425 Y853.761
G01 X387.484 Y802.461
G01 X318.144 Y800.503
G01 X358.702 Y690.701
G01 X347.915 Y723.113
G01 X324.999 Y603.131
G01 X380.023 Y614.307
G01 X310.574 Y538.890
G01 X392.512 Y487.918
G01 X328.890 Y478.910
G01 X380.769 Y369.794
G01 X372.478 Y400.746
G01 X360.442 Y279.986
G01 X417.912 Y295.875
G01 X355.595 Y219.162
G01 X442.348 Y176.889
G01 X380.704 Y169.108
G01 X439.616 Y69.309
G01 X429.617 Y106.928
G01 X424.710 Y5.000
G01 X445.471 Y5.000
G01 X479.505 Y22.612
G01 X464.516 Y5.000
G01 X503.634 Y5.000
G01 X483.476 Y53.397
G01 X480.147 Y11.271
G01 X503.186 Y121.048
G01 X438.008 Y108.205
G01 X505.388 Y171.906
G01 X420.809 Y225.781
G01 X478.558 Y226.327
G01 X431.075 Y338.002
G01 X432.288 Y306.147
G01 X451.620 Y426.377
G01 X390.806 Y417.879
G01 X458.544 Y492.408
G01 X375.872 Y547.009
G01 X439.113 Y555.514
G01 X391.461 Y667.547
G01 X401.512 Y637.915
G01 X421.360 Y759.922
G01 X369.369 Y747.471
G01 X441.411 Y824.210
G01 X365.014 Y870.993
G01 X437.485 Y879.113
G01 X393.632 Y982.874
G01 X416.110 Y947.433
G01 X439.822 Y1062.807
G01 X400.019 Y1038.631
G01 X479.047 Y1109.709
G01 X411.840 Y1141.145
G01 X495.644 Y1141.752
G01 X457.776 Y1230.082
G01 X494.300 Y1182.478
G01 X523.140 Y1284.691
G01 X496.640 Y1243.119
G01 X582.978 Y1302.930
G01 X525.402 Y1313.963
G01 X620.060 Y1302.539
G01 X587.714 Y1371.065
G01 X637.159 Y1307.854
G01 X669.616 Y1393.417
G01 X654.694 Y1331.936
G01 X710.000 Y1359.955
G01 X710.000 Y1370.220
G01 X695.456 Y1367.020
G01 X710.000 Y1363.518
G01 X710.000 Y1338.452
G01 X661.512 Y1358.425
G01 X674.526 Y1288.829
G01 X635.660 Y1359.769
G01 X584.433 Y1276.479
G01 X610.952 Y1322.379
G01 X513.067 Y1279.461
G01 X566.750 Y1258.731
G01 X475.205 Y1277.425
G01 X499.710 Y1193.447
G01 X464.633 Y1246.767
G01 X426.674 Y1145.509
G01 X459.085 Y1177.963
G01 X372.807 Y1114.691
G01 X436.755 Y1082.779
G01 X353.571 Y1082.069
G01 X392.367 Y986.119
G01 X363.661 Y1024.232
G01 X341.133 Y908.431
G01 X380.921 Y930.867
G01 X307.706 Y851.458
G01 X382.422 Y812.913
G01 X308.177 Y797.671
G01 X360.990 Y695.359
G01 X338.193 Y723.808
G01 X330.201 Y599.906
G01 X375.857 Y618.638
G01 X314.200 Y530.079
G01 X397.297 Y492.048
G01 X329.766 Y469.608
G01 X393.601 Y368.810
G01 X373.668 Y395.227
G01 X376.828 Y271.561
G01 X424.519 Y294.581
G01 X370.720 Y205.345
G01 X457.788 Y176.203
G01 X392.899 Y154.930
G01 X463.078 Y64.288
G01 X441.494 Y96.849
G01 X449.194 Y5.000
G01 X480.228 Y5.000
G01 X495.938 Y17.385
G01 X488.272 Y5.000
G01 X520.564 Y5.000
G01 X498.700 Y42.680
G01 X507.261 Y5.000
G01 X507.896 Y5.000
G01 X516.290 Y117.392
G01 X459.798 Y95.756
G01 X520.568 Y172.845
G01 X433.678 Y213.600
G01 X496.460 Y226.912
G01 X436.276 Y331.138
G01 X449.406 Y302.626
G01 X453.758 Y426.992
G01 X401.942 Y410.504
G01 X462.157 Y498.285
G01 X377.865 Y539.928
G01 X445.349 Y561.745
G01 X385.478 Y665.864
G01 X407.305 Y640.532
G01 X412.085 Y766.048
G01 X369.727 Y746.402
G01 X433.714 Y836.176
G01 X356.743 Y870.166
G01 X433.000 Y892.053
G01 X377.794 Y987.416
G01 X412.200 Y957.170
G01 X421.134 Y1075.359
G01 X391.881 Y1044.751
G01 X462.652 Y1128.540
G01 X396.209 Y1147.328
G01 X483.605 Y1162.041
G01 X435.548 Y1241.446
G01 X484.354 Y1199.834
G01 X498.978 Y1304.078
G01 X484.112 Y1256.773
G01 X562.204 Y1328.837
G01 X506.891 Y1327.318
G01 X605.074 Y1330.193
G01 X563.855 Y1389.196
G01 X625.987 Y1332.650
G01 X644.913 Y1419.346
G01 X642.716 Y1352.740
G01 X710.000 Y1399.632
G01 X710.000 Y1402.613
G01 X679.048 Y1386.932
G01 X710.000 Y1383.920
G01 X710.000 Y1351.435
G01 X697.043 Y1346.872
G01 X710.000 Y1348.113
G01 X710.000 Y1359.973
G01 X640.644 Y1377.719
G01 X664.062 Y1315.562
G01 X611.381 Y1382.430
G01 X573.327 Y1295.076
G01 X588.781 Y1348.333
G01 X497.072 Y1292.038
G01 X550.364 Y1283.969
G01 X453.458 Y1288.909
G01 X488.552 Y1212.899
G01 X440.572 Y1261.287
G01 X416.655 Y1156.707
G01 X438.243 Y1195.831
G01 X359.567 Y1119.557
G01 X423.028 Y1100.264
G01 X335.938 Y1085.526
G01 X385.463 Y998.179
G01 X344.775 Y1030.652
G01 X337.052 Y912.410
G01 X366.214 Y940.930
G01 X301.897 Y849.056
G01 X375.902 Y823.161
G01 X299.068 Y793.772
G01 X362.540 Y700.774
G01 X328.530 Y722.990
G01 X335.840 Y597.628
G01 X370.870 Y621.923
G01 X319.123 Y521.563
G01 X401.020 Y496.240
G01 X331.942 Y459.653
G01 X406.030 Y368.908
G01 X375.381 Y388.578
G01 X393.964 Y264.489
G01 X430.732 Y292.576
G01 X387.481 Y192.282
G01 X472.516 Y175.897
G01 X406.773 Y140.554
G01 X486.407 Y60.695
G01 X454.283 Y86.038
G01 X471.856 Y5.000
G01 X506.675 Y5.000
G01 X512.323 Y11.770
G01 X509.396 Y5.000
G01 X535.495 Y5.000
G01 X515.115 Y31.459
G01 X530.812 Y5.000
G01 X535.464 Y5.000
G01 X529.441 Y113.136
G01 X483.081 Y84.578
G01 X535.029 Y173.900
G01 X448.211 Y201.556
G01 X513.747 Y228.547
G01 X442.417 Y323.440
G01 X466.739 Y300.551
G01 X455.670 Y426.596
G01 X414.173 Y404.065
G01 X464.713 Y503.815
G01 X381.165 Y532.659
G01 X450.552 Y568.568
G01 X380.113 Y662.988
G01 X412.850 Y644.198
G01 X402.256 Y770.753
G01 X370.727 Y745.945
G01 X424.578 Y847.357
G01 X349.379 Y868.869
G01 X427.036 Y905.181
G01 X362.226 Y990.482
G01 X407.561 Y967.635
G01 X401.554 Y1086.178
G01 X383.924 Y1051.262
G01 X444.444 Y1146.270
G01 X381.092 Y1152.888
G01 X469.661 Y1182.252
G01 X413.261 Y1251.201
G01 X473.227 Y1217.755
G01 X473.625 Y1321.594
G01 X471.347 Y1270.770
G01 X539.297 Y1353.513
G01 X488.549 Y1340.086
G01 X587.821 Y1357.695
G01 X539.675 Y1405.786
G01 X613.259 Y1358.041
G01 X618.799 Y1443.467
G01 X630.163 Y1374.034
G01 X703.141 Y1441.828
G01 X662.556 Y1406.489
G01 X710.000 Y1408.434
G01 X710.000 Y1380.322
G01 X683.120 Y1366.567
G01 X710.000 Y1377.002
G01 X710.000 Y1385.593
G01 X619.577 Y1395.801
G01 X651.776 Y1342.830
G01 X586.060 Y1403.280
G01 X561.537 Y1314.247
G01 X564.654 Y1372.793
G01 X481.226 Y1304.392
G01 X531.758 Y1308.683
G01 X431.847 Y1299.091
G01 X475.821 Y1232.722
G01 X415.865 Y1273.909
G01 X406.217 Y1168.434
G01 X415.844 Y1212.115
G01 X346.807 Y1124.259
G01 X407.442 Y1117.173
G01 X318.851 Y1087.794
G01 X377.307 Y1010.648
G01 X325.703 Y1035.294
G01 X332.875 Y917.072
G01 X350.403 Y949.525
G01 X296.938 Y846.750
G01 X367.926 Y832.975
G01 X290.943 Y788.991
G01 X363.186 Y706.815
G01 X319.158 Y720.697
G01 X341.716 Y596.355
G01 X365.240 Y624.022
G01 X325.262 Y513.547
G01 X403.686 Y500.282
G01 X335.520 Y449.253
G01 X417.885 Y369.965
G01 X377.831 Y380.866
G01 X411.633 Y258.832
G01 X436.723 Y289.749
G01 X405.770 Y180.190
G01 X486.534 Y175.778
G01 X422.403 Y126.212
G01 X509.429 Y58.415
G01 X468.182 Y74.591
G01 X492.946 Y5.000
G01 X528.484 Y5.000
G01 X528.825 Y5.681
G01 X528.640 Y5.000
G01 X547.808 Y5.000
G01 X532.890 Y19.878
G01 X549.556 Y5.000
G01 X562.046 Y5.000
G01 X542.830 Y108.234
G01 X507.691 Y74.854
G01 X548.833 Y174.888
G01 X464.423 Y189.888
G01 X530.300 Y231.063
G01 X449.675 Y315.048
G01 X484.069 Y299.904
G01 X457.567 Y425.137
G01 X427.337 Y398.720
G01 X466.298 Y508.800
G01 X385.786 Y525.426
G01 X454.627 Y575.790
G01 X375.551 Y659.053
G01 X417.942 Y648.864
G01 X392.101 Y773.978
G01 X372.211 Y746.227
G01 X414.115 Y857.545
G01 X342.935 Y867.306
G01 X419.520 Y918.280
G01 X347.114 Y992.192
G01 X402.001 Y978.749
G01 X381.322 Y1095.201
G01 X375.993 Y1058.263
G01 X424.555 Y1162.679
G01 X366.493 Y1158.012
G01 X453.755 Y1202.147
G01 X391.099 Y1259.462
G01 X460.735 Y1236.131
G01 X447.324 Y1337.170
G01 X458.182 Y1285.182
G01 X514.400 Y1376.727
G01 X470.370 Y1352.438
G01 X568.256 Y1384.786
G01 X515.344 Y1420.946
G01 X598.789 Y1383.892
G01 X591.512 Y1465.714
G01 X616.860 Y1395.868
G01 X678.405 Y1471.712
G01 X645.952 Y1425.851
G01 X710.000 Y1437.370
G01 X710.000 Y1456.948
G01 X704.548 Y1458.567
G01 X710.000 Y1455.564
G01 X710.000 Y1414.806
G01 X669.034 Y1386.327
G01 X708.076 Y1415.425
G01 X598.435 Y1412.810
G01 X637.509 Y1370.454
G01 X559.934 Y1422.307
G01 X548.871 Y1334.000
G01 X538.761 Y1395.570
G01 X465.462 Y1316.679
G01 X510.956 Y1332.610
G01 X410.494 Y1308.127
G01 X461.371 Y1252.738
G01 X390.750 Y1284.645
G01 X395.171 Y1180.700
G01 X392.088 Y1226.653
G01 X334.449 Y1128.963
G01 X390.033 Y1133.258
G01 X302.419 Y1089.051
G01 X367.760 Y1023.353
G01 X306.678 Y1038.201
G01 X328.406 Y922.433
G01 X333.693 Y956.517
G01 X292.735 Y844.712
G01 X358.537 Y842.126
G01 X283.891 Y783.528
G01 X362.793 Y713.319
G01 X310.298 Y717.002
G01 X347.622 Y596.106
G01 X359.168 Y624.827
G01 X332.501 Y506.220
G01 X405.338 Y503.966
G01 X340.565 Y438.632
G01 X429.027 Y371.828
G01 X381.222 Y372.197
G01 X429.614 Y254.615
G01 X442.686 Y286.024
G01 X425.447 Y169.267
G01 X499.885 Y175.658
G01 X439.825 Y112.146
G01 X531.997 Y57.303
G01 X483.374 Y62.640
G01 X512.575 Y5.000
G01 X556.240 Y5.000
G01 X552.174 Y8.114
G01 X558.773 Y5.000
G01 X588.043 Y5.000
G01 X556.658 Y102.676
G01 X533.432 Y66.738
G01 X562.078 Y175.642
G01 X482.286 Y178.838
G01 X546.032 Y234.275
G01 X458.205 Y306.131
G01 X501.182 Y300.631
G01 X459.666 Y422.602
G01 X441.247 Y394.595
G01 X467.035 Y513.064
G01 X391.705 Y518.452
G01 X457.514 Y583.205
G01 X371.950 Y654.218
G01 X422.388 Y654.443
G01 X381.850 Y775.705
G01 X374.002 Y747.346
G01 X402.472 Y866.549
G01 X337.388 Y865.678
G01 X410.417 Y931.119
G01 X332.618 Y992.698
G01 X395.342 Y990.395
G01 X360.680 Y1102.403
G01 X367.913 Y1065.820
G01 X403.149 Y1177.567
G01 X352.385 Y1162.881
G01 X435.873 Y1221.473
G01 X369.216 Y1266.371
G01 X446.712 Y1254.817
G01 X420.319 Y1350.779
G01 X444.439 Y1300.047
G01 X487.687 Y1398.273
G01 X452.311 Y1364.535
G01 X546.376 Y1411.200
G01 X491.004 Y1434.811
G01 X582.415 Y1410.034
G01 X563.291 Y1486.062
G01 X602.617 Y1418.258
G01 X651.632 Y1499.994
G01 X629.174 Y1445.167
G01 X710.000 Y1471.433
G01 X710.000 Y1478.516
G01 X682.960 Y1479.112
G01 X710.000 Y1468.768
G01 X710.000 Y1457.055
G01 X654.688 Y1406.283
G01 X686.556 Y1446.374
G01 X577.308 Y1428.902
G01 X621.125 Y1398.225
G01 X533.229 Y1439.538
G01 X535.133 Y1354.306
G01 X511.316 Y1416.508
G01 X449.680 Y1329.036
G01 X488.017 Y1355.490
G01 X389.484 Y1316.188
G01 X445.083 Y1272.744
G01 X365.457 Y1293.549
G01 X383.323 Y1193.476
G01 X367.200 Y1239.312
G01 X322.384 Y1133.813
G01 X370.875 Y1148.277
G01 X286.716 Y1089.487
G01 X356.714 Y1036.099
G01 X287.921 Y1039.454
G01 X323.449 Y928.468
G01 X316.307 Y961.804
G01 X289.165 Y843.098
G01 X347.814 Y850.395
G01 X277.967 Y777.593
G01 X361.252 Y720.102
G01 X302.153 Y712.017
G01 X353.352 Y596.865
G01 X352.872 Y624.269
G01 X340.693 Y499.743
G01 X406.057 Y507.094
G01 X347.105 Y428.020
G01 X439.344 Y374.324
G01 X385.736 Y362.710
G01 X447.689 Y251.824
G01 X448.827 Y281.358
G01 X446.341 Y159.684
G01 X512.644 Y175.360
G01 X459.039 Y98.605
G01 X553.998 Y57.194
G01 X500.019 Y50.348
G01 X530.704 Y5.000
G01 X613.808 Y5.000
G01 X571.129 Y96.491
G01 X560.093 Y60.350
G01 X574.890 Y176.017
G01 X501.736 Y168.642
G01 X560.894 Y237.986
G01 X468.128 Y296.885
G01 X517.882 Y302.640
G01 X462.183 Y419.019
G01 X455.700 Y391.782
G01 X467.076 Y516.454
G01 X398.858 Y511.950
G01 X459.193 Y590.596
G01 X369.436 Y648.669
G01 X426.014 Y660.817
G01 X371.736 Y775.956
G01 X375.904 Y749.362
G01 X389.824 Y874.209
G01 X332.676 Y864.179
G01 X399.732 Y943.464
G01 X318.868 Y992.173
G01 X387.429 Y1002.425
G01 X339.867 Y1107.799
G01 X359.494 Y1073.964
G01 X380.420 Y1190.764
G01 X338.702 Y1167.664
G01 X416.038 Y1239.979
G01 X347.736 Y1272.090
G01 X431.013 Y1273.639
G01 X392.853 Y1362.434
G01 X429.929 Y1315.369
G01 X459.362 Y1417.975
G01 X434.297 Y1376.528
G01 X522.215 Y1436.668
G01 X466.764 Y1447.534
G01 X563.997 Y1436.270
G01 X534.370 Y1504.521
G01 X587.240 Y1441.182
G01 X623.027 Y1526.497
G01 X612.128 Y1464.569
G01 X707.242 Y1510.521
G01 X661.247 Y1498.772
G01 X710.000 Y1487.404
G01 X710.000 Y1486.518
G01 X702.102 Y1501.539
G01 X639.953 Y1426.548
G01 X662.662 Y1476.242
G01 X556.252 Y1444.242
G01 X602.523 Y1425.911
G01 X506.159 Y1455.037
G01 X520.128 Y1375.099
G01 X482.550 Y1435.485
G01 X433.750 Y1341.575
G01 X463.042 Y1377.074
G01 X368.868 Y1323.453
G01 X426.873 Y1292.513
G01 X340.196 Y1300.708
G01 X370.485 Y1206.697
G01 X341.418 Y1249.998
G01 X310.476 Y1138.926
G01 X350.082 Y1162.001
G01 X271.778 Y1089.297
G01 X344.092 Y1048.669
G01 X269.631 Y1039.167
G01 X317.813 Y935.116
G01 X298.484 Y965.322
G01 X286.077 Y842.033
G01 X335.876 Y857.575
G01 X273.183 Y771.401
G01 X358.489 Y726.960
G01 X294.905 Y705.883
G01 X358.708 Y598.574
G01 X346.578 Y622.314
G01 X349.668 Y494.252
G01 X405.956 Y509.485
G01 X355.125 Y417.649
G01 X448.760 Y377.262
G01 X391.530 Y352.573
G01 X465.645 Y250.409
G01 X455.359 Y275.747
G01 X468.258 Y151.579
G01 X524.921 Y174.725
G01 X480.003 Y85.832
G01 X575.350 Y57.909
G01 X518.249 Y37.910
G01 X547.115 Y5.000
G01 X639.691 Y5.000
G01 X586.440 Y89.747
G01 X587.443 Y55.772
G01 X587.423 Y175.895
G01 X522.667 Y159.520
G01 X574.873 Y241.996
G01 X479.532 Y287.524
G01 X533.993 Y305.809
G01 X465.330 Y414.451
G01 X470.480 Y390.334
G01 X466.600 Y518.846
G01 X407.147 Y506.121
G01 X459.679 Y597.748
G01 X368.104 Y642.608
G01 X428.666 Y667.836
G01 X361.982 Y774.790
G01 X377.715 Y752.299
G01 X376.372 Y880.392
G01 X328.703 Y862.982
G01 X387.507 Y955.080
G01 X305.956 Y990.807
G01 X378.131 Y1014.660
G01 X319.115 Y1111.444
G01 X350.545 Y1082.689
G01 X356.584 Y1202.131
G01 X325.346 Y1172.511
G01 X394.315 Y1257.414
G01 X326.748 Y1276.795
G01 X413.524 Y1292.393
G01 X365.155 Y1372.184
G01 X414.462 Y1331.111
G01 X429.650 Y1435.693
G01 X416.219 Y1388.545
G01 X495.852 Y1460.931
G01 X442.700 Y1459.283
G01 X543.427 Y1462.376
G01 X504.971 Y1521.142
G01 X570.532 Y1464.580
G01 X592.813 Y1551.081
G01 X594.688 Y1484.168
G01 X681.626 Y1541.852
G01 X639.463 Y1517.708
G01 X710.000 Y1511.035
G01 X710.000 Y1478.604
G01 X674.131 Y1527.080
G01 X624.675 Y1447.204
G01 X636.515 Y1504.779
G01 X535.285 Y1459.000
G01 X581.637 Y1453.264
G01 X478.916 Y1468.899
G01 X503.672 Y1396.273
G01 X452.708 Y1452.420
G01 X417.522 Y1354.380
G01 X436.170 Y1397.131
G01 X348.657 Y1330.102
G01 X406.693 Y1311.804
G01 X315.155 Y1306.238
G01 X356.478 Y1220.261
G01 X314.991 Y1258.657
G01 X298.569 Y1144.391
G01 X327.802 Y1174.222
G01 X257.603 Y1088.678
G01 X329.856 Y1060.835
G01 X251.984 Y1037.484
G01 X311.320 Y942.280
G01 X280.465 Y967.046
G01 X283.298 Y841.612
G01 X322.873 Y863.483
G01 X269.517 Y765.163
G01 X354.468 Y733.677
G01 X288.709 Y698.771
G01 X363.502 Y601.143
G01 X340.518 Y618.968
G01 X359.234 Y489.846
G01 X405.182 Y510.980
G01 X364.575 Y407.745
G01 X457.234 Y380.441
G01 X398.733 Y341.982
G01 X483.287 Y250.283
G01 X462.495 Y269.226
G01 X490.986 Y145.058
G01 X536.855 Y173.617
G01 X502.636 Y74.065
G01 X596.009 Y59.257
G01 X538.165 Y25.540
G01 X561.292 Y5.000
G01 X666.093 Y5.000
G01 X602.777 Y82.547
G01 X615.246 Y53.049
G01 X599.853 Y175.190
G01 X544.944 Y151.676
G01 X587.995 Y246.108
G01 X492.471 Y278.278
G01 X549.364 Y309.987
G01 X469.306 Y408.999
G01 X485.366 Y390.268
G01 X465.804 Y520.148
G01 X416.440 Y501.143
G01 X459.028 Y604.447
G01 X368.009 Y636.252
G01 X430.222 Y675.322
G01 X352.796 Y772.302
G01 X379.231 Y756.143
G01 X362.335 Y885.002
G01 X325.344 Y862.241
G01 X373.827 Y965.742
G01 X293.942 Y988.799
G01 X367.347 Y1026.901
G01 X298.639 Y1113.427
G01 X340.872 Y1091.950
G01 X331.877 Y1211.567
G01 X312.192 Y1177.551
G01 X370.807 Y1273.540
G01 X306.303 Y1280.672
G01 X394.161 Y1310.855
G01 X337.439 Y1380.114
G01 X397.851 Y1347.202
G01 X398.793 Y1451.320
G01 X397.945 Y1400.688
G01 X467.401 Y1483.741
G01 X418.849 Y1470.230
G01 X520.633 Y1488.108
G01 X475.295 Y1536.007
G01 X552.304 Y1488.355
G01 X560.849 Y1570.000
G01 X562.040 Y1570.000
G01 X576.706 Y1504.044
G01 X651.633 Y1570.000
G01 X651.862 Y1570.000
G01 X617.623 Y1536.085
G01 X710.000 Y1539.706
G01 X710.000 Y1553.001
G01 X690.343 Y1566.116
G01 X710.000 Y1552.187
G01 X710.000 Y1527.635
G01 X691.394 Y1531.408
G01 X710.000 Y1490.338
G01 X710.000 Y1485.590
G01 X644.956 Y1550.712
G01 X608.682 Y1468.303
G01 X608.265 Y1531.756
G01 X514.388 Y1473.340
G01 X558.438 Y1480.021
G01 X451.666 Y1481.246
G01 X485.593 Y1417.690
G01 X422.039 Y1467.269
G01 X400.826 Y1367.504
G01 X407.571 Y1415.453
G01 X328.828 Y1336.312
G01 X384.532 Y1330.365
G01 X290.496 Y1310.286
G01 X341.141 Y1234.029
G01 X288.168 Y1265.274
G01 X286.489 Y1150.262
G01 X304.216 Y1184.755
G01 X244.152 Y1087.817
G01 X314.006 Y1072.359
G01 X235.125 Y1034.573
G01 X303.808 Y949.827
G01 X262.494 Y966.992
G01 X280.644 Y841.894
G01 X308.985 Y867.960
G01 X266.908 Y759.080
G01 X349.189 Y740.034
G01 X283.686 Y690.874
G01 X367.568 Y604.446
G01 X334.918 Y614.275
G01 X369.188 Y486.591
G01 X403.909 Y511.448
G01 X375.366 Y398.519
G01 X464.764 Y383.655
G01 X407.439 Y331.152
G01 X500.438 Y251.327
G01 X470.442 Y261.869
G01 X514.298 Y140.187
G01 X548.611 Y171.930
G01 X526.819 Y63.525
G01 X615.970 Y61.048
G01 X559.832 Y13.472
G01 X572.160 Y5.000
G01 X693.548 Y5.000
G01 X620.310 Y75.029
G01 X643.265 Y52.184
G01 X612.370 Y173.849
G01 X568.396 Y145.285
G01 X600.322 Y250.133
G01 X506.957 Y269.382
G01 X563.876 Y315.000
G01 X474.287 Y402.799
G01 X500.141 Y391.562
G01 X464.901 Y520.307
G01 X426.577 Y497.169
G01 X457.332 Y610.496
G01 X369.168 Y629.821
G01 X430.592 Y683.081
G01 X344.367 Y768.621
G01 X380.253 Y760.842
G01 X347.944 Y887.980
G01 X322.445 Y862.081
G01 X358.809 Y975.239
G01 X282.843 Y986.354
G01 X355.014 Y1038.927
G01 X278.631 Y1113.871
G01 X330.292 Y1101.666
G01 X306.544 Y1219.009
G01 X299.089 Y1182.880
G01 X345.653 Y1288.136
G01 X286.415 Y1283.908
G01 X372.878 Y1328.785
G01 X309.895 Y1386.339
G01 X379.921 Y1363.531
G01 X367.041 Y1464.793
G01 X379.321 Y1413.031
G01 X437.014 Y1504.869
G01 X395.212 Y1480.546
G01 X495.578 Y1513.209
G01 X445.521 Y1549.228
G01 X532.382 Y1512.374
G01 X529.662 Y1570.000
G01 X538.703 Y1570.000
G01 X558.014 Y1524.251
G01 X597.529 Y1570.000
G01 X605.343 Y1570.000
G01 X595.708 Y1554.062
G01 X687.611 Y1570.000
G01 X695.534 Y1570.000
G01 X710.000 Y1562.454
G01 X710.000 Y1547.969
G01 X666.564 Y1551.039
G01 X696.345 Y1511.377
G01 X618.032 Y1570.000
G01 X614.144 Y1570.000
G01 X591.790 Y1489.862
G01 X578.099 Y1556.971
G01 X493.510 Y1487.420
G01 X532.940 Y1505.915
G01 X424.546 Y1492.224
G01 X465.743 Y1439.177
G01 X390.789 Y1480.031
G01 X383.482 Y1380.961
G01 X377.446 Y1431.858
G01 X309.322 Y1342.245
G01 X360.422 Y1347.942
G01 X266.346 Y1313.018
G01 X324.335 Y1247.835
G01 X261.196 Y1269.874
G01 X274.050 Y1156.560
G01 X279.530 Y1193.445
G01 X231.352 Y1086.888
G01 X296.580 Y1083.004
G01 X219.166 Y1030.623
G01 X295.142 Y957.597
G01 X244.804 Y965.213
G01 X277.919 Y842.904
G01 X294.417 Y870.880
G01 X265.259 Y753.335
G01 X342.694 Y745.809
G01 X279.923 Y682.401
G01 X370.766 Y608.330
G01 X329.993 Y608.319
G01 X379.316 Y484.513
G01 X402.331 Y510.788
G01 X387.375 Y390.165
G01 X471.388 Y386.703
G01 X417.703 Y320.311
G01 X516.950 Y253.393
G01 X479.393 Y253.786
G01 X537.965 Y136.995
G01 X560.372 Y169.589
G01 X552.403 Y54.412
G01 X635.263 Y63.096
G01 X585.870 Y5.000
G01 X710.000 Y5.000
G01 X710.000 Y14.599
G01 X639.184 Y67.363
G01 X671.269 Y53.144
G01 X625.173 Y171.857
G01 X592.830 Y140.496
G01 X611.951 Y253.900
G01 X522.963 Y261.073
G01 X577.445 Y320.658
G01 X480.430 Y396.016
G01 X514.593 Y394.154
G01 X464.110 Y519.305
G01 X437.376 Y494.320
G01 X454.717 Y615.714
G01 X371.561 Y623.533
G01 X429.720 Y690.900
G01 X336.858 Y763.907
G01 X380.592 Y766.307
G01 X333.438 Y889.307
G01 X319.833 Y862.597
G01 X342.606 Y983.380
G01 X272.641 Y983.673
G01 X341.103 Y1050.508
G01 X259.259 Y1112.925
G01 X318.635 Y1111.718
G01 X280.834 Y1224.433
G01 X285.869 Y1188.566
G01 X319.027 Y1301.005
G01 X267.063 Y1286.685
G01 X349.669 Y1345.933
G01 X282.686 Y1391.003
G01 X360.513 Y1379.956
G01 X334.648 Y1476.084
G01 X360.174 Y1425.613
G01 X404.876 Y1524.111
G01 X371.755 Y1490.397
G01 X468.268 Y1537.413
G01 X415.798 Y1560.942
G01 X510.609 Y1536.469
G01 X503.698 Y1570.000
G01 X522.240 Y1570.000
G01 X538.432 Y1544.803
G01 X554.754 Y1570.000
G01 X648.410 Y1570.000
G01 X641.643 Y1569.609
G01 X676.594 Y1541.217
G01 X624.269 Y1570.000
G01 X581.144 Y1570.000
G01 X573.805 Y1511.861
G01 X550.362 Y1570.000
G01 X536.651 Y1570.000
G01 X472.563 Y1501.376
G01 X505.196 Y1530.680
G01 X397.659 Y1501.997
G01 X444.000 Y1460.534
G01 X359.199 Y1490.741
G01 X365.303 Y1394.731
G01 X346.018 Y1446.201
G01 X290.048 Y1348.047
G01 X334.432 Y1364.285
G01 X242.799 Y1314.614
G01 X305.950 Y1261.484
G01 X234.308 Y1272.519
G01 X261.067 Y1163.265
G01 X253.972 Y1200.173
G01 X219.099 Y1086.045
G01 X277.658 Y1092.537
G01 X204.181 Y1025.834
G01 X285.213 Y965.405
G01 X227.616 Y961.800
G01 X274.927 Y844.625
G01 X279.391 Y872.152
G01 X264.444 Y748.092
G01 X335.060 Y750.793
G01 X277.469 Y673.571
G01 X372.983 Y612.618
G01 X325.942 Y601.219
G01 X389.407 Y483.601
G01 X400.661 Y508.938
G01 X400.449 Y382.853
G01 X477.177 Y389.394
G01 X429.545 Y309.696
G01 X532.703 Y256.313
G01 X489.522 Y245.119
G01 X561.758 Y135.472
G01 X572.334 Y166.558
G01 X579.206 Y46.896
G01 X653.954 Y65.225
G01 X616.951 Y5.000
G01 X710.000 Y5.000
G01 X710.000 Y30.980
G01 X659.513 Y59.744
G01 X699.037 Y55.857
G01 X638.464 Y169.237
G01 X618.030 Y137.421
G01 X623.010 Y257.257
G01 X540.423 Y253.580
G01 X590.022 Y326.757
G01 X487.856 Y388.842
G01 X528.528 Y397.950
G01 X463.650 Y517.166
G01 X448.633 Y492.683
G01 X451.339 Y619.945
G01 X375.128 Y617.602
G01 X427.590 Y698.563
G01 X330.399 Y758.342
G01 X380.078 Y772.417
G01 X319.053 Y889.001
G01 X317.321 Y863.847
G01 X325.401 Y990.005
G01 X263.280 Y980.945
G01 X325.626 Y1061.408
G01 X240.658 Y1110.762
G01 X305.752 Y1121.960
G01 X254.996 Y1227.856
G01 X272.352 Y1194.638
G01 X291.130 Y1311.976
G01 X248.188 Y1289.171
G01 X324.567 Y1362.049
G01 X255.943 Y1394.268
G01 X339.492 Y1396.301
G01 X301.862 Y1485.209
G01 X340.326 Y1438.437
G01 X371.197 Y1541.294
G01 X348.410 Y1499.931
G01 X438.747 Y1560.456
G01 X392.563 Y1570.000
G01 X398.337 Y1570.000
G01 X486.855 Y1560.443
G01 X483.200 Y1570.000
G01 X513.864 Y1570.000
G01 X517.771 Y1565.681
G01 X519.782 Y1570.000
G01 X553.606 Y1570.000
G01 X554.535 Y1534.241
G01 X532.379 Y1570.000
G01 X490.431 Y1570.000
G01 X451.432 Y1515.329
G01 X475.300 Y1554.061
G01 X371.071 Y1510.738
G01 X420.274 Y1481.537
G01 X327.491 Y1499.471
G01 X346.105 Y1408.756
G01 X313.530 Y1458.369
G01 X270.884 Y1353.841
G01 X306.672 Y1379.156
G01 X219.911 Y1315.263
G01 X285.909 Y1274.759
G01 X207.723 Y1273.307
G01 X247.355 Y1170.321
G01 X227.786 Y1204.856
G01 X207.258 Y1085.415
G01 X257.355 Y1100.742
G01 X190.209 Y1020.413
G01 X273.947 Y973.042
G01 X211.130 Y956.878
G01 X271.475 Y847.007
G01 X264.142 Y871.720
G01 X264.310 Y743.485
G01 X326.403 Y754.788
G01 X276.333 Y664.607
G01 X374.142 Y617.115
G01 X322.942 Y593.125
G01 X399.257 Y483.806
G01 X399.119 Y505.872
G01 X414.409 Y376.722
G01 X482.240 Y391.550
G01 X442.942 Y299.542
G01 X547.612 Y259.900
G01 X500.976 Y236.044
G01 X585.456 Y135.568
G01 X584.701 Y162.835
G01 X607.023 Y41.121
G01 X672.145 Y67.279
G01 X645.460 Y5.000
G01 X710.000 Y5.000
G01 X710.000 Y40.446
G01 X681.382 Y52.389
G01 X710.000 Y57.370
G01 X710.000 Y83.654
G01 X652.440 Y166.052
G01 X643.767 Y136.137
G01 X633.653 Y260.082
G01 X559.234 Y247.118
G01 X601.598 Y333.095
G01 X496.658 Y381.486
G01 X541.773 Y402.821
G01 X463.737 Y513.950
G01 X460.137 Y492.309
G01 X447.382 Y623.061
G01 X379.774 Y612.222
G01 X424.224 Y705.848
G01 X325.090 Y752.127
G01 X378.566 Y779.019
G01 X305.017 Y887.121
G01 X314.711 Y865.853
G01 X307.401 Y994.980
G01 X254.672 Y978.345
G01 X308.634 Y1071.393
G01 X222.928 Y1107.574
G01 X291.520 Y1132.212
G01 X229.266 Y1229.332
G01 X258.352 Y1201.091
G01 X262.187 Y1320.913
G01 X229.700 Y1291.520
G01 X297.643 Y1376.883
G01 X229.761 Y1396.315
G01 X316.751 Y1412.365
G01 X268.923 Y1492.220
G01 X319.593 Y1451.471
G01 X336.211 Y1556.278
G01 X325.076 Y1509.280
G01 X393.490 Y1570.000
G01 X531.354 Y1570.000
G01 X533.796 Y1556.907
G01 X522.374 Y1570.000
G01 X451.519 Y1570.000
G01 X429.976 Y1529.366
G01 X441.703 Y1570.000
G01 X433.357 Y1570.000
G01 X344.812 Y1518.624
G01 X394.512 Y1501.944
G01 X295.868 Y1506.326
G01 X325.714 Y1422.939
G01 X280.236 Y1468.293
G01 X251.689 Y1359.719
G01 X277.289 Y1392.333
G01 X197.702 Y1315.157
G01 X264.169 Y1287.430
G01 X181.631 Y1272.367
G01 X232.741 Y1177.635
G01 X201.224 Y1207.450
G01 X195.677 Y1085.098
G01 X235.823 Y1107.420
G01 X177.247 Y1014.564
G01 X261.307 Y980.291
G01 X195.521 Y950.601
G01 X267.384 Y849.959
G01 X248.913 Y869.571
G01 X264.682 Y739.617
G01 X316.869 Y757.619
G01 X276.487 Y655.729
G01 X374.202 Y621.612
G01 X321.140 Y584.216
G01 X408.673 Y485.041
G01 X397.928 Y501.602
G01 X429.055 Y371.877
G01 X486.716 Y393.020
G01 X457.834 Y290.081
G01 X561.629 Y263.956
G01 X513.874 Y226.758
G01 X608.853 Y137.200
G01 X597.675 Y158.459
G01 X635.630 Y37.190
G01 X689.962 Y69.123
G01 X672.584 Y5.000
G01 X710.000 Y5.000
G01 X710.000 Y44.086
G01 X704.836 Y45.529
G01 X710.000 Y47.730
G01 X710.000 Y114.458
G01 X667.286 Y162.397
G01 X669.804 Y136.679
G01 X644.057 Y262.283
G01 X579.258 Y241.884
G01 X612.199 Y339.466
G01 X506.886 Y374.172
G01 X554.180 Y408.612
G01 X464.569 Y509.755
G01 X471.671 Y493.209
G01 X443.046 Y624.970
G01 X385.371 Y607.568
G01 X419.682 Y712.544
G01 X320.989 Y745.477
G01 X375.938 Y785.934
G01 X291.545 Y883.763
G01 X311.804 Y868.601
G01 X288.831 Y998.209
G01 X246.696 Y976.026
G01 X290.217 Y1080.238
G01 X206.133 Y1103.561
G01 X275.847 Y1142.274
G01 X203.868 Y1228.953
G01 X243.685 Y1207.881
G01 X232.440 Y1327.718
G01 X211.481 Y1293.859
G01 X269.010 Y1390.199
G01 X204.201 Y1397.330
G01 X292.215 Y1427.926
G01 X236.052 Y1497.203
G01 X297.798 Y1464.642
G01 X300.168 Y1568.963
G01 X301.629 Y1518.548
G01 X345.891 Y1570.000
G01 X417.827 Y1570.000
G01 X408.038 Y1543.548
G01 X408.834 Y1570.000
G01 X376.214 Y1570.000
G01 X318.875 Y1525.830
G01 X366.697 Y1521.503
G01 X264.506 Y1511.438
G01 X303.969 Y1437.152
G01 X246.394 Y1475.939
G01 X232.302 Y1365.744
G01 X246.461 Y1403.619
G01 X176.154 Y1314.482
G01 X240.728 Y1299.255
G01 X156.200 Y1269.857
G01 X217.068 Y1185.082
G01 X174.540 Y1207.951
G01 X184.182 Y1085.159
G01 X213.244 Y1112.398
G01 X165.258 Y1008.486
G01 X247.292 Y986.924
G01 X180.933 Y943.149
G01 X262.491 Y853.361
G01 X233.943 Y865.729
G01 X265.371 Y736.557
G01 X306.636 Y759.138
G01 X277.864 Y647.145
G01 X373.158 Y625.896
G01 X320.652 Y574.690
G01 X417.482 Y487.190
G01 X397.307 Y496.180
G01 X444.176 Y368.389
G01 X490.769 Y393.676
G01 X474.123 Y281.528
G01 X574.744 Y268.279
G01 X528.298 Y217.480
G01 X631.763 Y140.250
G01 X611.453 Y153.504
G01 X664.791 Y35.173
G01 X707.560 Y70.653
G01 X699.020 Y5.000
G01 X710.000 Y5.000
G01 X710.000 Y134.600
G01 X683.172 Y158.407
G01 X695.904 Y139.047
G01 X654.412 Y263.801
G01 X600.329 Y238.049
G01 X621.890 Y345.679
G01 X518.557 Y367.132
G01 X565.635 Y415.143
G01 X466.330 Y504.713
G01 X483.020 Y495.356
G01 X438.548 Y625.613
G01 X391.763 Y603.791
G01 X414.063 Y718.448
G01 X318.119 Y738.608
G01 X372.110 Y792.965
G01 X278.831 Y879.055
G01 X308.409 Y872.036
G01 X269.929 Y999.633
G01 X239.206 Y974.112
G01 X270.502 Y1087.732
G01 X190.299 Y1098.927
G01 X258.676 Y1151.928
G01 X179.001 Y1226.843
G01 X228.174 Y1214.927
G01 X202.143 Y1332.328
G01 X193.388 Y1296.288
G01 X238.815 Y1401.780
G01 X179.284 Y1397.502
G01 X265.848 Y1442.746
G01 X203.445 Y1500.278
G01 X274.772 Y1477.845
G01 X264.375 Y1570.000
G01 X265.959 Y1570.000
G01 X277.920 Y1527.811
G01 X305.366 Y1570.000
G01 X388.149 Y1570.000
G01 X385.443 Y1557.898
G01 X382.995 Y1570.000
G01 X330.645 Y1570.000
G01 X293.218 Y1532.519
G01 X336.853 Y1539.956
G01 X233.552 Y1514.963
G01 X280.731 Y1451.230
G01 X212.258 Y1481.316
G01 X212.548 Y1371.941
G01 X214.396 Y1412.846
G01 X155.213 Y1313.412
G01 X215.621 Y1309.992
G01 X131.561 Y1265.952
G01 X200.201 Y1192.504
G01 X147.981 Y1206.397
G01 X172.591 Y1085.626
G01 X189.827 Y1115.532
G01 X154.168 Y1002.364
G01 X231.944 Y992.713
G01 X167.475 Y934.719
G01 X256.660 Y857.060
G01 X219.464 Y860.259
G01 X266.179 Y734.336
G01 X295.904 Y759.227
G01 X280.365 Y639.046
G01 X371.048 Y629.755
G01 X321.558 Y564.765
G01 X425.536 Y490.104
G01 X397.466 Y489.696
G01 X459.553 Y366.289
G01 X494.587 Y393.425
G01 X491.676 Y274.080
G01 X586.984 Y272.673
G01 X544.297 Y208.441
G01 X654.028 Y144.573
G01 X626.217 Y148.082
G01 X694.266 Y35.096
G01 X710.000 Y53.815
G01 X710.000 Y147.432
G01 X700.240 Y154.244
G01 X710.000 Y149.253
G01 X710.000 Y168.450
G01 X664.920 Y264.618
G01 X622.251 Y235.755
G01 X630.771 Y351.557
G01 X531.644 Y360.598
G01 X576.055 Y422.221
G01 X469.176 Y498.985
G01 X493.978 Y498.686
G01 X434.112 Y624.973
G01 X398.772 Y601.009
G01 X407.497 Y723.378
G01 X316.464 Y731.740
G01 X367.033 Y799.899
G01 X267.043 Y873.155
G01 X304.343 Y876.069
G01 X250.940 Y999.233
G01 X232.035 Y972.698
G01 X249.647 Y1093.687
G01 X175.413 Y1093.874
G01 X239.987 Y1160.945
G01 X154.839 Y1223.153
G01 X211.657 Y1222.114
G01 X171.553 Y1334.723
G01 X175.260 Y1298.875
G01 X207.239 Y1411.429
G01 X154.994 Y1397.016
G01 X237.650 Y1456.579
G01 X171.274 Y1501.591
G01 X250.366 Y1490.936
G01 X230.317 Y1570.000
G01 X235.517 Y1570.000
G01 X253.787 Y1537.111
G01 X269.418 Y1570.000
G01 X291.730 Y1570.000
G01 X267.766 Y1538.841
G01 X305.045 Y1557.048
G01 X203.118 Y1517.076
G01 X255.888 Y1464.985
G01 X178.077 Y1484.471
G01 X192.249 Y1378.299
G01 X181.325 Y1419.877
G01 X134.793 Y1312.103
G01 X188.926 Y1319.401
G01 X107.812 Y1260.846
G01 X182.034 Y1199.717
G01 X121.785 Y1202.861
G01 X160.721 Y1086.492
G01 X165.801 Y1116.713
G01 X143.871 Y996.360
G01 X215.339 Y997.439
G01 X155.220 Y925.522
G01 X249.781 Y860.880
G01 X205.692 Y853.261
G01 X266.904 Y732.947
G01 X284.892 Y757.802
G01 X283.856 Y631.604
G01 X367.943 Y632.985
G01 X323.900 Y554.668
G01 X432.719 Y493.611
G01 X398.593 Y482.274
G01 X474.964 Y365.570
G01 X498.373 Y392.209
G01 X510.331 Y267.910
G01 X598.412 Y276.947
G01 X561.876 Y199.880
G01 X675.519 Y150.002
G01 X642.130 Y142.339
G01 X710.000 Y54.775
G01 X710.000 Y209.461
G01 X675.782 Y264.750
G01 X644.812 Y235.107
G01 X638.972 Y356.944
G01 X546.085 Y354.792
G01 X585.395 Y429.638
G01 X473.232 Y492.760
G01 X504.354 Y503.100
G01 X429.962 Y623.070
G01 X406.199 Y599.306
G01 X400.146 Y727.176
G01 X315.969 Y725.082
G01 X360.696 Y806.517
G01 X256.317 Y866.245
G01 X299.442 Y880.577
G01 X232.107 Y997.029
G01 X225.000 Y971.842
G01 X227.844 Y1097.941
G01 X161.426 Y1088.593
G01 X219.800 Y1169.088
G01 X131.524 Y1218.060
G01 X193.992 Y1229.293
G01 X140.925 Y1334.922
G01 X156.925 Y1301.652
G01 X174.493 Y1418.981
G01 X131.280 Y1396.044
G01 X207.662 Y1469.174
G01 X139.677 Y1501.309
G01 X224.451 Y1503.746
G01 X197.548 Y1570.000
G01 X208.344 Y1570.000
G01 X229.058 Y1546.454
G01 X236.622 Y1570.000
G01 X257.005 Y1570.000
G01 X242.414 Y1544.922
G01 X268.720 Y1570.000
G01 X266.824 Y1570.000
G01 X173.278 Y1517.961
G01 X229.359 Y1478.202
G01 X144.081 Y1485.488
G01 X171.230 Y1384.771
G01 X147.498 Y1424.614
G01 X114.780 Y1310.689
G01 X160.757 Y1327.257
G01 X85.011 Y1254.739
G01 X162.492 Y1206.516
G01 X96.171 Y1197.454
G01 X148.387 Y1087.711
G01 X141.409 Y1115.871
G01 X134.235 Y990.614
G01 X197.594 Y1000.893
G01 X144.203 Y915.775
G01 X241.776 Y864.623
G01 X192.824 Y844.869
G01 X267.351 Y732.346
G01 X273.831 Y754.819
G01 X288.178 Y624.959
G01 X363.953 Y635.398
G01 X327.679 Y544.626
G01 X438.944 Y497.523
G01 X400.859 Y474.071
G01 X490.196 Y366.186
G01 X502.338 Y390.005
G01 X529.898 Y263.161
G01 X609.128 Y280.930
G01 X581.004 Y192.036
G01 X696.141 Y156.349
G01 X659.329 Y136.450
G01 X710.000 Y84.761
G01 X710.000 Y235.399
G01 X687.197 Y264.254
G01 X667.783 Y236.177
G01 X646.650 Y361.713
G01 X561.778 Y349.928
G01 X593.649 Y437.186
G01 X478.594 Y486.243
G01 X513.980 Y508.465
G01 X426.316 Y619.961
G01 X413.838 Y598.729
G01 X392.199 Y729.715
G01 X316.543 Y718.827
G01 X353.129 Y812.599
G01 X246.758 Y858.527
G01 X293.568 Y885.407
G01 X213.665 Y993.081
G01 X217.912 Y971.566
G01 X205.306 Y1100.365
G01 X148.256 Y1083.259
G01 X198.174 Y1176.127
G01 X109.164 Y1211.755
G01 X175.066 Y1236.290
G01 X110.505 Y1332.983
G01 X138.203 Y1304.616
G01 X140.809 Y1424.302
G01 X108.061 Y1394.740
G01 X175.967 Y1480.288
G01 X108.755 Y1499.614
G01 X196.930 Y1516.075
G01 X165.693 Y1570.000
G01 X184.885 Y1570.000
G01 X203.557 Y1555.808
G01 X206.110 Y1570.000
G01 X225.087 Y1570.000
G01 X217.030 Y1550.863
G01 X227.304 Y1570.000
G01 X214.239 Y1570.000
G01 X144.072 Y1517.805
G01 X201.098 Y1490.651
G01 X110.480 Y1484.484
G01 X149.320 Y1391.273
G01 X113.172 Y1426.997
G01 X95.034 Y1309.275
G01 X131.264 Y1333.350
G01 X63.182 Y1247.834
G01 X141.538 Y1212.681
G01 X71.332 Y1190.315
G01 X135.417 Y1089.201
G01 X116.905 Y1112.974
G01 X125.102 Y985.235
G01 X178.859 Y1002.888
G01 X134.420 Y905.692
G01 X232.606 Y868.080
G01 X181.031 Y835.248
G01 X267.336 Y732.453
G01 X262.956 Y750.271
G01 X293.151 Y619.222
G01 X359.220 Y636.825
G01 X332.860 Y534.866
G01 X444.164 Y501.636
G01 X404.401 Y465.269
G01 X505.049 Y368.056
G01 X506.698 Y386.831
G01 X550.170 Y259.940
G01 X619.261 Y284.470
G01 X601.609 Y185.139
G01 X710.000 Y164.529
G01 X710.000 Y158.370
G01 X677.920 Y130.613
G01 X710.000 Y104.656
G01 X710.000 Y252.508
G01 X699.353 Y263.222
G01 X690.931 Y238.995
G01 X653.984 Y365.766
G01 X578.589 Y346.196
G01 X600.850 Y444.657
G01 X485.316 Y479.657
G01 X522.712 Y514.624
G01 X423.378 Y615.744
G01 X421.475 Y599.286
G01 X383.861 Y730.899
G01 X318.064 Y713.150
G01 X344.397 Y817.929
G01 X238.429 Y850.213
G01 X286.609 Y890.381
G01 X195.833 Y987.485
G01 X210.580 Y971.856
G01 X182.265 Y1100.862
G01 X135.789 Y1078.027
G01 X175.204 Y1181.839
G01 X87.827 Y1204.442
G01 X154.793 Y1242.906
G01 X80.520 Y1329.002
G01 X118.919 Y1307.726
G01 X106.437 Y1427.297
G01 X85.224 Y1393.237
G01 X142.682 Y1489.689
G01 X78.577 Y1496.698
G01 X167.737 Y1527.704
G01 X134.438 Y1570.000
G01 X167.326 Y1570.000
G01 X177.114 Y1565.108
G01 X177.333 Y1570.000
G01 X195.136 Y1570.000
G01 X191.467 Y1556.734
G01 X193.921 Y1570.000
G01 X170.396 Y1570.000
G01 X115.500 Y1516.795
G01 X171.098 Y1502.092
G01 X77.457 Y1481.602
G01 X126.367 Y1397.686
G01 X78.613 Y1427.008
G01 X75.399 Y1307.932
G01 X100.632 Y1337.495
G01 X42.308 Y1240.328
G01 X119.171 Y1217.983
G01 X47.434 Y1181.614
G01 X121.655 Y1090.847
G01 X92.541 Y1108.029
G01 X116.301 Y980.296
G01 X159.314 Y1003.261
G01 X125.829 Y895.481
G01 X222.269 Y871.032
G01 X170.451 Y824.585
G01 X266.692 Y733.154
G01 X252.502 Y744.193
G01 X298.578 Y614.468
G01 X353.913 Y637.124
G01 X339.368 Y525.602
G01 X448.367 Y505.742
G01 X409.326 Y456.075
G01 X519.342 Y371.065
G01 X511.661 Y382.742
G01 X570.925 Y258.319
G01 X628.966 Y287.445
G01 X623.582 Y179.407
G01 X710.000 Y172.870
G01 X710.000 Y140.145
G01 X697.976 Y125.048
G01 X710.000 Y117.406
G01 X710.000 Y253.099
G01 X661.168 Y369.044
G01 X596.351 Y343.762
G01 X607.065 Y451.856
G01 X493.417 Y473.229
G01 X530.440 Y521.393
G01 X421.335 Y610.547
G01 X428.902 Y600.950
G01 X375.356 Y730.671
G01 X320.382 Y708.199
G01 X334.605 Y822.307
G01 X231.360 Y841.524
G01 X278.489 Y895.300
G01 X178.813 Y980.370
G01 X202.816 Y972.658
G01 X158.967 Y1099.377
G01 X123.884 Y1073.022
G01 X151.027 Y1186.015
G01 X67.548 Y1196.328
G01 X133.125 Y1248.924
G01 X51.179 Y1323.104
G01 X98.902 Y1310.902
G01 X71.638 Y1427.909
G01 X62.633 Y1391.636
G01 X107.965 Y1497.162
G01 X49.170 Y1492.754
G01 X136.841 Y1538.400
G01 X103.494 Y1570.000
G01 X166.613 Y1570.000
G01 X165.560 Y1562.568
G01 X164.765 Y1570.000
G01 X131.220 Y1570.000
G01 X87.527 Y1515.106
G01 X139.392 Y1512.278
G01 X45.164 Y1477.014
G01 X102.238 Y1403.858
G01 X44.080 Y1424.667
G01 X55.707 Y1306.698
G01 X69.070 Y1339.535
G01 X22.338 Y1232.409
G01 X95.429 Y1222.191
G01 X24.611 Y1171.540
G01 X106.968 Y1092.502
G01 X68.565 Y1101.084
G01 X107.647 Y975.838
G01 X139.166 Y1001.879
G01 X118.353 Y885.337
G01 X210.801 Y873.262
G01 X161.188 Y813.087
G01 X265.277 Y734.304
G01 X242.694 Y736.656
G01 X304.254 Y610.734
G01 X348.226 Y636.185
G01 X347.094 Y517.032
G01 X451.583 Y509.634
G01 X415.705 Y446.708
G01 X532.919 Y375.069
G01 X517.427 Y377.831
G01 X591.932 Y258.331
G01 X638.421 Y289.761
G01 X646.780 Y175.037
G01 X710.000 Y177.365
G01 X710.000 Y297.524
G01 X668.406 Y371.520
G01 X614.875 Y342.764
G01 X612.398 Y458.601
