; file trimmed by trimify2x.pl
; Created by Sandify
; 
;   https://jeffeb3.github.io/sandify/
; 
;   Sandify Version: 0.1.3
; 
;   Machine Type: Rectangular
;     MinX: 5 MaxX: 710 MinY: 5 MaxY: 1570
;   Content Type: Shapes
;     Starting Size: 800
;     Offset: X: 582 Y: 2
;     Selected Shape: Circle
;       Circle Lobes: 1
;     Number of Loops: 110
;     Spin: true
;       Spin Value: -3.4
;       Spin Switchbacks: 0
;     Grow: true
;       Grow Value: -1
;     Track: true
;       Track Count: 21
;       Track Size: 880.45
;       Track Grow: false
;   Path Reversed: false
; 
; filename: 'mishegoss1.gcode'

; BEGIN PRE
G28 Y
G28 X
G01 F30000; END PRE
G01 X710.000 Y789.500
G01 X710.000 Y1563.340
G01 X686.529 Y1513.764
G01 X654.915 Y1540.849
G01 X597.510 Y1490.702
G01 X597.020 Y1495.825
G01 X522.318 Y1471.654
G01 X528.241 Y1438.829
G01 X466.098 Y1444.740
G01 X450.355 Y1383.192
G01 X422.903 Y1399.115
G01 X374.682 Y1336.714
G01 X380.461 Y1333.140
G01 X314.289 Y1296.296
G01 X329.507 Y1255.897
G01 X274.879 Y1250.540
G01 X270.893 Y1180.953
G01 X251.010 Y1188.420
G01 X215.313 Y1116.899
G01 X230.369 Y1107.709
G01 X175.829 Y1061.532
G01 X203.004 Y1017.047
G01 X158.629 Y1003.917
G01 X168.790 Y930.126
G01 X158.743 Y932.818
G01 X137.710 Y856.232
G01 X163.818 Y845.360
G01 X122.735 Y793.995
G01 X163.214 Y749.638
G01 X130.486 Y732.906
G01 X155.798 Y659.346
G01 X156.457 Y661.478
G01 X150.787 Y584.353
G01 X188.279 Y576.123
G01 X161.006 Y524.047
G01 X214.649 Y484.277
G01 X193.475 Y468.300
G01 X233.434 Y399.510
G01 X244.172 Y405.335
G01 X253.056 Y332.160
G01 X300.766 Y330.778
G01 X286.161 Y282.294
G01 X351.350 Y251.305
G01 X340.171 Y240.121
G01 X392.818 Y180.237
G01 X411.588 Y193.539
G01 X432.803 Y128.268
G01 X488.198 Y137.329
G01 X483.771 Y96.076
G01 X557.574 Y77.318
G01 X553.564 Y74.174
G01 X615.699 Y26.466
G01 X639.275 Y50.113
G01 X664.303 Y5.000
G01 X694.431 Y5.000
G01 X710.000 Y10.778
G01 X710.000 Y1505.673
G01 X696.792 Y1515.639
G01 X645.357 Y1464.495
G01 X639.834 Y1477.577
G01 X566.015 Y1448.566
G01 X572.708 Y1424.982
G01 X505.216 Y1427.320
G01 X494.906 Y1371.145
G01 X459.109 Y1388.896
G01 X416.307 Y1325.595
G01 X416.009 Y1329.387
G01 X350.431 Y1287.452
G01 X365.319 Y1255.985
G01 X305.024 Y1246.382
G01 X305.626 Y1182.086
G01 X276.805 Y1190.472
G01 X246.092 Y1117.931
G01 X254.192 Y1115.276
G01 X200.111 Y1063.567
G01 X226.022 Y1027.474
G01 X175.855 Y1009.250
G01 X189.927 Y940.469
G01 X170.572 Y942.994
G01 X154.269 Y865.109
G01 X172.774 Y859.764
G01 X132.227 Y802.303
G01 X170.734 Y765.638
G01 X132.336 Y742.858
G01 X161.101 Y673.899
G01 X152.351 Y674.682
G01 X151.386 Y595.895
G01 X180.899 Y592.090
G01 X154.486 Y533.312
G01 X205.710 Y500.457
G01 X179.261 Y477.461
G01 X222.461 Y412.821
G01 X223.979 Y416.105
G01 X237.781 Y340.911
G01 X277.423 Y342.848
G01 X264.257 Y287.103
G01 X326.841 Y262.263
G01 X311.055 Y243.163
G01 X366.968 Y187.023
G01 X376.987 Y196.674
G01 X403.561 Y129.119
G01 X451.064 Y140.478
G01 X448.883 Y91.538
G01 X520.133 Y78.262
G01 X512.421 Y66.460
G01 X578.051 Y22.221
G01 X593.583 Y41.270
G01 X616.683 Y5.000
G01 X675.045 Y5.000
G01 X681.700 Y8.011
G01 X682.117 Y5.000
G01 X710.000 Y5.000
G01 X710.000 Y1456.914
G01 X691.631 Y1436.045
G01 X680.284 Y1456.226
G01 X608.706 Y1422.780
G01 X615.043 Y1408.628
G01 X543.417 Y1406.733
G01 X538.001 Y1357.049
G01 X494.145 Y1375.404
G01 X457.300 Y1312.465
G01 X450.175 Y1322.756
G01 X386.511 Y1276.252
G01 X399.921 Y1253.878
G01 X335.194 Y1239.478
G01 X339.764 Y1181.595
G01 X302.344 Y1189.729
G01 X277.056 Y1117.493
G01 X277.479 Y1120.496
G01 X225.119 Y1063.886
G01 X248.586 Y1036.311
G01 X193.864 Y1012.543
G01 X211.134 Y949.882
G01 X182.847 Y951.120
G01 X171.607 Y873.309
G01 X181.808 Y872.597
G01 X142.987 Y809.766
G01 X178.302 Y780.869
G01 X135.459 Y751.684
G01 X166.865 Y688.409
G01 X149.111 Y686.761
G01 X153.063 Y607.717
G01 X173.912 Y607.414
G01 X149.468 Y542.738
G01 X197.010 Y516.808
G01 X166.492 Y486.516
G01 X212.016 Y427.063
G01 X204.743 Y426.751
G01 X223.555 Y350.952
G01 X254.459 Y355.245
G01 X243.750 Y293.102
G01 X302.428 Y274.342
G01 X283.215 Y247.110
G01 X341.380 Y195.690
G01 X343.100 Y200.649
G01 X375.003 Y132.213
G01 X413.966 Y144.855
G01 X414.960 Y89.132
G01 X482.328 Y81.173
G01 X472.070 Y60.550
G01 X540.094 Y20.669
G01 X548.060 Y34.084
G01 X569.200 Y5.000
G01 X710.000 Y5.000
G01 X710.000 Y1427.290
G01 X650.198 Y1394.539
G01 X655.046 Y1389.776
G01 X580.603 Y1383.178
G01 X579.365 Y1340.960
G01 X527.958 Y1358.731
G01 X497.391 Y1297.458
G01 X482.865 Y1313.233
G01 X422.339 Y1262.875
G01 X433.130 Y1249.523
G01 X365.301 Y1229.971
G01 X373.051 Y1179.467
G01 X327.591 Y1186.231
G01 X307.954 Y1115.657
G01 X300.168 Y1123.303
G01 X250.686 Y1062.611
G01 X270.550 Y1043.447
G01 X212.597 Y1013.889
G01 X232.194 Y958.298
G01 X195.572 Y957.192
G01 X189.511 Y880.849
G01 X190.906 Y883.752
G01 X154.886 Y816.460
G01 X185.826 Y795.177
G01 X139.841 Y759.441
G01 X172.927 Y702.767
G01 X146.792 Y697.684
G01 X155.659 Y619.796
G01 X167.366 Y621.964
G01 X145.871 Y552.373
G01 X188.521 Y533.156
G01 X155.204 Y495.504
G01 X202.002 Y442.104
G01 X186.579 Y437.235
G01 X210.275 Y362.244
G01 X231.984 Y367.836
G01 X224.616 Y300.332
G01 X278.154 Y287.366
G01 X256.747 Y252.010
G01 X316.025 Y206.101
G01 X310.102 Y205.439
G01 X347.089 Y137.514
G01 X377.080 Y150.344
G01 X382.035 Y88.911
G01 X444.268 Y85.895
G01 X432.659 Y56.511
G01 X501.859 Y21.693
G01 X502.938 Y28.565
G01 X522.418 Y5.000
G01 X710.000 Y5.000
G01 X710.000 Y1376.625
G01 X690.291 Y1364.091
G01 X692.544 Y1368.441
G01 X616.671 Y1356.875
G01 X618.740 Y1322.924
G01 X560.500 Y1339.001
G01 X536.307 Y1280.702
G01 X514.009 Y1300.828
G01 X457.711 Y1247.505
G01 X464.788 Y1242.872
G01 X395.244 Y1218.024
G01 X405.245 Y1175.685
G01 X352.513 Y1180.048
G01 X338.530 Y1112.482
G01 X322.212 Y1123.655
G01 X276.626 Y1059.866
G01 X291.790 Y1048.779
G01 X231.977 Y1013.402
G01 X252.903 Y965.640
G01 X208.748 Y961.236
G01 X207.764 Y887.734
G01 X200.066 Y893.145
G01 X167.776 Y822.460
G01 X193.233 Y808.420
G01 X145.445 Y766.204
G01 X179.137 Y716.850
G01 X145.443 Y707.447
G01 X159.006 Y632.098
G01 X161.315 Y635.630
G01 X143.598 Y562.258
G01 X180.234 Y549.329
G01 X145.413 Y504.480
G01 X192.332 Y457.796
G01 X169.593 Y447.541
G01 X197.835 Y374.731
G01 X210.120 Y380.504
G01 X206.812 Y308.822
G01 X254.077 Y301.159
G01 X231.719 Y257.913
G01 X290.882 Y218.106
G01 X278.160 Y211.038
G01 X319.774 Y144.966
G01 X340.592 Y156.843
G01 X350.119 Y90.911
G01 X406.078 Y92.268
G01 X394.311 Y54.413
G01 X463.391 Y25.161
G01 X458.436 Y24.734
G01 X476.965 Y5.000
G01 X710.000 Y5.000
G01 X710.000 Y1340.848
G01 X651.505 Y1328.066
G01 X655.888 Y1302.984
G01 X591.725 Y1316.366
G01 X573.781 Y1262.314
G01 X543.551 Y1285.579
G01 X492.412 Y1230.325
G01 X494.761 Y1233.892
G01 X424.909 Y1203.818
G01 X436.125 Y1170.225
G01 X377.076 Y1171.278
G01 X368.532 Y1108.019
G01 X343.578 Y1121.537
G01 X302.739 Y1055.773
G01 X312.203 Y1052.218
G01 X251.909 Y1011.207
G01 X273.075 Y971.826
G01 X222.369 Y963.302
G01 X226.144 Y893.957
G01 X209.295 Y900.716
G01 X181.489 Y827.836
G01 X200.469 Y820.460
G01 X152.213 Y772.057
G01 X185.359 Y730.532
G01 X145.102 Y716.068
G01 X162.935 Y644.570
G01 X155.820 Y648.324
G01 X142.528 Y572.427
G01 X172.156 Y565.167
G01 X137.109 Y513.501
G01 X182.932 Y473.984
G01 X153.876 Y457.671
G01 X186.124 Y388.334
G01 X188.987 Y393.152
G01 X190.275 Y318.587
G01 X230.271 Y315.550
G01 X208.178 Y264.871
G01 X265.946 Y231.542
G01 X247.423 Y217.451
G01 X293.011 Y154.484
G01 X304.686 Y164.268
G01 X319.206 Y95.151
G01 X367.900 Y100.135
G01 X357.125 Y54.324
G01 X424.748 Y30.920
G01 X414.758 Y22.622
G01 X433.571 Y5.000
G01 X710.000 Y5.000
G01 X710.000 Y1304.203
G01 X684.982 Y1297.005
G01 X690.600 Y1281.178
G01 X621.589 Y1291.006
G01 X609.550 Y1242.399
G01 X571.454 Y1267.551
G01 X526.217 Y1211.517
G01 X522.943 Y1222.561
G01 X454.168 Y1187.549
G01 X465.490 Y1163.060
G01 X401.238 Y1160.047
G01 X397.710 Y1102.309
G01 X364.247 Y1116.959
G01 X328.813 Y1050.448
G01 X331.709 Y1053.687
G01 X272.282 Y1007.445
G01 X292.539 Y976.770
G01 X236.416 Y963.470
G01 X244.435 Y899.497
G01 X218.606 Y906.432
G01 X195.844 Y832.650
G01 X207.498 Y831.178
G01 X160.066 Y777.092
G01 X191.472 Y743.679
G01 X145.791 Y723.588
G01 X167.276 Y657.147
G01 X150.944 Y659.982
G01 X142.526 Y582.902
G01 X164.307 Y580.517
G01 X130.260 Y522.631
G01 X173.742 Y490.505
G01 X139.505 Y467.647
G01 X175.033 Y402.960
G01 X168.710 Y405.703
G01 X174.925 Y329.627
G01 X206.822 Y330.380
G01 X186.144 Y272.934
G01 X241.222 Y246.236
G01 X218.023 Y224.700
G01 X266.751 Y165.968
G01 X269.548 Y172.548
G01 X289.273 Y101.628
G01 X329.887 Y109.346
G01 X321.175 Y56.302
G01 X386.004 Y38.811
G01 X372.090 Y22.272
G01 X393.124 Y5.000
G01 X710.000 Y5.000
G01 X710.000 Y1258.518
G01 X650.042 Y1263.129
G01 X643.367 Y1221.054
G01 X597.695 Y1246.838
G01 X558.895 Y1191.256
G01 X549.254 Y1208.878
G01 X482.878 Y1169.421
G01 X493.164 Y1154.165
G01 X424.951 Y1146.507
G01 X425.825 Y1095.380
G01 X384.204 Y1109.964
G01 X354.626 Y1044.003
G01 X350.249 Y1053.130
G01 X292.964 Y1002.261
G01 X311.146 Y980.387
G01 X250.863 Y961.839
G01 X262.427 Y904.322
G01 X228.018 Y910.289
G01 X210.650 Y836.955
G01 X214.300 Y840.469
G01 X168.904 Y781.409
G01 X197.372 Y756.158
G01 X147.521 Y730.067
G01 X171.865 Y669.747
G01 X146.751 Y670.566
G01 X143.445 Y593.692
G01 X156.724 Y595.244
G01 X124.810 Y531.931
G01 X164.717 Y507.193
G01 X126.536 Y477.505
G01 X164.454 Y418.495
G01 X149.407 Y418.104
G01 X160.667 Y341.925
G01 X183.830 Y345.499
G01 X165.614 Y282.151
G01 X216.733 Y262.010
G01 X190.069 Y232.818
G01 X240.953 Y179.291
G01 X235.357 Y181.634
G01 X260.285 Y110.319
G01 X292.203 Y119.760
G01 X286.512 Y60.398
G01 X347.248 Y48.661
G01 X330.596 Y23.729
G01 X356.780 Y5.000
G01 X710.000 Y5.000
G01 X710.000 Y1232.592
G01 X677.034 Y1232.965
G01 X674.998 Y1198.364
G01 X622.259 Y1223.563
G01 X590.214 Y1169.708
G01 X573.636 Y1192.858
G01 X510.884 Y1149.646
G01 X518.996 Y1143.516
G01 X448.159 Y1130.832
G01 X452.650 Y1087.251
G01 X403.443 Y1100.621
G01 X379.952 Y1036.538
G01 X367.784 Y1050.507
G01 X313.808 Y995.807
G01 X328.772 Y982.595
G01 X265.668 Y958.531
G01 X279.919 Y908.390
G01 X237.548 Y912.309
G01 X225.705 Y840.793
G01 X220.872 Y848.250
G01 X178.606 Y785.104
G01 X202.976 Y767.839
G01 X150.280 Y735.584
G01 X176.546 Y682.279
G01 X143.301 Y680.062
G01 X145.125 Y604.790
G01 X149.454 Y609.230
G01 X120.680 Y541.462
G01 X155.831 Y523.883
G01 X115.004 Y487.296
G01 X154.288 Y434.813
G01 X131.192 Y430.320
G01 X147.398 Y355.444
G01 X161.404 Y360.774
G01 X146.560 Y292.559
G01 X192.517 Y278.682
G01 X163.652 Y241.844
G01 X215.582 Y194.313
G01 X202.285 Y191.493
G01 X232.196 Y121.176
G01 X255.020 Y131.248
G01 X253.162 Y66.650
G01 X308.584 Y60.295
G01 X290.419 Y27.045
G01 X326.155 Y5.000
G01 X710.000 Y5.000
G01 X710.000 Y1201.175
G01 X702.505 Y1200.762
G01 X704.230 Y1174.403
G01 X645.142 Y1197.878
G01 X619.942 Y1147.026
G01 X596.057 Y1174.542
G01 X538.017 Y1128.435
G01 X542.862 Y1131.096
G01 X470.794 Y1113.214
G01 X477.976 Y1077.932
G01 X421.960 Y1089.029
G01 X404.563 Y1028.141
G01 X384.292 Y1045.806
G01 X334.651 Y988.233
G01 X345.312 Y983.319
G01 X280.772 Y953.684
G01 X296.727 Y911.650
G01 X247.213 Y912.541
G01 X240.805 Y844.191
G01 X227.225 Y854.458
G01 X189.033 Y788.274
G01 X208.220 Y778.596
G01 X154.040 Y740.232
G01 X181.175 Y694.637
G01 X140.646 Y688.481
G01 X147.404 Y616.175
G01 X142.555 Y622.380
G01 X117.772 Y551.277
G01 X147.075 Y540.416
G01 X104.923 Y497.079
G01 X144.449 Y451.773
G01 X114.167 Y442.341
G01 X135.007 Y370.129
G01 X139.658 Y376.090
G01 X128.935 Y304.186
G01 X168.628 Y296.074
G01 X138.836 Y251.824
G01 X190.613 Y210.875
G01 X170.488 Y202.107
G01 X204.954 Y134.131
G01 X218.517 Y143.698
G01 X221.131 Y75.078
G01 X270.133 Y73.539
G01 X251.675 Y32.271
G01 X303.728 Y5.000
G01 X710.000 Y5.000
G01 X710.000 Y1155.941
G01 X666.342 Y1169.961
G01 X647.852 Y1123.356
G01 X616.502 Y1153.994
G01 X564.100 Y1105.999
G01 X564.668 Y1116.897
G01 X492.776 Y1093.863
G01 X501.613 Y1067.425
G01 X439.750 Y1075.314
G01 X428.234 Y1018.890
G01 X399.769 Y1039.037
G01 X355.318 Y979.686
G01 X360.688 Y982.494
G01 X296.102 Y947.450
G01 X312.681 Y914.042
G01 X257.023 Y911.062
G01 X255.746 Y847.164
G01 X233.380 Y859.056
G01 X200.032 Y791.009
G01 X213.061 Y788.314
G01 X158.752 Y744.113
G01 X185.623 Y706.713
G01 X138.831 Y695.859
G01 X150.116 Y627.811
G01 X136.091 Y634.617
G01 X115.968 Y561.421
G01 X138.455 Y556.637
G01 X96.283 Y506.922
G01 X134.859 Y469.227
G01 X98.422 Y454.174
G01 X123.380 Y385.907
G01 X118.711 Y391.352
G01 X112.669 Y317.048
G01 X145.134 Y314.015
G01 X115.660 Y262.807
G01 X166.032 Y228.809
G01 X140.112 Y213.477
G01 X178.506 Y149.092
G01 X182.874 Y157.010
G01 X190.406 Y85.688
G01 X232.028 Y88.219
G01 X214.457 Y39.455
G01 X275.375 Y12.986
G01 X264.256 Y5.000
G01 X710.000 Y5.000
G01 X710.000 Y1134.030
G01 X685.860 Y1140.016
G01 X673.729 Y1098.824
G01 X634.977 Y1131.303
G01 X588.949 Y1082.542
G01 X584.344 Y1100.922
G01 X514.011 Y1072.996
G01 X523.396 Y1055.730
G01 X456.803 Y1059.627
G01 X450.747 Y1008.848
G01 X414.222 Y1030.237
G01 X375.624 Y970.309
G01 X374.844 Y980.069
G01 X311.569 Y939.992
G01 X327.634 Y915.505
G01 X266.981 Y907.970
G01 X270.329 Y849.713
G01 X239.366 Y862.033
G01 X211.435 Y793.391
G01 X217.476 Y796.890
G01 X164.346 Y747.337
G01 X189.779 Y718.388
G01 X137.887 Y702.251
G01 X153.098 Y639.643
G01 X130.129 Y645.892
G01 X115.137 Y571.926
G01 X129.995 Y572.407
G01 X89.053 Y516.896
G01 X125.459 Y487.017
G01 X84.030 Y465.845
G01 X112.404 Y402.684
G01 X98.684 Y406.484
G01 X97.678 Y331.143
G01 X122.119 Y332.342
G01 X94.139 Y274.839
G01 X141.841 Y247.934
G01 X111.282 Y225.617
G01 X152.798 Y165.945
G01 X148.266 Y171.106
G01 X160.957 Y98.464
G01 X194.416 Y104.171
G01 X178.832 Y48.641
G01 X236.821 Y28.531
G01 X216.211 Y8.829
G01 X220.110 Y5.000
G01 X710.000 Y5.000
G01 X710.000 Y1107.154
G01 X703.695 Y1108.268
G01 X697.368 Y1073.548
G01 X651.501 Y1106.583
G01 X612.375 Y1058.260
G01 X601.851 Y1083.191
G01 X534.396 Y1050.842
G01 X543.185 Y1042.841
G01 X473.108 Y1042.141
G01 X471.895 Y998.066
G01 X427.667 Y1019.469
G01 X395.374 Y960.233
G01 X387.750 Y976.006
G01 X327.065 Y931.477
G01 X341.459 Y915.974
G01 X277.079 Y903.389
G01 X284.362 Y851.827
G01 X245.218 Y863.402
G01 X223.064 Y795.491
G01 X221.458 Y804.240
G01 X170.735 Y750.020
G01 X193.550 Y729.546
G01 X137.829 Y707.733
G01 X156.193 Y651.606
G01 X124.740 Y656.180
G01 X115.133 Y582.812
G01 X121.735 Y587.599
G01 X83.178 Y527.072
G01 X116.206 Y504.986
G01 X71.047 Y477.397
G01 X101.973 Y420.354
G01 X79.693 Y421.436
G01 X83.866 Y346.454
G01 X99.676 Y350.904
G01 X74.264 Y287.965
G01 X118.058 Y268.068
G01 X84.100 Y238.550
G01 X127.780 Y184.557
G01 X114.867 Y185.925
G01 X132.739 Y113.368
G01 X157.454 Y121.239
G01 X144.841 Y59.861
G01 X198.632 Y45.951
G01 X175.197 Y18.302
G01 X190.816 Y5.000
G01 X710.000 Y5.000
G01 X710.000 Y1052.918
G01 X666.107 Y1079.976
G01 X634.188 Y1033.337
G01 X617.172 Y1063.741
G01 X553.813 Y1027.629
G01 X560.866 Y1028.755
G01 X488.641 Y1023.051
G01 X491.484 Y986.583
G01 X440.131 Y1006.825
G01 X414.373 Y949.577
G01 X399.392 Y970.289
G01 X342.469 Y922.076
G01 X354.056 Y915.386
G01 X287.297 Y897.457
G01 X297.666 Y853.480
G01 X250.973 Y863.206
G01 X234.735 Y797.368
G01 X225.021 Y810.295
G01 X177.811 Y752.276
G01 X196.864 Y740.070
G01 X138.659 Y712.398
G01 X159.254 Y663.618
G01 X119.990 Y665.478
G01 X115.805 Y594.084
G01 X113.726 Y602.106
G01 X78.581 Y537.516
G01 X107.074 Y522.973
G01 X59.509 Y488.885
G01 X91.985 Y438.790
G01 X61.847 Y436.176
G01 X71.123 Y362.945
G01 X77.911 Y369.568
G01 X56.003 Y302.219
G01 X94.713 Y289.025
G01 X58.649 Y252.312
G01 X103.411 Y204.778
G01 X82.841 Y201.423
G01 X105.701 Y130.341
G01 X121.306 Y139.281
G01 X112.503 Y73.137
G01 X160.906 Y65.054
G01 X135.899 Y29.537
G01 X169.378 Y5.000
G01 X710.000 Y5.000
G01 X710.000 Y1035.366
G01 X678.833 Y1051.648
G01 X654.200 Y1007.944
G01 X630.318 Y1042.626
G01 X572.136 Y1003.588
G01 X576.356 Y1013.473
G01 X503.372 Y1002.567
G01 X509.340 Y974.426
G01 X451.642 Y992.420
G01 X432.423 Y938.450
G01 X409.780 Y962.923
G01 X357.646 Y911.958
G01 X365.347 Y913.685
G01 X297.602 Y890.332
G01 X310.077 Y854.639
G01 X256.667 Y861.510
G01 X246.263 Y799.065
G01 X228.191 Y815.010
G01 X185.449 Y754.215
G01 X199.670 Y749.851
G01 X140.358 Y716.352
G01 X162.146 Y675.589
G01 X115.939 Y673.809
G01 X116.994 Y605.731
G01 X106.030 Y615.841
G01 X75.166 Y548.292
G01 X98.055 Y540.827
G01 X49.429 Y500.375
G01 X82.352 Y457.858
G01 X45.249 Y450.695
G01 X59.337 Y380.561
G01 X56.934 Y388.218
G01 X39.301 Y317.627
G01 X71.855 Y310.623
G01 X34.987 Y266.943
G01 X79.658 Y226.442
G01 X52.336 Y217.575
G01 X79.781 Y149.303
G01 X86.140 Y158.170
G01 X81.813 Y88.475
G01 X123.753 Y85.647
G01 X98.424 Y42.565
G01 X154.166 Y7.876
G01 X146.616 Y5.000
G01 X710.000 Y5.000
G01 X710.000 Y1012.963
G01 X689.726 Y1021.790
G01 X672.231 Y982.235
G01 X641.319 Y1019.924
G01 X589.227 Y978.941
G01 X589.598 Y996.999
G01 X517.257 Y980.912
G01 X525.312 Y961.613
G01 X462.229 Y976.397
G01 X449.332 Y926.944
G01 X418.939 Y953.934
G01 X372.449 Y901.286
G01 X375.281 Y910.821
G01 X307.943 Y882.182
G01 X321.450 Y855.260
G01 X262.331 Y858.407
G01 X257.463 Y800.613
G01 X231.006 Y818.363
G01 X193.510 Y755.942
G01 X201.940 Y758.786
G01 X142.888 Y719.710
G01 X164.751 Y687.419
G01 X112.640 Y681.220
G01 X118.543 Y617.723
G01 X98.717 Y628.738
G01 X72.820 Y559.450
G01 X89.160 Y558.399
G01 X40.799 Y511.939
G01 X72.999 Y477.412
G01 X29.985 Y465.004
G01 X48.391 Y399.230
G01 X36.861 Y406.758
G01 X24.086 Y334.202
G01 X49.548 Y332.687
G01 X13.146 Y282.485
G01 X56.501 Y249.372
G01 X23.488 Y234.372
G01 X54.917 Y170.151
G01 X52.128 Y177.796
G01 X52.749 Y105.866
G01 X87.297 Y107.541
G01 X62.854 Y57.419
G01 X116.912 Y29.473
G01 X93.536 Y15.550
G01 X101.368 Y5.000
G01 X710.000 Y5.000
G01 X710.000 Y986.669
G01 X698.833 Y990.613
G01 X688.108 Y956.348
G01 X650.222 Y995.735
G01 X604.946 Y953.904
G01 X600.565 Y979.351
G01 X530.244 Y958.319
G01 X539.270 Y948.156
G01 X471.918 Y958.921
G01 X464.916 Y915.135
G01 X426.908 Y943.374
G01 X386.720 Y890.215
G01 X383.829 Y906.757
G01 X318.256 Y873.183
G01 X331.661 Y855.295
G01 X267.990 Y854.009
G01 X268.154 Y802.025
G01 X233.515 Y820.355
G01 X201.844 Y757.550
G01 X203.665 Y766.785
G01 X146.194 Y722.595
G01 X166.968 Y699.003
G01 X110.134 Y687.776
G01 X120.296 Y630.019
G01 X91.863 Y640.755
G01 X71.416 Y571.030
G01 X80.417 Y575.557
G01 X33.588 Y523.653
G01 X63.866 Y497.298
G01 X16.128 Y479.132
G01 X38.170 Y418.859
G01 X17.807 Y425.114
G01 X10.268 Y351.940
G01 X27.869 Y355.049
G01 X5.000 Y318.135
G01 X5.000 Y291.535
G01 X33.934 Y273.382
G01 X5.000 Y256.753
G01 X5.000 Y237.177
G01 X31.045 Y192.761
G01 X19.436 Y198.068
G01 X25.269 Y125.279
G01 X51.674 Y130.556
G01 X29.243 Y74.123
G01 X80.340 Y52.977
G01 X52.906 Y31.687
G01 X75.943 Y5.000
G01 X710.000 Y5.000
G01 X710.000 Y957.308
G01 X706.202 Y958.351
G01 X701.676 Y930.404
G01 X657.094 Y970.182
G01 X619.145 Y928.680
G01 X609.259 Y960.557
G01 X542.266 Y935.023
G01 X551.111 Y934.060
G01 X480.733 Y940.176
G01 X479.000 Y903.086
G01 X433.738 Y931.318
G01 X400.298 Y878.890
G01 X390.990 Y901.470
G01 X328.462 Y863.515
G01 X340.610 Y854.692
G01 X273.659 Y848.453
G01 X278.168 Y803.302
G01 X235.772 Y821.013
G01 X210.290 Y759.123
G01 X204.856 Y773.774
G01 X150.200 Y725.131
G01 X168.718 Y710.233
G01 X108.446 Y693.565
G01 X122.105 Y642.558
G01 X85.542 Y651.874
G01 X70.814 Y583.059
G01 X71.868 Y592.181
G01 X27.743 Y535.592
G01 X54.910 Y517.361
G01 X5.000 Y493.722
G01 X5.000 Y490.381
G01 X28.565 Y439.341
G01 X5.000 Y442.539
G01 X5.000 Y376.156
G01 X6.906 Y377.557
G01 X5.000 Y373.915
G01 X5.000 Y301.704
G01 X11.967 Y298.283
G01 X5.000 Y293.437
G01 X5.000 Y221.449
G01 X8.108 Y216.990
G01 X5.000 Y217.291
G01 X5.000 Y149.185
G01 X17.030 Y154.523
G01 X5.000 Y116.202
G01 X5.000 Y90.410
G01 X44.516 Y78.180
G01 X14.272 Y49.381
G01 X58.884 Y5.000
G01 X710.000 Y5.000
G01 X710.000 Y906.649
G01 X662.010 Y943.409
G01 X631.678 Y903.460
G01 X615.707 Y940.658
G01 X553.247 Y911.262
G01 X560.763 Y919.330
G01 X488.687 Y920.365
G01 X491.429 Y890.844
G01 X439.485 Y917.867
G01 X413.017 Y867.439
G01 X396.781 Y894.952
G01 X338.466 Y853.360
G01 X348.221 Y853.399
G01 X279.343 Y841.888
G01 X287.348 Y804.429
G01 X237.835 Y820.389
G01 X218.683 Y760.729
G01 X205.542 Y779.696
G01 X154.814 Y727.443
G01 X169.943 Y721.003
G01 X107.589 Y698.686
G01 X123.833 Y655.268
G01 X79.829 Y662.103
G01 X70.869 Y595.548
G01 X63.569 Y608.168
G01 X23.190 Y547.830
G01 X46.109 Y537.447
G01 X5.000 Y513.978
G01 X5.000 Y485.811
G01 X19.475 Y460.552
G01 X5.000 Y460.765
G01 X5.000 Y105.774
G01 X9.526 Y104.874
G01 X5.000 Y99.713
G01 X5.000 Y45.510
G01 X27.189 Y26.673
G01 X8.570 Y24.873
G01 X17.146 Y5.000
G01 X710.000 Y5.000
G01 X710.000 Y886.174
G01 X665.056 Y915.586
G01 X642.401 Y878.414
G01 X619.961 Y919.714
G01 X563.100 Y887.268
G01 X568.180 Y903.970
G01 X495.786 Y899.705
G01 X502.062 Y878.443
G01 X444.214 Y903.146
G01 X424.713 Y855.979
G01 X401.242 Y887.217
G01 X348.162 Y842.894
G01 X354.445 Y851.368
G01 X285.030 Y834.480
G01 X295.552 Y805.382
G01 X239.759 Y818.560
G01 X226.856 Y762.421
G01 X205.767 Y784.515
G01 X159.926 Y729.650
G01 X170.606 Y731.209
G01 X107.555 Y703.253
G01 X125.355 Y668.066
G01 X74.794 Y671.470
G01 X71.428 Y608.490
G01 X55.589 Y623.437
G01 X19.837 Y560.430
G01 X37.457 Y557.405
G01 X5.000 Y535.488
G01 X5.000 Y490.551
G01 X10.810 Y482.358
G01 X5.000 Y481.858
G01 X5.000 Y5.000
G01 X710.000 Y5.000
G01 X710.000 Y862.735
G01 X666.322 Y886.901
G01 X651.177 Y853.698
G01 X622.092 Y897.804
G01 X571.730 Y863.267
G01 X573.347 Y887.990
G01 X502.026 Y878.422
G01 X510.785 Y865.905
G01 X447.986 Y887.300
G01 X435.225 Y844.605
G01 X404.430 Y878.299
G01 X357.431 Y832.287
G01 X359.258 Y848.557
G01 X290.699 Y826.405
G01 X302.661 Y806.123
G01 X241.598 Y815.625
G01 X234.645 Y764.236
G01 X205.588 Y788.215
G01 X165.414 Y731.863
G01 X170.693 Y740.759
G01 X108.320 Y707.390
G01 X126.566 Y680.858
G01 X70.498 Y680.027
G01 X72.342 Y621.862
G01 X48.003 Y637.927
G01 X17.575 Y573.449
G01 X28.968 Y577.093
G01 X5.000 Y558.156
G01 X5.000 Y5.000
G01 X710.000 Y5.000
G01 X710.000 Y837.295
G01 X665.902 Y857.562
G01 X657.879 Y829.445
G01 X622.192 Y875.026
G01 X579.034 Y839.474
G01 X576.275 Y871.404
G01 X507.391 Y856.749
G01 X517.505 Y853.243
G01 X450.865 Y870.498
G01 X444.402 Y833.399
G01 X406.413 Y868.252
G01 X366.146 Y821.700
G01 X362.660 Y844.933
G01 X296.309 Y817.844
G01 X308.574 Y806.611
G01 X243.400 Y811.703
G01 X241.890 Y766.193
G01 X205.073 Y790.805
G01 X171.144 Y734.183
G01 X170.211 Y749.567
G01 X109.841 Y711.224
G01 X127.376 Y693.544
G01 X66.991 Y687.848
G01 X73.463 Y635.626
G01 X40.892 Y651.600
G01 X16.280 Y586.931
G01 X20.670 Y596.378
G01 X5.000 Y581.968
G01 X5.000 Y5.000
G01 X710.000 Y5.000
G01 X710.000 Y810.679
G01 X663.886 Y827.793
G01 X662.393 Y805.769
G01 X620.369 Y851.496
G01 X584.907 Y816.086
G01 X577.006 Y854.240
G01 X511.851 Y834.921
G01 X522.156 Y840.461
G01 X452.906 Y852.925
G01 X452.105 Y822.422
G01 X407.276 Y857.155
G01 X374.174 Y811.277
G01 X364.677 Y840.477
G01 X301.808 Y808.983
G01 X313.216 Y806.797
G01 X245.203 Y806.934
G01 X248.444 Y768.297
G01 X204.295 Y792.318
G01 X176.973 Y736.695
G01 X169.187 Y757.564
G01 X112.057 Y714.886
G01 X127.718 Y706.021
G01 X64.311 Y695.021
G01 X74.653 Y649.727
G01 X34.339 Y664.444
G01 X15.818 Y600.903
G01 X12.613 Y615.144
G01 X5.000 Y607.002
G01 X5.000 Y5.000
G01 X710.000 Y5.000
G01 X710.000 Y783.635
G01 X660.363 Y797.832
G01 X664.624 Y782.766
G01 X616.741 Y827.353
G01 X589.244 Y793.287
G01 X575.607 Y836.533
G01 X515.369 Y813.170
G01 X524.703 Y827.561
G01 X454.159 Y834.782
G01 X458.209 Y811.722
G01 X407.107 Y845.107
G01 X381.380 Y801.149
G01 X365.356 Y835.183
G01 X307.127 Y800.002
G01 X316.539 Y806.632
G01 X247.033 Y801.471
G01 X254.171 Y770.537
G01 X203.331 Y792.808
G01 X182.754 Y739.474
G01 X167.666 Y764.698
G01 X114.888 Y718.502
G01 X127.547 Y718.185
G01 X62.478 Y701.652
G01 X75.782 Y664.094
G01 X28.426 Y676.467
G01 X16.049 Y615.379
G01 X5.000 Y633.060
G01 X5.000 Y5.000
G01 X710.000 Y5.000
G01 X710.000 Y756.866
G01 X655.413 Y767.928
G01 X664.494 Y760.513
G01 X611.433 Y802.755
G01 X591.940 Y771.238
G01 X572.167 Y818.336
G01 X517.894 Y791.722
G01 X525.135 Y814.542
G01 X454.664 Y816.281
G01 X462.610 Y801.327
G01 X406.000 Y832.231
G01 X387.631 Y791.429
G01 X364.765 Y829.063
G01 X312.188 Y791.079
G01 X318.516 Y806.068
G01 X248.905 Y795.483
G01 X258.952 Y772.889
G01 X202.258 Y792.354
G01 X188.338 Y742.572
G01 X165.710 Y770.935
G01 X118.242 Y722.194
G01 X126.840 Y729.939
G01 X61.497 Y707.857
G01 X76.738 Y678.646
G01 X23.230 Y687.702
G01 X16.827 Y630.356
G01 X5.000 Y642.810
G01 X5.000 Y5.000
G01 X710.000 Y5.000
G01 X710.000 Y694.171
G01 X706.294 Y692.641
G01 X710.000 Y708.027
G01 X710.000 Y731.068
G01 X649.108 Y738.333
G01 X661.952 Y739.066
G01 X604.578 Y777.877
G01 X592.898 Y750.083
G01 X566.799 Y799.716
G01 X519.368 Y770.793
G01 X523.473 Y801.404
G01 X454.450 Y797.641
G01 X465.224 Y791.253
G01 X404.052 Y818.669
G01 X392.795 Y782.209
G01 X362.990 Y822.147
G01 X316.897 Y782.381
G01 X319.151 Y805.062
G01 X250.817 Y789.142
G01 X262.691 Y775.316
G01 X201.151 Y791.057
G01 X193.580 Y746.027
G01 X163.393 Y776.261
G01 X122.009 Y726.075
G01 X125.597 Y741.187
G01 X61.356 Y713.761
G01 X77.423 Y693.292
G01 X18.821 Y698.203
G01 X18.009 Y645.810
G01 X5.000 Y656.048
G01 X5.000 Y5.000
G01 X710.000 Y5.000
G01 X710.000 Y668.497
G01 X699.081 Y662.469
G01 X704.922 Y707.136
G01 X641.513 Y709.305
G01 X656.970 Y718.470
G01 X596.307 Y752.912
G01 X592.028 Y729.938
G01 X559.630 Y780.759
G01 X519.725 Y750.585
G01 X519.766 Y788.153
G01 X453.535 Y779.085
G01 X465.993 Y781.506
G01 X401.353 Y804.582
G01 X396.751 Y773.563
G01 X360.129 Y814.487
G01 X321.155 Y774.064
G01 X318.469 Y803.577
G01 X252.755 Y782.629
G01 X265.309 Y777.774
G01 X200.075 Y789.034
G01 X198.339 Y749.860
G01 X160.800 Y780.685
G01 X126.071 Y730.245
G01 X123.839 Y751.848
G01 X62.022 Y719.493
G01 X77.759 Y707.932
G01 X15.256 Y708.044
G01 X19.454 Y661.704
G01 X5.000 Y670.555
G01 X5.000 Y5.000
G01 X710.000 Y5.000
G01 X710.000 Y648.414
G01 X690.224 Y633.783
G01 X691.938 Y684.356
G01 X632.680 Y681.097
G01 X649.548 Y698.754
G01 X586.750 Y728.064
G01 X589.255 Y710.903
G01 X550.805 Y761.565
G01 X518.895 Y731.282
G01 X514.088 Y774.801
G01 X451.924 Y760.838
G01 X464.883 Y772.079
G01 X397.993 Y790.147
G01 X399.389 Y765.546
G01 X356.293 Y806.154
G01 X324.856 Y766.267
G01 X316.523 Y801.590
G01 X254.689 Y776.124
G01 X266.754 Y780.211
G01 X199.091 Y786.424
G01 X202.487 Y754.070
G01 X158.021 Y784.238
G01 X130.301 Y734.790
G01 X121.606 Y761.852
G01 X63.446 Y725.182
G01 X77.690 Y722.463
G01 X12.581 Y717.314
G01 X21.030 Y677.983
G01 X5.000 Y685.663
G01 X5.000 Y5.000
G01 X710.000 Y5.000
G01 X710.000 Y612.966
G01 X700.432 Y628.249
G01 X679.696 Y606.777
G01 X676.582 Y662.126
G01 X622.650 Y653.955
G01 X639.715 Y679.937
G01 X576.031 Y703.552
G01 X584.520 Y693.051
G01 X540.477 Y742.255
G01 X516.807 Y713.050
G01 X506.541 Y761.371
G01 X449.610 Y743.117
G01 X461.890 Y762.961
G01 X394.049 Y775.552
G01 X400.616 Y758.193
G01 X351.599 Y797.240
G01 X327.890 Y759.112
G01 X313.383 Y799.087
G01 X256.575 Y769.802
G01 X266.999 Y782.572
G01 X198.245 Y783.375
G01 X205.908 Y758.645
G01 X155.150 Y786.973
G01 X134.567 Y739.779
G01 X118.959 Y771.144
G01 X65.563 Y730.955
G01 X77.182 Y736.782
G01 X10.827 Y726.119
G01 X22.616 Y694.576
G01 X5.000 Y701.057
G01 X5.000 Y5.000
G01 X710.000 Y5.000
G01 X710.000 Y541.341
G01 X701.751 Y545.202
G01 X710.000 Y545.848
G01 X710.000 Y560.789
G01 X679.546 Y601.678
G01 X667.476 Y581.619
G01 X659.017 Y640.498
G01 X611.455 Y628.118
G01 X627.529 Y662.031
G01 X564.266 Y679.598
G01 X577.780 Y676.435
G01 X528.807 Y722.967
G01 X513.389 Y696.031
G01 X497.248 Y747.897
G01 X446.575 Y726.132
G01 X457.036 Y754.135
G01 X389.592 Y760.996
G01 X400.353 Y751.522
G01 X346.169 Y787.855
G01 X330.150 Y752.702
G01 X309.144 Y796.073
G01 X258.355 Y763.834
G01 X266.041 Y784.804
G01 X197.570 Y780.050
G01 X208.501 Y763.554
G01 X152.283 Y788.965
G01 X138.736 Y745.264
G01 X115.973 Y779.688
G01 X68.288 Y736.929
G01 X76.223 Y750.786
G01 X10.007 Y734.573
G01 X24.105 Y711.401
G01 X5.000 Y716.551
G01 X5.000 Y5.000
G01 X710.000 Y5.000
G01 X710.000 Y504.973
G01 X678.756 Y516.211
G01 X702.143 Y524.853
G01 X657.124 Y575.944
G01 X653.545 Y558.454
G01 X639.428 Y619.534
G01 X599.118 Y603.806
G01 X613.077 Y645.042
G01 X551.562 Y656.431
G01 X569.017 Y661.090
G01 X515.959 Y703.853
G01 X508.577 Y680.346
G01 X486.351 Y734.426
G01 X442.789 Y710.080
G01 X450.370 Y745.587
G01 X384.679 Y746.685
G01 X398.547 Y745.534
G01 X340.123 Y778.129
G01 X331.531 Y747.117
G01 X303.914 Y792.569
G01 X259.959 Y758.376
G01 X263.903 Y786.854
G01 X197.087 Y776.615
G01 X210.188 Y768.754
G01 X149.509 Y790.308
G01 X142.679 Y751.277
G01 X112.737 Y787.468
G01 X71.528 Y743.216
G01 X74.822 Y764.381
G01 X10.115 Y742.800
G01 X25.409 Y728.363
G01 X5.000 Y732.015
G01 X5.000 Y5.000
G01 X690.209 Y5.000
G01 X686.395 Y16.656
G01 X706.357 Y5.000
G01 X710.000 Y5.000
G01 X710.000 Y435.610
G01 X686.727 Y424.826
G01 X706.647 Y475.868
G01 X654.707 Y488.907
G01 X681.532 Y505.054
G01 X633.380 Y551.217
G01 X637.892 Y537.397
G01 X618.018 Y599.307
G01 X585.651 Y581.225
G01 X596.474 Y628.974
G01 X538.014 Y634.279
G01 X558.236 Y647.032
G01 X502.096 Y685.081
G01 X502.311 Y666.089
G01 X474.009 Y721.022
G01 X438.217 Y695.141
G01 X441.969 Y737.301
G01 X379.355 Y732.822
G01 X395.165 Y740.216
G01 X333.580 Y768.209
G01 X331.935 Y742.417
G01 X297.817 Y788.613
G01 X261.311 Y753.574
G01 X260.635 Y788.678
G01 X196.799 Y773.241
G01 X210.911 Y774.194
G01 X146.913 Y791.115
G01 X146.270 Y757.830
G01 X109.348 Y794.486
G01 X75.175 Y749.910
G01 X73.014 Y777.479
G01 X11.131 Y750.923
G01 X26.458 Y745.361
G01 X5.000 Y747.351
G01 X5.000 Y5.000
G01 X662.705 Y5.000
G01 X667.967 Y52.536
G01 X662.527 Y38.942
G01 X699.994 Y92.503
G01 X667.881 Y104.874
G01 X710.000 Y124.140
G01 X710.000 Y132.330
G01 X683.442 Y173.640
G01 X708.699 Y165.493
G01 X704.844 Y232.459
G01 X692.921 Y219.782
G01 X710.000 Y255.648
G01 X710.000 Y278.991
G01 X679.682 Y287.267
G01 X710.000 Y306.634
G01 X710.000 Y319.215
G01 X676.412 Y356.747
G01 X694.742 Y349.517
G01 X679.640 Y415.205
G01 X661.215 Y400.558
G01 X677.573 Y456.922
G01 X629.740 Y463.516
G01 X658.755 Y487.285
G01 X608.526 Y527.680
G01 X620.515 Y518.537
G01 X595.004 Y579.900
G01 X571.064 Y560.555
G01 X577.862 Y613.834
G01 X523.704 Y613.363
G01 X545.467 Y634.262
G01 X487.376 Y666.829
G01 X494.546 Y653.331
G01 X460.394 Y707.763
G01 X432.816 Y681.479
G01 X431.937 Y729.271
G01 X373.651 Y719.613
G01 X390.199 Y735.546
G01 X326.652 Y758.256
G01 X331.276 Y738.643
G01 X290.984 Y784.262
G01 X262.324 Y749.553
G01 X256.306 Y790.239
G01 X196.695 Y770.099
G01 X210.634 Y779.812
G01 X144.569 Y791.515
G01 X149.396 Y764.918
G01 X105.911 Y800.768
G01 X79.114 Y757.091
G01 X70.849 Y790.007
G01 X13.012 Y759.071
G01 X27.203 Y762.288
G01 X5.000 Y762.477
G01 X5.000 Y5.000
G01 X610.989 Y5.000
G01 X611.704 Y39.323
G01 X614.514 Y22.821
G01 X647.856 Y80.253
G01 X620.030 Y85.192
G01 X667.819 Y112.807
G01 X635.388 Y153.311
G01 X667.820 Y149.017
G01 X658.420 Y213.849
G01 X655.093 Y199.158
G01 X677.836 Y259.719
G01 X642.548 Y263.935
G01 X681.377 Y294.876
G01 X639.351 Y333.620
G01 X664.707 Y331.098
G01 X644.261 Y394.773
G01 X634.580 Y379.066
G01 X646.558 Y439.662
G01 X603.981 Y440.256
G01 X633.910 Y471.537
G01 X582.766 Y505.521
G01 X601.428 Y501.933
G01 X570.614 Y561.411
G01 X555.359 Y541.956
G01 X557.409 Y599.631
G01 X508.701 Y593.901
G01 X530.768 Y622.766
G01 X471.951 Y649.284
G01 X485.248 Y642.120
G01 X445.687 Y694.744
G01 X426.541 Y669.233
G01 X420.401 Y721.495
G01 X367.584 Y707.254
G01 X383.670 Y731.492
G01 X319.442 Y748.439
G01 X329.482 Y735.811
G01 X283.555 Y779.594
G01 X262.911 Y746.421
G01 X251.010 Y791.512
G01 X196.749 Y767.352
G01 X209.347 Y785.543
G01 X142.540 Y791.649
G01 X151.956 Y772.519
G01 X102.535 Y806.360
G01 X83.224 Y764.823
G01 X68.397 Y801.905
G01 X15.702 Y767.362
G01 X27.617 Y779.036
G01 X5.000 Y777.322
G01 X5.000 Y5.000
G01 X556.736 Y5.000
G01 X554.979 Y29.019
G01 X566.196 Y10.798
G01 X594.589 Y70.999
G01 X572.097 Y69.049
G01 X620.144 Y102.996
G01 X587.030 Y135.815
G01 X625.705 Y136.226
G01 X611.094 Y197.624
G01 X616.475 Y182.098
G01 X634.309 Y245.530
G01 X604.924 Y243.588
G01 X643.794 Y281.280
G01 X601.671 Y312.733
G01 X633.097 Y315.701
G01 X607.743 Y376.073
G01 X606.875 Y360.480
G01 X613.834 Y424.092
G01 X577.540 Y419.326
G01 X607.121 Y457.790
G01 X556.294 Y484.930
G01 X580.658 Y487.619
G01 X545.083 Y543.949
G01 X538.540 Y525.560
G01 X535.304 Y586.380
G01 X493.064 Y576.092
G01 X514.221 Y612.525
G01 X455.963 Y632.641
G01 X474.403 Y632.479
G01 X430.074 Y682.073
G01 X419.345 Y658.519
G01 X407.506 Y713.983
G01 X361.160 Y695.931
G01 X375.622 Y728.017
G01 X312.040 Y738.937
G01 X326.500 Y733.920
G01 X275.671 Y774.702
G01 X262.983 Y744.265
G01 X244.858 Y792.488
G01 X196.920 Y765.156
G01 X207.066 Y791.322
G01 X140.876 Y791.667
G01 X153.864 Y780.592
G01 X99.326 Y811.328
G01 X87.386 Y773.148
G01 X65.746 Y813.130
G01 X19.126 Y775.912
G01 X27.696 Y795.500
G01 X5.000 Y791.821
G01 X5.000 Y5.000
G01 X501.050 Y5.000
G01 X498.143 Y21.645
G01 X515.531 Y5.000
G01 X518.466 Y5.000
G01 X540.508 Y64.682
G01 X524.266 Y56.579
G01 X571.259 Y96.486
G01 X538.644 Y121.292
G01 X582.474 Y127.095
G01 X563.191 Y183.851
G01 X577.159 Y168.683
G01 X589.542 Y233.721
G01 X566.955 Y226.392
G01 X604.601 Y270.370
G01 X563.605 Y294.258
G01 X599.998 Y303.325
G01 X570.369 Y359.208
G01 X578.152 Y344.900
G01 X579.651 Y410.224
G01 X550.516 Y400.910
G01 X578.539 Y446.011
G01 X529.296 Y466.101
G01 X558.253 Y475.604
G01 X518.645 Y527.636
G01 X520.612 Y511.469
G01 X511.755 Y574.106
G01 X476.837 Y560.123
G01 X495.938 Y603.510
G01 X439.541 Y617.093
G01 X462.015 Y624.410
G01 X413.742 Y669.876
G01 X411.186 Y649.430
G01 X393.420 Y706.757
G01 X354.372 Y685.817
G01 X366.128 Y725.081
G01 X304.525 Y729.935
G01 X322.293 Y732.952
G01 X267.475 Y769.699
G01 X262.453 Y743.147
G01 X237.978 Y793.170
G01 X197.158 Y763.655
G01 X203.830 Y797.082
G01 X139.609 Y791.725
G01 X155.054 Y789.085
G01 X96.386 Y815.759
G01 X91.479 Y782.090
G01 X62.992 Y823.659
G01 X23.197 Y784.822
G01 X27.458 Y811.577
G01 X5.000 Y805.905
G01 X5.000 Y5.000
G01 X445.074 Y5.000
G01 X441.543 Y17.229
G01 X460.277 Y5.000
G01 X470.709 Y5.000
G01 X485.939 Y61.244
G01 X476.706 Y47.891
G01 X521.401 Y93.179
G01 X490.488 Y109.872
G01 X538.263 Y121.568
G01 X515.028 Y172.604
G01 X537.237 Y158.960
G01 X543.839 Y224.276
G01 X528.774 Y212.489
G01 X564.009 Y262.083
G01 X525.370 Y278.361
G01 X565.516 Y293.940
G01 X532.422 Y344.285
G01 X548.463 Y332.394
G01 X544.277 Y398.072
G01 X522.994 Y385.171
G01 X548.343 Y436.160
G01 X501.938 Y449.218
G01 X534.280 Y465.871
G01 X491.536 Y512.600
G01 X501.584 Y499.758
G01 X486.987 Y562.841
G01 X460.056 Y546.161
G01 X476.056 Y595.689
G01 X422.803 Y602.835
G01 X448.111 Y617.897
G01 X396.874 Y658.287
G01 X402.026 Y642.031
G01 X378.321 Y699.853
G01 X347.204 Y677.065
G01 X355.284 Y722.646
G01 X296.961 Y721.614
G01 X316.849 Y732.873
G01 X259.101 Y764.710
G01 X261.242 Y743.111
G01 X230.508 Y793.582
G01 X197.398 Y762.977
G01 X199.702 Y802.766
G01 X138.758 Y791.982
G01 X155.483 Y797.932
G01 X93.813 Y819.755
G01 X95.390 Y791.653
G01 X60.244 Y833.487
G01 X27.817 Y794.180
G01 X26.943 Y827.177
G01 X5.000 Y819.502
G01 X5.000 Y5.000
G01 X390.093 Y5.000
G01 X385.514 Y15.802
G01 X409.002 Y5.000
G01 X421.570 Y5.000
G01 X431.218 Y60.630
G01 X429.565 Y43.069
G01 X470.824 Y92.966
G01 X442.799 Y101.677
G01 X493.222 Y119.563
G01 X466.919 Y163.959
G01 X496.804 Y152.942
G01 X497.511 Y217.184
G01 X490.499 Y201.992
G01 X522.253 Y256.347
G01 X487.167 Y265.199
G01 X529.776 Y287.493
G01 X494.174 Y331.419
G01 X517.870 Y322.998
G01 X507.988 Y387.661
G01 X495.051 Y372.243
G01 X516.731 Y428.194
G01 X474.376 Y434.464
G01 X508.828 Y458.385
G01 X463.983 Y498.979
G01 X481.474 Y490.472
G01 X461.235 Y552.631
G01 X442.746 Y534.348
G01 X454.736 Y589.032
G01 X405.848 Y590.054
G01 X432.739 Y612.906
G01 X379.648 Y647.454
G01 X391.839 Y636.361
G01 X362.401 Y693.319
G01 X339.631 Y669.811
G01 X343.214 Y720.677
G01 X289.396 Y714.153
G01 X310.180 Y733.636
G01 X250.678 Y759.874
G01 X259.281 Y744.173
G01 X222.598 Y793.763
G01 X197.570 Y763.231
G01 X194.767 Y808.321
G01 X138.324 Y792.591
G01 X155.126 Y807.061
G01 X91.690 Y823.432
G01 X99.016 Y801.821
G01 X57.616 Y842.631
G01 X32.877 Y804.060
G01 X26.208 Y842.217
G01 X5.000 Y832.517
G01 X5.000 Y5.000
G01 X337.776 Y5.000
G01 X330.381 Y17.395
G01 X369.684 Y5.000
G01 X372.376 Y5.000
G01 X376.684 Y62.788
G01 X382.980 Y42.165
G01 X419.804 Y95.731
G01 X395.795 Y96.816
G01 X447.521 Y120.974
G01 X419.164 Y157.997
G01 X455.956 Y150.608
G01 X450.878 Y212.441
G01 X452.235 Y194.990
G01 X479.585 Y253.088
G01 X449.179 Y254.915
G01 X492.925 Y283.911
G01 X455.891 Y320.729
G01 X486.438 Y316.715
G01 X471.071 Y379.023
G01 X466.751 Y362.235
G01 X483.926 Y422.066
G01 X446.747 Y422.005
G01 X482.011 Y453.092
G01 X436.206 Y486.919
G01 X460.307 Y483.629
G01 X434.743 Y543.530
G01 X424.927 Y524.801
G01 X432.163 Y583.508
G01 X388.763 Y578.926
G01 X415.975 Y609.389
G01 X362.233 Y637.530
G01 X380.608 Y632.434
G01 X345.858 Y687.221
G01 X331.625 Y664.165
G01 X330.058 Y719.148
G01 X281.864 Y707.723
G01 X302.319 Y735.185
G01 X242.324 Y755.341
G01 X256.513 Y746.330
G01 X214.401 Y793.769
G01 X197.601 Y764.506
G01 X189.133 Y813.706
G01 X138.294 Y793.703
G01 X153.987 Y816.391
G01 X90.092 Y826.920
G01 X102.263 Y812.558
G01 X55.223 Y851.126
G01 X38.264 Y814.513
G01 X25.331 Y856.631
G01 X5.000 Y844.826
G01 X5.000 Y5.000
G01 X290.815 Y5.000
G01 X276.449 Y22.042
G01 X324.279 Y12.693
G01 X322.678 Y67.672
G01 X337.070 Y45.201
G01 X368.628 Y101.353
G01 X349.672 Y95.380
G01 X401.348 Y125.673
G01 X372.048 Y154.797
G01 X414.800 Y151.903
G01 X404.261 Y210.049
G01 X414.079 Y191.535
G01 X436.277 Y252.228
G01 X411.569 Y247.639
G01 X455.129 Y283.099
G01 X417.824 Y312.331
G01 X454.244 Y313.520
G01 X433.815 Y372.198
G01 X438.157 Y355.227
G01 X450.170 Y417.733
G01 X419.170 Y411.994
G01 X453.964 Y449.923
G01 X408.410 Y476.563
G01 X438.126 Y479.217
G01 X407.757 Y535.605
G01 X406.616 Y517.611
G01 X408.539 Y579.094
G01 X371.618 Y569.616
G01 X397.916 Y607.288
G01 X344.784 Y628.673
G01 X368.333 Y630.241
G01 X328.891 Y681.635
G01 X323.154 Y660.213
G01 X315.981 Y718.040
G01 X274.385 Y702.484
G01 X293.328 Y737.457
G01 X234.145 Y751.265
G01 X252.896 Y749.560
G01 X206.072 Y793.675
G01 X197.413 Y766.869
G01 X182.921 Y818.893
G01 X138.637 Y795.456
G01 X152.091 Y825.843
G01 X89.075 Y830.355
G01 X105.058 Y823.813
G01 X53.180 Y859.030
G01 X43.865 Y825.574
G01 X24.404 Y870.367
G01 X5.000 Y856.240
G01 X5.000 Y5.000
G01 X233.766 Y5.000
G01 X247.008 Y11.610
G01 X224.002 Y29.774
G01 X276.660 Y25.093
G01 X269.536 Y75.243
G01 X291.946 Y52.164
G01 X317.599 Y109.712
G01 X304.603 Y97.441
G01 X354.908 Y133.515
G01 X325.837 Y154.436
G01 X373.448 Y156.743
G01 X357.977 Y210.016
G01 X376.122 Y191.651
G01 X392.615 Y253.690
G01 X374.483 Y243.477
G01 X416.575 Y284.952
G01 X380.207 Y306.343
G01 X421.380 Y313.355
G01 X396.505 Y367.235
G01 X409.324 Y351.266
G01 X415.719 Y415.153
G01 X391.752 Y404.565
G01 X424.847 Y448.797
G01 X380.787 Y468.057
G01 X414.988 Y477.198
G01 X380.524 Y528.933
G01 X387.828 Y512.839
G01 X384.084 Y575.773
G01 X354.471 Y562.270
G01 X378.686 Y606.537
G01 X327.444 Y621.043
G01 X355.032 Y629.749
G01 X311.701 Y676.654
G01 X314.189 Y658.015
G01 X301.161 Y717.344
G01 X266.964 Y698.580
G01 X283.291 Y740.388
G01 X226.229 Y747.805
G01 X248.408 Y753.819
G01 X197.762 Y793.571
G01 X196.932 Y770.364
G01 X176.271 Y823.870
G01 X139.311 Y797.978
G01 X149.486 Y835.335
G01 X88.684 Y833.880
G01 X107.341 Y835.519
G01 X51.597 Y866.416
G01 X49.567 Y837.255
G01 X23.529 Y883.394
G01 X5.000 Y866.436
G01 X5.000 Y5.000
G01 X137.254 Y5.000
G01 X144.822 Y19.686
G01 X142.620 Y5.000
G01 X153.740 Y5.000
G01 X195.719 Y30.995
G01 X173.303 Y40.615
G01 X229.591 Y41.218
G01 X217.583 Y85.467
G01 X247.708 Y63.008
G01 X267.028 Y120.689
G01 X260.740 Y103.048
G01 X308.424 Y144.342
G01 X280.778 Y156.984
G01 X332.025 Y165.012
G01 X312.337 Y212.355
G01 X338.446 Y195.326
G01 X348.894 Y257.402
G01 X338.046 Y242.513
G01 X377.473 Y289.349
G01 X343.255 Y302.876
G01 X387.949 Y316.138
G01 X359.423 Y364.189
G01 X380.307 Y350.368
G01 X380.842 Y414.293
G01 X364.580 Y399.830
G01 X394.841 Y449.628
G01 X353.512 Y461.540
G01 X390.965 Y477.512
G01 X353.283 Y523.600
G01 X368.580 Y510.515
G01 X359.030 Y573.538
G01 X337.365 Y557.014
G01 X358.433 Y607.067
G01 X310.337 Y614.796
G01 X340.742 Y630.906
G01 X294.481 Y672.379
G01 X304.702 Y657.603
G01 X285.787 Y717.066
G01 X259.596 Y696.135
G01 X272.317 Y743.910
G01 X218.653 Y745.116
G01 X243.048 Y759.050
G01 X189.619 Y793.561
G01 X196.088 Y775.009
G01 X169.331 Y828.638
G01 X140.262 Y801.377
G01 X146.245 Y844.792
G01 X88.942 Y837.637
G01 X109.075 Y847.599
G01 X50.575 Y873.374
G01 X55.260 Y849.550
G01 X22.819 Y895.698
G01 X5.000 Y874.794
G01 X5.000 Y5.000
G01 X38.210 Y5.000
G01 X33.000 Y20.416
G01 X54.301 Y5.000
G01 X77.108 Y5.000
G01 X91.551 Y42.421
G01 X94.850 Y15.284
G01 X145.233 Y53.397
G01 X124.586 Y54.585
G01 X183.212 Y60.887
G01 X167.133 Y98.314
G01 X204.451 Y77.652
G01 X217.229 Y134.167
G01 X218.214 Y112.223
G01 X262.135 Y157.984
G01 X237.092 Y162.506
G01 X290.670 Y176.569
G01 X267.641 Y217.087
G01 X301.135 Y202.515
G01 X305.419 Y263.297
G01 X302.368 Y244.808
G01 X338.049 Y296.164
G01 X307.164 Y302.031
G01 X354.074 Y321.763
G01 X322.840 Y363.122
G01 X351.165 Y352.516
G01 X345.818 Y415.126
G01 X337.730 Y397.875
G01 X364.148 Y452.321
G01 X326.740 Y457.146
G01 X366.151 Y480.075
G01 X326.268 Y519.701
G01 X348.893 Y510.642
G01 X333.620 Y572.390
G01 X320.332 Y553.949
G01 X337.323 Y608.807
G01 X293.573 Y610.081
G01 X325.519 Y633.642
G01 X277.417 Y668.922
G01 X294.676 Y658.985
G01 X270.061 Y717.225
G01 X252.265 Y695.254
G01 X260.536 Y747.963
G01 X211.472 Y743.352
G01 X236.835 Y765.179
G01 X181.779 Y793.760
G01 X194.819 Y780.802
G01 X162.258 Y833.217
G01 X141.429 Y805.743
G01 X142.461 Y854.145
G01 X89.858 Y841.765
G01 X110.244 Y859.963
G01 X50.206 Y880.010
G01 X60.846 Y862.429
G01 X22.393 Y907.285
G01 X5.000 Y879.859
G01 X5.000 Y32.337
G01 X27.572 Y19.457
G01 X39.961 Y67.614
G01 X50.326 Y36.790
G01 X95.798 Y78.594
G01 X78.059 Y71.690
G01 X137.673 Y83.896
G01 X118.481 Y113.759
G01 X162.267 Y95.984
G01 X168.518 Y150.038
G01 X177.136 Y124.961
G01 X216.294 Y174.269
G01 X194.977 Y171.051
G01 X249.534 Y191.249
G01 X224.171 Y224.234
G01 X264.271 Y213.139
G01 X262.493 Y271.313
G01 X267.544 Y250.389
G01 X298.546 Y305.266
G01 X272.106 Y303.900
G01 X319.891 Y330.099
G01 X287.014 Y364.099
G01 X321.958 Y357.663
G01 X310.926 Y417.633
G01 X311.266 Y398.757
G01 X332.988 Y456.783
G01 X300.607 Y454.995
G01 X340.659 Y484.788
G01 X299.698 Y517.332
G01 X328.798 Y513.192
G01 X308.099 Y572.344
G01 X303.395 Y553.153
G01 X315.546 Y611.688
G01 X277.241 Y607.038
G01 X309.445 Y637.872
G01 X260.683 Y666.404
G01 X284.100 Y662.140
G01 X254.185 Y717.851
G01 X244.948 Y696.016
G01 X248.098 Y752.488
G01 X204.728 Y742.656
G01 X229.811 Y772.126
G01 X174.367 Y794.293
G01 X193.077 Y787.715
G01 X155.213 Y837.643
G01 X142.742 Y811.147
G01 X138.247 Y863.335
G01 X91.423 Y846.396
G01 X110.856 Y872.518
G01 X50.567 Y886.438
G01 X66.238 Y875.845
G01 X22.368 Y918.180
G01 X8.597 Y885.568
G01 X5.000 Y901.947
G01 X5.000 Y67.516
G01 X8.004 Y61.853
G01 X47.673 Y106.362
G01 X33.901 Y91.924
G01 X93.137 Y110.019
G01 X71.903 Y131.777
G01 X121.245 Y117.856
G01 X121.208 Y168.200
G01 X137.602 Y141.225
G01 X171.166 Y193.018
G01 X154.604 Y182.654
G01 X208.782 Y208.869
G01 X182.193 Y233.819
G01 X227.941 Y227.088
G01 X220.421 Y281.397
G01 X233.653 Y259.258
G01 X259.221 Y316.525
G01 X238.231 Y308.554
G01 X285.557 Y341.003
G01 X252.185 Y367.187
G01 X292.755 Y365.728
G01 X276.448 Y421.804
G01 X285.242 Y402.508
G01 X301.598 Y462.922
G01 X275.229 Y455.193
G01 X314.622 Y491.535
G01 X273.777 Y516.596
G01 X308.335 Y518.109
G01 X282.714 Y573.423
G01 X286.572 Y554.674
G01 X293.306 Y615.647
G01 X261.414 Y605.792
G01 X292.620 Y643.501
G01 X244.439 Y664.945
G01 X272.979 Y667.023
G01 X238.366 Y718.992
G01 X237.620 Y698.476
G01 X235.172 Y757.439
G01 X198.444 Y743.158
G01 X222.043 Y779.802
G01 X167.493 Y795.290
G01 X190.826 Y795.702
G01 X148.355 Y841.970
G01 X144.130 Y817.633
G01 X133.730 Y872.316
G01 X93.612 Y851.654
G01 X110.941 Y885.167
G01 X51.719 Y892.781
G01 X71.363 Y889.735
G01 X22.863 Y928.430
G01 X16.937 Y898.731
G01 X5.000 Y934.001
G01 X5.000 Y120.523
G01 X49.777 Y139.016
G01 X27.647 Y152.347
G01 X81.477 Y143.091
G01 X75.602 Y188.558
G01 X99.691 Y160.949
G01 X127.024 Y214.057
G01 X116.120 Y197.332
G01 X168.596 Y229.228
G01 X141.949 Y245.864
G01 X192.237 Y244.222
G01 X179.500 Y293.503
G01 X200.766 Y271.382
G01 X220.343 Y329.810
G01 X205.669 Y316.050
G01 X251.245 Y354.313
G01 X218.574 Y372.451
G01 X263.635 Y376.607
G01 X242.660 Y427.639
G01 X259.704 Y409.123
G01 X270.226 Y470.649
G01 X250.704 Y457.824
G01 X288.195 Y500.191
G01 X248.691 Y517.591
G01 X287.555 Y525.312
G01 X257.708 Y575.663
G01 X269.875 Y558.530
G01 X270.823 Y620.627
G01 X246.149 Y606.449
G01 X275.169 Y650.426
G01 X228.826 Y664.670
G01 X261.332 Y673.568
G01 X222.803 Y720.705
G01 X230.253 Y702.662
G01 X221.939 Y762.777
G01 X192.629 Y744.974
G01 X213.619 Y788.112
G01 X161.250 Y796.884
G01 X188.048 Y804.696
G01 X141.839 Y846.264
G01 X145.522 Y825.225
G01 X129.054 Y881.054
G01 X96.386 Y857.645
G01 X110.551 Y897.814
G01 X53.707 Y899.167
G01 X76.166 Y904.017
G01 X23.988 Y938.097
G01 X25.525 Y912.439
G01 X5.000 Y957.112
G01 X5.000 Y169.154
G01 X7.778 Y170.631
G01 X5.000 Y171.243
G01 X5.000 Y174.120
G01 X43.058 Y171.484
G01 X31.992 Y211.027
G01 X63.470 Y184.033
G01 X84.147 Y237.214
G01 X79.646 Y215.080
G01 X129.170 Y252.115
G01 X103.657 Y260.389
G01 X157.257 Y264.373
G01 X140.015 Y307.595
G01 X168.945 Y286.697
G01 X182.185 Y344.998
G01 X174.524 Y326.420
G01 X217.145 Y369.860
G01 X186.379 Y379.951
G01 X234.687 Y390.165
G01 X209.829 Y435.144
G01 X234.695 Y418.572
G01 X239.131 Y479.882
G01 X227.110 Y462.955
G01 X261.548 Y510.621
G01 X224.606 Y520.414
G01 X266.528 Y534.696
G01 X233.315 Y579.107
G01 X253.317 Y564.712
G01 X248.324 Y626.581
G01 X231.486 Y609.098
G01 X257.236 Y658.540
G01 X213.969 Y665.699
G01 X249.195 Y681.688
G01 X207.692 Y723.060
G01 X222.821 Y708.574
G01 X208.591 Y768.479
G01 X187.279 Y748.200
G01 X204.650 Y796.966
G01 X155.715 Y799.206
G01 X184.742 Y814.614
G01 X135.816 Y850.607
G01 X146.851 Y833.920
G01 X124.368 Y889.535
G01 X99.692 Y864.462
G01 X109.760 Y910.366
G01 X56.558 Y905.722
G01 X80.611 Y918.601
G01 X25.847 Y947.260
G01 X34.253 Y926.672
G01 X5.181 Y976.123
G01 X5.000 Y975.907
G01 X5.000 Y202.772
G01 X6.091 Y202.804
G01 X5.000 Y205.117
G01 X5.000 Y226.104
G01 X28.998 Y210.345
G01 X42.816 Y262.322
G01 X45.279 Y235.870
G01 X90.711 Y277.311
G01 X67.508 Y277.405
G01 X123.110 Y287.349
G01 X102.239 Y323.639
G01 X138.245 Y305.107
G01 X145.028 Y361.970
G01 X144.884 Y339.673
G01 X183.462 Y387.468
G01 X155.775 Y389.740
G01 X206.013 Y406.247
G01 X178.207 Y444.332
G01 X210.257 Y430.789
G01 X208.575 Y490.548
G01 X204.508 Y470.625
G01 X234.874 Y522.688
G01 X201.667 Y525.153
G01 X245.335 Y546.136
G01 X209.759 Y583.807
G01 X236.912 Y573.180
G01 X226.046 Y633.472
G01 X217.450 Y613.801
G01 X238.986 Y667.735
G01 X199.971 Y668.144
G01 X236.623 Y691.276
G01 X193.215 Y726.136
G01 X215.302 Y716.188
G01 X195.326 Y774.530
G01 X182.378 Y752.911
G01 X195.266 Y806.272
G01 X150.944 Y802.382
G01 X180.929 Y825.360
G01 X130.421 Y855.092
G01 X148.056 Y843.692
G01 X119.831 Y897.756
G01 X103.470 Y872.175
G01 X108.662 Y922.737
G01 X60.279 Y912.572
G01 X84.682 Y933.383
G01 X28.529 Y956.011
G01 X43.021 Y941.390
G01 X8.101 Y989.249
G01 X5.000 Y983.939
G01 X5.000 Y284.108
G01 X13.094 Y259.647
G01 X53.437 Y304.593
G01 X33.666 Y296.912
G01 X89.918 Y312.935
G01 X66.425 Y341.610
G01 X108.721 Y326.484
G01 X109.148 Y380.617
G01 X116.816 Y355.789
G01 X150.416 Y406.958
G01 X126.910 Y401.860
G01 X177.729 Y424.677
G01 X148.033 Y455.223
G01 X186.431 Y445.680
G01 X178.822 Y502.584
G01 X182.947 Y480.848
G01 X208.376 Y536.254
G01 X179.996 Y531.884
G01 X224.079 Y559.489
G01 X187.248 Y589.820
G01 X220.679 Y583.865
G01 X204.224 Y641.273
G01 X204.058 Y620.595
G01 X220.599 Y677.905
G01 X186.917 Y672.110
G01 X223.691 Y702.215
G01 X179.541 Y730.018
G01 X207.685 Y725.449
G01 X182.345 Y780.935
G01 X177.900 Y759.157
G01 X185.617 Y815.946
G01 X146.977 Y806.528
G01 X176.651 Y836.826
G01 X125.778 Y859.820
G01 X149.087 Y854.494
G01 X115.602 Y905.735
G01 X107.649 Y880.835
G01 X107.371 Y934.852
G01 X64.862 Y919.832
G01 X88.387 Y948.255
G01 X32.111 Y964.452
G01 X51.741 Y956.536
G01 X11.552 Y1001.568
G01 X5.000 Y982.181
G01 X5.000 Y316.422
G01 X17.574 Y333.737
G01 X5.000 Y321.552
G01 X5.000 Y319.985
G01 X57.809 Y340.901
G01 X32.801 Y361.485
G01 X80.426 Y350.670
G01 X74.818 Y400.839
G01 X90.371 Y374.721
G01 X118.235 Y428.153
G01 X99.909 Y416.339
G01 X149.968 Y445.263
G01 X119.523 Y467.838
G01 X163.265 Y463.120
G01 X150.131 Y515.935
G01 X162.460 Y493.608
G01 X182.275 Y551.183
G01 X159.692 Y540.672
G01 X202.876 Y574.597
G01 X165.972 Y597.207
G01 X204.646 Y596.672
G01 X183.094 Y649.971
G01 X191.315 Y629.492
G01 X202.272 Y688.951
G01 X174.869 Y677.686
G01 X210.492 Y714.375
G01 X166.823 Y734.797
G01 X199.967 Y736.283
G01 X169.848 Y787.707
G01 X173.814 Y766.962
G01 X175.864 Y825.914
G01 X143.832 Y811.750
G01 X171.972 Y848.898
G01 X121.995 Y864.898
G01 X149.907 Y866.255
G01 X111.839 Y913.504
G01 X112.156 Y890.469
G01 X106.012 Y946.647
G01 X70.279 Y927.608
G01 X91.754 Y963.107
G01 X36.653 Y972.694
G01 X60.339 Y972.033
G01 X15.649 Y1013.116
G01 X13.596 Y986.104
G01 X5.000 Y1020.289
G01 X5.000 Y359.670
G01 X26.927 Y371.003
G01 X5.000 Y381.588
G01 X5.000 Y382.861
G01 X53.417 Y377.482
G01 X42.301 Y422.548
G01 X65.586 Y396.392
G01 X87.157 Y450.878
G01 X74.869 Y433.187
G01 X122.874 Y467.801
G01 X92.870 Y482.198
G01 X140.811 Y482.960
G01 X122.755 Y530.558
G01 X143.071 Y508.862
G01 X156.798 Y567.345
G01 X140.831 Y551.560
G01 X181.864 Y591.295
G01 X146.099 Y606.027
G01 X188.851 Y611.481
G01 X162.884 Y659.563
G01 X179.220 Y640.473
G01 X184.211 Y700.779
G01 X163.874 Y684.944
G01 X197.142 Y727.618
G01 X155.193 Y740.562
G01 X192.159 Y748.590
G01 X158.027 Y794.876
G01 X170.086 Y776.326
G01 X166.186 Y836.109
G01 X141.514 Y818.135
G01 X166.975 Y861.460
G01 X119.160 Y870.435
G01 X150.493 Y878.887
G01 X108.695 Y921.110
G01 X116.918 Y901.078
G01 X104.724 Y958.072
G01 X76.488 Y935.993
G01 X94.834 Y977.827
G01 X42.196 Y980.851
G01 X68.758 Y987.790
G01 X20.500 Y1023.946
G01 X26.009 Y1000.700
G01 X6.802 Y1052.963
G01 X5.000 Y1051.315
G01 X5.000 Y406.769
G01 X27.755 Y406.707
G01 X11.846 Y445.661
G01 X42.488 Y420.696
G01 X57.423 Y474.967
G01 X51.865 Y452.394
G01 X96.608 Y492.078
G01 X68.243 Y498.321
G01 X119.132 Y505.024
G01 X96.934 Y546.417
G01 X124.798 Y526.534
G01 X132.178 Y584.619
G01 X123.471 Y564.574
G01 X161.193 Y609.408
G01 X127.776 Y616.338
G01 X173.341 Y628.148
G01 X143.811 Y670.056
G01 X167.771 Y653.490
G01 X166.630 Y713.308
G01 X153.956 Y693.936
G01 X183.772 Y741.805
G01 X144.762 Y747.402
G01 X184.287 Y762.251
G01 X147.068 Y802.481
G01 X166.681 Y787.221
G01 X156.764 Y846.481
G01 X140.011 Y825.755
G01 X161.764 Y874.393
G01 X117.343 Y876.540
G01 X150.841 Y892.285
G01 X106.312 Y928.614
G01 X121.862 Y912.643
G01 X103.656 Y969.093
G01 X83.432 Y945.061
G01 X97.696 Y992.308
G01 X48.763 Y989.036
G01 X76.957 Y1003.701
G01 X26.203 Y1034.127
G01 X38.658 Y1015.671
G01 X13.335 Y1067.338
G01 X5.000 Y1056.571
G01 X5.000 Y457.224
G01 X21.095 Y447.495
G01 X29.276 Y500.262
G01 X30.947 Y473.928
G01 X71.341 Y517.879
G01 X45.785 Y516.220
G01 X98.300 Y529.116
G01 X72.892 Y563.489
G01 X107.656 Y546.520
G01 X108.654 Y602.892
G01 X107.648 Y579.713
G01 X141.030 Y628.762
G01 X111.125 Y628.190
G01 X158.181 Y646.511
G01 X126.080 Y681.466
G01 X156.963 Y668.470
G01 X149.747 Y726.467
G01 X145.127 Y704.692
G01 X170.532 Y756.794
G01 X135.622 Y755.398
G01 X176.394 Y777.132
G01 X137.142 Y810.573
G01 X163.567 Y799.591
G01 X147.788 Y856.990
G01 X139.296 Y834.656
G01 X156.462 Y887.584
G01 X116.594 Y883.314
G01 X150.965 Y906.330
G01 X104.822 Y936.090
G01 X126.922 Y925.118
G01 X102.959 Y979.693
G01 X91.046 Y954.867
G01 X100.432 Y1006.450
G01 X56.357 Y997.362
G01 X84.918 Y1019.655
G01 X32.846 Y1043.741
G01 X51.438 Y1030.969
G01 X20.354 Y1080.729
G01 X6.128 Y1051.744
G01 X8.853 Y1100.107
G01 X5.000 Y1098.832
G01 X5.000 Y520.185
G01 X12.145 Y497.732
G01 X47.255 Y544.987
G01 X25.608 Y535.900
G01 X78.398 Y555.023
G01 X50.835 Y581.753
G01 X91.655 Y568.689
G01 X86.459 Y622.064
G01 X93.381 Y596.956
G01 X121.556 Y649.182
G01 X96.241 Y641.625
G01 X143.448 Y666.391
G01 X109.875 Y693.816
G01 X146.795 Y685.309
G01 X133.779 Y740.196
G01 X137.383 Y717.217
G01 X157.587 Y772.450
G01 X127.840 Y764.625
G01 X168.540 Y793.082
G01 X128.403 Y819.207
G01 X160.720 Y813.357
G01 X139.448 Y867.613
G01 X139.335 Y844.865
G01 X151.209 Y900.923
G01 X116.940 Y890.853
G01 X150.898 Y920.894
G01 X104.339 Y943.618
G01 X132.042 Y938.435
G01 X102.786 Y989.871
G01 X99.252 Y965.445
G01 X103.147 Y1020.163
G01 X64.963 Y1005.931
G01 X92.643 Y1035.529
G01 X40.497 Y1052.880
G01 X64.256 Y1046.526
G01 X27.971 Y1093.146
G01 X21.971 Y1065.352
G01 X18.900 Y1116.815
G01 X5.000 Y1110.006
G01 X5.000 Y539.937
G01 X24.543 Y573.190
G01 X7.800 Y557.351
G01 X59.522 Y582.516
G01 X30.944 Y601.195
G01 X76.811 Y592.881
G01 X65.821 Y642.045
G01 X80.675 Y616.251
G01 X102.961 Y670.498
G01 X83.198 Y656.671
G01 X129.235 Y687.598
G01 X95.362 Y707.131
G01 X137.272 Y703.879
G01 X118.940 Y754.450
G01 X130.710 Y731.489
G01 X145.114 Y788.642
G01 X121.461 Y775.140
G01 X160.803 Y809.944
G01 X120.988 Y828.447
G01 X158.122 Y828.415
G01 X131.928 Y878.338
G01 X140.082 Y856.381
G01 X146.155 Y914.314
G01 X118.392 Y899.237
G01 X150.693 Y935.842
G01 X104.962 Y951.285
G01 X137.174 Y952.507
G01 X103.286 Y999.642
G01 X107.971 Y976.806
G01 X105.961 Y1033.369
G01 X74.546 Y1014.837
G01 X100.154 Y1051.203
G01 X49.212 Y1061.646
G01 X77.032 Y1062.257
G01 X36.297 Y1104.618
G01 X38.313 Y1079.194
G01 X29.131 Y1132.448
G01 X5.000 Y1115.668
G01 X5.000 Y1125.819
G01 X15.053 Y1143.179
G01 X5.000 Y1143.878
G01 X5.000 Y588.404
G01 X41.779 Y611.358
G01 X13.376 Y621.803
G01 X63.141 Y618.911
G01 X46.961 Y662.760
G01 X69.521 Y637.520
G01 X85.443 Y692.548
G01 X72.043 Y673.341
G01 X115.649 Y709.933
G01 X82.683 Y721.442
G01 X128.406 Y724.027
G01 X105.434 Y769.196
G01 X125.085 Y747.460
G01 X133.297 Y805.247
G01 X116.510 Y786.987
G01 X153.277 Y827.553
G01 X115.012 Y838.356
G01 X155.769 Y844.641
G01 X125.407 Y889.170
G01 X141.489 Y869.179
G01 X141.464 Y927.667
G01 X120.939 Y908.534
G01 X150.424 Y951.035
G01 X106.768 Y959.183
G01 X142.288 Y967.225
G01 X104.603 Y1009.037
G01 X117.119 Y988.936
G01 X109.006 Y1046.005
G01 X85.057 Y1024.158
G01 X107.494 Y1066.553
G01 X59.024 Y1070.142
G01 X89.702 Y1078.063
G01 X45.432 Y1115.190
G01 X55.033 Y1093.256
G01 X39.642 Y1146.953
G01 X13.216 Y1120.751
G01 X29.475 Y1161.224
G01 X5.000 Y1160.000
G01 X5.000 Y625.424
G01 X25.291 Y641.307
G01 X5.000 Y643.003
G01 X5.000 Y643.953
G01 X50.670 Y646.573
G01 X30.080 Y684.142
G01 X59.903 Y660.658
G01 X69.201 Y715.179
G01 X62.800 Y691.627
G01 X102.814 Y733.193
G01 X71.955 Y736.775
G01 X120.218 Y745.581
G01 X93.452 Y784.411
G01 X120.478 Y765.054
G01 X122.327 Y822.157
G01 X112.990 Y800.192
G01 X146.076 Y845.743
G01 X110.566 Y848.997
G01 X153.668 Y861.890
G01 X120.051 Y900.126
G01 X143.506 Y883.207
G01 X137.304 Y940.910
G01 X124.556 Y918.793
G01 X150.182 Y966.337
G01 X109.813 Y967.399
G01 X147.366 Y982.468
G01 X106.868 Y1018.102
G01 X126.615 Y1001.799
G01 X112.419 Y1058.022
G01 X96.430 Y1033.956
G01 X114.726 Y1081.462
G01 X69.947 Y1078.473
G01 X102.221 Y1093.830
G01 X55.468 Y1124.925
G01 X72.013 Y1107.506
G01 X50.533 Y1160.297
G01 X32.105 Y1132.639
G01 X43.835 Y1178.257
G01 X5.000 Y1171.260
G01 X5.000 Y1174.252
G01 X23.580 Y1183.582
G01 X5.000 Y1192.517
G01 X5.000 Y667.064
G01 X10.185 Y672.118
G01 X5.000 Y670.921
G01 X5.000 Y669.763
G01 X39.431 Y675.642
G01 X15.367 Y706.138
G01 X51.798 Y685.532
G01 X54.440 Y738.251
G01 X55.472 Y711.503
G01 X90.863 Y757.173
G01 X63.269 Y753.153
G01 X112.744 Y768.351
G01 X83.170 Y800.085
G01 X116.861 Y784.168
G01 X112.399 Y839.274
G01 X110.889 Y814.757
G01 X139.327 Y864.347
G01 X107.719 Y860.427
G01 X151.842 Y880.003
G01 X116.014 Y911.231
G01 X146.082 Y898.387
G01 X133.848 Y953.982
G01 X129.200 Y930.041
G01 X150.074 Y981.614
G01 X114.134 Y976.018
G01 X152.411 Y998.100
G01 X110.201 Y1026.894
G01 X136.381 Y1015.336
G01 X116.342 Y1069.392
G01 X108.589 Y1044.273
G01 X121.931 Y1095.818
G01 X81.977 Y1086.740
G01 X114.560 Y1109.437
G01 X66.483 Y1133.898
G01 X89.142 Y1121.889
G01 X61.911 Y1172.467
G01 X51.707 Y1144.534
G01 X58.182 Y1194.181
G01 X15.143 Y1179.997
G01 X42.791 Y1201.617
G01 X5.000 Y1214.834
G01 X5.000 Y1209.655
G01 X10.044 Y1206.154
G01 X5.000 Y1213.052
G01 X5.000 Y698.866
G01 X29.466 Y705.879
G01 X5.000 Y726.967
G01 X5.000 Y727.905
G01 X45.179 Y711.982
G01 X41.355 Y761.637
G01 X50.043 Y732.918
G01 X79.943 Y781.674
G01 X56.688 Y770.592
G01 X106.029 Y792.131
G01 X74.743 Y816.214
G01 X114.204 Y804.675
G01 X103.701 Y856.515
G01 X110.175 Y830.663
G01 X133.169 Y883.206
G01 X106.515 Y872.694
G01 X150.329 Y898.809
G01 X113.428 Y922.522
G01 X149.174 Y914.620
G01 X131.265 Y966.840
G01 X134.819 Y942.284
G01 X150.224 Y996.741
G01 X119.743 Y985.118
G01 X157.443 Y1013.976
G01 X114.703 Y1035.478
G01 X146.348 Y1029.464
G01 X120.917 Y1080.099
G01 X121.447 Y1055.133
G01 X129.206 Y1109.522
G01 X95.088 Y1095.037
G01 X126.714 Y1124.755
G01 X78.541 Y1142.197
G01 X106.319 Y1136.334
G01 X73.882 Y1183.469
G01 X71.899 Y1156.463
G01 X72.581 Y1208.907
G01 X35.619 Y1189.952
G01 X61.819 Y1218.804
G01 X9.212 Y1230.541
G01 X33.937 Y1223.308
G01 X5.000 Y1254.984
G01 X5.000 Y730.547
G01 X20.830 Y737.032
G01 X5.000 Y745.455
G01 X5.000 Y748.759
G01 X40.022 Y739.826
G01 X30.136 Y785.224
G01 X46.479 Y755.797
G01 X70.209 Y806.501
G01 X52.250 Y789.094
G01 X100.135 Y816.708
G01 X68.305 Y832.802
G01 X112.480 Y826.422
G01 X96.418 Y873.810
G01 X110.809 Y847.865
G01 X127.754 Y902.166
G01 X106.975 Y885.838
G01 X149.185 Y918.127
G01 X112.407 Y934.040
G01 X152.744 Y931.780
G01 X129.723 Y979.454
G01 X141.349 Y955.503
G01 X150.766 Y1011.600
G01 X126.633 Y994.763
G01 X162.498 Y1029.946
G01 X120.457 Y1043.928
G01 X156.457 Y1044.081
G01 X126.280 Y1090.148
G01 X134.911 Y1066.534
G01 X136.661 Y1122.486
G01 X109.235 Y1103.449
G01 X138.696 Y1139.655
G01 X91.683 Y1149.915
G01 X123.456 Y1150.749
G01 X86.545 Y1193.330
G01 X92.551 Y1168.432
G01 X87.109 Y1222.367
G01 X57.050 Y1199.541
G01 X80.647 Y1235.021
G01 X29.548 Y1239.932
G01 X57.780 Y1239.889
G01 X15.134 Y1277.325
G01 X19.439 Y1249.761
G01 X7.839 Y1300.072
G01 X5.000 Y1297.557
G01 X5.000 Y764.161
G01 X13.585 Y768.844
G01 X5.000 Y770.865
G01 X5.000 Y772.906
G01 X36.302 Y768.857
G01 X20.962 Y808.916
G01 X44.733 Y780.041
G01 X61.820 Y831.471
G01 X49.966 Y808.651
G01 X95.133 Y841.861
G01 X63.964 Y849.857
G01 X111.670 Y849.236
G01 X90.724 Y891.106
G01 X112.736 Y866.294
G01 X123.239 Y921.086
G01 X109.095 Y899.880
G01 X148.479 Y937.775
G01 X113.043 Y945.831
G01 X156.764 Y949.725
G01 X129.377 Y991.811
G01 X148.723 Y969.655
G01 X151.845 Y1026.089
G01 X134.777 Y1005.005
G01 X167.635 Y1045.856
G01 X127.524 Y1052.319
G01 X166.661 Y1059.068
G01 X132.561 Y1099.558
G01 X148.886 Y1078.452
G01 X144.413 Y1134.637
G01 X124.358 Y1112.045
G01 X150.538 Y1154.007
G01 X105.936 Y1157.151
G01 X140.480 Y1165.029
G01 X99.994 Y1202.092
G01 X113.534 Y1180.427
G01 X101.855 Y1234.508
G01 X79.335 Y1208.844
G01 X99.279 Y1250.152
G01 X50.951 Y1248.374
G01 X81.470 Y1255.797
G01 X35.500 Y1287.781
G01 X47.043 Y1264.150
G01 X29.103 Y1314.497
G01 X5.171 Y1284.454
G01 X19.852 Y1323.620
G01 X5.000 Y1321.284
G01 X5.000 Y799.085
G01 X7.806 Y801.055
G01 X5.000 Y800.888
G01 X5.000 Y799.186
G01 X34.002 Y798.851
G01 X13.996 Y832.628
G01 X44.749 Y805.525
G01 X54.940 Y856.413
G01 X49.822 Y829.237
G01 X91.111 Y867.367
G01 X61.801 Y867.386
G01 X111.764 Y872.923
G01 X86.777 Y908.362
G01 X115.900 Y885.854
G01 X119.787 Y939.838
G01 X112.853 Y914.828
G01 X148.299 Y957.565
G01 X115.401 Y957.937
G01 X161.219 Y968.292
G01 X130.373 Y1003.911
G01 X156.867 Y984.673
G01 X153.610 Y1040.118
G01 X144.129 Y1015.877
G01 X172.927 Y1061.556
G01 X135.946 Y1060.729
G01 X176.930 Y1074.289
G01 X139.877 Y1108.364
G01 X163.277 Y1090.840
G01 X152.590 Y1145.920
G01 X140.379 Y1120.881
G01 X162.294 Y1167.687
G01 X121.304 Y1164.003
G01 X157.337 Y1179.058
G01 X114.313 Y1209.814
G01 X134.724 Y1192.413
G01 X116.912 Y1245.298
G01 X102.360 Y1217.923
G01 X117.741 Y1264.089
G01 X73.385 Y1255.979
G01 X104.923 Y1270.922
G01 X56.729 Y1296.726
G01 X74.809 Y1278.017
G01 X50.732 Y1327.069
G01 X34.756 Y1296.041
G01 X44.487 Y1340.038
G01 X5.000 Y1328.309
G01 X5.000 Y1329.622
G01 X25.917 Y1339.714
G01 X5.000 Y1347.565
G01 X5.000 Y826.648
G01 X33.110 Y829.568
G01 X9.379 Y856.291
G01 X46.461 Y832.099
G01 X49.729 Y881.170
G01 X51.782 Y850.807
G01 X88.165 Y893.005
G01 X61.872 Y885.395
G01 X112.761 Y897.277
G01 X84.720 Y925.550
G01 X120.236 Y906.426
G01 X117.559 Y958.306
G01 X118.205 Y930.666
G01 X148.742 Y977.318
G01 X119.523 Y970.402
G01 X166.106 Y987.308
G01 X132.837 Y1015.766
G01 X165.710 Y1000.463
G01 X156.210 Y1053.615
G01 X154.628 Y1027.393
G01 X178.463 Y1076.900
G01 X145.739 Y1069.231
G01 X187.247 Y1089.598
G01 X148.331 Y1116.613
G01 X177.992 Y1103.629
G01 X161.319 Y1156.295
G01 X157.209 Y1129.991
G01 X174.032 Y1180.578
G01 X137.769 Y1170.569
G01 X173.989 Y1192.711
G01 X129.569 Y1216.571
G01 X156.000 Y1204.334
G01 X132.378 Y1254.723
G01 X125.998 Y1226.827
G01 X136.074 Y1276.736
G01 X96.793 Y1262.854
G01 X128.073 Y1285.148
G01 X78.850 Y1304.250
G01 X102.584 Y1291.310
G01 X72.787 Y1337.789
G01 X64.922 Y1306.974
G01 X69.045 Y1354.646
G01 X27.781 Y1335.598
G01 X54.974 Y1356.668
G01 X5.000 Y1368.993
G01 X5.000 Y1367.778
G01 X24.177 Y1354.903
G01 X5.000 Y1377.688
G01 X5.000 Y854.414
G01 X33.624 Y860.754
G01 X7.232 Y879.846
G01 X49.802 Y859.590
G01 X46.344 Y905.600
G01 X55.789 Y873.297
G01 X86.405 Y918.561
G01 X64.201 Y903.883
G01 X114.672 Y922.078
G01 X84.674 Y942.651
G01 X125.683 Y927.866
G01 X116.714 Y976.395
G01 X125.091 Y947.362
G01 X149.922 Y996.858
G01 X125.426 Y983.260
G01 X171.438 Y1006.586
G01 X136.879 Y1027.398
G01 X175.185 Y1016.912
G01 X159.795 Y1066.524
G01 X166.198 Y1039.548
G01 X184.347 Y1091.751
G01 X156.898 Y1077.889
G01 X197.617 Y1104.840
G01 X158.009 Y1124.363
G01 X192.946 Y1116.729
G01 X170.727 Y1165.743
G01 X174.747 Y1139.390
G01 X185.838 Y1192.575
G01 X155.295 Y1176.938
G01 X190.419 Y1205.855
G01 X145.814 Y1222.446
G01 X177.253 Y1216.115
G01 X148.351 Y1262.791
G01 X150.119 Y1235.583
G01 X154.336 Y1288.008
G01 X121.099 Y1269.105
G01 X150.879 Y1298.358
G01 X101.877 Y1310.453
G01 X130.227 Y1303.962
G01 X95.331 Y1346.679
G01 X95.500 Y1317.283
G01 X93.555 Y1367.375
G01 X58.535 Y1343.915
G01 X83.727 Y1372.087
G01 X31.419 Y1378.371
G01 X57.566 Y1370.517
G01 X17.837 Y1407.953
G01 X17.503 Y1375.347
G01 X10.554 Y1421.862
G01 X5.000 Y1417.331
G01 X5.000 Y881.574
G01 X35.551 Y892.150
G01 X7.651 Y903.248
G01 X54.701 Y887.804
G01 X44.931 Y929.582
G01 X61.769 Y896.619
G01 X85.944 Y943.830
G01 X68.788 Y922.843
G01 X117.519 Y947.098
G01 X86.735 Y959.658
G01 X132.181 Y950.008
G01 X117.402 Y994.021
G01 X133.437 Y964.856
G01 X151.958 Y1016.020
G01 X133.100 Y996.535
G01 X177.243 Y1025.934
G01 X142.585 Y1038.836
G01 X185.228 Y1033.884
G01 X164.506 Y1078.803
G01 X178.755 Y1052.311
G01 X190.693 Y1105.983
G01 X169.395 Y1086.760
G01 X208.059 Y1119.856
G01 X168.975 Y1131.677
G01 X208.065 Y1130.029
G01 X180.937 Y1174.261
G01 X192.887 Y1149.071
G01 X197.808 Y1203.586
G01 X173.825 Y1183.191
G01 X206.631 Y1218.358
G01 X163.083 Y1227.533
G01 X198.386 Y1227.667
G01 X164.922 Y1269.528
G01 X174.585 Y1244.198
G01 X172.597 Y1297.841
G01 X146.211 Y1274.826
G01 X173.317 Y1310.437
G01 X125.803 Y1315.446
G01 X157.615 Y1315.889
G01 X118.419 Y1353.785
G01 X126.318 Y1326.980
G01 X118.056 Y1378.171
G01 X90.051 Y1351.255
G01 X112.124 Y1385.861
G01 X61.629 Y1385.397
G01 X90.725 Y1384.903
G01 X46.875 Y1417.502
G01 X53.984 Y1388.159
G01 X40.531 Y1435.619
G01 X12.111 Y1403.844
G01 X30.231 Y1436.329
G01 X5.000 Y1433.001
G01 X5.000 Y1427.204
G01 X5.659 Y1427.149
G01 X5.000 Y1427.519
G01 X5.000 Y907.084
G01 X38.908 Y923.492
G01 X10.703 Y926.455
G01 X61.090 Y916.528
G01 X45.626 Y953.009
G01 X69.632 Y920.665
G01 X86.903 Y968.617
G01 X75.604 Y942.256
G01 X121.340 Y972.107
G01 X90.976 Y976.567
G01 X139.674 Y972.669
G01 X119.765 Y1011.122
G01 X143.158 Y983.068
G01 X154.978 Y1034.651
G01 X142.514 Y1010.241
G01 X183.563 Y1045.157
G01 X150.020 Y1050.116
G01 X195.787 Y1051.225
G01 X170.477 Y1090.430
G01 X192.207 Y1065.628
G01 X197.623 Y1119.484
G01 X183.183 Y1095.886
G01 X218.611 Y1134.485
G01 X181.274 Y1138.625
G01 X223.285 Y1143.404
G01 X192.061 Y1181.862
G01 X211.520 Y1159.007
G01 X210.049 Y1213.534
G01 X193.286 Y1189.393
G01 X222.646 Y1230.088
G01 X181.390 Y1231.929
G01 X219.317 Y1238.884
G01 X182.177 Y1274.978
G01 X199.259 Y1252.660
G01 X190.939 Y1306.184
G01 X172.019 Y1280.101
G01 X195.387 Y1321.275
G01 X150.605 Y1319.344
G01 X184.639 Y1327.000
G01 X142.101 Y1359.172
G01 X157.208 Y1336.057
G01 X142.598 Y1387.004
G01 X122.179 Y1357.707
G01 X140.136 Y1397.889
G01 X92.706 Y1390.897
G01 X123.515 Y1397.968
G01 X76.573 Y1424.889
G01 X90.557 Y1399.878
G01 X70.666 Y1446.942
G01 X49.834 Y1413.451
G01 X63.382 Y1451.470
G01 X14.582 Y1438.463
G01 X43.219 Y1444.002
G01 X5.000 Y1459.838
G01 X5.000 Y1441.595
G01 X7.294 Y1437.088
G01 X5.000 Y1441.158
G01 X5.000 Y929.614
G01 X43.723 Y954.515
G01 X16.425 Y949.435
G01 X68.908 Y945.530
G01 X48.547 Y975.792
G01 X79.280 Y945.304
G01 X89.401 Y992.746
G01 X84.595 Y962.087
G01 X126.181 Y996.874
G01 X97.439 Y993.377
G01 X148.117 Y995.646
G01 X123.925 Y1027.646
G01 X154.162 Y1001.894
G01 X159.110 Y1052.615
G01 X153.611 Y1024.373
G01 X190.455 Y1064.063
G01 X159.221 Y1061.273
G01 X206.820 Y1068.764
G01 X177.825 Y1101.397
G01 X206.458 Y1079.425
G01 X205.264 Y1132.157
G01 X198.193 Y1105.293
G01 X229.327 Y1148.569
G01 X194.927 Y1145.278
G01 X238.559 Y1156.712
G01 X204.201 Y1188.577
G01 X230.535 Y1169.144
G01 X222.671 Y1222.360
G01 X213.587 Y1195.597
G01 X238.505 Y1240.920
G01 X200.727 Y1235.732
G01 X239.981 Y1249.648
G01 X200.187 Y1279.203
G01 X224.008 Y1260.936
G01 X209.450 Y1313.009
G01 X198.403 Y1284.996
G01 X217.108 Y1330.769
G01 X176.241 Y1322.266
G01 X211.209 Y1337.192
G01 X166.415 Y1362.923
G01 X188.006 Y1344.489
G01 X167.236 Y1393.865
G01 X154.763 Y1363.345
G01 X167.755 Y1408.084
G01 X124.568 Y1394.998
G01 X155.819 Y1409.616
G01 X106.928 Y1430.205
G01 X127.025 Y1410.477
G01 X100.981 Y1455.833
G01 X88.045 Y1421.806
G01 X96.252 Y1464.294
G01 X51.917 Y1445.660
G01 X80.416 Y1458.959
G01 X28.713 Y1473.427
G01 X48.405 Y1451.621
G01 X18.375 Y1492.007
G01 X6.258 Y1453.853
G01 X10.921 Y1493.272
G01 X5.000 Y1489.946
G01 X5.000 Y962.895
G01 X9.017 Y988.826
G01 X10.192 Y951.607
G01 X50.031 Y984.961
G01 X24.827 Y972.154
G01 X78.097 Y974.570
G01 X53.793 Y997.860
G01 X90.604 Y970.381
G01 X93.560 Y1016.056
G01 X95.684 Y982.288
G01 X132.101 Y1021.175
G01 X106.141 Y1010.090
G01 X157.472 Y1018.728
G01 X129.990 Y1043.562
G01 X166.353 Y1021.207
G01 X164.486 Y1069.791
G01 X166.318 Y1038.912
G01 X197.989 Y1082.461
G01 X170.201 Y1072.341
G01 X218.297 Y1086.321
G01 X186.653 Y1111.709
G01 X221.412 Y1093.603
G01 X213.743 Y1143.924
G01 X214.342 Y1114.991
G01 X240.276 Y1161.958
G01 X209.930 Y1151.703
G01 X253.853 Y1169.803
G01 X217.443 Y1194.449
G01 X249.824 Y1179.410
G01 X235.788 Y1230.024
G01 X234.624 Y1201.836
G01 X254.266 Y1250.737
G01 X221.066 Y1239.038
G01 X260.331 Y1259.835
G01 X219.014 Y1282.278
G01 X248.705 Y1268.972
G01 X228.218 Y1318.308
G01 X225.230 Y1289.565
G01 X238.516 Y1338.829
G01 X202.648 Y1324.328
G01 X237.258 Y1346.358
G01 X191.385 Y1365.136
G01 X218.557 Y1352.236
G01 X192.031 Y1398.768
G01 X187.635 Y1368.229
G01 X194.990 Y1416.371
G01 X157.111 Y1397.826
G01 X187.544 Y1419.748
G01 X137.927 Y1433.562
G01 X163.203 Y1419.913
G01 X131.501 Y1462.317
G01 X126.541 Y1428.964
G01 X128.821 Y1474.734
G01 X89.996 Y1451.172
G01 X117.127 Y1471.918
G01 X64.969 Y1479.779
G01 X89.334 Y1464.537
G01 X53.681 Y1501.829
G01 X49.329 Y1464.995
G01 X47.716 Y1507.510
G01 X9.303 Y1478.345
G01 X34.296 Y1497.238
G01 X5.000 Y1497.974
G01 X5.000 Y1481.827
G01 X5.736 Y1481.312
G01 X5.000 Y1481.923
G01 X5.000 Y986.195
G01 X16.952 Y977.684
G01 X16.113 Y1017.157
G01 X24.096 Y977.726
G01 X57.877 Y1014.581
G01 X35.885 Y994.583
G01 X88.610 Y1003.394
G01 X61.438 Y1019.155
G01 X103.492 Y995.724
G01 X99.493 Y1038.406
G01 X108.772 Y1002.792
G01 X139.168 Y1044.792
G01 X117.069 Y1026.702
G01 X167.713 Y1041.689
G01 X138.042 Y1058.846
G01 X179.634 Y1040.860
G01 X171.230 Y1086.078
G01 X180.542 Y1053.817
G01 X206.245 Y1100.174
G01 X182.947 Y1083.350
G01 X230.204 Y1103.703
G01 X197.042 Y1121.384
G01 X236.975 Y1108.041
G01 X223.184 Y1154.724
G01 X231.533 Y1124.966
G01 X251.540 Y1174.510
G01 X226.258 Y1157.962
G01 X269.152 Y1182.518
G01 X231.854 Y1199.533
G01 X269.288 Y1189.713
G01 X249.514 Y1236.504
G01 X256.285 Y1208.124
G01 X270.001 Y1259.432
G01 X242.359 Y1241.938
G01 X280.340 Y1269.315
G01 X238.699 Y1284.290
G01 X273.231 Y1276.697
G01 X247.334 Y1322.091
G01 X252.362 Y1293.838
G01 X259.664 Y1345.378
G01 X229.746 Y1325.641
G01 X262.739 Y1354.390
G01 X217.020 Y1365.921
G01 X248.719 Y1359.239
G01 X217.040 Y1401.748
G01 X220.624 Y1372.401
G01 X221.866 Y1422.694
G01 X190.219 Y1399.502
G01 X218.615 Y1428.266
G01 X169.540 Y1435.084
G01 X198.919 Y1428.133
G01 X162.250 Y1466.442
G01 X165.114 Y1434.968
G01 X161.084 Y1482.742
G01 X128.659 Y1455.119
G01 X153.254 Y1482.783
G01 X101.934 Y1483.894
G01 X129.881 Y1475.776
G01 X89.378 Y1508.878
G01 X92.585 Y1474.562
G01 X84.406 Y1518.885
G01 X52.463 Y1486.211
G01 X74.351 Y1512.023
G01 X22.173 Y1506.823
G01 X49.828 Y1497.026
G01 X6.893 Y1524.329
G01 X11.715 Y1486.873
G01 X5.000 Y1511.519
G01 X5.000 Y1024.746
G01 X16.084 Y1026.620
G01 X5.000 Y1029.070
G01 X5.000 Y1023.603
G01 X33.235 Y1008.372
G01 X25.422 Y1044.164
G01 X40.304 Y1003.830
G01 X67.310 Y1043.137
G01 X49.546 Y1016.684
G01 X100.408 Y1031.747
G01 X71.533 Y1039.633
G01 X117.831 Y1021.140
G01 X107.304 Y1059.674
G01 X123.745 Y1023.512
G01 X147.457 Y1067.520
G01 X130.182 Y1043.204
G01 X178.826 Y1064.303
G01 X148.144 Y1073.489
G01 X193.909 Y1060.684
G01 X179.458 Y1101.391
G01 X196.176 Y1069.028
G01 X215.314 Y1117.032
G01 X197.419 Y1094.323
G01 X242.539 Y1120.716
G01 X209.052 Y1130.449
G01 X253.059 Y1122.600
G01 X233.706 Y1164.513
G01 X249.658 Y1135.186
G01 X263.212 Y1186.098
G01 X243.863 Y1164.108
G01 X284.456 Y1194.696
G01 X247.482 Y1203.892
G01 X288.834 Y1199.941
G01 X263.953 Y1241.796
G01 X278.449 Y1214.453
G01 X285.794 Y1266.915
G01 X264.536 Y1244.512
G01 X300.001 Y1277.957
G01 X259.266 Y1285.334
G01 X297.481 Y1284.024
G01 X266.882 Y1324.390
G01 X279.656 Y1297.830
G01 X280.617 Y1350.356
G01 X257.436 Y1326.306
G01 X287.627 Y1361.181
G01 X243.313 Y1365.399
G01 X278.364 Y1365.426
G01 X242.320 Y1402.864
G01 X253.559 Y1375.886
G01 X248.424 Y1427.016
G01 X223.756 Y1400.141
G01 X248.984 Y1435.080
G01 X201.720 Y1434.905
G01 X234.019 Y1435.072
G01 X193.246 Y1468.283
G01 X203.560 Y1439.842
G01 X193.050 Y1488.294
G01 X167.735 Y1457.616
G01 X188.719 Y1491.468
G01 X139.522 Y1485.908
G01 X169.861 Y1485.267
G01 X125.446 Y1513.233
G01 X135.788 Y1482.571
G01 X120.968 Y1527.372
G01 X96.160 Y1492.242
G01 X113.930 Y1524.188
G01 X64.106 Y1512.615
G01 X93.543 Y1510.576
G01 X46.833 Y1532.666
G01 X58.383 Y1499.414
G01 X40.542 Y1539.993
G01 X17.583 Y1500.176
G01 X33.349 Y1529.812
G01 X5.000 Y1519.526
G01 X5.000 Y1509.535
G01 X14.081 Y1508.436
G01 X5.000 Y1511.498
G01 X5.000 Y1050.941
G01 X31.981 Y1059.210
G01 X5.000 Y1057.739
G01 X5.000 Y1056.665
G01 X51.221 Y1038.674
G01 X37.013 Y1069.715
G01 X58.664 Y1029.797
G01 X78.385 Y1070.408
G01 X65.728 Y1038.418
G01 X113.464 Y1059.372
G01 X84.101 Y1059.261
G01 X133.510 Y1046.420
G01 X117.086 Y1079.759
G01 X140.471 Y1044.342
G01 X157.047 Y1089.169
G01 X145.413 Y1059.579
G01 X190.809 Y1086.340
G01 X160.329 Y1087.489
G01 X209.089 Y1080.495
G01 X189.277 Y1115.667
G01 X213.104 Y1084.464
G01 X225.290 Y1132.884
G01 X213.554 Y1105.270
G01 X255.317 Y1137.165
G01 X222.718 Y1138.936
G01 X269.586 Y1137.125
G01 X245.415 Y1173.268
G01 X268.601 Y1145.597
G01 X275.392 Y1196.606
G01 X262.675 Y1170.182
G01 X299.785 Y1206.175
G01 X264.351 Y1207.595
G01 X308.383 Y1209.967
G01 X279.205 Y1245.915
G01 X300.990 Y1220.795
G01 X301.738 Y1273.110
G01 X287.512 Y1246.830
G01 X319.325 Y1285.633
G01 X280.720 Y1285.511
G01 X321.365 Y1290.850
G01 X286.940 Y1325.255
G01 X306.969 Y1301.533
G01 X301.450 Y1353.721
G01 X285.606 Y1326.415
G01 X311.916 Y1366.629
G01 X270.237 Y1363.696
G01 X307.382 Y1370.716
G01 X267.916 Y1402.191
G01 X286.269 Y1378.689
G01 X274.713 Y1429.320
G01 X257.577 Y1399.844
G01 X278.623 Y1440.106
G01 X234.404 Y1433.165
G01 X268.368 Y1440.656
G01 X224.503 Y1467.932
G01 X241.677 Y1443.595
G01 X224.739 Y1491.387
G01 X207.038 Y1458.767
G01 X223.467 Y1497.896
G01 X177.629 Y1485.967
G01 X209.112 Y1492.936
G01 X161.862 Y1514.993
G01 X178.704 Y1489.024
G01 X157.390 Y1532.975
G01 X140.172 Y1496.534
G01 X152.951 Y1533.654
G01 X106.712 Y1516.089
G01 X136.695 Y1521.874
G01 X87.343 Y1538.053
G01 X104.942 Y1510.013
G01 X80.496 Y1549.499
G01 X65.013 Y1508.948
G01 X75.309 Y1543.577
G01 X30.053 Y1520.138
G01 X59.672 Y1524.485
G01 X9.636 Y1534.553
G01 X29.187 Y1504.423
G01 X5.000 Y1536.537
G01 X5.000 Y1083.780
G01 X14.424 Y1108.977
G01 X5.000 Y1070.359
G01 X5.000 Y1069.974
G01 X49.388 Y1090.530
G01 X20.079 Y1081.126
G01 X70.774 Y1068.352
G01 X50.941 Y1093.702
G01 X79.011 Y1055.485
G01 X91.156 Y1096.194
G01 X84.320 Y1059.735
G01 X127.761 Y1086.016
G01 X99.136 Y1078.013
G01 X150.424 Y1071.343
G01 X128.915 Y1098.580
G01 X158.809 Y1065.159
G01 X168.021 Y1109.567
G01 X162.667 Y1075.798
G01 X203.672 Y1107.574
G01 X174.604 Y1100.849
G01 X225.091 Y1100.096
G01 X200.775 Y1128.859
G01 X231.199 Y1100.021
G01 X236.272 Y1147.593
G01 X231.267 Y1116.189
G01 X268.565 Y1152.855
G01 X238.051 Y1146.882
G01 X286.487 Y1151.445
G01 X258.404 Y1180.981
G01 X288.241 Y1156.122
G01 X288.185 Y1205.941
G01 X282.607 Y1176.212
G01 X315.173 Y1216.798
G01 X282.463 Y1210.712
G01 X327.870 Y1219.651
G01 X295.353 Y1248.893
G01 X323.785 Y1227.099
G01 X317.931 Y1277.960
G01 X311.185 Y1248.944
G01 X338.343 Y1292.219
G01 X303.042 Y1284.923
G01 X344.810 Y1297.065
G01 X307.573 Y1324.751
G01 X334.160 Y1304.918
G01 X322.246 Y1355.452
G01 X314.130 Y1326.043
G01 X335.622 Y1370.641
G01 X297.745 Y1360.938
G01 X335.683 Y1375.016
G01 X293.867 Y1399.825
G01 X318.591 Y1380.799
G01 X300.790 Y1429.612
G01 X291.524 Y1398.703
G01 X307.525 Y1443.271
G01 X267.509 Y1430.010
G01 X301.851 Y1444.807
G01 X256.022 Y1465.504
G01 X279.273 Y1446.223
G01 X256.177 Y1492.046
G01 X246.376 Y1458.667
G01 X257.465 Y1502.007
G01 X216.134 Y1484.220
G01 X247.493 Y1498.708
G01 X198.588 Y1514.280
G01 X221.110 Y1493.909
G01 X193.665 Y1535.722
G01 X184.269 Y1499.172
G01 X191.353 Y1540.362
G01 X149.831 Y1517.387
G01 X179.115 Y1530.838
G01 X128.350 Y1540.607
G01 X151.140 Y1518.641
G01 X120.543 Y1555.780
G01 X112.710 Y1515.718
G01 X116.912 Y1554.204
G01 X76.506 Y1525.764
G01 X104.795 Y1537.835
G01 X53.538 Y1541.525
G01 X77.722 Y1517.859
G01 X45.288 Y1550.071
G01 X40.261 Y1506.571
G01 X42.781 Y1542.216
G01 X5.000 Y1508.600
G01 X5.000 Y1508.521
G01 X33.254 Y1519.224
G01 X5.000 Y1517.974
G01 X5.000 Y1496.231
G01 X9.571 Y1491.939
G01 X5.000 Y1495.746
G01 X5.000 Y1127.111
G01 X20.272 Y1123.440
G01 X5.000 Y1134.347
G01 X5.000 Y1128.929
G01 X26.564 Y1100.880
G01 X32.526 Y1137.248
G01 X28.987 Y1094.695
G01 X68.260 Y1120.318
G01 X40.274 Y1103.384
G01 X91.760 Y1097.161
G01 X67.237 Y1116.038
G01 X101.170 Y1080.737
G01 X105.675 Y1120.313
G01 X105.187 Y1080.576
G01 X143.289 Y1111.432
G01 X116.602 Y1095.871
G01 X168.474 Y1095.676
G01 X142.847 Y1116.076
G01 X178.611 Y1085.816
G01 X180.456 Y1128.563
G01 X181.829 Y1091.819
G01 X217.436 Y1127.786
G01 X190.948 Y1113.576
G01 X241.843 Y1119.276
G01 X214.025 Y1140.938
G01 X250.331 Y1115.577
G01 X248.358 Y1161.044
G01 X250.451 Y1127.062
G01 X282.324 Y1167.601
G01 X255.034 Y1154.324
G01 X303.706 Y1165.382
G01 X272.750 Y1187.659
G01 X308.460 Y1166.663
G01 X301.693 Y1214.024
G01 X303.551 Y1182.205
G01 X330.669 Y1226.415
G01 X301.798 Y1213.313
G01 X347.245 Y1228.843
G01 X312.468 Y1250.775
G01 X346.711 Y1233.295
G01 X334.473 Y1281.429
G01 X335.437 Y1250.892
G01 X357.102 Y1297.601
G01 X326.195 Y1283.670
G01 X367.760 Y1302.546
G01 X328.831 Y1322.960
G01 X361.095 Y1307.940
G01 X343.089 Y1355.547
G01 X342.871 Y1325.249
G01 X358.780 Y1373.135
G01 X325.773 Y1357.253
G01 X363.197 Y1378.232
G01 X320.196 Y1395.876
G01 X350.370 Y1382.185
G01 X326.715 Y1427.920
G01 X325.432 Y1396.790
G01 X335.702 Y1444.518
G01 X300.938 Y1425.581
G01 X334.378 Y1447.446
G01 X287.792 Y1461.129
G01 X316.167 Y1447.703
G01 X287.393 Y1490.317
G01 X285.550 Y1457.394
G01 X290.698 Y1503.757
G01 X254.898 Y1480.817
G01 X284.889 Y1502.508
G01 X235.577 Y1511.233
G01 X262.796 Y1497.202
G01 X229.789 Y1535.671
G01 X228.218 Y1500.231
G01 X229.093 Y1544.273
G01 X193.285 Y1516.655
G01 X220.663 Y1537.389
G01 X169.766 Y1540.464
G01 X196.739 Y1525.264
G01 X160.644 Y1558.890
G01 X160.409 Y1520.541
G01 X158.089 Y1561.649
G01 X123.498 Y1529.041
G01 X149.287 Y1548.392
G01 X98.117 Y1545.508
G01 X125.900 Y1528.947
G01 X88.000 Y1557.427
G01 X90.267 Y1516.172
G01 X85.931 Y1554.129
G01 X53.849 Y1516.627
G01 X79.132 Y1534.569
G01 X29.034 Y1525.832
G01 X58.692 Y1508.121
G01 X20.269 Y1531.567
G01 X26.172 Y1487.812
G01 X20.960 Y1522.809
G01 X5.000 Y1499.227
G01 X5.000 Y1489.040
G01 X18.386 Y1497.814
G01 X5.000 Y1493.870
G01 X5.000 Y1168.125
G01 X25.779 Y1184.016
G01 X5.000 Y1165.757
G01 X5.000 Y1158.330
G01 X46.969 Y1154.058
G01 X18.316 Y1164.889
G01 X54.335 Y1128.703
G01 X52.568 Y1163.328
G01 X55.430 Y1118.533
G01 X88.562 Y1148.324
G01 X63.075 Y1124.350
G01 X114.055 Y1124.849
G01 X85.912 Y1136.658
G01 X124.958 Y1105.377
G01 X121.991 Y1142.610
G01 X128.171 Y1100.866
G01 X160.051 Y1135.388
G01 X136.432 Y1112.817
G01 X187.569 Y1119.182
G01 X158.916 Y1132.201
G01 X199.725 Y1106.151
G01 X194.429 Y1146.025
G01 X202.761 Y1107.585
G01 X232.131 Y1146.768
G01 X209.311 Y1125.673
G01 X259.283 Y1137.822
G01 X229.076 Y1151.889
G01 X270.372 Y1130.989
G01 X261.640 Y1173.140
G01 X270.984 Y1137.854
G01 X296.646 Y1181.229
G01 X273.626 Y1161.296
G01 X321.201 Y1178.746
G01 X288.509 Y1193.324
G01 X329.138 Y1177.105
G01 X316.020 Y1220.799
G01 X325.390 Y1188.153
G01 X346.335 Y1234.890
G01 X322.308 Y1215.462
G01 X366.474 Y1237.389
G01 X330.599 Y1251.618
G01 X369.652 Y1239.292
G01 X351.463 Y1283.497
G01 X360.144 Y1252.691
G01 X375.661 Y1301.680
G01 X350.119 Y1281.848
G01 X390.180 Y1307.170
G01 X350.751 Y1319.975
G01 X387.651 Y1310.532
G01 X364.063 Y1354.025
G01 X371.686 Y1324.073
G01 X381.438 Y1374.043
G01 X354.237 Y1352.759
G01 X389.878 Y1380.264
G01 X346.912 Y1390.466
G01 X381.464 Y1382.802
G01 X352.549 Y1424.293
G01 X359.132 Y1394.163
G01 X363.184 Y1443.807
G01 X334.574 Y1420.018
G01 X365.882 Y1448.492
G01 X319.789 Y1454.950
G01 X352.192 Y1448.001
G01 X318.418 Y1486.272
G01 X324.360 Y1455.012
G01 X323.170 Y1503.125
G01 X293.771 Y1475.903
G01 X321.207 Y1504.267
G01 X272.764 Y1506.006
G01 X303.567 Y1498.873
G01 X265.757 Y1532.904
G01 X271.785 Y1499.769
G01 X266.146 Y1545.371
G01 X236.886 Y1514.035
G01 X261.219 Y1541.456
G01 X211.490 Y1537.778
G01 X241.518 Y1529.838
G01 X200.761 Y1558.912
G01 X207.843 Y1523.464
G01 X198.787 Y1565.892
G01 X170.803 Y1530.096
G01 X193.006 Y1556.076
G01 X143.237 Y1546.643
G01 X173.477 Y1537.625
G01 X131.018 Y1561.395
G01 X140.243 Y1523.565
G01 X128.923 Y1562.535
G01 X103.438 Y1522.320
G01 X124.562 Y1546.742
G01 X76.054 Y1531.613
G01 X107.525 Y1521.631
G01 X64.632 Y1540.152
G01 X77.078 Y1500.260
G01 X64.633 Y1535.883
G01 X42.823 Y1491.685
G01 X63.867 Y1514.814
G01 X17.840 Y1494.443
G01 X51.466 Y1483.983
G01 X9.293 Y1497.692
G01 X25.900 Y1456.425
G01 X13.328 Y1489.175
G01 X5.000 Y1466.147
G01 X5.000 Y1450.864
G01 X17.973 Y1464.229
G01 X5.000 Y1456.660
G01 X5.000 Y1431.204
G01 X11.926 Y1429.280
G01 X5.000 Y1430.931
G01 X5.000 Y1261.894
G01 X10.308 Y1267.256
G01 X5.000 Y1261.569
G01 X5.000 Y1234.478
G01 X26.906 Y1233.202
G01 X5.000 Y1235.626
G01 X5.000 Y1225.646
G01 X29.929 Y1201.351
G01 X20.743 Y1231.502
G01 X25.699 Y1183.171
G01 X52.142 Y1212.324
G01 X26.915 Y1181.047
G01 X74.961 Y1182.945
G01 X43.328 Y1186.647
G01 X83.719 Y1155.360
G01 X74.560 Y1187.071
G01 X84.019 Y1141.349
G01 X110.266 Y1174.317
G01 X88.365 Y1143.997
G01 X137.544 Y1151.164
G01 X106.954 Y1155.513
G01 X150.193 Y1129.218
G01 X140.142 Y1162.952
G01 X153.094 Y1120.521
G01 X178.053 Y1157.665
G01 X158.531 Y1128.834
G01 X207.632 Y1141.621
G01 X177.132 Y1146.928
G01 X221.997 Y1125.988
G01 X210.004 Y1161.847
G01 X225.310 Y1123.021
G01 X247.796 Y1164.327
G01 X229.617 Y1137.144
G01 X277.364 Y1155.513
G01 X245.955 Y1161.712
G01 X291.192 Y1146.099
G01 X276.204 Y1183.806
G01 X292.728 Y1148.511
G01 X311.591 Y1193.578
G01 X293.758 Y1167.825
G01 X338.946 Y1191.350
G01 X305.714 Y1198.007
G01 X350.165 Y1187.312
G01 X331.258 Y1226.227
G01 X347.993 Y1194.028
G01 X362.244 Y1242.097
G01 X343.928 Y1217.217
G01 X385.542 Y1245.130
G01 X349.777 Y1251.492
G01 X392.503 Y1244.985
G01 X368.993 Y1284.168
G01 X385.171 Y1254.337
G01 X394.095 Y1304.369
G01 X374.736 Y1279.543
G01 X412.054 Y1310.812
G01 X373.349 Y1315.898
G01 X413.716 Y1312.615
G01 X385.249 Y1350.924
G01 X400.428 Y1322.536
G01 X403.659 Y1373.315
G01 X383.039 Y1347.570
G01 X415.699 Y1381.016
G01 X374.006 Y1383.727
G01 X411.749 Y1382.592
G01 X378.348 Y1418.802
G01 X392.456 Y1390.860
G01 X390.014 Y1441.116
G01 X368.290 Y1413.449
G01 X396.317 Y1447.873
G01 X351.972 Y1447.121
G01 X387.202 Y1447.072
G01 X349.277 Y1480.005
G01 X362.609 Y1451.569
G01 X354.898 Y1500.109
G01 X332.588 Y1469.618
G01 X356.379 Y1503.924
G01 X310.071 Y1498.763
G01 X343.252 Y1498.878
G01 X301.561 Y1527.528
G01 X314.741 Y1497.834
G01 X302.499 Y1543.664
G01 X280.431 Y1509.663
G01 X300.690 Y1542.980
G01 X253.404 Y1532.714
G01 X285.276 Y1532.318
G01 X240.851 Y1555.955
G01 X254.752 Y1524.520
G01 X238.965 Y1566.941
G01 X218.183 Y1529.052
G01 X235.833 Y1560.818
G01 X188.743 Y1545.084
G01 X220.227 Y1543.831
G01 X174.267 Y1562.076
G01 X189.899 Y1528.761
G01 X171.690 Y1567.431
G01 X153.344 Y1525.643
G01 X169.405 Y1555.659
G01 X123.759 Y1534.473
G01 X155.832 Y1532.382
G01 X109.578 Y1545.240
G01 X127.964 Y1510.282
G01 X108.467 Y1545.240
G01 X93.679 Y1499.921
G01 X109.144 Y1528.357
G01 X66.132 Y1502.119
G01 X99.698 Y1499.573
G01 X54.306 Y1507.424
G01 X76.357 Y1471.415
G01 X56.587 Y1503.059
G01 X46.333 Y1454.929
G01 X62.042 Y1482.297
G01 X22.676 Y1451.747
G01 X58.449 Y1449.447
G01 X14.870 Y1452.994
G01 X41.268 Y1416.825
G01 X22.015 Y1445.851
G01 X17.009 Y1395.914
G01 X33.546 Y1422.987
G01 X5.000 Y1395.364
G01 X5.000 Y1388.942
G01 X36.965 Y1388.009
G01 X5.000 Y1388.151
G01 X5.000 Y1377.836
G01 X26.967 Y1352.964
G01 X8.707 Y1380.265
G01 X9.327 Y1329.708
G01 X26.947 Y1357.423
G01 X5.000 Y1331.286
G01 X5.000 Y1321.644
G01 X37.835 Y1322.536
G01 X5.000 Y1320.722
G01 X5.000 Y1315.329
G01 X35.318 Y1287.320
G01 X18.167 Y1313.877
G01 X24.413 Y1263.946
G01 X43.004 Y1293.280
G01 X17.533 Y1256.321
G01 X61.068 Y1260.734
G01 X25.421 Y1257.373
G01 X65.579 Y1227.562
G01 X49.291 Y1254.308
G01 X60.785 Y1206.187
G01 X79.879 Y1238.029
G01 X58.803 Y1201.213
G01 X104.105 Y1209.853
G01 X70.733 Y1206.181
G01 X114.497 Y1180.652
G01 X98.497 Y1208.359
G01 X114.529 Y1163.045
G01 X133.349 Y1198.083
G01 X115.994 Y1162.298
G01 X162.122 Y1175.858
G01 X130.321 Y1172.575
G01 X176.691 Y1152.059
G01 X160.155 Y1181.232
G01 X179.761 Y1139.439
G01 X197.309 Y1178.064
G01 X182.777 Y1143.901
G01 X228.594 Y1162.755
G01 X197.477 Y1160.241
G01 X245.279 Y1145.133
G01 X227.236 Y1175.944
G01 X249.309 Y1138.037
G01 X264.475 Y1180.288
G01 X251.760 Y1147.984
G01 X296.049 Y1172.135
G01 X264.662 Y1170.416
G01 X312.670 Y1160.731
G01 X292.124 Y1192.987
G01 X315.536 Y1158.960
G01 X327.225 Y1204.502
G01 X315.339 Y1173.930
G01 X356.927 Y1203.004
G01 X324.374 Y1201.748
G01 X371.437 Y1197.134
G01 X347.494 Y1230.290
G01 X371.222 Y1199.780
G01 X378.474 Y1247.930
G01 X366.567 Y1218.625
G01 X404.448 Y1251.911
G01 X370.011 Y1250.470
G01 X415.168 Y1250.249
G01 X387.147 Y1283.460
G01 X410.382 Y1255.807
G01 X412.485 Y1305.599
G01 X399.949 Y1276.829
G01 X433.385 Y1313.349
G01 X396.619 Y1310.836
G01 X439.193 Y1314.093
G01 X406.717 Y1346.304
G01 X428.950 Y1320.639
G01 X425.517 Y1370.918
G01 X412.063 Y1341.784
G01 X440.656 Y1380.398
G01 X401.453 Y1375.795
G01 X441.115 Y1381.482
G01 X404.162 Y1411.537
G01 X425.236 Y1386.901
G01 X416.246 Y1436.443
G01 X401.942 Y1405.994
G01 X425.664 Y1445.520
G01 X384.283 Y1437.800
G01 X421.069 Y1444.862
G01 X379.990 Y1471.631
G01 X400.104 Y1447.094
G01 X385.910 Y1494.730
G01 X371.174 Y1462.089
G01 X390.360 Y1501.429
G01 X347.406 Y1489.677
G01 X381.697 Y1497.172
G01 X337.186 Y1519.673
G01 X356.864 Y1494.457
G01 X338.151 Y1539.188
G01 X323.708 Y1503.668
G01 X339.005 Y1541.918
G01 X295.375 Y1525.444
G01 X327.835 Y1532.653
G01 X280.861 Y1550.153
G01 X300.883 Y1523.732
G01 X278.590 Y1564.833
G01 X265.391 Y1526.027
G01 X277.672 Y1562.572
G01 X234.464 Y1540.995
G01 X265.951 Y1547.500
G01 X217.661 Y1559.595
G01 X238.957 Y1531.764
G01 X214.174 Y1568.846
G01 X203.290 Y1526.691
G01 X213.545 Y1561.258
G01 X171.946 Y1534.554
G01 X203.390 Y1540.288
G01 X154.993 Y1546.940
G01 X178.529 Y1517.851
G01 X152.378 Y1550.890
G01 X144.875 Y1505.687
G01 X154.087 Y1538.362
G01 X115.249 Y1506.879
G01 X147.536 Y1512.124
G01 X100.177 Y1513.661
G01 X126.833 Y1483.811
G01 X100.343 Y1513.139
G01 X97.162 Y1465.532
G01 X106.191 Y1496.733
G01 X71.111 Y1461.154
G01 X104.965 Y1466.509
G01 X59.609 Y1463.581
G01 X90.063 Y1433.766
G01 X64.060 Y1460.010
G01 X65.911 Y1410.929
G01 X75.386 Y1441.346
G01 X44.807 Y1402.622
G01 X80.690 Y1408.924
G01 X38.033 Y1402.425
G01 X72.672 Y1373.657
G01 X47.694 Y1397.658
G01 X54.974 Y1348.222
G01 X65.218 Y1378.720
G01 X39.553 Y1337.969
G01 X77.602 Y1346.196
G01 X38.000 Y1337.158
G01 X76.868 Y1310.554
G01 X53.114 Y1333.253
G01 X65.859 Y1284.662
G01 X76.849 Y1316.165
G01 X56.148 Y1274.558
G01 X96.142 Y1285.705
G01 X59.596 Y1275.179
G01 X102.370 Y1251.842
G01 X79.686 Y1274.162
G01 X97.568 Y1227.571
G01 X108.934 Y1260.943
G01 X92.890 Y1219.577
G01 X134.268 Y1234.542
G01 X100.434 Y1223.476
G01 X146.455 Y1204.375
G01 X124.363 Y1227.102
G01 X146.724 Y1183.505
G01 X157.791 Y1219.434
G01 X145.787 Y1179.222
G01 X187.695 Y1198.691
G01 X155.945 Y1187.825
G01 X204.275 Y1173.691
G01 X182.043 Y1197.370
G01 X207.968 Y1157.504
G01 X217.833 Y1196.410
G01 X209.018 Y1157.993
G01 X250.399 Y1182.354
G01 X219.907 Y1172.137
G01 X269.427 Y1163.384
G01 X246.163 Y1188.253
G01 X274.579 Y1152.525
G01 X282.212 Y1194.496
G01 X275.614 Y1158.179
G01 X315.313 Y1187.474
G01 X285.171 Y1178.018
G01 X334.692 Y1174.701
G01 X309.458 Y1200.650
G01 X339.252 Y1169.111
G01 X343.618 Y1213.879
G01 X338.256 Y1179.618
G01 X375.145 Y1213.525
G01 X344.475 Y1204.594
G01 X392.861 Y1206.410
G01 X364.796 Y1232.989
G01 X394.936 Y1205.340
G01 X395.111 Y1252.300
G01 X390.119 Y1219.717
G01 X423.210 Y1257.582
G01 X391.286 Y1248.628
G01 X437.567 Y1254.953
G01 X405.995 Y1281.413
G01 X435.639 Y1257.057
G01 X430.918 Y1305.320
G01 X425.646 Y1273.766
G01 X454.196 Y1314.666
G01 X420.538 Y1304.899
G01 X464.005 Y1314.862
G01 X428.529 Y1340.237
G01 X457.109 Y1318.361
G01 X447.090 Y1366.840
G01 X441.182 Y1335.487
G01 X464.763 Y1378.326
G01 X429.207 Y1366.809
G01 X469.476 Y1379.395
G01 X430.032 Y1402.606
G01 X457.314 Y1382.285
G01 X441.943 Y1429.809
G01 X435.379 Y1397.757
G01 X453.921 Y1441.380
G01 X416.647 Y1427.148
G01 X453.687 Y1441.311
G01 X410.569 Y1461.284
G01 X436.662 Y1441.603
G01 X416.243 Y1487.033
G01 X409.346 Y1453.433
G01 X423.129 Y1496.745
G01 X384.657 Y1478.921
G01 X418.775 Y1493.705
G01 X372.607 Y1509.488
G01 X397.942 Y1489.656
G01 X373.107 Y1532.003
G01 X366.501 Y1496.167
G01 X376.117 Y1538.243
G01 X337.255 Y1516.147
G01 X369.044 Y1530.795
G01 X320.731 Y1541.660
G01 X345.996 Y1521.111
G01 X317.636 Y1559.633
G01 X312.177 Y1521.128
G01 X318.451 Y1561.309
G01 X280.216 Y1534.544
G01 X310.470 Y1548.577
G01 X261.102 Y1554.102
G01 X287.150 Y1532.568
G01 X256.320 Y1566.839
G01 X252.995 Y1525.551
G01 X256.885 Y1563.501
G01 X220.396 Y1532.009
G01 X250.004 Y1545.274
G01 X200.749 Y1545.387
G01 X228.488 Y1522.936
G01 X196.290 Y1552.880
G01 X196.104 Y1509.044
G01 X198.584 Y1544.770
G01 X164.945 Y1508.846
G01 X194.773 Y1521.533
G01 X146.756 Y1516.514
G01 X177.032 Y1493.550
G01 X144.499 Y1519.436
G01 X148.356 Y1473.618
G01 X150.300 Y1507.457
G01 X120.486 Y1467.727
G01 X151.264 Y1480.334
G01 X105.456 Y1470.782
G01 X138.938 Y1448.004
G01 X106.928 Y1470.401
G01 X115.526 Y1423.451
G01 X117.603 Y1456.011
G01 X92.357 Y1413.369
G01 X124.582 Y1426.640
G01 X81.703 Y1413.403
G01 X118.800 Y1391.732
G01 X87.905 Y1411.426
G01 X101.652 Y1364.395
G01 X104.249 Y1396.470
G01 X84.009 Y1351.989
G01 X117.873 Y1366.818
G01 X78.330 Y1350.895
G01 X119.125 Y1331.370
G01 X89.615 Y1349.268
G01 X108.582 Y1303.297
G01 X111.759 Y1335.761
G01 X96.615 Y1290.580
G01 X131.975 Y1307.902
G01 X95.830 Y1290.332
G01 X140.060 Y1273.998
G01 X111.867 Y1291.006
G01 X135.771 Y1247.215
G01 X139.255 Y1280.905
G01 X128.951 Y1236.114
G01 X165.331 Y1256.785
G01 X132.312 Y1238.527
G01 X179.383 Y1226.319
G01 X152.123 Y1243.236
G01 X180.358 Y1202.605
G01 X183.573 Y1238.208
G01 X177.544 Y1194.736
G01 X214.181 Y1219.432
G01 X183.728 Y1201.261
G01 X232.772 Y1193.899
G01 X205.799 Y1211.309
G01 X237.499 Y1174.586
G01 X239.639 Y1212.548
G01 X237.081 Y1171.074
G01 X273.001 Y1200.195
G01 X244.348 Y1182.620
G01 X294.306 Y1180.532
G01 X266.805 Y1198.734
G01 X300.937 Y1166.359
G01 X301.054 Y1206.817
G01 X301.027 Y1167.706
G01 X335.146 Y1201.329
G01 X307.427 Y1184.539
G01 X357.154 Y1187.814
G01 X328.246 Y1206.779
G01 X363.717 Y1178.851
G01 X360.839 Y1221.604
G01 X362.376 Y1184.884
G01 X393.617 Y1222.738
G01 X365.974 Y1206.590
G01 X414.358 Y1214.970
G01 X383.217 Y1234.340
G01 X418.993 Y1210.618
G01 X412.238 Y1255.138
G01 X414.458 Y1220.512
G01 X441.861 Y1262.001
G01 X413.563 Y1246.044
G01 X459.635 Y1258.954
G01 X425.593 Y1278.079
G01 X460.807 Y1258.024
G01 X449.483 Y1303.502
G01 X451.700 Y1270.398
G01 X474.524 Y1314.657
G01 X445.059 Y1298.195
G01 X488.089 Y1314.809
G01 X450.730 Y1332.815
G01 X484.766 Y1315.665
G01 X468.461 Y1361.088
G01 X470.257 Y1328.747
G01 X488.056 Y1374.728
G01 X457.203 Y1356.906
G01 X496.763 Y1376.244
G01 X455.984 Y1392.131
G01 X488.540 Y1376.998
G01 X467.169 Y1421.255
G01 X468.444 Y1388.827
G01 X481.110 Y1435.409
G01 X448.975 Y1415.326
G01 X484.977 Y1436.356
G01 X441.012 Y1449.112
G01 X472.113 Y1435.094
G01 X445.937 Y1477.089
G01 X446.918 Y1443.752
G01 X454.685 Y1489.852
G01 X421.700 Y1466.669
G01 X454.383 Y1488.430
G01 X407.791 Y1497.140
G01 X437.780 Y1483.436
G01 X407.379 Y1522.196
G01 X408.592 Y1487.264
G01 X411.999 Y1531.949
G01 X378.883 Y1505.000
G01 X408.773 Y1526.701
G01 X360.389 Y1530.650
G01 X389.868 Y1516.658
G01 X356.082 Y1551.435
G01 X358.287 Y1514.450
G01 X358.115 Y1557.026
G01 X325.798 Y1525.904
G01 X353.633 Y1547.010
G01 X304.483 Y1545.767
G01 X334.230 Y1531.159
G01 X298.073 Y1561.500
G01 X302.174 Y1522.301
G01 X299.348 Y1562.376
G01 X268.875 Y1526.989
G01 X295.502 Y1547.274
G01 X246.705 Y1540.735
G01 X277.570 Y1525.500
G01 X240.121 Y1551.286
G01 X247.058 Y1510.040
G01 X242.537 Y1547.554
G01 X214.960 Y1508.148
G01 X241.224 Y1527.712
G01 X193.876 Y1516.114
G01 X226.669 Y1500.564
G01 X188.958 Y1522.009
G01 X199.593 Y1479.205
G01 X194.261 Y1514.418
G01 X170.522 Y1471.560
G01 X197.158 Y1490.806
G01 X152.225 Y1474.701
G01 X187.607 Y1459.439
G01 X150.513 Y1477.055
G01 X165.526 Y1433.461
G01 X160.087 Y1466.906
G01 X140.922 Y1421.431
G01 X168.457 Y1441.011
G01 X126.677 Y1421.201
G01 X165.072 Y1407.053
G01 X129.230 Y1421.578
G01 X149.038 Y1378.168
G01 X143.939 Y1410.574
G01 X129.799 Y1363.502
G01 X158.482 Y1384.229
G01 X120.298 Y1361.678
G01 X161.830 Y1349.602
G01 X127.575 Y1361.907
G01 X152.276 Y1319.759
G01 X147.655 Y1351.950
G01 X138.664 Y1304.384
G01 X168.425 Y1327.128
G01 X133.952 Y1302.856
G01 X178.416 Y1293.834
G01 X145.758 Y1304.811
G01 X175.113 Y1265.000
G01 X170.789 Y1297.784
G01 X166.736 Y1250.796
G01 X197.185 Y1276.374
G01 X166.214 Y1251.345
G01 X213.085 Y1246.271
G01 X181.724 Y1256.725
G01 X215.179 Y1220.210
G01 X210.673 Y1254.272
G01 X211.042 Y1208.798
G01 X241.508 Y1237.869
G01 X213.543 Y1212.887
G01 X262.022 Y1212.465
G01 X231.398 Y1223.015
G01 X268.137 Y1190.542
G01 X262.738 Y1226.352
G01 X266.771 Y1183.100
G01 X296.366 Y1216.074
G01 X270.699 Y1191.699
G01 X319.791 Y1196.364
G01 X289.162 Y1207.367
G01 X328.196 Y1179.401
G01 X321.040 Y1217.143
G01 X327.829 Y1176.525
G01 X355.547 Y1213.512
G01 X331.350 Y1190.004
G01 X379.965 Y1199.872
G01 X348.510 Y1211.377
G01 X388.772 Y1188.055
G01 X378.954 Y1227.596
G01 X387.548 Y1189.705
G01 X412.367 Y1230.482
G01 X388.805 Y1207.783
G01 X435.864 Y1222.638
G01 X402.792 Y1234.377
G01 X443.255 Y1215.509
G01 X429.936 Y1256.398
G01 X439.447 Y1221.009
G01 X460.444 Y1265.039
G01 X436.781 Y1242.792
G01 X481.326 Y1262.105
G01 X445.978 Y1273.525
G01 X485.760 Y1258.625
G01 X468.268 Y1300.136
G01 X477.976 Y1266.750
G01 X494.422 Y1313.229
G01 X470.116 Y1290.826
G01 X511.405 Y1313.819
G01 X473.351 Y1324.139
G01 X511.796 Y1312.494
G01 X489.713 Y1353.692
G01 X499.146 Y1321.614
G01 X510.585 Y1369.548
G01 X485.361 Y1346.217
G01 X522.934 Y1371.943
G01 X482.032 Y1380.248
G01 X518.777 Y1371.004
G01 X491.992 Y1410.846
G01 X500.974 Y1379.275
G01 X507.268 Y1427.584
G01 X481.161 Y1402.486
G01 X514.879 Y1429.936
G01 X471.304 Y1435.277
G01 X506.303 Y1427.551
G01 X475.035 Y1464.987
G01 X483.703 Y1433.129
G01 X485.043 Y1480.752
G01 X458.398 Y1453.091
G01 X488.444 Y1481.302
G01 X442.688 Y1482.808
G01 X476.201 Y1475.790
G01 X440.977 Y1509.877
G01 X449.762 Y1477.048
G01 X446.641 Y1523.050
G01 X420.084 Y1492.177
G01 X446.923 Y1520.333
G01 X399.748 Y1517.310
G01 X432.295 Y1510.366
G01 X393.905 Y1540.359
G01 X403.473 Y1506.079
G01 X396.626 Y1549.743
G01 X371.000 Y1515.242
G01 X395.315 Y1542.762
G01 X347.679 Y1534.773
G01 X379.967 Y1527.520
G01 X339.378 Y1552.948
G01 X350.550 Y1517.009
G01 X340.868 Y1557.900
G01 X317.140 Y1519.648
G01 X339.737 Y1546.237
G01 X292.704 Y1533.155
G01 X325.525 Y1525.507
G01 X283.787 Y1546.215
G01 X297.433 Y1508.719
G01 X285.860 Y1546.717
G01 X265.020 Y1504.911
G01 X286.725 Y1530.588
G01 X241.353 Y1512.611
G01 X275.481 Y1504.789
G01 X233.614 Y1520.946
G01 X250.552 Y1482.302
G01 X237.976 Y1517.600
G01 X220.927 Y1472.748
G01 X242.477 Y1497.827
G01 X199.715 Y1475.459
G01 X235.801 Y1467.971
G01 X194.695 Y1480.037
G01 X215.583 Y1440.931
G01 X202.739 Y1473.992
G01 X190.201 Y1426.867
G01 X212.151 Y1451.911
G01 X172.743 Y1425.908
G01 X211.226 Y1419.487
G01 X171.550 Y1428.153
G01 X196.810 Y1389.478
G01 X184.194 Y1420.967
G01 X176.627 Y1372.534
G01 X199.277 Y1398.277
G01 X163.695 Y1369.566
G01 X204.737 Y1365.085
G01 X166.880 Y1371.186
G01 X196.633 Y1333.950
G01 X184.458 Y1364.645
G01 X182.010 Y1315.961
G01 X205.362 Y1343.209
G01 X173.766 Y1312.787
G01 X217.218 Y1311.162
G01 X181.261 Y1315.573
G01 X215.311 Y1280.799
G01 X203.480 Y1311.479
G01 X205.980 Y1263.591
G01 X229.731 Y1293.119
G01 X201.965 Y1261.948
G01 X247.371 Y1264.025
G01 X213.091 Y1267.557
G01 X250.935 Y1236.172
G01 X239.065 Y1267.520
G01 X246.042 Y1221.359
G01 X269.612 Y1253.807
G01 X245.237 Y1222.711
G01 X291.874 Y1229.172
G01 X258.789 Y1232.475
G01 X299.663 Y1205.217
G01 X287.134 Y1237.724
G01 X297.875 Y1194.015
G01 X320.467 Y1229.802
G01 X298.828 Y1199.384
G01 X345.770 Y1210.667
G01 X313.210 Y1214.149
G01 X356.171 Y1191.495
G01 X342.204 Y1225.390
G01 X355.836 Y1184.587
G01 X376.522 Y1223.851
G01 X356.831 Y1194.434
G01 X403.046 Y1210.676
G01 X370.246 Y1214.460
G01 X414.262 Y1196.580
G01 X398.021 Y1231.795
G01 X413.609 Y1194.042
G01 X431.432 Y1236.610
G01 X412.876 Y1208.215
G01 X457.328 Y1229.237
G01 X423.531 Y1233.143
G01 X467.590 Y1219.889
G01 X448.281 Y1256.053
G01 X464.936 Y1221.190
G01 X479.015 Y1266.583
G01 X460.855 Y1238.938
G01 X502.607 Y1264.258
G01 X467.167 Y1267.827
G01 X510.378 Y1258.763
G01 X487.354 Y1295.232
G01 X504.331 Y1262.828
G01 X513.956 Y1310.305
G01 X495.624 Y1282.889
G01 X533.931 Y1311.774
G01 X496.403 Y1314.320
G01 X538.083 Y1308.776
G01 X510.923 Y1344.700
G01 X527.700 Y1314.118
G01 X532.412 Y1362.746
G01 X513.583 Y1334.865
G01 X547.965 Y1366.408
G01 X508.169 Y1367.099
G01 X547.905 Y1364.259
