; file trimmed by trimify2x.pl
; Created by Sandify
; 
;   https://sandify.org
; 
;   Sandify Version: 0.1.4
; 
;   Machine Type: Rectangular
;     MinX: 5 MaxX: 710 MinY: 5 MaxY: 1600
;   Content Type: Shapes
;     Starting Size: 300
;     Offset: X: -516 Y: -1169
;     Selected Shape: Circle
;       Circle Lobes: 1
;     Number of Loops: 157
;     Spin: true
;       Spin Value: -1.6
;       Spin Switchbacks: 0
;     Grow: true
;       Grow Value: 3.2
;     Track: true
;       Track Size: -46
;       Track Length: 880.45
;       Track Grow: false
;   Path Reversed: true
;  23:08
; filename: 'mishegoss4'

; BEGIN PRE
G28  Y
G28 X
G01 F30000; END PRE
G01 X5.000 Y5.000
G01 X5.000 Y1600.000
G01 X5.000 Y22.071
G01 X14.101 Y40.344
G01 X5.000 Y42.606
G01 X5.000 Y1438.661
G01 X15.062 Y1594.942
G01 X58.743 Y1600.000
G01 X5.000 Y1600.000
G01 X5.000 Y5.000
G01 X34.983 Y5.000
G01 X47.860 Y26.339
G01 X5.000 Y40.416
G01 X5.000 Y1548.695
G01 X10.090 Y1585.091
G01 X99.938 Y1588.077
G01 X96.755 Y1600.000
G01 X5.000 Y1600.000
G01 X5.000 Y5.000
G01 X74.488 Y5.000
G01 X80.300 Y13.027
G01 X5.000 Y44.128
G01 X5.000 Y1568.647
G01 X6.122 Y1573.806
G01 X79.642 Y1569.922
G01 X73.967 Y1600.000
G01 X5.000 Y1600.000
G01 X5.000 Y5.000
G01 X102.702 Y5.000
G01 X5.000 Y54.203
G01 X5.000 Y131.424
G01 X24.402 Y194.812
G01 X5.000 Y195.822
G01 X5.000 Y1560.728
G01 X58.987 Y1552.776
G01 X53.696 Y1600.000
G01 X5.000 Y1600.000
G01 X5.000 Y5.000
G01 X115.109 Y5.000
G01 X11.061 Y67.626
G01 X56.661 Y182.677
G01 X5.000 Y189.413
G01 X5.000 Y1545.508
G01 X38.187 Y1536.785
G01 X35.898 Y1600.000
G01 X5.000 Y1600.000
G01 X5.000 Y5.000
G01 X133.443 Y5.000
G01 X39.003 Y72.068
G01 X87.820 Y170.681
G01 X5.000 Y188.057
G01 X5.000 Y1527.736
G01 X17.475 Y1522.056
G01 X20.564 Y1600.000
G01 X5.000 Y1600.000
G01 X5.000 Y5.000
G01 X155.639 Y5.000
G01 X68.337 Y77.587
G01 X117.713 Y159.037
G01 X5.000 Y191.909
G01 X5.000 Y209.465
G01 X22.445 Y344.415
G01 X5.000 Y341.351
G01 X5.000 Y1576.576
G01 X7.726 Y1600.000
G01 X5.000 Y1600.000
G01 X5.000 Y5.000
G01 X180.381 Y5.000
G01 X99.013 Y83.926
G01 X146.212 Y147.975
G01 X22.921 Y194.486
G01 X52.568 Y334.651
G01 X5.000 Y330.872
G01 X5.000 Y5.000
G01 X206.771 Y5.000
G01 X130.935 Y90.832
G01 X173.232 Y137.741
G01 X44.248 Y198.115
G01 X81.957 Y324.577
G01 X5.000 Y325.132
G01 X5.000 Y5.000
G01 X234.153 Y5.000
G01 X163.965 Y98.068
G01 X198.735 Y128.579
G01 X66.874 Y203.204
G01 X110.382 Y314.346
G01 X16.912 Y322.788
G01 X9.898 Y487.316
G01 X5.000 Y483.661
G01 X5.000 Y5.000
G01 X262.024 Y5.000
G01 X197.927 Y105.414
G01 X222.723 Y120.735
G01 X90.837 Y209.506
G01 X137.643 Y304.145
G01 X31.221 Y322.530
G01 X37.058 Y480.153
G01 X7.098 Y468.598
G01 X5.000 Y473.954
G01 X5.000 Y5.000
G01 X289.969 Y5.000
G01 X232.611 Y112.679
G01 X245.248 Y114.438
G01 X116.134 Y216.762
G01 X163.578 Y294.185
G01 X46.426 Y324.230
G01 X63.951 Y472.378
G01 X16.225 Y461.059
G01 X5.000 Y497.979
G01 X5.000 Y5.000
G01 X317.633 Y5.000
G01 X267.778 Y119.706
G01 X266.397 Y109.902
G01 X142.715 Y224.715
G01 X188.061 Y284.696
G01 X62.680 Y327.710
G01 X90.310 Y464.068
G01 X25.377 Y455.683
G01 X5.000 Y548.406
G01 X5.000 Y622.786
G01 X7.643 Y622.864
G01 X5.000 Y626.496
G01 X5.000 Y5.000
G01 X344.691 Y5.000
G01 X303.165 Y126.372
G01 X286.298 Y107.312
G01 X170.488 Y233.110
G01 X211.013 Y275.919
G01 X80.103 Y332.763
G01 X115.881 Y455.339
G01 X34.780 Y452.456
G01 X12.044 Y617.655
G01 X14.513 Y610.392
G01 X5.000 Y625.883
G01 X5.000 Y5.000
G01 X370.829 Y5.000
G01 X338.497 Y132.598
G01 X305.111 Y106.821
G01 X199.317 Y241.707
G01 X232.399 Y268.100
G01 X98.779 Y339.156
G01 X140.439 Y446.345
G01 X44.653 Y451.319
G01 X35.575 Y612.257
G01 X20.736 Y599.761
G01 X5.000 Y630.585
G01 X5.000 Y5.000
G01 X395.725 Y5.000
G01 X373.489 Y138.345
G01 X323.021 Y108.547
G01 X229.031 Y250.286
G01 X252.227 Y261.481
G01 X118.749 Y346.642
G01 X163.787 Y437.270
G01 X55.200 Y452.169
G01 X59.075 Y606.106
G01 X26.511 Y591.085
G01 X5.000 Y642.999
G01 X5.000 Y768.250
G01 X5.558 Y768.496
G01 X5.000 Y769.025
G01 X5.000 Y5.000
G01 X554.484 Y5.000
G01 X555.891 Y8.359
G01 X418.398 Y12.791
G01 X407.858 Y143.619
G01 X340.234 Y112.564
G01 X259.421 Y258.657
G01 X270.551 Y256.292
G01 X140.012 Y354.959
G01 X185.766 Y428.325
G01 X66.607 Y454.863
G01 X82.267 Y599.237
G01 X32.056 Y584.438
G01 X5.000 Y668.014
G01 X5.000 Y752.229
G01 X10.847 Y753.596
G01 X5.000 Y760.099
G01 X5.000 Y5.000
G01 X581.704 Y5.000
G01 X586.271 Y12.791
G01 X440.488 Y29.295
G01 X441.327 Y148.469
G01 X356.968 Y118.903
G01 X290.252 Y266.658
G01 X287.464 Y252.741
G01 X162.520 Y363.849
G01 X206.257 Y419.738
G01 X79.030 Y459.223
G01 X104.885 Y591.726
G01 X37.597 Y579.851
G01 X5.000 Y717.412
G01 X5.000 Y741.929
G01 X15.138 Y740.099
G01 X5.000 Y753.363
G01 X5.000 Y5.000
G01 X603.238 Y5.000
G01 X614.668 Y17.934
G01 X463.251 Y47.541
G01 X473.637 Y152.985
G01 X373.446 Y127.551
G01 X321.266 Y274.168
G01 X303.097 Y251.014
G01 X186.186 Y373.056
G01 X225.184 Y411.751
G01 X92.592 Y465.038
G01 X126.682 Y583.689
G01 X43.363 Y577.306
G01 X18.693 Y738.953
G01 X18.581 Y728.190
G01 X5.000 Y749.255
G01 X5.000 Y5.000
G01 X639.460 Y5.000
G01 X625.336 Y16.808
G01 X641.032 Y24.017
G01 X486.782 Y67.289
G01 X504.551 Y157.293
G01 X389.887 Y138.446
G01 X352.190 Y281.107
G01 X317.615 Y251.263
G01 X210.876 Y382.339
G01 X242.514 Y404.607
G01 X107.379 Y472.076
G01 X147.434 Y575.278
G01 X49.575 Y576.743
G01 X38.673 Y734.035
G01 X21.356 Y718.024
G01 X5.000 Y748.512
G01 X5.000 Y5.000
G01 X693.604 Y5.000
G01 X657.990 Y40.106
G01 X665.358 Y31.269
G01 X511.136 Y88.280
G01 X533.862 Y161.555
G01 X406.500 Y151.485
G01 X382.743 Y287.436
G01 X331.206 Y253.603
G01 X236.421 Y391.479
G01 X258.261 Y398.548
G01 X123.436 Y480.085
G01 X166.949 Y566.679
G01 X56.441 Y578.057
G01 X58.595 Y728.260
G01 X23.665 Y709.714
G01 X5.000 Y752.464
G01 X5.000 Y5.000
G01 X710.000 Y5.000
G01 X710.000 Y41.032
G01 X690.911 Y63.256
G01 X687.687 Y39.909
G01 X536.325 Y110.241
G01 X561.398 Y165.959
G01 X423.474 Y166.524
G01 X412.645 Y293.160
G01 X344.082 Y258.107
G01 X262.616 Y400.282
G01 X272.483 Y393.800
G01 X140.762 Y488.807
G01 X185.072 Y558.099
G01 X64.149 Y581.104
G01 X78.184 Y721.663
G01 X25.729 Y703.334
G01 X5.000 Y763.785
G01 X5.000 Y5.000
G01 X710.000 Y5.000
G01 X710.000 Y54.464
G01 X708.102 Y50.139
G01 X562.318 Y132.897
G01 X587.025 Y170.712
G01 X440.976 Y183.378
G01 X441.626 Y298.329
G01 X356.463 Y264.804
G01 X289.230 Y408.589
G01 X285.276 Y390.575
G01 X159.316 Y497.980
G01 X201.687 Y549.770
G01 X72.858 Y585.703
G01 X97.180 Y714.320
G01 X27.777 Y698.911
G01 X5.000 Y788.761
G01 X5.000 Y5.000
G01 X710.000 Y5.000
G01 X710.000 Y73.534
G01 X589.040 Y155.975
G01 X610.655 Y176.039
G01 X459.139 Y201.834
G01 X469.429 Y303.032
G01 X368.576 Y273.679
G01 X316.007 Y416.278
G01 X296.778 Y389.053
G01 X179.009 Y507.348
G01 X216.722 Y541.929
G01 X82.694 Y591.645
G01 X115.337 Y706.346
G01 X30.042 Y696.427
G01 X5.000 Y846.558
G01 X5.000 Y5.000
G01 X710.000 Y5.000
G01 X710.000 Y103.360
G01 X616.373 Y179.215
G01 X632.242 Y182.169
G01 X478.061 Y221.651
G01 X495.822 Y307.396
G01 X380.645 Y284.671
G01 X342.678 Y423.268
G01 X307.155 Y389.387
G01 X199.713 Y516.671
G01 X230.150 Y534.820
G01 X93.745 Y598.695
G01 X132.437 Y697.894
G01 X32.747 Y695.821
G01 X20.262 Y849.426
G01 X5.000 Y834.148
G01 X5.000 Y5.000
G01 X710.000 Y5.000
G01 X710.000 Y139.224
G01 X644.162 Y202.374
G01 X651.787 Y189.329
G01 X497.800 Y242.567
G01 X520.602 Y311.581
G01 X392.882 Y297.674
G01 X368.967 Y429.521
G01 X316.601 Y391.691
G01 X221.261 Y525.727
G01 X241.987 Y528.684
G01 X106.059 Y606.601
G01 X148.290 Y689.149
G01 X36.103 Y696.986
G01 X36.777 Y843.422
G01 X5.000 Y824.458
G01 X5.000 Y5.000
G01 X710.000 Y5.000
G01 X710.000 Y182.274
G01 X672.215 Y225.235
G01 X669.335 Y197.738
G01 X518.373 Y264.311
G01 X543.601 Y315.776
G01 X405.479 Y312.543
G01 X394.597 Y435.043
G01 X325.331 Y396.035
G01 X243.452 Y534.325
G01 X252.296 Y523.749
G01 X119.638 Y615.104
G01 X162.744 Y680.321
G01 X40.301 Y699.777
G01 X52.953 Y836.496
G01 X5.000 Y817.216
G01 X5.000 Y5.000
G01 X710.000 Y5.000
G01 X710.000 Y234.463
G01 X700.311 Y247.615
G01 X684.973 Y207.597
G01 X539.751 Y286.607
G01 X564.693 Y320.191
G01 X418.607 Y329.094
G01 X419.300 Y439.883
G01 X333.569 Y402.450
G01 X266.057 Y542.304
G01 X261.178 Y520.222
G01 X134.442 Y623.942
G01 X175.689 Y671.636
G01 X45.501 Y704.013
G01 X68.531 Y828.724
G01 X5.000 Y811.814
G01 X5.000 Y5.000
G01 X710.000 Y5.000
G01 X710.000 Y238.204
G01 X698.829 Y219.085
G01 X561.863 Y309.183
G01 X583.791 Y325.047
G01 X432.402 Y347.111
G01 X442.826 Y444.131
G01 X341.546 Y410.919
G01 X288.823 Y549.544
G01 X268.773 Y518.286
G01 X150.387 Y632.858
G01 X187.056 Y663.336
G01 X51.833 Y709.484
G01 X83.272 Y820.223
G01 X5.000 Y808.103
G01 X5.000 Y5.000
G01 X710.000 Y5.000
G01 X710.000 Y233.185
G01 X584.595 Y331.777
G01 X600.855 Y330.574
G01 X446.966 Y366.353
G01 X464.946 Y447.915
G01 X349.489 Y421.379
G01 X311.486 Y555.965
G01 X275.252 Y518.091
G01 X167.346 Y641.613
G01 X196.821 Y655.664
G01 X59.388 Y715.953
G01 X96.957 Y811.146
G01 X5.000 Y806.037
G01 X5.000 Y5.000
G01 X710.000 Y5.000
G01 X710.000 Y258.595
G01 X607.795 Y354.148
G01 X615.891 Y337.000
G01 X462.361 Y386.560
G01 X485.462 Y451.396
G01 X357.613 Y433.724
G01 X333.772 Y561.527
G01 X280.813 Y519.751
G01 X185.156 Y649.986
G01 X205.006 Y648.860
G01 X68.215 Y723.171
G01 X109.404 Y801.678
G01 X5.000 Y805.617
G01 X5.000 Y5.000
G01 X710.000 Y5.000
G01 X710.000 Y288.480
G01 X631.274 Y376.081
G01 X628.948 Y344.544
G01 X478.604 Y407.459
G01 X504.210 Y454.762
G01 X366.115 Y447.809
G01 X355.408 Y566.240
G01 X285.673 Y523.337
G01 X203.617 Y657.786
G01 X211.676 Y643.150
G01 X78.319 Y730.877
G01 X120.462 Y792.029
G01 X5.000 Y806.875
G01 X5.000 Y903.301
G01 X8.248 Y940.803
G01 X5.000 Y939.331
G01 X5.000 Y5.000
G01 X710.000 Y5.000
G01 X710.000 Y323.784
G01 X654.817 Y397.392
G01 X640.120 Y353.408
G01 X495.673 Y428.776
G01 X521.067 Y458.224
G01 X375.168 Y463.450
G01 X376.131 Y570.152
G01 X290.062 Y528.877
G01 X222.504 Y664.853
G01 X216.936 Y638.744
G01 X89.663 Y738.808
G01 X130.025 Y782.427
G01 X5.000 Y809.875
G01 X5.000 Y845.776
G01 X20.698 Y932.054
G01 X5.000 Y927.199
G01 X5.000 Y5.000
G01 X710.000 Y5.000
G01 X710.000 Y366.275
G01 X678.180 Y417.932
G01 X649.536 Y363.768
G01 X513.498 Y450.237
G01 X535.952 Y462.004
G01 X384.912 Y480.430
G01 X395.693 Y573.354
G01 X294.214 Y536.355
G01 X241.569 Y671.067
G01 X220.931 Y635.823
G01 X102.165 Y746.710
G01 X138.027 Y773.112
G01 X5.000 Y814.720
G01 X5.000 Y826.741
G01 X32.323 Y922.486
G01 X5.000 Y917.226
G01 X5.000 Y5.000
G01 X710.000 Y5.000
G01 X710.000 Y419.536
G01 X701.108 Y437.595
G01 X657.364 Y375.774
G01 X531.969 Y471.584
G01 X548.830 Y466.334
G01 X395.451 Y498.509
G01 X413.870 Y575.976
G01 X298.358 Y545.707
G01 X260.548 Y676.348
G01 X223.834 Y634.539
G01 X115.700 Y754.343
G01 X144.450 Y764.329
G01 X6.228 Y821.055
G01 X42.913 Y912.251
G01 X5.000 Y908.860
G01 X5.000 Y5.000
G01 X710.000 Y5.000
G01 X710.000 Y441.363
G01 X663.797 Y389.537
G01 X550.937 Y492.576
G01 X559.711 Y471.440
G01 X406.850 Y517.427
G01 X430.467 Y578.179
G01 X302.713 Y556.829
G01 X279.171 Y680.661
G01 X225.848 Y635.002
G01 X130.108 Y761.487
G01 X149.317 Y756.318
G01 X11.901 Y827.053
G01 X52.286 Y901.536
G01 X5.000 Y901.843
G01 X5.000 Y5.000
G01 X710.000 Y5.000
G01 X710.000 Y442.508
G01 X669.051 Y405.129
G01 X570.217 Y512.998
G01 X568.648 Y477.543
G01 X419.131 Y536.911
G01 X445.327 Y580.153
G01 X307.479 Y569.573
G01 X297.171 Y684.014
G01 X227.194 Y637.286
G01 X145.192 Y767.952
G01 X152.698 Y749.305
G01 X18.880 Y833.439
G01 X60.296 Y890.551
G01 X5.000 Y896.036
G01 X5.000 Y5.000
G01 X710.000 Y5.000
G01 X710.000 Y450.016
G01 X673.358 Y422.580
G01 X589.596 Y532.667
G01 X575.738 Y484.844
G01 X432.272 Y556.688
G01 X458.328 Y582.109
G01 X312.833 Y583.756
G01 X314.285 Y686.458
G01 X228.104 Y641.418
G01 X160.729 Y773.580
G01 X154.702 Y743.500
G01 X27.127 Y839.951
G01 X66.839 Y879.527
G01 X5.000 Y891.362
G01 X5.000 Y5.000
G01 X710.000 Y5.000
G01 X710.000 Y462.095
G01 X676.957 Y441.875
G01 X608.836 Y551.439
G01 X581.118 Y493.523
G01 X446.208 Y576.486
G01 X469.395 Y584.271
G01 X318.916 Y599.163
G01 X330.271 Y688.084
G01 X228.815 Y647.381
G01 X176.474 Y778.251
G01 X155.476 Y739.086
G01 X36.563 Y846.337
G01 X71.854 Y868.703
G01 X5.000 Y887.781
G01 X5.000 Y5.000
G01 X710.000 Y5.000
G01 X710.000 Y477.696
G01 X680.084 Y462.953
G01 X627.682 Y569.207
G01 X584.957 Y503.727
G01 X460.832 Y596.048
G01 X478.497 Y586.870
G01 X325.836 Y615.553
G01 X344.908 Y689.025
G01 X229.559 Y655.114
G01 X192.166 Y781.889
G01 X155.199 Y736.212
G01 X47.067 Y852.356
G01 X75.324 Y858.324
G01 X5.000 Y885.282
G01 X5.000 Y5.000
G01 X710.000 Y5.000
G01 X710.000 Y496.135
G01 X682.970 Y485.710
G01 X645.872 Y585.910
G01 X587.453 Y515.569
G01 X475.997 Y615.133
G01 X485.647 Y590.137
G01 X333.661 Y632.667
G01 X358.005 Y689.442
G01 X230.560 Y664.509
G01 X207.538 Y784.457
G01 X154.076 Y734.991
G01 X58.479 Y857.790
G01 X77.278 Y848.631
G01 X5.000 Y883.878
G01 X5.000 Y5.000
G01 X710.000 Y5.000
G01 X710.000 Y516.931
G01 X685.827 Y509.999
G01 X663.142 Y601.529
G01 X588.827 Y529.122
G01 X491.522 Y633.529
G01 X490.903 Y594.290
G01 X342.415 Y650.234
G01 X369.407 Y689.527
G01 X232.020 Y675.423
G01 X222.326 Y785.967
G01 X152.329 Y735.496
G01 X70.606 Y862.451
G01 X77.788 Y839.853
G01 X5.000 Y883.613
G01 X5.000 Y5.000
G01 X710.000 Y5.000
G01 X710.000 Y539.725
G01 X688.847 Y535.638
G01 X679.232 Y616.091
G01 X589.314 Y544.416
G01 X507.196 Y651.056
G01 X494.368 Y599.533
G01 X352.079 Y667.980
G01 X378.999 Y689.493
G01 X234.115 Y687.670
G01 X236.271 Y786.470
G01 X150.196 Y737.755
G01 X83.226 Y866.181
G01 X76.967 Y832.199
G01 X5.000 Y884.572
G01 X5.000 Y5.000
G01 X710.000 Y5.000
G01 X710.000 Y564.242
G01 X692.190 Y562.409
G01 X693.901 Y629.663
G01 X589.156 Y561.436
G01 X522.785 Y667.570
G01 X496.179 Y606.046
G01 X362.590 Y685.638
G01 X386.707 Y689.565
G01 X236.994 Y701.038
G01 X249.133 Y786.062
G01 X147.915 Y741.751
G01 X96.097 Y868.864
G01 X74.964 Y825.851
G01 X5.000 Y886.892
G01 X5.000 Y5.000
G01 X710.000 Y5.000
G01 X710.000 Y590.264
G01 X695.982 Y590.067
G01 X706.925 Y642.353
G01 X588.593 Y580.125
G01 X538.038 Y682.967
G01 X496.512 Y613.977
G01 X373.844 Y702.948
G01 X392.506 Y689.975
G01 X240.765 Y715.286
G01 X260.695 Y784.874
G01 X145.722 Y747.423
G01 X108.961 Y870.423
G01 X71.962 Y820.960
G01 X5.000 Y890.807
G01 X5.000 Y5.000
G01 X710.000 Y5.000
G01 X710.000 Y617.621
G01 X700.313 Y618.347
G01 X710.000 Y637.917
G01 X710.000 Y650.946
G01 X587.859 Y600.377
G01 X552.694 Y697.188
G01 X495.567 Y623.441
G01 X385.697 Y719.676
G01 X396.412 Y690.955
G01 X245.497 Y730.156
G01 X270.769 Y783.072
G01 X143.843 Y754.665
G01 X121.554 Y870.826
G01 X68.169 Y817.641
G01 X5.000 Y896.702
G01 X5.000 Y5.000
G01 X710.000 Y5.000
G01 X710.000 Y646.180
G01 X705.228 Y646.973
G01 X710.000 Y651.018
G01 X710.000 Y660.300
G01 X587.170 Y622.049
G01 X566.494 Y710.218
G01 X493.569 Y634.511
G01 X397.971 Y735.609
G01 X398.487 Y692.727
G01 X251.219 Y745.379
G01 X279.205 Y780.848
G01 X142.482 Y763.333
G01 X133.612 Y870.084
G01 X63.810 Y815.965
G01 X5.000 Y905.258
G01 X5.000 Y5.000
G01 X710.000 Y5.000
G01 X710.000 Y671.461
G01 X586.720 Y644.957
G01 X579.182 Y722.084
G01 X490.757 Y647.220
G01 X410.456 Y750.569
G01 X398.836 Y695.493
G01 X257.913 Y760.683
G01 X285.890 Y778.416
G01 X141.819 Y773.244
G01 X144.883 Y868.253
G01 X59.125 Y815.962
G01 X5.000 Y917.754
G01 X5.000 Y5.000
G01 X710.000 Y5.000
G01 X710.000 Y683.976
G01 X586.671 Y668.887
G01 X590.518 Y732.859
G01 X487.375 Y661.553
G01 X422.923 Y764.415
G01 X397.603 Y699.436
G01 X265.518 Y775.800
G01 X290.754 Y776.005
G01 X142.003 Y784.186
G01 X155.127 Y865.428
G01 X54.355 Y817.616
G01 X5.000 Y936.893
G01 X5.000 Y1600.000
G01 X710.000 Y1600.000
G01 X710.000 Y697.466
G01 X587.155 Y693.595
G01 X600.285 Y742.651
G01 X483.668 Y677.452
G01 X435.121 Y777.047
G01 X394.964 Y704.706
G01 X273.932 Y790.476
G01 X293.775 Y773.848
G01 X143.146 Y795.918
G01 X164.131 Y861.745
G01 X49.739 Y820.867
G01 X13.818 Y940.194
G01 X5.000 Y927.463
G01 X5.000 Y1600.000
G01 X710.000 Y1600.000
G01 X710.000 Y711.591
G01 X588.261 Y718.819
G01 X608.292 Y751.605
G01 X479.871 Y694.815
G01 X446.795 Y788.408
G01 X391.124 Y711.417
G01 X283.014 Y804.476
G01 X294.973 Y772.178
G01 X145.318 Y808.186
G01 X171.710 Y857.370
G01 X45.503 Y825.610
G01 X24.151 Y938.091
G01 X5.000 Y917.603
G01 X5.000 Y1600.000
G01 X710.000 Y1600.000
G01 X710.000 Y726.029
G01 X590.038 Y744.283
G01 X614.384 Y759.898
G01 X476.203 Y713.501
G01 X457.687 Y798.484
G01 X386.311 Y719.646
G01 X292.587 Y817.591
G01 X294.413 Y771.218
G01 X148.549 Y820.721
G01 X177.717 Y852.499
G01 X41.855 Y831.700
G01 X34.010 Y934.772
G01 X5.000 Y910.669
G01 X5.000 Y1600.000
G01 X710.000 Y1600.000
G01 X710.000 Y740.450
G01 X592.493 Y769.706
G01 X618.442 Y767.727
G01 X472.860 Y733.326
G01 X467.545 Y807.307
G01 X380.767 Y729.425
G01 X302.446 Y829.646
G01 X292.204 Y771.174
G01 X152.823 Y833.253
G01 X182.041 Y847.348
G01 X38.976 Y838.957
G01 X43.145 Y930.295
G01 X5.000 Y905.345
G01 X5.000 Y1600.000
G01 X710.000 Y1600.000
G01 X710.000 Y754.496
G01 X595.586 Y794.808
G01 X620.393 Y775.308
G01 X470.010 Y754.079
G01 X476.131 Y814.951
G01 X374.738 Y740.741
G01 X312.360 Y840.502
G01 X288.491 Y772.229
G01 X158.083 Y845.518
G01 X184.618 Y842.146
G01 X37.017 Y847.170
G01 X51.318 Y924.758
G01 X5.000 Y901.076
G01 X5.000 Y1600.000
G01 X710.000 Y1600.000
G01 X710.000 Y767.740
G01 X599.239 Y819.323
G01 X620.207 Y782.864
G01 X467.782 Y775.518
G01 X483.232 Y821.528
G01 X368.472 Y753.540
G01 X322.085 Y850.061
G01 X283.456 Y774.534
G01 X164.228 Y857.262
G01 X185.426 Y837.129
G01 X36.091 Y856.101
G01 X58.320 Y918.299
G01 X5.000 Y897.564
G01 X5.000 Y1600.000
G01 X710.000 Y1600.000
G01 X710.000 Y779.629
G01 X603.330 Y842.998
G01 X617.899 Y790.620
G01 X466.270 Y797.383
G01 X488.660 Y827.188
G01 X362.207 Y767.720
G01 X331.366 Y858.270
G01 X277.305 Y778.207
G01 X171.117 Y868.253
G01 X184.489 Y832.533
G01 X36.272 Y865.495
G01 X63.969 Y911.086
G01 X5.000 Y894.621
G01 X5.000 Y1600.000
G01 X710.000 Y1600.000
G01 X710.000 Y802.772
G01 X704.348 Y793.587
G01 X607.703 Y865.610
G01 X613.530 Y798.796
G01 X465.526 Y819.400
G01 X492.263 Y832.107
G01 X356.164 Y783.140
G01 X339.948 Y865.118
G01 X270.270 Y783.324
G01 X178.577 Y878.285
G01 X181.876 Y828.581
G01 X37.589 Y875.087
G01 X68.118 Y903.318
G01 X5.000 Y892.105
G01 X5.000 Y1600.000
G01 X710.000 Y1600.000
G01 X710.000 Y833.883
G01 X692.997 Y811.578
G01 X612.171 Y886.964
G01 X607.204 Y807.595
G01 X465.556 Y841.290
G01 X493.926 Y836.488
G01 X350.541 Y799.621
G01 X347.580 Y870.640
G01 X262.592 Y789.920
G01 X186.402 Y887.185
G01 X177.698 Y825.483
G01 X40.028 Y884.608
G01 X70.662 Y895.212
G01 X5.000 Y889.905
G01 X5.000 Y1600.000
G01 X710.000 Y1600.000
G01 X710.000 Y862.212
G01 X680.848 Y830.839
G01 X616.521 Y906.902
G01 X599.064 Y817.201
G01 X466.324 Y862.779
G01 X493.578 Y840.548
G01 X345.507 Y816.952
G01 X354.031 Y874.913
G01 X254.524 Y797.984
G01 X194.367 Y894.818
G01 X172.102 Y823.421
G01 X43.534 Y893.796
G01 X71.536 Y887.001
G01 X5.000 Y887.917
G01 X5.000 Y1600.000
G01 X710.000 Y1600.000
G01 X710.000 Y888.472
G01 X668.158 Y851.323
G01 X620.523 Y925.306
G01 X589.291 Y827.769
G01 X467.752 Y883.601
G01 X491.193 Y844.513
G01 X341.194 Y834.895
G01 X359.086 Y878.053
G01 X246.314 Y807.462
G01 X202.226 Y901.089
G01 X165.273 Y822.551
G01 X48.006 Y902.401
G01 X70.723 Y878.923
G01 X5.000 Y886.046
G01 X5.000 Y1600.000
G01 X710.000 Y1600.000
G01 X710.000 Y912.976
G01 X655.180 Y872.937
G01 X623.934 Y942.101
G01 X578.093 Y839.419
G01 X469.722 Y903.508
G01 X486.788 Y848.613
G01 X337.698 Y853.191
G01 X362.561 Y880.211
G01 X238.201 Y818.256
G01 X209.729 Y905.947
G01 X157.420 Y822.991
G01 X53.305 Y910.193
G01 X68.250 Y871.215
G01 X5.000 Y884.189
G01 X5.000 Y1600.000
G01 X710.000 Y1600.000
G01 X710.000 Y935.837
G01 X642.152 Y895.546
G01 X626.508 Y957.258
G01 X565.706 Y852.236
G01 X472.078 Y922.279
G01 X480.428 Y853.068
G01 X335.070 Y871.569
G01 X364.307 Y881.569
G01 X230.410 Y830.226
G01 X216.620 Y909.386
G01 X148.776 Y824.819
G01 X59.260 Y916.969
G01 X64.187 Y864.104
G01 X5.000 Y882.235
G01 X5.000 Y1600.000
G01 X710.000 Y1600.000
G01 X710.000 Y957.050
G01 X629.293 Y918.978
G01 X628.005 Y970.792
G01 X552.379 Y866.261
G01 X474.636 Y939.724
G01 X472.218 Y858.085
G01 X333.319 Y889.754
G01 X364.213 Y882.330
G01 X223.138 Y843.195
G01 X222.653 Y911.443
G01 X139.586 Y828.071
G01 X65.667 Y922.559
G01 X58.647 Y857.799
G01 X5.000 Y880.054
G01 X5.000 Y1600.000
G01 X710.000 Y1600.000
G01 X710.000 Y976.532
G01 X616.790 Y943.027
G01 X628.195 Y982.760
G01 X538.372 Y881.493
G01 X477.184 Y955.688
G01 X462.307 Y863.850
G01 X332.412 Y907.473
G01 X362.209 Y882.716
G01 X216.557 Y856.954
G01 X227.597 Y912.198
G01 X130.103 Y832.740
G01 X72.299 Y926.830
G01 X51.781 Y852.487
G01 X5.000 Y877.482
G01 X5.000 Y1600.000
G01 X710.000 Y1600.000
G01 X710.000 Y994.135
G01 X604.801 Y967.457
G01 X626.870 Y993.263
G01 X523.945 Y897.886
G01 X479.494 Y970.057
G01 X450.875 Y870.521
G01 X332.270 Y924.464
G01 X358.272 Y882.956
G01 X210.800 Y871.268
G01 X231.240 Y911.771
G01 X120.576 Y838.772
G01 X78.916 Y929.691
G01 X43.775 Y848.323
G01 X5.000 Y874.299
G01 X5.000 Y1600.000
G01 X710.000 Y1600.000
G01 X710.000 Y1082.648
G01 X705.683 Y1084.389
G01 X710.000 Y1073.787
G01 X710.000 Y1009.643
G01 X593.444 Y992.012
G01 X623.846 Y1002.435
G01 X509.353 Y915.349
G01 X481.324 Y982.760
G01 X438.135 Y878.221
G01 X332.776 Y940.484
G01 X352.422 Y883.282
G01 X205.963 Y885.881
G01 X233.402 Y910.317
G01 X111.248 Y846.071
G01 X85.265 Y931.094
G01 X34.840 Y845.429
G01 X5.000 Y870.185
G01 X5.000 Y1600.000
G01 X710.000 Y1600.000
G01 X710.000 Y1102.684
G01 X699.135 Y1108.701
G01 X710.000 Y1065.405
G01 X710.000 Y1022.761
G01 X582.798 Y1016.420
G01 X618.974 Y1010.447
G01 X494.836 Y933.751
G01 X482.431 Y993.772
G01 X424.323 Y887.037
G01 X333.778 Y955.315
G01 X344.725 Y883.917
G01 X202.100 Y900.524
G01 X233.933 Y908.019
G01 X102.343 Y854.500
G01 X91.095 Y931.036
G01 X25.211 Y843.885
G01 X5.000 Y864.632
G01 X5.000 Y1600.000
G01 X710.000 Y1600.000
G01 X710.000 Y1118.551
G01 X692.750 Y1131.398
G01 X704.532 Y1033.379
G01 X572.895 Y1040.405
G01 X612.141 Y1017.490
G01 X480.612 Y952.923
G01 X482.577 Y1003.112
G01 X409.691 Y897.014
G01 X335.090 Y968.768
G01 X335.290 Y885.072
G01 X199.221 Y914.926
G01 X232.726 Y905.086
G01 X94.061 Y863.885
G01 X96.161 Y929.559
G01 X15.134 Y843.728
G01 X5.000 Y856.749
G01 X5.000 Y1600.000
G01 X710.000 Y1600.000
G01 X710.000 Y1128.326
G01 X686.335 Y1152.313
G01 X686.636 Y1043.828
G01 X563.728 Y1063.687
G01 X603.276 Y1023.779
G01 X466.873 Y972.661
G01 X481.533 Y1010.842
G01 X394.500 Y908.151
G01 X336.503 Y980.694
G01 X324.267 Y886.935
G01 X197.291 Y928.815
G01 X229.713 Y901.741
G01 X86.573 Y874.018
G01 X100.232 Y926.745
G01 X5.000 Y845.070
G01 X5.000 Y1600.000
G01 X710.000 Y1600.000
G01 X710.000 Y1126.951
G01 X679.680 Y1171.317
G01 X667.064 Y1054.800
G01 X555.243 Y1085.999
G01 X592.352 Y1029.538
G01 X453.774 Y992.733
G01 X479.092 Y1017.065
G01 X379.012 Y920.406
G01 X337.789 Y990.984
G01 X311.839 Y889.666
G01 X196.234 Y941.935
G01 X224.873 Y898.217
G01 X80.015 Y884.666
G01 X103.100 Y922.717
G01 X5.000 Y854.685
G01 X5.000 Y1600.000
G01 X710.000 Y1600.000
G01 X710.000 Y1156.082
G01 X692.846 Y1137.152
G01 X672.558 Y1188.326
G01 X646.032 Y1066.429
G01 X547.349 Y1107.089
G01 X579.386 Y1034.997
G01 X441.437 Y1012.887
G01 X475.075 Y1021.922
G01 X363.484 Y933.692
G01 X338.709 Y999.570
G01 X298.220 Y893.392
G01 X195.934 Y954.045
G01 X218.227 Y894.748
G01 X74.481 Y895.577
G01 X104.585 Y917.634
G01 X5.000 Y862.514
G01 X5.000 Y1600.000
G01 X710.000 Y1600.000
G01 X710.000 Y1195.569
G01 X668.695 Y1158.174
G01 X664.739 Y1203.299
G01 X623.781 Y1078.813
G01 X539.914 Y1126.727
G01 X564.442 Y1040.379
G01 X429.939 Y1032.854
G01 X469.332 Y1025.584
G01 X348.155 Y947.880
G01 X339.021 Y1006.430
G01 X283.647 Y898.202
G01 X196.238 Y964.929
G01 X209.845 Y891.562
G01 X70.027 Y906.485
G01 X104.539 Y911.683
G01 X5.000 Y868.928
G01 X5.000 Y1600.000
G01 X710.000 Y1600.000
G01 X710.000 Y1298.045
G01 X705.884 Y1297.623
G01 X710.000 Y1295.093
G01 X710.000 Y1227.835
G01 X644.750 Y1179.667
G01 X655.994 Y1216.240
G01 X600.571 Y1092.009
G01 X532.775 Y1144.717
G01 X547.628 Y1045.900
G01 X419.315 Y1052.361
G01 X461.753 Y1028.251
G01 X333.246 Y962.803
G01 X338.486 Y1011.588
G01 X268.375 Y904.142
G01 X196.962 Y974.406
G01 X199.836 Y888.870
G01 X66.663 Y917.120
G01 X102.857 Y905.074
G01 X5.000 Y874.129
G01 X5.000 Y1600.000
G01 X710.000 Y1600.000
G01 X710.000 Y1321.845
G01 X686.223 Y1322.217
G01 X710.000 Y1300.923
G01 X710.000 Y1253.996
G01 X621.225 Y1201.439
G01 X646.103 Y1227.200
G01 X576.673 Y1106.031
G01 X525.741 Y1160.893
G01 X529.092 Y1051.752
G01 X409.556 Y1071.133
G01 X452.268 Y1030.138
G01 X318.948 Y978.261
G01 X336.879 Y1015.110
G01 X252.665 Y911.217
G01 X197.898 Y982.327
G01 X188.352 Y886.864
G01 X64.355 Y927.216
G01 X99.472 Y898.036
G01 X5.000 Y878.223
G01 X5.000 Y1600.000
G01 X710.000 Y1600.000
G01 X710.000 Y1339.453
G01 X667.310 Y1345.559
G01 X710.000 Y1293.645
G01 X710.000 Y1274.630
G01 X598.299 Y1223.268
G01 X634.864 Y1236.269
G01 X552.362 Y1120.852
G01 X518.602 Y1175.133
G01 X509.019 Y1058.106
G01 X400.611 Y1088.906
G01 X440.852 Y1031.475
G01 X305.418 Y994.026
G01 X333.995 Y1017.104
G01 X236.781 Y919.385
G01 X198.818 Y988.588
G01 X175.578 Y885.708
G01 X63.026 Y936.518
G01 X94.365 Y890.803
G01 X5.000 Y881.247
G01 X5.000 Y1600.000
G01 X710.000 Y1600.000
G01 X710.000 Y1349.841
G01 X649.077 Y1367.395
G01 X699.131 Y1286.292
G01 X576.118 Y1244.908
G01 X622.098 Y1243.580
G01 X527.908 Y1136.397
G01 X511.132 Y1187.356
G01 X487.625 Y1065.098
G01 X392.386 Y1105.433
G01 X427.524 Y1032.494
G01 X292.776 Y1009.847
G01 X329.653 Y1017.714
G01 X220.978 Y928.562
G01 X199.483 Y993.126
G01 X161.728 Y885.530
G01 X62.562 Y944.788
G01 X87.559 Y883.613
G01 X5.000 Y883.186
G01 X5.000 Y1600.000
G01 X710.000 Y1600.000
G01 X710.000 Y1403.757
G01 X703.122 Y1354.055
G01 X631.418 Y1387.492
G01 X674.961 Y1292.236
G01 X554.785 Y1266.099
G01 X607.660 Y1249.294
G01 X503.570 Y1152.553
G01 X503.102 Y1197.527
G01 X465.152 Y1072.830
G01 X384.752 Y1120.488
G01 X412.351 Y1033.424
G01 X281.101 Y1025.462
G01 X323.707 Y1017.116
G01 X205.499 Y938.623
G01 X199.653 Y995.923
G01 X147.043 Y886.421
G01 X62.808 Y951.817
G01 X79.125 Y876.695
G01 X5.000 Y883.977
G01 X5.000 Y1600.000
G01 X710.000 Y1600.000
G01 X710.000 Y1505.366
G01 X678.198 Y1472.175
G01 X703.064 Y1501.612
G01 X669.971 Y1366.012
G01 X614.191 Y1405.645
G01 X648.944 Y1297.902
G01 X534.360 Y1286.571
G01 X591.438 Y1253.607
G01 X479.586 Y1169.166
G01 X494.283 Y1205.655
G01 X441.863 Y1081.361
G01 X377.546 Y1133.878
G01 X395.439 Y1034.482
G01 X270.428 Y1040.597
G01 X316.047 Y1015.512
G01 X190.563 Y949.404
G01 X199.090 Y997.005
G01 X131.775 Y888.432
G01 X63.583 Y957.424
G01 X69.173 Y870.266
G01 X5.000 Y883.503
G01 X5.000 Y1600.000
G01 X709.250 Y1600.000
G01 X710.000 Y1599.476
G01 X710.000 Y1546.793
G01 X644.140 Y1491.325
G01 X683.303 Y1511.253
G01 X636.158 Y1378.444
G01 X597.225 Y1421.683
G01 X621.225 Y1303.494
G01 X514.862 Y1306.050
G01 X573.360 Y1256.731
G01 X456.170 Y1186.048
G01 X484.455 Y1211.795
G01 X418.027 Y1090.712
G01 X370.576 Y1145.445
G01 X376.939 Y1035.865
G01 X260.747 Y1054.985
G01 X306.605 Y1013.123
G01 X176.362 Y960.707
G01 X197.570 Y996.445
G01 X116.188 Y891.569
G01 X64.676 Y961.466
G01 X57.857 Y864.518
G01 X5.000 Y881.576
G01 X5.000 Y1600.000
G01 X691.946 Y1600.000
G01 X710.000 Y1583.496
G01 X710.000 Y1576.616
G01 X610.792 Y1510.263
G01 X662.399 Y1518.626
G01 X601.969 Y1391.344
G01 X580.326 Y1435.476
G01 X591.991 Y1309.195
G01 X496.262 Y1324.274
G01 X553.400 Y1258.896
G01 X433.501 Y1202.980
G01 X473.419 Y1216.043
G01 X393.922 Y1100.855
G01 X363.633 Y1155.068
G01 X357.037 Y1037.747
G01 X252.007 Y1068.365
G01 X295.357 Y1010.182
G01 X163.053 Y972.308
G01 X194.886 Y994.352
G01 X100.546 Y895.793
G01 X65.861 Y963.842
G01 X45.361 Y859.618
G01 X5.000 Y877.895
G01 X5.000 Y1600.000
G01 X667.522 Y1600.000
G01 X682.672 Y1582.322
G01 X578.323 Y1528.755
G01 X640.179 Y1523.855
G01 X567.688 Y1404.657
G01 X563.284 Y1446.934
G01 X561.461 Y1315.158
G01 X478.492 Y1340.992
G01 X531.572 Y1260.338
G01 X411.723 Y1219.722
G01 X460.995 Y1218.535
G01 X369.816 Y1111.721
G01 X356.491 Y1162.673
G01 X335.950 Y1040.268
G01 X244.115 Y1080.492
G01 X282.323 Y1006.924
G01 X150.756 Y983.959
G01 X190.862 Y990.876
G01 X85.105 Y901.023
G01 X66.901 Y964.492
G01 X31.903 Y855.697
G01 X5.000 Y871.972
G01 X5.000 Y1600.000
G01 X638.593 Y1600.000
G01 X649.226 Y1584.222
G01 X546.859 Y1546.553
G01 X616.495 Y1527.103
G01 X533.589 Y1418.289
G01 X545.882 Y1456.013
G01 X529.880 Y1321.499
G01 X461.445 Y1355.977
G01 X507.941 Y1261.290
G01 X390.940 Y1236.016
G01 X447.039 Y1219.439
G01 X345.969 Y1123.199
G01 X348.920 Y1168.228
G01 X313.921 Y1043.531
G01 X236.941 Y1091.147
G01 X267.571 Y1003.582
G01 X139.549 Y995.400
G01 X185.350 Y986.197
G01 X70.106 Y907.137
G01 X67.553 Y963.404
G01 X17.721 Y852.850
G01 X5.000 Y862.941
G01 X5.000 Y1600.000
G01 X606.508 Y1600.000
G01 X614.109 Y1585.458
G01 X516.486 Y1563.396
G01 X591.235 Y1528.561
G01 X499.930 Y1432.105
G01 X527.901 Y1462.715
G01 X497.515 Y1328.298
G01 X444.979 Y1369.027
G01 X482.611 Y1261.978
G01 X371.211 Y1251.597
G01 X431.440 Y1218.953
G01 X322.619 Y1135.140
G01 X340.692 Y1171.749
G01 X291.211 Y1047.602
G01 X230.319 Y1100.139
G01 X251.208 Y1000.377
G01 X129.466 Y1006.363
G01 X178.242 Y980.520
G01 X55.770 Y913.972
G01 X67.580 Y960.608
G01 X5.000 Y854.404
G01 X5.000 Y1600.000
G01 X572.083 Y1600.000
G01 X577.467 Y1586.249
G01 X487.246 Y1579.021
G01 X564.325 Y1528.444
G01 X466.941 Y1445.933
G01 X509.128 Y1467.085
G01 X464.648 Y1335.594
G01 X428.922 Y1379.979
G01 X455.732 Y1262.612
G01 X352.553 Y1266.196
G01 X414.126 Y1217.295
G01 X299.977 Y1147.359
G01 X331.589 Y1173.293
G01 X268.092 Y1052.502
G01 X224.061 Y1107.315
G01 X233.385 Y997.509
G01 X120.497 Y1016.583
G01 X169.470 Y974.070
G01 X42.286 Y921.334
G01 X66.759 Y956.178
G01 X5.000 Y873.117
G01 X5.000 Y1600.000
G01 X535.877 Y1600.000
G01 X539.482 Y1586.795
G01 X459.134 Y1593.169
G01 X535.734 Y1526.986
G01 X434.825 Y1459.573
G01 X489.366 Y1469.215
G01 X431.562 Y1343.380
G01 X413.079 Y1388.705
G01 X427.488 Y1263.377
G01 X334.937 Y1279.554
G01 X395.071 Y1214.699
G01 X278.225 Y1159.641
G01 X321.409 Y1172.963
G01 X244.840 Y1058.207
G01 X217.954 Y1112.560
G01 X214.289 Y995.155
G01 X112.591 Y1025.803
G01 X159.011 Y967.083
G01 X29.813 Y929.002
G01 X64.885 Y950.230
G01 X5.000 Y885.299
G01 X5.000 Y1600.000
G01 X498.308 Y1600.000
G01 X500.373 Y1587.268
G01 X452.938 Y1600.000
G01 X437.159 Y1600.000
G01 X505.473 Y1524.429
G01 X403.748 Y1472.796
G01 X468.440 Y1469.235
G01 X398.542 Y1351.607
G01 X397.241 Y1395.122
G01 X398.098 Y1264.431
G01 X318.295 Y1291.426
G01 X374.291 Y1211.405
G01 X257.504 Y1171.748
G01 X309.975 Y1170.898
G01 X221.723 Y1064.653
G01 X211.775 Y1115.803
G01 X194.138 Y993.458
G01 X105.653 Y1033.782
G01 X146.887 Y959.799
G01 X18.469 Y936.731
G01 X61.779 Y942.917
G01 X5.000 Y893.046
G01 X5.000 Y1600.000
G01 X459.710 Y1600.000
G01 X460.387 Y1587.806
G01 X436.949 Y1600.000
G01 X417.485 Y1600.000
G01 X473.601 Y1521.018
G01 X373.835 Y1485.359
G01 X446.203 Y1467.311
G01 X365.860 Y1360.184
G01 X381.189 Y1399.190
G01 X367.808 Y1265.894
G01 X302.518 Y1301.588
G01 X351.849 Y1207.651
G01 X237.916 Y1183.429
G01 X297.141 Y1167.271
G01 X199.001 Y1071.731
G01 X205.291 Y1117.017
G01 X173.173 Y992.526
G01 X99.552 Y1040.306
G01 X133.163 Y952.453
G01 X8.330 Y944.265
G01 X57.296 Y934.421
G01 X5.000 Y897.440
G01 X5.000 Y1600.000
G01 X420.371 Y1600.000
G01 X419.793 Y1588.513
G01 X407.343 Y1600.000
G01 X394.379 Y1600.000
G01 X440.219 Y1516.990
G01 X345.169 Y1497.005
G01 X422.542 Y1463.639
G01 X333.772 Y1368.979
G01 X364.701 Y1400.917
G01 X336.886 Y1267.851
G01 X287.462 Y1309.846
G01 X327.852 Y1203.667
G01 X219.521 Y1194.419
G01 X282.796 Y1162.284
G01 X176.910 Y1079.295
G01 X198.275 Y1116.221
G01 X151.657 Y992.425
G01 X94.123 Y1045.187
G01 X117.950 Y945.270
G01 X5.000 Y951.054
G01 X5.000 Y948.508
G01 X51.328 Y924.953
G01 X5.000 Y899.063
G01 X5.000 Y1600.000
G01 X380.546 Y1600.000
G01 X378.876 Y1589.448
G01 X373.102 Y1600.000
G01 X369.110 Y1600.000
G01 X405.470 Y1512.570
G01 X317.791 Y1507.475
G01 X397.383 Y1458.442
G01 X302.508 Y1377.827
G01 X347.567 Y1400.355
G01 X305.609 Y1270.341
G01 X272.954 Y1316.038
G01 X302.446 Y1199.666
G01 X202.333 Y1204.458
G01 X266.870 Y1156.161
G01 X155.662 Y1087.162
G01 X190.507 Y1113.480
G01 X129.860 Y993.180
G01 X89.176 Y1048.277
G01 X101.398 Y938.453
G01 X5.000 Y955.368
G01 X5.000 Y946.766
G01 X43.806 Y914.740
G01 X5.000 Y898.224
G01 X5.000 Y1600.000
G01 X340.473 Y1600.000
G01 X337.930 Y1590.631
G01 X336.771 Y1600.000
G01 X342.532 Y1600.000
G01 X369.538 Y1507.962
G01 X291.695 Y1516.515
G01 X370.694 Y1451.955
G01 X272.269 Y1386.528
G01 X329.587 Y1397.597
G01 X274.263 Y1273.364
G01 X258.800 Y1320.043
G01 X275.818 Y1195.838
G01 X186.323 Y1213.288
G01 X249.335 Y1149.138
G01 X135.436 Y1095.123
G01 X181.787 Y1108.897
G01 X108.058 Y994.772
G01 X84.497 Y1049.464
G01 X83.693 Y932.181
G01 X5.000 Y956.875
G01 X5.000 Y939.502
G01 X34.709 Y904.022
G01 X5.000 Y895.054
G01 X5.000 Y1600.000
G01 X300.384 Y1600.000
G01 X297.245 Y1592.037
G01 X299.428 Y1600.000
G01 X315.289 Y1600.000
G01 X332.639 Y1503.342
G01 X266.832 Y1523.883
G01 X342.486 Y1444.427
G01 X243.219 Y1394.862
G01 X310.587 Y1392.780
G01 X243.129 Y1276.873
G01 X244.786 Y1321.782
G01 X248.185 Y1192.342
G01 X171.420 Y1220.668
G01 X230.209 Y1141.459
G01 X116.372 Y1102.944
G01 X171.937 Y1102.619
G01 X86.520 Y997.138
G01 X79.862 Y1048.682
G01 X65.052 Y926.602
G01 X5.000 Y955.240
G01 X5.000 Y925.026
G01 X24.056 Y893.043
G01 X5.000 Y889.551
G01 X5.000 Y1600.000
G01 X260.513 Y1600.000
G01 X257.107 Y1593.598
G01 X261.685 Y1600.000
G01 X287.926 Y1600.000
G01 X295.019 Y1498.852
G01 X243.115 Y1529.357
G01 X312.816 Y1436.106
G01 X215.481 Y1402.585
G01 X290.417 Y1386.076
G01 X212.480 Y1280.780
G01 X230.694 Y1321.222
G01 X219.794 Y1189.305
G01 X157.513 Y1226.380
G01 X209.553 Y1133.368
G01 X98.571 Y1110.375
G01 X160.809 Y1094.821
G01 X65.501 Y1000.172
G01 X75.038 Y1045.909
G01 X45.719 Y921.824
G01 X5.000 Y949.700
G01 X5.000 Y898.688
G01 X11.916 Y882.040
G01 X5.000 Y881.586
G01 X5.000 Y1600.000
G01 X221.109 Y1600.000
G01 X217.784 Y1595.208
G01 X224.011 Y1600.000
G01 X260.958 Y1600.000
G01 X256.947 Y1494.599
G01 X220.417 Y1532.744
G01 X281.785 Y1427.235
G01 X189.136 Y1409.448
G01 X268.964 Y1377.685
G01 X182.568 Y1284.960
G01 X216.302 Y1318.373
G01 X190.909 Y1186.812
G01 X144.458 Y1230.234
G01 X187.473 Y1125.096
G01 X82.090 Y1117.157
G01 X148.294 Y1085.711
G01 X45.239 Y1003.732
G01 X69.797 Y1041.168
G01 X25.954 Y917.919
G01 X5.000 Y938.462
G01 X5.000 Y1600.000
G01 X182.453 Y1600.000
G01 X179.521 Y1596.721
G01 X186.955 Y1600.000
G01 X234.917 Y1600.000
G01 X218.705 Y1490.648
G01 X198.584 Y1533.879
G01 X249.535 Y1418.042
G01 X164.222 Y1415.195
G01 X246.154 Y1367.832
G01 X153.624 Y1289.248
G01 X201.395 Y1313.293
G01 X161.808 Y1184.908
G01 X132.080 Y1232.073
G01 X164.117 Y1116.862
G01 X66.942 Y1123.031
G01 X134.320 Y1075.515
G01 X25.943 Y1007.638
G01 X63.918 Y1034.526
G01 X6.027 Y914.914
G01 X5.000 Y916.439
G01 X5.000 Y1600.000
G01 X144.903 Y1600.000
G01 X142.535 Y1597.960
G01 X151.884 Y1600.000
G01 X210.407 Y1600.000
G01 X180.585 Y1487.021
G01 X177.432 Y1532.640
G01 X216.248 Y1408.734
G01 X140.731 Y1419.577
G01 X221.953 Y1356.761
G01 X125.844 Y1293.449
G01 X185.776 Y1306.081
G01 X132.774 Y1183.594
G01 X120.182 Y1231.780
G01 X139.668 Y1108.857
G01 X53.096 Y1127.746
G01 X118.860 Y1064.475
G01 X7.790 Y1011.684
G01 X57.200 Y1026.094
G01 X5.000 Y942.779
G01 X5.000 Y1600.000
G01 X108.995 Y1600.000
G01 X107.007 Y1598.722
G01 X137.459 Y1600.000
G01 X188.186 Y1600.000
G01 X142.875 Y1483.697
G01 X156.761 Y1528.944
G01 X182.139 Y1399.492
G01 X118.612 Y1422.355
G01 X196.371 Y1344.722
G01 X99.390 Y1297.347
G01 X169.266 Y1296.877
G01 X104.089 Y1182.829
G01 X108.550 Y1229.281
G01 X114.345 Y1101.247
G01 X40.479 Y1131.065
G01 X101.929 Y1052.837
G01 X5.000 Y1020.357
G01 X5.000 Y1015.730
G01 X49.464 Y1016.020
G01 X5.000 Y959.811
G01 X5.000 Y1600.000
G01 X75.814 Y1600.000
G01 X73.079 Y1598.782
G01 X163.257 Y1588.652
G01 X105.859 Y1480.612
G01 X136.358 Y1522.753
G01 X147.452 Y1390.462
G01 X97.773 Y1423.314
G01 X169.463 Y1331.968
G01 X74.384 Y1300.702
G01 X151.717 Y1285.857
G01 X76.021 Y1182.528
G01 X96.963 Y1224.546
G01 X88.392 Y1094.158
G01 X28.978 Y1132.772
G01 X83.589 Y1040.848
G01 X5.000 Y1025.159
G01 X5.000 Y1012.550
G01 X40.563 Y1004.484
G01 X5.000 Y968.542
G01 X5.000 Y1600.000
G01 X49.090 Y1600.000
G01 X40.850 Y1597.904
G01 X136.548 Y1573.216
G01 X69.801 Y1477.664
G01 X116.009 Y1514.074
G01 X112.454 Y1381.754
G01 X78.088 Y1422.262
G01 X141.330 Y1318.745
G01 X50.903 Y1303.268
G01 X133.013 Y1273.226
G01 X48.823 Y1182.566
G01 X85.197 Y1217.591
G01 X62.071 Y1087.680
G01 X18.446 Y1132.682
G01 X63.945 Y1028.745
G01 X5.000 Y1025.030
G01 X5.000 Y1002.948
G01 X30.385 Y991.698
G01 X5.000 Y971.259
G01 X5.000 Y1600.000
G01 X81.462 Y1600.000
G01 X81.569 Y1599.836
G01 X10.376 Y1595.845
G01 X108.818 Y1556.088
G01 X34.943 Y1474.710
G01 X95.501 Y1502.961
G01 X77.426 Y1373.437
G01 X59.397 Y1419.043
G01 X112.112 Y1305.286
G01 X28.983 Y1304.794
G01 X113.077 Y1259.215
G01 X22.720 Y1182.784
G01 X73.038 Y1208.478
G01 X35.661 Y1081.862
G01 X8.708 Y1130.643
G01 X43.143 Y1016.748
G01 X5.000 Y1019.864
G01 X5.000 Y987.098
G01 X18.858 Y977.891
G01 X5.000 Y969.159
G01 X5.000 Y1600.000
G01 X34.898 Y1600.000
G01 X44.104 Y1581.774
G01 X5.000 Y1588.407
G01 X5.000 Y1579.354
G01 X80.024 Y1537.517
G01 X5.000 Y1474.515
G01 X5.000 Y1472.435
G01 X74.636 Y1489.511
G01 X42.655 Y1365.535
G01 X41.514 Y1413.536
G01 X81.988 Y1291.802
G01 X8.612 Y1305.033
G01 X91.876 Y1244.070
G01 X5.000 Y1187.602
G01 X5.000 Y1184.620
G01 X60.283 Y1197.311
G01 X9.441 Y1076.707
G01 X5.000 Y1099.112
G01 X5.000 Y1096.244
G01 X21.366 Y1005.052
G01 X5.000 Y1009.053
G01 X5.000 Y964.176
G01 X5.953 Y963.308
G01 X5.000 Y962.856
G01 X5.000 Y1566.567
G01 X6.097 Y1563.616
G01 X5.000 Y1564.120
G01 X5.000 Y1550.628
G01 X50.168 Y1517.764
G01 X5.000 Y1489.885
G01 X5.000 Y1470.518
G01 X53.233 Y1473.864
G01 X8.429 Y1358.031
G01 X24.237 Y1405.663
G01 X51.173 Y1278.476
G01 X5.000 Y1297.474
G01 X5.000 Y1289.252
G01 X69.418 Y1228.046
G01 X5.000 Y1197.442
G01 X5.000 Y1183.505
G01 X46.755 Y1184.234
G01 X5.000 Y1110.040
G01 X5.000 Y1510.310
G01 X19.293 Y1497.095
G01 X5.000 Y1491.156
G01 X5.000 Y1458.409
G01 X31.138 Y1456.196
G01 X5.000 Y1407.131
G01 X5.000 Y1392.153
G01 X7.351 Y1395.392
G01 X19.909 Y1265.458
G01 X5.000 Y1276.499
G01 X5.000 Y1260.945
G01 X45.756 Y1211.398
G01 X5.000 Y1198.732
G01 X5.000 Y1173.912
G01 X32.302 Y1169.427
G01 X5.000 Y1131.885
G01 X5.000 Y1437.457
G01 X8.228 Y1436.715
G01 X5.000 Y1432.144
G01 X5.000 Y1219.356
G01 X20.988 Y1194.378
G01 X5.000 Y1192.014
G01 X5.000 Y1157.055
G01 X16.808 Y1153.100
G01 X5.000 Y1140.383
G01 X5.000 Y5.000
G01 X95.500 Y5.000

; BEGIN POST
; file: mishegoss4
; 23:08
; END POST
; file trimmed by trimify2x.pl
; QQQQQQQ

