; file trimmed by trimify2x.pl
; Created by Sandify
; 
;   https://sandify.org
; 
;   Sandify Version: 0.1.4
; 
;   Machine Type: Rectangular
;     MinX: 5 MaxX: 710 MinY: 5 MaxY: 1600
;   Content Type: Shapes
;     Starting Size: 300
;     Offset: X: -677 Y: -71
;     Selected Shape: Circle
;       Circle Lobes: 1
;     Number of Loops: 92
;     Spin: true
;       Spin Value: -0.9
;       Spin Switchbacks: 2
;     Grow: true
;       Grow Value: 4.2
;     Track: true
;       Track Size: -28
;       Track Length: 881.1
;       Track Grow: false
;   Path Reversed: true
;  27:03
; filename: 'mishegoss5'

; BEGIN PRE
G28  Y
G28 X
G01 F30000; END PRE
G01 X710.000 Y331.871
G01 X710.000 Y13.203
G01 X704.118 Y8.659
G01 X694.179 Y5.000
G01 X710.000 Y5.000
G01 X710.000 Y38.221
G01 X701.848 Y34.006
G01 X701.934 Y9.582
G01 X697.549 Y5.000
G01 X710.000 Y5.000
G01 X710.000 Y62.278
G01 X704.209 Y60.484
G01 X710.000 Y20.990
G01 X710.000 Y12.167
G01 X700.061 Y5.000
G01 X710.000 Y5.000
G01 X710.000 Y12.706
G01 X693.703 Y5.000
G01 X710.000 Y5.000
G01 X710.000 Y17.094
G01 X664.733 Y5.000
G01 X710.000 Y5.000
G01 X710.000 Y33.254
G01 X707.442 Y23.850
G01 X624.038 Y16.517
G01 X624.353 Y5.000
G01 X710.000 Y5.000
G01 X710.000 Y58.182
G01 X698.437 Y34.018
G01 X636.471 Y38.172
G01 X632.453 Y5.000
G01 X710.000 Y5.000
G01 X710.000 Y78.372
G01 X688.618 Y49.197
G01 X651.151 Y55.300
G01 X636.041 Y5.000
G01 X710.000 Y5.000
G01 X710.000 Y96.857
G01 X680.175 Y69.103
G01 X665.983 Y67.214
G01 X634.071 Y5.000
G01 X710.000 Y5.000
G01 X710.000 Y114.506
G01 X674.986 Y92.566
G01 X678.781 Y74.168
G01 X624.904 Y5.000
G01 X710.000 Y5.000
G01 X710.000 Y131.648
G01 X674.265 Y117.733
G01 X687.671 Y77.308
G01 X604.918 Y5.000
G01 X710.000 Y5.000
G01 X710.000 Y148.427
G01 X678.346 Y142.419
G01 X691.434 Y78.461
G01 X595.670 Y22.875
G01 X596.816 Y8.832
G01 X593.651 Y5.000
G01 X710.000 Y5.000
G01 X710.000 Y164.890
G01 X686.620 Y164.499
G01 X689.731 Y79.798
G01 X596.437 Y47.419
G01 X607.446 Y11.396
G01 X599.659 Y5.000
G01 X710.000 Y5.000
G01 X710.000 Y180.940
G01 X697.648 Y182.300
G01 X683.167 Y83.432
G01 X602.009 Y71.582
G01 X612.974 Y11.945
G01 X600.046 Y5.000
G01 X710.000 Y5.000
G01 X710.000 Y1557.736
G01 X704.263 Y1543.132
G01 X710.000 Y1541.158
G01 X710.000 Y194.992
G01 X709.424 Y194.906
G01 X673.179 Y91.033
G01 X611.804 Y93.230
G01 X613.033 Y12.646
G01 X588.132 Y5.000
G01 X710.000 Y5.000 
G01 X710.000 Y1600.000 
G01 X682.777 Y1600.000
G01 X697.411 Y1582.324
G01 X681.554 Y1553.955
G01 X710.000 Y1537.775
G01 X710.000 Y185.708
G01 X661.776 Y103.514
G01 X624.403 Y110.674
G01 X608.199 Y15.620
G01 X524.402 Y6.859
G01 X524.709 Y5.000
G01 X710.000 Y5.000 
G01 X710.000 Y1600.000 
G01 X650.606 Y1600.000
G01 X665.925 Y1571.545
G01 X664.035 Y1563.334
G01 X710.000 Y1523.816
G01 X710.000 Y244.615
G01 X705.187 Y242.115
G01 X710.000 Y233.899
G01 X710.000 Y186.839
G01 X651.168 Y120.867
G01 X637.812 Y122.971
G01 X599.887 Y22.554
G01 X535.662 Y28.019
G01 X535.555 Y5.000
G01 X710.000 Y5.000 
G01 X710.000 Y1600.000 
G01 X621.349 Y1600.000
G01 X632.055 Y1564.721
G01 X650.865 Y1569.241
G01 X710.000 Y1493.598
G01 X710.000 Y1463.603
G01 X700.666 Y1449.637
G01 X710.000 Y1444.041
G01 X710.000 Y267.530
G01 X704.969 Y266.066
G01 X710.000 Y253.335
G01 X710.000 Y192.100
G01 X643.359 Y142.160
G01 X649.833 Y130.102
G01 X590.093 Y34.388
G01 X549.778 Y45.048
G01 X542.031 Y5.000
G01 X710.000 Y5.000 
G01 X710.000 Y1600.000 
G01 X594.354 Y1600.000
G01 X597.917 Y1562.515
G01 X640.427 Y1570.191
G01 X690.554 Y1469.941
G01 X684.186 Y1460.096
G01 X710.000 Y1436.752
G01 X710.000 Y287.937
G01 X709.230 Y287.865
G01 X710.000 Y283.945
G01 X710.000 Y198.994
G01 X639.787 Y165.708
G01 X658.462 Y132.974
G01 X581.026 Y51.140
G01 X564.769 Y56.978
G01 X543.673 Y5.000
G01 X710.000 Y5.000 
G01 X710.000 Y1600.000 
G01 X569.423 Y1600.000
G01 X565.706 Y1564.649
G01 X630.631 Y1565.517
G01 X657.833 Y1464.041
G01 X672.064 Y1467.149
G01 X710.000 Y1415.809
G01 X710.000 Y206.409
G01 X641.053 Y189.383
G01 X662.263 Y133.246
G01 X574.702 Y71.906
G01 X578.433 Y63.763
G01 X539.552 Y5.000
G01 X710.000 Y5.000 
G01 X710.000 Y1600.000 
G01 X546.643 Y1600.000
G01 X537.300 Y1569.953
G01 X619.300 Y1555.495
G01 X624.749 Y1462.762
G01 X662.704 Y1469.288
G01 X709.589 Y1368.217
G01 X698.751 Y1357.038
G01 X710.000 Y1346.362
G01 X710.000 Y240.820
G01 X704.516 Y213.481
G01 X646.814 Y211.000
G01 X660.631 Y133.032
G01 X572.579 Y95.018
G01 X588.756 Y66.282
G01 X527.338 Y5.000
G01 X710.000 Y5.000 
G01 X710.000 Y1600.000 
G01 X526.271 Y1600.000
G01 X513.913 Y1576.586
G01 X604.569 Y1541.288
G01 X593.503 Y1465.853
G01 X654.025 Y1465.821
G01 X678.066 Y1363.184
G01 X687.721 Y1365.176
G01 X710.000 Y1333.307
G01 X710.000 Y270.098
G01 X690.302 Y223.538
G01 X655.851 Y228.722
G01 X653.902 Y134.505
G01 X575.285 Y118.355
G01 X594.279 Y66.176
G01 X504.762 Y7.532
G01 X505.539 Y5.000
G01 X710.000 Y5.000 
G01 X710.000 Y1600.000 
G01 X488.676 Y1600.000
G01 X498.017 Y1586.784
G01 X495.875 Y1582.372
G01 X585.232 Y1524.743
G01 X565.986 Y1472.169
G01 X643.845 Y1456.993
G01 X646.088 Y1362.777
G01 X679.483 Y1368.448
G01 X710.000 Y1297.430
G01 X710.000 Y1256.361
G01 X707.859 Y1254.649
G01 X710.000 Y1252.521
G01 X710.000 Y287.136
G01 X676.359 Y238.499
G01 X666.287 Y241.392
G01 X643.299 Y139.498
G01 X582.505 Y139.730
G01 X594.370 Y65.551
G01 X504.041 Y30.151
G01 X517.999 Y5.502
G01 X517.467 Y5.000
G01 X710.000 Y5.000 
G01 X710.000 Y1600.000 
G01 X454.696 Y1600.000
G01 X465.635 Y1574.693
G01 X482.574 Y1585.201
G01 X560.967 Y1508.043
G01 X543.437 Y1479.883
G01 X630.287 Y1443.944
G01 X615.857 Y1366.771
G01 X671.965 Y1366.132
G01 X692.854 Y1262.644
G01 X697.960 Y1263.811
G01 X710.000 Y1245.623
G01 X710.000 Y384.100
G01 X705.846 Y382.467
G01 X710.000 Y375.703
G01 X710.000 Y300.500
G01 X664.785 Y257.661
G01 X675.939 Y248.747
G01 X630.698 Y149.167
G01 X593.042 Y157.287
G01 X589.337 Y66.584
G01 X508.140 Y53.094
G01 X525.183 Y5.000
G01 X710.000 Y5.000 
G01 X710.000 Y1600.000 
G01 X425.913 Y1600.000
G01 X432.502 Y1567.175
G01 X472.567 Y1583.419
G01 X532.390 Y1493.312
G01 X526.214 Y1486.822
G01 X612.120 Y1428.502
G01 X589.281 Y1374.044
G01 X662.982 Y1358.444
G01 X662.027 Y1263.051
G01 X690.882 Y1268.155
G01 X710.000 Y1220.044
G01 X710.000 Y403.925
G01 X706.351 Y403.332
G01 X710.000 Y393.376
G01 X710.000 Y311.779
G01 X657.193 Y279.510
G01 X682.716 Y251.465
G01 X618.294 Y163.778
G01 X605.034 Y169.847
G01 X580.375 Y71.122
G01 X516.772 Y74.169
G01 X526.797 Y5.000
G01 X710.000 Y5.000 
G01 X710.000 Y1600.000 
G01 X401.393 Y1600.000
G01 X400.830 Y1564.197
G01 X463.854 Y1576.131
G01 X500.953 Y1482.226
G01 X513.731 Y1490.870
G01 X588.992 Y1412.848
G01 X567.620 Y1382.787
G01 X650.642 Y1346.501
G01 X632.858 Y1267.891
G01 X684.563 Y1266.933
G01 X702.333 Y1162.897
G01 X702.937 Y1163.524
G01 X710.000 Y1152.267
G01 X710.000 Y321.339
G01 X654.419 Y301.996
G01 X685.007 Y251.037
G01 X608.193 Y182.654
G01 X616.301 Y177.118
G01 X569.349 Y80.346
G01 X528.764 Y91.506
G01 X523.610 Y5.000
G01 X710.000 Y5.000 
G01 X710.000 Y1600.000 
G01 X381.130 Y1600.000
G01 X372.615 Y1564.807
G01 X454.237 Y1563.370
G01 X468.671 Y1475.704
G01 X504.570 Y1490.353
G01 X561.495 Y1399.111
G01 X551.261 Y1390.830
G01 X633.691 Y1332.114
G01 X607.267 Y1276.068
G01 X676.816 Y1260.331
G01 X672.696 Y1164.061
G01 X697.051 Y1168.881
G01 X710.000 Y1133.575
G01 X710.000 Y329.066
G01 X656.366 Y322.914
G01 X681.975 Y249.496
G01 X602.027 Y204.303
G01 X624.743 Y179.748
G01 X558.447 Y94.549
G01 X542.267 Y103.900
G01 X516.213 Y8.453
G01 X450.085 Y14.395
G01 X451.329 Y5.000
G01 X710.000 Y5.000 
G01 X710.000 Y1600.000 
G01 X349.119 Y1600.000
G01 X361.735 Y1590.938
G01 X349.268 Y1567.309
G01 X441.736 Y1546.086
G01 X437.760 Y1473.740
G01 X496.738 Y1484.348
G01 X531.057 Y1388.985
G01 X539.647 Y1396.047
G01 X611.750 Y1317.457
G01 X586.540 Y1285.784
G01 X665.735 Y1249.442
G01 X644.628 Y1169.691
G01 X691.965 Y1168.694
G01 X706.669 Y1064.407
G01 X702.840 Y1064.769
G01 X710.000 Y1052.744
G01 X710.000 Y454.712
G01 X704.095 Y447.231
G01 X710.000 Y444.847
G01 X710.000 Y394.547
G01 X693.814 Y336.236
G01 X662.025 Y340.300
G01 X673.715 Y249.040
G01 X600.658 Y226.686
G01 X628.727 Y179.211
G01 X549.782 Y113.082
G01 X555.106 Y111.031
G01 X506.718 Y17.179
G01 X463.481 Y31.460
G01 X461.452 Y5.000
G01 X710.000 Y5.000 
G01 X710.000 Y1600.000 
G01 X313.022 Y1600.000
G01 X339.381 Y1570.772
G01 X335.938 Y1569.567
G01 X429.494 Y1525.716
G01 X414.713 Y1474.886
G01 X492.438 Y1472.073
G01 X503.959 Y1382.359
G01 X535.502 Y1395.419
G01 X589.320 Y1303.068
G01 X574.812 Y1293.009
G01 X653.515 Y1233.923
G01 X623.254 Y1176.319
G01 X688.366 Y1160.477
G01 X680.788 Y1063.382
G01 X700.328 Y1067.962
G01 X710.000 Y1038.920
G01 X710.000 Y954.754
G01 X705.533 Y952.593
G01 X710.000 Y947.515
G01 X710.000 Y480.528
G01 X687.657 Y462.466
G01 X710.000 Y446.064
G01 X710.000 Y415.939
G01 X671.780 Y344.242
G01 X663.698 Y348.948
G01 X654.548 Y247.973
G01 X596.594 Y244.175
G01 X619.228 Y174.383
G01 X536.098 Y131.648
G01 X555.513 Y111.059
G01 X486.873 Y28.863
G01 X467.301 Y42.028
G01 X456.016 Y5.000
G01 X710.000 Y5.000 
G01 X710.000 Y1600.000 
G01 X309.090 Y1600.000
G01 X333.703 Y1555.257
G01 X346.488 Y1569.675
G01 X430.179 Y1503.929
G01 X413.192 Y1476.341
G01 X500.902 Y1452.743
G01 X492.648 Y1377.025
G01 X546.100 Y1385.317
G01 X576.099 Y1287.589
G01 X578.900 Y1292.213
G01 X646.176 Y1212.287
G01 X615.420 Y1178.303
G01 X689.010 Y1141.283
G01 X662.770 Y1059.860
G01 X703.873 Y1058.367
G01 X710.000 Y992.354
G01 X710.000 Y953.408
G01 X703.414 Y953.289
G01 X710.000 Y941.081
G01 X710.000 Y834.065
G01 X704.321 Y829.832
G01 X710.000 Y825.352
G01 X710.000 Y592.853
G01 X705.730 Y592.981
G01 X710.000 Y578.680
G01 X710.000 Y491.276
G01 X669.612 Y472.207
G01 X709.158 Y425.585
G01 X643.563 Y350.867
G01 X656.317 Y346.841
G01 X623.258 Y246.410
G01 X585.921 Y253.815
G01 X593.459 Y166.735
G01 X515.554 Y147.725
G01 X539.289 Y105.152
G01 X456.470 Y42.792
G01 X457.308 Y45.824
G01 X433.769 Y5.000
G01 X710.000 Y5.000 
G01 X710.000 Y1600.000 
G01 X310.983 Y1600.000
G01 X326.152 Y1544.690
G01 X360.234 Y1566.086
G01 X425.797 Y1484.167
G01 X416.512 Y1478.193
G01 X504.543 Y1431.122
G01 X484.127 Y1375.981
G01 X555.394 Y1370.361
G01 X561.405 Y1277.318
G01 X585.948 Y1287.631
G01 X633.977 Y1193.169
G01 X612.495 Y1180.459
G01 X684.737 Y1120.280
G01 X647.910 Y1060.537
G01 X705.833 Y1044.144
G01 X692.061 Y945.933
G01 X704.053 Y950.105
G01 X710.000 Y928.269
G01 X710.000 Y840.216
G01 X695.719 Y834.604
G01 X710.000 Y816.711
G01 X710.000 Y724.667
G01 X694.783 Y708.430
G01 X710.000 Y700.754
G01 X710.000 Y610.083
G01 X702.691 Y589.651
G01 X701.043 Y593.332
G01 X707.340 Y491.292
G01 X656.664 Y481.571
G01 X691.866 Y412.657
G01 X619.304 Y361.332
G01 X646.929 Y340.517
G01 X591.983 Y250.474
G01 X577.653 Y259.326
G01 X563.832 Y162.790
G01 X500.192 Y163.083
G01 X518.229 Y98.702
G01 X430.421 Y60.276
G01 X445.135 Y45.567
G01 X407.170 Y5.000
G01 X710.000 Y5.000 
G01 X710.000 Y1600.000 
G01 X317.395 Y1600.000
G01 X318.927 Y1539.286
G01 X375.278 Y1557.687
G01 X417.595 Y1468.256
G01 X424.322 Y1478.272
G01 X502.765 Y1409.338
G01 X479.845 Y1377.568
G01 X561.374 Y1351.451
G01 X547.448 Y1272.305
G01 X593.985 Y1278.290
G01 X618.298 Y1178.299
G01 X613.976 Y1180.648
G01 X675.108 Y1099.633
G01 X637.536 Y1063.650
G01 X704.273 Y1026.336
G01 X671.708 Y943.697
G01 X705.415 Y942.214
G01 X709.075 Y837.300
G01 X691.459 Y837.196
G01 X710.000 Y798.169
G01 X710.000 Y735.098
G01 X679.186 Y715.278
G01 X710.000 Y688.954
G01 X710.000 Y642.851
G01 X677.071 Y592.337
G01 X696.846 Y589.011
G01 X679.187 Y485.387
G01 X648.003 Y488.511
G01 X669.546 Y401.006
G01 X600.063 Y373.697
G01 X633.769 Y331.282
G01 X562.895 Y259.731
G01 X569.659 Y260.178
G01 X532.074 Y163.929
G01 X489.057 Y175.733
G01 X492.376 Y93.907
G01 X409.643 Y79.300
G01 X429.117 Y42.685
G01 X372.448 Y5.000
G01 X5.000 Y5.000
G01 X5.000 Y1600.000
G01 X296.084 Y1600.000
G01 X326.175 Y1589.368
G01 X314.109 Y1538.318
G01 X389.430 Y1544.265
G01 X407.471 Y1457.333
G01 X435.392 Y1474.757
G01 X495.914 Y1389.576
G01 X480.422 Y1379.674
G01 X562.588 Y1330.248
G01 X536.256 Y1271.677
G01 X600.815 Y1264.135
G01 X601.117 Y1168.673
G01 X618.505 Y1177.141
G01 X660.630 Y1081.494
G01 X632.116 Y1067.049
G01 X697.867 Y1006.703
G01 X654.509 Y945.746
G01 X705.306 Y929.716
G01 X685.460 Y831.314
G01 X690.064 Y835.980
G01 X710.000 Y743.425
G01 X710.000 Y735.142
G01 X668.651 Y722.139
G01 X710.000 Y665.274
G01 X710.000 Y650.763
G01 X655.017 Y599.145
G01 X690.959 Y580.278
G01 X650.517 Y485.052
G01 X642.039 Y491.507
G01 X643.015 Y392.683
G01 X585.994 Y385.758
G01 X615.785 Y321.066
G01 X537.789 Y272.878
G01 X559.786 Y256.784
G01 X500.332 Y170.688
G01 X480.454 Y184.275
G01 X462.692 Y92.750
G01 X394.128 Y97.654
G01 X408.343 Y39.176
G01 X316.670 Y5.510
G01 X317.325 Y5.000
G01 X5.000 Y5.000
G01 X5.000 Y1600.000
G01 X280.688 Y1600.000
G01 X329.811 Y1568.354
G01 X313.285 Y1540.260
G01 X400.610 Y1526.545
G01 X397.621 Y1451.639
G01 X447.842 Y1466.512
G01 X485.217 Y1373.677
G01 X485.538 Y1380.126
G01 X558.415 Y1308.871
G01 X529.301 Y1273.791
G01 X604.417 Y1246.039
G01 X584.645 Y1164.369
G01 X624.126 Y1168.941
G01 X642.662 Y1067.607
G01 X631.173 Y1068.584
G01 X686.152 Y987.402
G01 X641.817 Y950.331
G01 X701.778 Y913.630
G01 X663.027 Y830.686
G01 X689.512 Y830.101
G01 X687.318 Y726.063
G01 X662.548 Y726.905
G01 X698.072 Y641.635
G01 X637.752 Y608.234
G01 X681.513 Y568.284
G01 X623.532 Y490.041
G01 X636.696 Y489.851
G01 X613.872 Y389.213
G01 X576.315 Y395.456
G01 X592.831 Y312.065
G01 X517.748 Y287.988
G01 X546.252 Y250.426
G01 X470.784 Y182.658
G01 X472.258 Y188.149
G01 X430.883 Y96.635
G01 X382.948 Y113.336
G01 X382.825 Y37.238
G01 X296.077 Y27.460
G01 X307.971 Y5.000
G01 X5.000 Y5.000
G01 X5.000 Y1600.000
G01 X226.973 Y1600.000
G01 X227.870 Y1597.479
G01 X230.780 Y1600.000
G01 X279.255 Y1600.000
G01 X328.215 Y1548.845
G01 X317.252 Y1543.061
G01 X407.229 Y1506.061
G01 X390.138 Y1450.477
G01 X459.484 Y1453.295
G01 X472.557 Y1362.802
G01 X493.987 Y1377.087
G01 X549.173 Y1289.509
G01 X527.233 Y1276.544
G01 X603.320 Y1225.644
G01 X570.919 Y1164.537
G01 X628.645 Y1155.963
G01 X623.170 Y1058.993
G01 X633.374 Y1066.511
G01 X669.606 Y970.591
G01 X634.128 Y955.308
G01 X693.484 Y895.695
G01 X643.752 Y834.418
G01 X687.609 Y819.631
G01 X661.928 Y721.918
G01 X659.423 Y727.928
G01 X675.344 Y629.533
G01 X625.615 Y617.423
G01 X667.294 Y554.862
G01 X600.128 Y499.212
G01 X629.790 Y483.773
G01 X584.213 Y391.314
G01 X569.456 Y401.250
G01 X565.694 Y306.337
G01 X502.955 Y302.859
G01 X527.979 Y243.018
G01 X445.238 Y198.561
G01 X462.309 Y187.741
G01 X399.090 Y106.122
G01 X374.422 Y124.922
G01 X353.501 Y38.865
G01 X280.825 Y48.781
G01 X290.224 Y5.000
G01 X5.000 Y5.000
G01 X5.000 Y1600.000
G01 X221.270 Y1600.000
G01 X222.006 Y1591.880
G01 X239.037 Y1600.000
G01 X283.513 Y1600.000
G01 X322.451 Y1532.782
G01 X325.873 Y1544.527
G01 X408.482 Y1484.869
G01 X386.628 Y1452.336
G01 X468.231 Y1435.805
G01 X460.129 Y1357.219
G01 X503.904 Y1369.394
G01 X536.067 Y1274.017
G01 X529.758 Y1277.758
G01 X596.875 Y1205.061
G01 X561.435 Y1167.554
G01 X630.029 Y1139.054
G01 X604.363 Y1055.758
G01 X636.776 Y1059.805
G01 X649.567 Y958.031
G01 X630.993 Y958.520
G01 X679.933 Y878.062
G01 X629.008 Y840.781
G01 X682.393 Y805.560
G01 X637.714 Y723.175
G01 X657.265 Y724.325
G01 X649.550 Y622.002
G01 X618.004 Y624.594
G01 X647.967 Y542.189
G01 X581.552 Y510.739
G01 X619.437 Y474.398
G01 X556.239 Y398.767
G01 X563.349 Y402.403
G01 X535.956 Y305.427
G01 X492.655 Y315.419
G01 X504.793 Y236.753
G01 X424.805 Y216.479
G01 X448.809 Y184.307
G01 X369.494 Y120.830
G01 X366.435 Y131.824
G01 X322.057 Y45.480
G01 X270.009 Y67.457
G01 X267.558 Y5.000
G01 X5.000 Y5.000
G01 X5.000 Y1600.000
G01 X219.778 Y1600.000
G01 X218.111 Y1590.922
G01 X263.972 Y1600.000
G01 X291.609 Y1600.000
G01 X314.295 Y1521.483
G01 X338.103 Y1542.726
G01 X404.501 Y1465.179
G01 X387.917 Y1455.179
G01 X472.475 Y1415.551
G01 X450.034 Y1356.257
G01 X513.108 Y1356.778
G01 X520.965 Y1263.580
G01 X535.696 Y1275.578
G01 X585.375 Y1186.480
G01 X556.871 Y1171.325
G01 X626.790 Y1119.835
G01 X588.293 Y1057.077
G01 X639.186 Y1048.352
G01 X627.988 Y950.765
G01 X631.103 Y958.204
G01 X661.576 Y862.893
G01 X619.321 Y847.632
G01 X672.497 Y789.611
G01 X616.663 Y728.860
G01 X653.879 Y716.139
G01 X622.714 Y619.938
G01 X613.485 Y628.079
G01 X624.142 Y532.386
G01 X568.172 Y522.443
G01 X604.400 Y463.542
G01 X531.865 Y410.453
G01 X555.807 Y399.114
G01 X505.700 Y310.080
G01 X485.296 Y324.105
G01 X477.454 Y233.698
G01 X409.693 Y234.213
G01 X430.657 Y179.745
G01 X343.920 Y139.501
G01 X356.820 Y134.397
G01 X290.625 Y57.670
G01 X261.970 Y82.041
G01 X239.637 Y5.000
G01 X222.678 Y5.000
G01 X162.759 Y16.998
G01 X165.133 Y5.000
G01 X5.000 Y5.000
G01 X5.000 Y1600.000
G01 X221.694 Y1600.000
G01 X217.912 Y1593.242
G01 X303.815 Y1589.153
G01 X305.907 Y1515.404
G01 X352.182 Y1536.342
G01 X396.325 Y1448.942
G01 X393.898 Y1456.808
G01 X471.388 Y1394.582
G01 X443.902 Y1358.428
G01 X519.501 Y1339.909
G01 X506.060 Y1258.495
G01 X543.199 Y1268.818
G01 X570.000 Y1171.771
G01 X556.962 Y1173.665
G01 X618.250 Y1100.405
G01 X576.475 Y1061.346
G01 X638.564 Y1032.970
G01 X607.078 Y948.927
G01 X632.529 Y953.308
G01 X639.729 Y851.964
G01 X614.270 Y852.811
G01 X657.400 Y773.925
G01 X600.173 Y737.261
G01 X647.292 Y704.333
G01 X597.050 Y623.310
G01 X610.061 Y626.967
G01 X597.260 Y527.126
G01 X559.413 Y532.197
G01 X584.316 Y453.375
G01 X512.358 Y424.558
G01 X544.933 Y392.484
G01 X477.133 Y320.101
G01 X478.820 Y328.152
G01 X447.523 Y235.416
G01 X399.175 Y249.679
G01 X407.647 Y176.244
G01 X323.503 Y160.233
G01 X343.763 Y133.874
G01 X261.392 Y75.081
G01 X254.596 Y91.917
G01 X208.033 Y11.062
G01 X152.708 Y38.574
G01 X150.318 Y5.000
G01 X5.000 Y5.000
G01 X5.000 Y1600.000
G01 X229.097 Y1600.000
G01 X222.406 Y1596.877
G01 X313.258 Y1569.920
G01 X299.440 Y1514.055
G01 X365.958 Y1524.920
G01 X385.713 Y1437.499
G01 X403.551 Y1455.277
G01 X465.071 Y1375.105
G01 X442.582 Y1361.700
G01 X521.459 Y1320.275
G01 X493.465 Y1258.114
G01 X550.088 Y1257.180
G01 X552.606 Y1162.143
G01 X560.552 Y1172.705
G01 X604.676 Y1082.960
G01 X569.615 Y1066.475
G01 X633.399 Y1015.260
G01 X588.899 Y951.717
G01 X633.080 Y943.690
G01 X616.331 Y846.344
G01 X612.568 Y854.534
G01 X637.528 Y760.669
G01 X588.796 Y746.240
G01 X636.113 Y690.611
G01 X574.559 Y631.170
G01 X605.535 Y621.273
G01 X569.334 Y527.332
G01 X553.863 Y538.314
G01 X559.767 Y446.025
G01 X498.115 Y438.910
G01 X529.464 Y384.311
G01 X452.181 Y334.395
G01 X471.038 Y327.731
G01 X417.075 Y242.676
G01 X391.718 Y261.295
G01 X380.513 Y175.880
G01 X308.479 Y180.825
G01 X326.137 Y132.138
G01 X236.197 Y96.476
G01 X245.717 Y97.411
G01 X177.365 Y25.872
G01 X145.549 Y56.054
G01 X128.513 Y5.000
G01 X5.000 Y5.000
G01 X5.000 Y1600.000
G01 X222.493 Y1600.000
G01 X231.776 Y1586.663
G01 X231.671 Y1599.631
G01 X317.441 Y1549.444
G01 X296.641 Y1516.092
G01 X377.283 Y1508.947
G01 X374.822 Y1431.334
G01 X415.135 Y1449.247
G01 X454.542 Y1359.086
G01 X445.999 Y1363.877
G01 X518.127 Y1299.912
G01 X484.826 Y1260.970
G01 X554.262 Y1241.304
G01 X535.380 Y1157.917
G01 X565.811 Y1167.235
G01 X587.224 Y1069.383
G01 X567.478 Y1070.278
G01 X622.989 Y997.314
G01 X574.989 Y957.550
G01 X630.706 Y930.140
G01 X593.591 Y846.192
G01 X612.302 Y851.725
G01 X614.174 Y751.634
G01 X582.139 Y753.630
G01 X619.797 Y677.105
G01 X556.659 Y641.821
G01 X597.922 Y611.930
G01 X542.580 Y533.000
G01 X549.536 Y539.856
G01 X532.174 Y443.182
G01 X488.588 Y451.372
G01 X509.011 Y376.759
G01 X432.135 Y351.165
G01 X460.038 Y323.916
G01 X388.316 Y255.312
G01 X385.274 Y268.265
G01 X350.796 Y180.235
G01 X298.146 Y199.185
G01 X303.708 Y131.372
G01 X216.198 Y119.967
G01 X233.502 Y99.730
G01 X148.893 Y45.893
G01 X139.178 Y68.794
G01 X98.517 Y5.000
G01 X71.462 Y5.000
G01 X33.506 Y26.807
G01 X31.419 Y5.000
G01 X5.000 Y5.000
G01 X5.000 Y1600.000
G01 X216.249 Y1600.000
G01 X225.589 Y1575.009
G01 X244.858 Y1599.478
G01 X316.276 Y1529.936
G01 X298.530 Y1519.568
G01 X384.410 Y1489.769
G01 X365.812 Y1429.983
G01 X426.505 Y1438.233
G01 X441.543 Y1347.888
G01 X453.160 Y1362.998
G01 X509.582 Y1281.029
G01 X481.022 Y1265.044
G01 X554.076 Y1222.658
G01 X520.446 Y1158.476
G01 X570.565 Y1156.924
G01 X567.736 Y1060.903
G01 X568.934 Y1070.868
G01 X607.572 Y981.326
G01 X566.080 Y964.345
G01 X623.877 Y914.238
G01 X573.581 Y850.735
G01 X611.282 Y844.211
G01 X589.264 Y747.913
G01 X578.941 Y757.630
G01 X598.740 Y665.985
G01 X543.931 Y653.132
G01 X585.811 Y600.625
G01 X519.008 Y543.204
G01 X544.236 Y536.806
G01 X503.536 Y445.792
G01 X482.386 Y460.236
G01 X484.128 Y371.961
G01 X417.421 Y368.241
G01 X444.534 Y318.487
G01 X363.187 Y272.253
G01 X377.652 Y270.732
G01 X320.559 Y190.103
G01 X290.992 Y213.708
G01 X277.182 Y133.661
G01 X201.660 Y143.357
G01 X216.798 Y100.742
G01 X124.470 Y69.912
G01 X131.421 Y77.090
G01 X61.745 Y10.916
G01 X27.600 Y47.026
G01 X11.905 Y5.000
G01 X5.000 Y5.000
G01 X5.000 Y1600.000
G01 X215.629 Y1600.000
G01 X218.666 Y1568.517
G01 X260.344 Y1594.934
G01 X310.606 Y1513.442
G01 X305.217 Y1522.285
G01 X386.313 Y1469.342
G01 X360.448 Y1432.126
G01 X435.509 Y1422.697
G01 X428.226 Y1342.019
G01 X462.341 Y1357.701
G01 X496.815 Y1265.604
G01 X482.006 Y1268.135
G01 X548.651 Y1203.265
G01 X509.470 Y1162.369
G01 X572.703 Y1142.388
G01 X548.396 Y1057.872
G01 X572.166 Y1067.010
G01 X588.282 Y969.194
G01 X561.966 Y969.909
G01 X611.864 Y898.064
G01 X557.860 Y858.405
G01 X607.451 Y832.754
G01 X565.004 Y749.692
G01 X577.301 Y757.137
G01 X574.213 Y659.060
G01 X536.010 Y662.929
G01 X568.627 Y589.480
G01 X500.060 Y556.265
G01 X535.965 Y530.074
G01 X476.068 Y453.880
G01 X477.537 Y464.539
G01 X456.212 Y371.624
G01 X407.517 Y383.477
G01 X424.108 Y313.601
G01 X343.002 Y291.715
G01 X366.924 Y269.744
G01 X292.010 Y205.344
G01 X284.977 Y223.573
G01 X248.079 Y140.604
G01 X191.906 Y164.540
G01 X195.343 Y102.624
G01 X105.279 Y96.054
G01 X120.430 Y82.127
G01 X34.412 Y33.401
G01 X22.602 Y62.467
G01 X5.000 Y37.241
G01 X5.000 Y1600.000
G01 X219.461 Y1600.000
G01 X213.197 Y1566.909
G01 X276.032 Y1585.335
G01 X302.050 Y1501.467
G01 X315.879 Y1522.207
G01 X382.875 Y1449.873
G01 X359.776 Y1435.826
G01 X440.383 Y1403.960
G01 X416.757 Y1341.046
G01 X471.405 Y1347.472
G01 X481.551 Y1255.019
G01 X486.812 Y1268.270
G01 X538.036 Y1185.333
G01 X503.358 Y1167.589
G01 X570.565 Y1125.069
G01 X531.334 Y1059.696
G01 X575.008 Y1058.346
G01 X566.944 Y962.170
G01 X561.542 Y972.342
G01 X594.878 Y883.815
G01 X547.188 Y867.129
G01 X599.256 Y818.914
G01 X543.477 Y756.223
G01 X575.033 Y751.949
G01 X548.127 Y657.443
G01 X531.659 Y669.393
G01 X546.740 Y580.670
G01 X486.343 Y570.059
G01 X523.291 Y521.323
G01 X451.795 Y466.544
G01 X471.843 Y464.233
G01 X427.252 Y376.718
G01 X401.054 Y395.148
G01 X399.286 Y311.396
G01 X328.212 Y311.534
G01 X351.782 Y267.061
G01 X267.103 Y224.910
G01 X277.910 Y228.891
G01 X218.450 Y153.021
G01 X185.446 Y181.893
G01 X169.815 Y107.471
G01 X91.610 Y122.122
G01 X105.026 Y85.754
G01 X11.134 Y59.889
G01 X16.329 Y73.397
G01 X5.000 Y63.589
G01 X5.000 Y1600.000
G01 X228.916 Y1600.000
G01 X211.052 Y1569.022
G01 X289.737 Y1570.955
G01 X292.707 Y1494.704
G01 X328.915 Y1517.828
G01 X374.916 Y1433.419
G01 X363.937 Y1438.887
G01 X440.076 Y1383.963
G01 X408.920 Y1343.667
G01 X478.195 Y1332.745
G01 X465.938 Y1249.812
G01 X493.735 Y1264.063
G01 X523.196 Y1170.852
G01 X502.090 Y1171.935
G01 X563.246 Y1106.980
G01 X518.238 Y1064.948
G01 X575.342 Y1045.460
G01 X545.738 Y960.632
G01 X563.009 Y970.382
G01 X574.027 Y873.403
G01 X541.387 Y874.712
G01 X585.944 Y804.759
G01 X526.261 Y765.957
G01 X570.069 Y742.800
G01 X522.686 Y661.349
G01 X528.990 Y671.395
G01 X521.397 Y576.017
G01 X477.522 Y582.405
G01 X505.612 Y512.668
G01 X432.177 Y482.122
G01 X463.296 Y460.201
G01 X399.461 Y387.295
G01 X396.071 Y402.262
G01 X371.443 Y313.597
G01 X318.325 Y329.555
G01 X331.779 Y264.835
G01 X247.174 Y247.036
G01 X267.847 Y230.683
G01 X190.505 Y170.800
G01 X180.248 Y194.567
G01 X141.712 Y116.898
G01 X82.813 Y146.004
G01 X84.918 Y90.145
G01 X5.000 Y88.729
G01 X5.000 Y82.023
G01 X6.918 Y80.975
G01 X5.000 Y80.009
G01 X5.000 Y1600.000
G01 X212.683 Y1600.000
G01 X232.380 Y1584.033
G01 X213.438 Y1573.015
G01 X299.587 Y1552.962
G01 X284.771 Y1492.905
G01 X342.238 Y1508.457
G01 X364.035 Y1421.505
G01 X372.134 Y1439.262
G01 X434.447 Y1364.911
G01 X405.787 Y1347.961
G01 X480.932 Y1314.816
G01 X452.148 Y1249.574
G01 X500.645 Y1254.972
G01 X505.842 Y1161.227
G01 X504.729 Y1173.417
G01 X550.767 Y1090.328
G01 X510.038 Y1071.627
G01 X571.489 Y1029.776
G01 X526.804 Y964.012
G01 X564.205 Y963.644
G01 X551.122 Y868.100
G01 X539.376 Y879.237
G01 X567.695 Y792.487
G01 X514.145 Y776.830
G01 X560.838 Y731.227
G01 X499.983 Y670.054
G01 X525.821 Y668.704
G01 X494.496 Y576.658
G01 X472.381 Y591.468
G01 X483.269 Y506.286
G01 X417.850 Y498.495
G01 X450.442 Y454.086
G01 X374.873 Y402.477
G01 X390.373 Y404.743
G01 X342.554 Y321.197
G01 X311.993 Y344.034
G01 X307.413 Y265.209
G01 X232.702 Y269.559
G01 X253.457 Y230.694
G01 X166.209 Y192.916
G01 X174.117 Y202.642
G01 X113.073 Y131.752
G01 X77.418 Y166.055
G01 X60.758 Y97.401
G01 X5.000 Y111.115
G01 X5.000 Y1600.000
G01 X205.006 Y1600.000
G01 X229.192 Y1567.355
G01 X220.681 Y1576.714
G01 X304.368 Y1533.200
G01 X280.128 Y1494.929
G01 X353.659 Y1494.339
G01 X352.324 Y1414.852
G01 X382.787 Y1435.425
G01 X424.288 Y1348.871
G01 X407.527 Y1351.732
G01 X478.542 Y1295.613
G01 X441.982 Y1253.028
G01 X505.382 Y1241.402
G01 X488.113 Y1157.019
G01 X509.587 Y1170.630
G01 X534.068 Y1077.112
G01 X506.747 Y1077.533
G01 X562.520 Y1013.289
G01 X511.846 Y970.903
G01 X563.005 Y952.682
G01 X528.339 Y868.312
G01 X539.375 Y879.419
G01 X545.598 Y784.023
G01 X506.977 Y786.641
G01 X546.559 Y719.289
G01 X481.616 Y682.029
G01 X520.074 Y662.026
G01 X468.236 Y582.835
G01 X469.048 Y596.092
G01 X457.485 Y504.015
G01 X408.505 Y513.478
G01 X432.651 Y447.993
G01 X354.972 Y420.621
G01 X381.938 Y403.444
G01 X314.832 Y334.276
G01 X307.265 Y353.953
G01 X280.036 Y269.923
G01 X223.219 Y290.319
G01 X234.266 Y231.066
G01 X146.921 Y217.620
G01 X165.099 Y207.116
G01 X86.109 Y151.947
G01 X73.404 Y181.398
G01 X34.020 Y109.157
G01 X5.000 Y125.542
G01 X5.000 Y1600.000
G01 X204.718 Y1600.000
G01 X222.695 Y1554.881
G01 X232.163 Y1578.010
G01 X303.749 Y1513.855
G01 X280.010 Y1498.952
G01 X361.295 Y1476.617
G01 X341.980 Y1413.237
G01 X393.820 Y1426.654
G01 X411.179 Y1337.388
G01 X413.372 Y1352.922
G01 X470.854 Y1277.337
G01 X436.538 Y1258.263
G01 X506.149 Y1224.625
G01 X472.189 Y1157.849
G01 X514.544 Y1163.001
G01 X514.844 Y1068.759
G01 X507.450 Y1080.665
G01 X548.426 Y998.207
G01 X501.823 Y979.318
G01 X557.713 Y938.896
G01 X507.824 Y873.496
G01 X539.225 Y874.841
G01 X521.442 Y780.661
G01 X503.704 Y793.461
G01 X527.386 Y709.184
G01 X468.400 Y695.218
G01 X510.160 Y652.877
G01 X444.719 Y593.849
G01 X465.345 Y596.017
G01 X430.143 Y507.013
G01 X402.951 Y525.219
G01 X410.235 Y444.104
G01 X340.420 Y439.615
G01 X369.290 Y399.991
G01 X290.321 Y351.980
G01 X301.950 Y359.206
G01 X251.610 Y279.996
G01 X217.402 Y307.552
G01 X210.741 Y233.948
G01 X133.146 Y242.754
G01 X151.838 Y209.712
G01 X62.797 Y176.483
G01 X68.574 Y192.086
G01 X6.730 Y126.282
G01 X5.000 Y128.117
G01 X5.000 Y1600.000
G01 X209.156 Y1600.000
G01 X214.908 Y1547.505
G01 X246.435 Y1575.249
G01 X298.341 Y1497.053
G01 X284.772 Y1502.802
G01 X363.908 Y1457.119
G01 X334.906 Y1415.544
G01 X403.042 Y1413.169
G01 X397.205 Y1331.207
G01 X421.763 Y1349.983
G01 X458.636 Y1262.064
G01 X436.014 Y1263.087
G01 X501.850 Y1206.554
G01 X459.886 Y1162.461
G01 X517.433 Y1150.906
G01 X495.226 Y1065.858
G01 X510.481 Y1079.591
G01 X530.125 Y986.541
G01 X496.775 Y987.052
G01 X547.375 Y924.270
G01 X491.300 Y882.267
G01 X536.797 Y866.031
G01 X497.401 Y782.833
G01 X502.560 Y795.979
G01 X504.380 Y702.848
G01 X460.212 Y707.419
G01 X495.269 Y643.302
G01 X425.564 Y608.190
G01 X459.182 Y591.920
G01 X403.440 Y515.549
G01 X399.331 Y532.537
G01 X384.395 Y444.267
G01 X330.936 Y457.268
G01 X351.773 Y396.478
G01 X270.525 Y372.684
G01 X294.012 Y360.620
G01 X224.344 Y295.532
G01 X213.313 Y320.214
G01 X184.213 Y241.096
G01 X124.445 Y266.151
G01 X133.830 Y212.566
G01 X44.516 Y203.627
G01 X60.958 Y199.088
G01 X5.000 Y163.794
G01 X5.000 Y1600.000
G01 X218.161 Y1600.000
G01 X208.039 Y1545.197
G01 X261.491 Y1567.536
G01 X289.587 Y1484.470
G01 X293.824 Y1504.362
G01 X361.141 Y1438.025
G01 X332.359 Y1419.963
G01 X408.555 Y1396.084
G01 X384.567 Y1330.135
G01 X430.632 Y1342.168
G01 X443.449 Y1251.359
G01 X439.671 Y1265.429
G01 X492.286 Y1189.387
G01 X452.330 Y1168.956
G01 X516.444 Y1135.593
G01 X477.399 Y1068.053
G01 X513.727 Y1073.712
G01 X509.291 Y979.736
G01 X495.814 Y992.093
G01 X531.954 Y911.009
G01 X479.752 Y892.649
G01 X530.376 Y854.365
G01 X475.628 Y790.024
G01 X501.395 Y793.749
G01 X479.317 Y701.598
G01 X456.024 Y716.685
G01 X475.529 Y635.501
G01 X411.611 Y623.812
G01 X448.952 Y585.296
G01 X379.485 Y528.952
G01 X395.469 Y535.140
G01 X356.995 Y449.667
G01 X325.351 Y471.710
G01 X329.671 Y395.087
G01 X256.133 Y394.283
G01 X281.955 Y359.797
G01 X200.294 Y315.706
G01 X208.758 Y328.171
G01 X156.628 Y253.552
G01 X119.514 Y286.031
G01 X111.515 Y217.831
G01 X31.800 Y231.226
G01 X49.179 Y204.110
G01 X5.000 Y190.073
G01 X5.000 Y1600.000
G01 X192.439 Y1600.000
G01 X226.679 Y1586.329
G01 X204.077 Y1547.005
G01 X275.128 Y1554.901
G01 X279.496 Y1477.028
G01 X305.741 Y1501.960
G01 X353.576 Y1421.469
G01 X334.721 Y1424.327
G01 X409.100 Y1377.213
G01 X375.182 Y1333.078
G01 X437.789 Y1329.664
G01 X427.369 Y1245.993
G01 X445.969 Y1263.722
G01 X478.198 Y1175.207
G01 X449.747 Y1175.146
G01 X510.455 Y1118.960
G01 X463.196 Y1074.113
G01 X515.017 Y1063.374
G01 X488.049 Y978.408
G01 X497.294 Y992.987
G01 X512.342 Y901.134
G01 X473.249 Y902.436
G01 X518.982 Y841.812
G01 X457.863 Y800.868
G01 X498.070 Y787.270
G01 X454.363 Y705.891
G01 X454.086 Y721.683
G01 X451.975 Y631.420
G01 X402.766 Y638.509
G01 X433.820 Y578.177
G01 X359.917 Y545.729
G01 X389.267 Y533.680
G01 X330.231 Y460.598
G01 X321.823 Y481.737
G01 X304.158 Y397.684
G01 X246.890 Y414.582
G01 X265.094 Y358.825
G01 X180.983 Y338.908
G01 X201.693 Y332.219
G01 X130.193 Y271.448
G01 X116.429 Y301.321
G01 X86.200 Y227.281
G01 X24.234 Y257.109
G01 X32.704 Y209.279
G01 X5.000 Y207.936
G01 X5.000 Y1600.000
G01 X147.741 Y1600.000
G01 X148.706 Y1598.037
G01 X149.086 Y1600.000
G01 X184.522 Y1600.000
G01 X228.804 Y1567.214
G01 X204.427 Y1551.235
G01 X285.358 Y1538.295
G01 X270.278 Y1474.722
G01 X318.528 Y1494.672
G01 X342.638 Y1409.144
G01 X341.433 Y1426.512
G01 X404.293 Y1358.729
G01 X370.333 Y1338.243
G01 X441.323 Y1313.563
G01 X412.600 Y1245.799
G01 X452.851 Y1257.189
G01 X461.130 Y1165.599
G01 X451.424 Y1178.947
G01 X499.242 Y1103.201
G01 X453.769 Y1082.154
G01 X512.526 Y1049.801
G01 X468.590 Y982.230
G01 X499.108 Y989.105
G01 X490.194 Y896.111
G01 X470.929 Y909.602
G01 X502.551 Y830.575
G01 X445.117 Y813.400
G01 X490.855 Y777.895
G01 X431.677 Y715.240
G01 X452.255 Y721.938
G01 X426.365 Y632.401
G01 X398.026 Y650.320
G01 X413.883 Y572.762
G01 X345.601 Y563.845
G01 X379.098 Y529.626
G01 X306.219 Y476.413
G01 X318.181 Y487.027
G01 X277.084 Y405.474
G01 X241.653 Y431.694
G01 X243.685 Y359.886
G01 X167.126 Y363.042
G01 X190.599 Y333.943
G01 X106.974 Y293.984
G01 X112.997 Y311.858
G01 X59.815 Y241.979
G01 X20.538 Y279.474
G01 X11.944 Y216.754
G01 X5.000 Y218.296
G01 X5.000 Y1600.000
G01 X140.681 Y1600.000
G01 X142.483 Y1590.032
G01 X150.763 Y1600.000
G01 X186.166 Y1600.000
G01 X225.918 Y1550.148
G01 X209.656 Y1555.762
G01 X290.771 Y1519.415
G01 X263.935 Y1476.627
G01 X329.986 Y1482.501
G01 X330.326 Y1401.997
G01 X351.091 Y1424.824
G01 X394.690 Y1342.772
G01 X370.430 Y1343.466
G01 X439.952 Y1295.659
G01 X401.074 Y1249.707
G01 X458.128 Y1245.990
G01 X443.147 Y1161.359
G01 X455.843 Y1178.772
G01 X483.518 Y1090.406
G01 X449.372 Y1089.985
G01 X505.108 Y1034.874
G01 X452.763 Y989.989
G01 X499.084 Y980.764
G01 X467.630 Y896.580
G01 X471.164 Y912.672
G01 X481.949 Y822.686
G01 X437.486 Y825.415
G01 X478.743 Y767.578
G01 X413.018 Y728.299
G01 X448.386 Y717.918
G01 X400.859 Y638.924
G01 X395.658 Y657.889
G01 X390.151 Y571.012
G01 X336.472 Y581.092
G01 X364.100 Y525.001
G01 X286.616 Y495.643
G01 X312.317 Y488.203
G01 X250.639 Y418.778
G01 X238.594 Y444.390
G01 X218.877 Y364.859
G01 X158.498 Y385.908
G01 X174.765 Y335.418
G01 X88.514 Y319.570
G01 X107.162 Y318.411
G01 X34.567 Y262.086
G01 X18.801 Y297.226
G01 X5.000 Y266.171
G01 X5.000 Y1600.000
G01 X138.279 Y1600.000
G01 X136.679 Y1587.150
G01 X158.617 Y1600.000
G01 X192.145 Y1600.000
G01 X219.292 Y1536.940
G01 X219.384 Y1558.420
G01 X290.795 Y1500.396
G01 X261.896 Y1481.067
G01 X338.113 Y1466.370
G01 X318.849 Y1400.052
G01 X361.714 Y1418.315
G01 X381.694 Y1331.054
G01 X374.940 Y1346.614
G01 X433.263 Y1278.120
G01 X394.097 Y1255.940
G01 X459.872 Y1231.190
G01 X426.455 Y1162.348
G01 X460.960 Y1173.818
G01 X464.808 Y1082.180
G01 X449.319 Y1095.516
G01 X492.511 Y1020.783
G01 X441.742 Y999.817
G01 X495.381 Y969.164
G01 X446.841 Y902.242
G01 X471.858 Y910.989
G01 X458.813 Y819.630
G01 X434.138 Y834.875
G01 X461.644 Y758.520
G01 X399.422 Y743.115
G01 X440.730 Y710.953
G01 X377.622 Y650.529
G01 X393.524 Y660.710
G01 X364.366 Y574.286
G01 X331.550 Y595.493
G01 X344.342 Y522.002
G01 X272.312 Y516.259
G01 X302.585 Y486.712
G01 X226.948 Y436.977
G01 X235.544 Y452.320
G01 X192.504 Y374.973
G01 X153.976 Y405.605
G01 X154.415 Y338.829
G01 X75.553 Y346.116
G01 X97.385 Y322.545
G01 X12.528 Y286.827
G01 X16.830 Y310.171
G01 X5.000 Y295.777
G01 X5.000 Y1600.000
G01 X139.256 Y1600.000
G01 X133.365 Y1588.639
G01 X181.615 Y1600.000
G01 X201.626 Y1600.000
G01 X210.835 Y1528.705
G01 X232.359 Y1557.404
G01 X285.802 Y1483.419
G01 X264.755 Y1485.922
G01 X341.480 Y1447.959
G01 X310.222 Y1402.408
G01 X371.104 Y1406.958
G01 X367.293 Y1324.546
G01 X382.487 Y1345.976
G01 X421.789 Y1263.093
G01 X392.109 Y1262.339
G01 X456.781 Y1214.565
G01 X413.003 Y1167.520
G01 X464.581 Y1164.213
G01 X445.166 Y1079.343
G01 X452.115 Y1097.138
G01 X475.423 Y1009.627
G01 X435.813 Y1009.527
G01 X486.828 Y956.168
G01 X429.696 Y911.908
G01 X470.834 Y904.839
G01 X435.252 Y822.074
G01 X433.461 Y840.281
G01 X440.396 Y752.763
G01 X391.013 Y757.483
G01 X428.256 Y702.984
G01 X358.431 Y665.893
G01 X389.474 Y659.225
G01 X338.679 Y583.095
G01 X329.122 Y605.668
G01 X320.809 Y522.602
G01 X263.273 Y536.052
G01 X288.096 Y484.563
G01 X207.685 Y458.618
G01 X230.389 Y456.076
G01 X166.749 Y390.576
G01 X151.749 Y420.878
G01 X130.674 Y346.070
G01 X67.893 Y371.420
G01 X82.926 Y326.323
G01 X5.000 Y315.930
G01 X5.000 Y317.120
G01 X12.559 Y319.052
G01 X5.000 Y313.680
G01 X5.000 Y1600.000
G01 X144.295 Y1600.000
G01 X134.108 Y1592.953
G01 X213.681 Y1589.164
G01 X202.746 Y1525.656
G01 X246.686 Y1551.601
G01 X277.042 Y1470.308
G01 X272.162 Y1489.023
G01 X339.488 Y1429.394
G01 X305.897 Y1407.405
G01 X377.248 Y1391.650
G01 X353.697 Y1323.298
G01 X391.099 Y1340.577
G01 X406.909 Y1252.305
G01 X394.607 Y1266.763
G01 X448.416 Y1198.278
G01 X404.118 Y1175.113
G01 X464.769 Y1150.997
G01 X426.802 Y1081.784
G01 X455.726 Y1094.019
G01 X455.346 Y1003.026
G01 X434.316 Y1017.016
G01 X473.146 Y943.962
G01 X417.391 Y923.722
G01 X466.235 Y895.397
G01 X413.465 Y829.744
G01 X433.369 Y840.949
G01 X416.616 Y751.809
G01 X386.984 Y769.353
G01 X410.845 Y696.207
G01 X344.346 Y683.073
G01 X381.742 Y654.736
G01 X315.263 Y597.002
G01 X327.054 Y611.084
G01 X295.222 Y528.180
G01 X258.541 Y553.032
G01 X268.891 Y483.954
G01 X193.766 Y481.686
G01 X221.462 Y457.085
G01 X143.745 Y411.073
G01 X149.651 Y431.347
G01 X105.360 Y358.389
G01 X64.436 Y393.564
G01 X63.981 Y331.934
G01 X5.000 Y340.353
G01 X5.000 Y1600.000
G01 X152.007 Y1600.000
G01 X158.684 Y1592.981
G01 X139.679 Y1598.031
G01 X221.760 Y1571.008
G01 X197.108 Y1527.070
G01 X260.173 Y1540.795
G01 X266.410 Y1462.203
G01 X282.889 Y1488.546
G01 X332.484 Y1412.859
G01 X306.497 Y1412.934
G01 X378.697 Y1374.050
G01 X342.933 Y1326.436
G01 X398.581 Y1330.360
G01 X390.600 Y1246.752
G01 X400.234 Y1267.482
G01 X435.281 Y1184.479
G01 X400.270 Y1182.972
G01 X460.198 Y1135.929
G01 X411.677 Y1088.481
G01 X457.956 Y1086.259
G01 X434.326 Y1001.829
G01 X435.777 Y1020.655
G01 X454.995 Y934.653
G01 X410.240 Y935.500
G01 X456.868 Y884.511
G01 X395.331 Y841.475
G01 X431.681 Y837.135
G01 X392.406 Y756.354
G01 X385.745 Y777.203
G01 X389.309 Y692.673
G01 X335.520 Y699.867
G01 X369.272 Y649.172
G01 X295.909 Y614.706
G01 X323.192 Y612.153
G01 X269.727 Y539.274
G01 X256.422 Y565.796
G01 X245.927 Y486.869
G01 X185.182 Y503.970
G01 X207.848 Y457.342
G01 X125.185 Y435.034
G01 X145.561 Y437.577
G01 X80.650 Y376.163
G01 X63.385 Y411.269
G01 X41.649 Y341.282
G01 X5.000 Y358.162
G01 X5.000 Y1600.000
G01 X143.171 Y1600.000
G01 X154.181 Y1579.192
G01 X150.233 Y1600.000
G01 X152.446 Y1600.000
G01 X224.493 Y1552.173
G01 X195.507 Y1531.416
G01 X270.741 Y1525.709
G01 X256.103 Y1459.343
G01 X295.056 Y1483.354
G01 X321.692 Y1400.194
G01 X311.701 Y1416.817
G01 X374.826 Y1356.276
G01 X336.476 Y1332.318
G01 X402.911 Y1316.195
G01 X375.072 Y1246.512
G01 X407.034 Y1263.494
G01 X418.735 Y1174.913
G01 X400.983 Y1188.950
G01 X450.401 Y1121.162
G01 X401.143 Y1097.686
G01 X456.856 Y1074.872
G01 X414.574 Y1005.949
G01 X438.173 Y1019.586
G01 X433.858 Y929.879
G01 X407.612 Y945.129
G01 X442.425 Y874.361
G01 X382.075 Y855.425
G01 X426.525 Y829.989
G01 X369.967 Y766.149
G01 X385.217 Y780.323
G01 X365.245 Y693.907
G01 X331.171 Y714.210
G01 X351.914 Y644.725
G01 X281.702 Y634.277
G01 X315.751 Y610.153
G01 X246.501 Y555.473
G01 X254.788 Y573.781
G01 X220.908 Y494.707
G01 X181.005 Y523.465
G01 X189.558 Y459.045
G01 X112.008 Y460.454
G01 X137.791 Y440.971
G01 X58.684 Y398.824
G01 X62.580 Y424.127
G01 X17.730 Y355.639
G01 X5.000 Y367.509
G01 X5.000 Y1600.000
G01 X141.307 Y1600.000
G01 X147.370 Y1570.161
G01 X162.724 Y1600.000
G01 X165.466 Y1600.000
G01 X222.037 Y1534.865
G01 X198.745 Y1536.647
G01 X276.800 Y1507.874
G01 X248.216 Y1461.031
G01 X306.478 Y1473.201
G01 X308.996 Y1392.561
G01 X320.304 Y1417.215
G01 X365.953 Y1340.514
G01 X334.976 Y1338.840
G01 X402.617 Y1299.723
G01 X362.364 Y1250.735
G01 X412.813 Y1254.713
G01 X400.741 Y1170.599
G01 X404.925 Y1191.297
G01 X435.856 Y1108.854
G01 X395.697 Y1107.253
G01 X451.079 Y1061.596
G01 X398.064 Y1014.390
G01 X439.308 Y1013.878
G01 X411.770 Y930.511
G01 X408.053 Y950.961
G01 X423.539 Y867.059
G01 X374.036 Y869.411
G01 X416.684 Y821.340
G01 X351.195 Y780.052
G01 X383.216 Y778.937
G01 X340.746 Y700.625
G01 X329.729 Y724.561
G01 X330.455 Y643.454
G01 X272.823 Y653.513
G01 X303.651 Y606.997
G01 X227.352 Y575.499
G01 X251.477 Y577.370
G01 X195.972 Y508.033
G01 X179.554 Y538.746
G01 X167.523 Y464.186
G01 X104.235 Y485.119
G01 X125.401 Y443.512
G01 X41.169 Y424.962
G01 X59.888 Y432.674
G01 X5.000 Y384.682
G01 X5.000 Y1600.000
G01 X144.091 Y1600.000
G01 X140.415 Y1566.317
G01 X179.391 Y1597.643
G01 X215.453 Y1521.023
G01 X206.684 Y1540.566
G01 X277.546 Y1489.346
G01 X244.354 Y1465.758
G01 X315.065 Y1458.785
G01 X296.590 Y1390.228
G01 X330.444 Y1412.966
G01 X353.282 Y1328.621
G01 X338.141 Y1343.821
G01 X397.049 Y1283.050
G01 X353.973 Y1257.799
G01 X415.539 Y1241.982
G01 X383.510 Y1171.644
G01 X410.152 Y1188.987
G01 X417.899 Y1100.765
G01 X394.891 Y1115.024
G01 X440.130 Y1048.579
G01 X386.171 Y1025.419
G01 X437.221 Y1004.518
G01 X390.942 Y936.493
G01 X409.553 Y952.108
G01 X401.673 Y864.263
G01 X370.611 Y881.314
G01 X401.823 Y813.364
G01 X337.335 Y796.236
G01 X377.855 Y774.171
G01 X318.015 Y712.610
G01 X329.123 Y730.179
G01 X306.472 Y646.904
G01 X268.517 Y670.340
G01 X286.712 Y604.875
G01 X213.388 Y597.435
G01 X244.690 Y577.818
G01 X173.300 Y526.462
G01 X178.709 Y549.222
G01 X143.429 Y474.189
G01 X100.960 Y507.014
G01 X108.372 Y447.396
G01 X29.074 Y452.582
G01 X53.606 Y438.290
G01 X5.000 Y415.003
G01 X5.000 Y1600.000
G01 X142.351 Y1600.000
G01 X124.475 Y1564.247
G01 X183.827 Y1585.648
G01 X195.795 Y1509.694
G01 X207.735 Y1539.272
G01 X262.764 Y1470.663
G01 X235.235 Y1470.104
G01 X309.358 Y1440.511
G01 X277.014 Y1391.691
G01 X330.690 Y1403.216
G01 X329.775 Y1321.440
G01 X336.255 Y1345.286
G01 X378.354 Y1268.450
G01 X342.852 Y1265.872
G01 X406.438 Y1227.348
G01 X362.275 Y1177.787
G01 X408.143 Y1182.579
G01 X392.659 Y1098.701
G01 X392.121 Y1120.054
G01 X419.708 Y1038.835
G01 X375.231 Y1037.748
G01 X426.927 Y994.048
G01 X370.338 Y947.607
G01 X407.491 Y949.272
G01 X377.036 Y867.396
G01 X369.176 Y889.824
G01 X381.980 Y808.340
G01 X328.819 Y812.440
G01 X368.590 Y767.479
G01 X300.289 Y728.069
G01 X329.126 Y730.240
G01 X284.634 Y654.406
G01 X270.441 Y681.354
G01 X269.517 Y603.548
G01 X209.245 Y616.269
G01 X238.338 Y573.670
G01 X160.310 Y544.809
G01 X182.462 Y550.699
G01 X126.105 Y484.442
G01 X107.744 Y518.803
G01 X95.331 Y448.017
G01 X30.642 Y472.106
G01 X51.413 Y434.789
G01 X5.000 Y426.246
G01 X5.000 Y1600.000
G01 X57.170 Y1600.000
G01 X58.196 Y1598.434
G01 X57.663 Y1600.000
G01 X93.891 Y1600.000
G01 X127.470 Y1582.778
G01 X99.170 Y1561.555
G01 X173.232 Y1565.630
G01 X163.954 Y1500.571
G01 X199.254 Y1530.782
G01 X232.971 Y1453.183
G01 X220.568 Y1471.330
G01 X288.656 Y1419.915
G01 X252.309 Y1394.962
G01 X319.613 Y1388.133
G01 X298.514 Y1318.750
G01 X328.554 Y1341.503
G01 X348.957 Y1257.214
G01 X330.110 Y1272.144
G01 X386.301 Y1212.237
G01 X340.084 Y1186.704
G01 X398.412 Y1172.121
G01 X363.896 Y1101.983
G01 X386.968 Y1120.438
G01 X392.564 Y1033.254
G01 X366.153 Y1048.305
G01 X409.096 Y983.692
G01 X352.374 Y961.230
G01 X400.711 Y942.526
G01 X352.429 Y875.588
G01 X368.055 Y893.253
G01 X358.635 Y807.255
G01 X324.798 Y825.968
G01 X354.444 Y760.609
G01 X287.869 Y744.943
G01 X326.487 Y725.798
G01 X265.398 Y665.964
G01 X274.372 Y686.259
G01 X251.032 Y605.365
G01 X211.163 Y631.051
G01 X228.735 Y568.635
G01 X154.201 Y563.120
G01 X184.597 Y546.828
G01 X112.877 Y497.521
G01 X117.155 Y523.348
G01 X82.167 Y450.895
G01 X38.764 Y486.217
G01 X46.590 Y429.757
G01 X5.000 Y433.535
G01 X5.000 Y1600.000
G01 X21.519 Y1600.000
G01 X27.892 Y1578.872
G01 X34.867 Y1600.000
G01 X56.458 Y1600.000
G01 X103.442 Y1557.129
G01 X79.219 Y1559.713
G01 X159.022 Y1541.897
G01 X134.648 Y1495.647
G01 X191.067 Y1516.689
G01 X201.308 Y1439.906
G01 X210.117 Y1468.779
G01 X263.237 Y1400.164
G01 X232.899 Y1398.668
G01 X304.553 Y1369.588
G01 X269.979 Y1320.051
G01 X320.629 Y1332.105
G01 X317.890 Y1250.301
G01 X321.189 Y1274.348
G01 X361.409 Y1198.321
G01 X323.095 Y1195.684
G01 X384.347 Y1158.522
G01 X338.032 Y1109.073
G01 X381.076 Y1115.268
G01 X363.961 Y1032.145
G01 X360.483 Y1054.568
G01 X386.506 Y974.919
G01 X339.501 Y974.593
G01 X389.280 Y933.020
G01 X330.892 Y887.431
G01 X365.699 Y891.266
G01 X334.067 Y810.809
G01 X323.774 Y835.045
G01 X335.580 Y755.746
G01 X280.425 Y761.273
G01 X318.931 Y719.032
G01 X249.414 Y681.037
G01 X276.606 Y685.952
G01 X231.598 Y612.000
G01 X215.685 Y641.282
G01 X214.515 Y566.055
G01 X152.962 Y580.639
G01 X181.612 Y541.111
G01 X103.106 Y513.985
G01 X124.458 Y522.937
G01 X68.376 Y458.767
G01 X49.127 Y495.722
G01 X37.321 Y427.633
G01 X5.000 Y440.587
G01 X5.000 Y1572.221
G01 X30.060 Y1600.000
G01 X34.474 Y1600.000
G01 X75.622 Y1534.054
G01 X64.708 Y1556.526
G01 X140.200 Y1516.419
G01 X109.631 Y1493.581
G01 X181.031 Y1497.484
G01 X169.937 Y1431.314
G01 X202.144 Y1461.112
G01 X234.120 Y1383.223
G01 X218.712 Y1400.611
G01 X284.661 Y1349.618
G01 X245.822 Y1323.876
G01 X310.381 Y1317.731
G01 X287.345 Y1248.037
G01 X314.258 Y1271.269
G01 X332.923 Y1187.482
G01 X311.078 Y1202.539
G01 X365.249 Y1143.869
G01 X316.608 Y1118.386
G01 X372.397 Y1105.335
G01 X336.108 Y1035.668
G01 X356.308 Y1055.459
G01 X360.449 Y969.523
G01 X331.329 Y985.525
G01 X372.652 Y922.886
G01 X313.846 Y901.229
G01 X360.120 Y884.797
G01 X310.490 Y819.000
G01 X323.761 Y838.730
G01 X313.417 Y754.584
G01 X277.408 Y774.923
G01 X306.065 Y712.106
G01 X237.975 Y697.826
G01 X275.228 Y681.504
G01 X213.422 Y623.288
G01 X220.760 Y646.166
G01 X197.214 Y567.512
G01 X155.891 Y595.275
G01 X173.270 Y535.733
G01 X97.948 Y531.947
G01 X127.819 Y518.777
G01 X56.142 Y471.310
G01 X59.625 Y499.976
G01 X25.249 Y429.882
G01 X5.000 Y447.159
G01 X5.000 Y1573.307
G01 X26.314 Y1585.128
G01 X45.650 Y1515.042
G01 X54.793 Y1549.970
G01 X116.681 Y1491.408
G01 X89.931 Y1492.426
G01 X167.403 Y1474.511
G01 X141.021 Y1426.949
G01 X194.512 Y1447.843
G01 X203.051 Y1370.455
G01 X208.763 Y1398.831
G01 X260.014 Y1330.431
G01 X226.928 Y1328.205
G01 X296.169 Y1299.848
G01 X259.447 Y1249.803
G01 X307.150 Y1262.578
G01 X302.684 Y1180.953
G01 X302.905 Y1205.383
G01 X341.356 Y1130.358
G01 X300.359 Y1127.841
G01 X359.399 Y1092.215
G01 X311.079 Y1043.050
G01 X351.441 Y1050.803
G01 X332.851 Y968.596
G01 X326.596 Y992.226
G01 X351.221 Y914.292
G01 X301.871 Y914.851
G01 X349.905 Y875.528
G01 X289.915 Y830.903
G01 X322.562 Y837.006
G01 X289.952 Y758.068
G01 X277.429 Y784.185
G01 X288.438 Y707.153
G01 X231.504 Y714.163
G01 X268.949 Y674.697
G01 X198.439 Y638.159
G01 X224.194 Y645.845
G01 X178.891 Y573.804
G01 X161.474 Y605.421
G01 X160.272 Y532.780
G01 X97.664 Y549.211
G01 X126.078 Y512.735
G01 X47.318 Y487.312
G01 X68.077 Y499.277
G01 X12.484 Y437.149
G01 X5.000 Y451.974
G01 X5.000 Y1559.241
G01 X18.623 Y1562.152
G01 X15.640 Y1500.760
G01 X47.860 Y1538.561
G01 X89.313 Y1468.911
G01 X75.663 Y1489.988
G01 X149.160 Y1449.726
G01 X116.331 Y1425.490
G01 X185.071 Y1429.432
G01 X172.188 Y1362.374
G01 X201.333 Y1391.964
G01 X231.606 Y1314.005
G01 X213.252 Y1330.838
G01 X277.115 Y1280.478
G01 X235.867 Y1254.151
G01 X297.755 Y1248.886
G01 X272.880 Y1179.084
G01 X296.765 Y1202.977
G01 X313.801 Y1119.888
G01 X289.082 Y1135.244
G01 X341.356 Y1077.989
G01 X290.436 Y1052.724
G01 X343.822 Y1041.360
G01 X305.919 Y972.325
G01 X323.404 Y993.589
G01 X326.256 Y909.048
G01 X294.606 Y926.123
G01 X334.479 Y865.583
G01 X273.784 Y844.840
G01 X318.178 Y830.780
G01 X267.400 Y766.224
G01 X278.511 Y788.093
G01 X267.448 Y705.881
G01 X229.478 Y727.902
G01 X257.347 Y667.687
G01 X187.965 Y654.833
G01 X224.056 Y641.365
G01 X161.755 Y584.793
G01 X167.669 Y610.258
G01 X144.133 Y533.854
G01 X101.577 Y563.674
G01 X118.970 Y506.993
G01 X43.082 Y504.902
G01 X72.631 Y494.810
G01 X5.000 Y451.557
G01 X5.000 Y1535.351
G01 X7.743 Y1535.157
G01 X5.000 Y1529.080
G01 X5.000 Y1500.719
G01 X41.816 Y1521.635
G01 X59.718 Y1450.437
G01 X66.011 Y1484.229
G01 X126.191 Y1425.339
G01 X96.920 Y1425.003
G01 X172.061 Y1407.202
G01 X143.699 Y1358.545
G01 X194.287 Y1379.497
G01 X201.166 Y1301.726
G01 X203.835 Y1329.803
G01 X253.271 Y1261.831
G01 X217.516 Y1259.073
G01 X284.415 Y1231.638
G01 X245.644 Y1181.284
G01 X290.493 Y1194.964
G01 X284.412 Y1113.711
G01 X281.676 Y1138.695
G01 X318.477 Y1064.854
G01 X274.940 Y1062.617
G01 X331.902 Y1028.690
G01 X281.736 Y979.963
G01 X319.567 Y989.413
G01 X299.670 Y908.268
G01 X290.811 Y933.225
G01 X314.209 Y857.136
G01 X262.706 Y858.687
G01 X309.174 Y821.716
G01 X247.783 Y778.153
G01 X278.460 Y786.600
G01 X245.079 Y709.263
G01 X230.530 Y737.317
G01 X240.945 Y662.613
G01 X182.449 Y671.144
G01 X219.036 Y634.488
G01 X147.754 Y599.434
G01 X172.279 Y609.897
G01 X126.900 Y539.777
G01 X108.193 Y573.712
G01 X107.169 Y503.646
G01 X43.724 Y521.887
G01 X72.104 Y488.426
G01 X5.000 Y468.185
G01 X5.000 Y473.222
G01 X13.671 Y479.571
G01 X5.000 Y470.071
G01 X5.000 Y1493.175
G01 X34.480 Y1499.469
G01 X30.000 Y1436.682
G01 X59.378 Y1473.647
G01 X99.316 Y1403.407
G01 X82.933 Y1423.295
G01 X154.435 Y1383.095
G01 X119.372 Y1357.673
G01 X185.474 Y1361.862
G01 X170.845 Y1294.132
G01 X196.974 Y1323.712
G01 X225.602 Y1245.897
G01 X204.378 Y1262.370
G01 X266.226 Y1212.844
G01 X222.666 Y1186.125
G01 X281.972 Y1181.927
G01 X255.371 Y1112.207
G01 X276.342 Y1136.931
G01 X291.872 Y1054.721
G01 X264.417 Y1070.535
G01 X314.926 Y1014.860
G01 X261.885 Y989.963
G01 X313.016 Y980.430
G01 X273.666 Y912.170
G01 X288.602 Y935.028
G01 X290.341 Y852.011
G01 X256.345 Y870.263
G01 X294.948 Y811.930
G01 X232.563 Y792.194
G01 X275.262 Y780.588
G01 X223.544 Y717.353
G01 X232.695 Y741.417
G01 X221.116 Y661.204
G01 X181.398 Y684.942
G01 X208.682 Y627.368
G01 X138.226 Y615.963
G01 X173.360 Y605.360
G01 X110.784 Y550.441
G01 X115.481 Y578.478
G01 X92.167 Y504.315
G01 X48.592 Y536.156
G01 X66.202 Y482.304
G01 X5.000 Y481.945
G01 X5.000 Y478.242
G01 X19.386 Y474.783
G01 X5.000 Y465.873
G01 X5.000 Y1474.709
G01 X23.986 Y1473.230
G01 X5.000 Y1433.004
G01 X5.000 Y1428.955
G01 X53.683 Y1457.550
G01 X70.138 Y1385.460
G01 X73.580 Y1418.319
G01 X132.053 Y1359.317
G01 X100.287 Y1357.835
G01 X173.115 Y1340.358
G01 X142.817 Y1290.819
G01 X190.545 Y1312.026
G01 X195.823 Y1234.083
G01 X195.518 Y1262.053
G01 X243.210 Y1194.713
G01 X204.881 Y1191.613
G01 X269.525 Y1165.287
G01 X228.819 Y1114.810
G01 X270.922 Y1129.567
G01 X263.351 Y1048.867
G01 X257.788 Y1074.561
G01 X293.074 Y1002.070
G01 X247.152 Y1000.263
G01 X302.180 Y968.179
G01 X250.338 Y920.031
G01 X285.797 Y931.300
G01 X264.770 Y851.347
G01 X253.486 Y877.734
G01 X275.837 Y803.600
G01 X222.376 Y806.231
G01 X267.463 Y771.700
G01 X204.877 Y729.275
G01 X233.778 Y740.127
G01 X199.833 Y664.455
G01 X183.464 Y694.481
G01 X193.490 Y622.150
G01 X133.648 Y632.220
G01 X169.578 Y598.392
G01 X97.745 Y564.826
G01 X121.243 Y578.055
G01 X76.003 Y509.848
G01 X56.214 Y546.065
G01 X55.572 Y478.546
G01 X5.000 Y494.331
G01 X5.000 Y484.120
G01 X20.043 Y468.044
G01 X5.000 Y463.801
G01 X5.000 Y1446.313
G01 X9.121 Y1444.766
G01 X5.000 Y1441.611
G01 X5.000 Y1427.154
G01 X46.741 Y1436.185
G01 X40.753 Y1372.220
G01 X67.284 Y1408.550
G01 X105.708 Y1337.937
G01 X86.614 Y1356.839
G01 X156.138 Y1316.912
G01 X118.887 Y1290.511
G01 X182.387 Y1295.147
G01 X166.074 Y1226.955
G01 X189.253 Y1256.716
G01 X216.309 Y1179.248
G01 X192.303 Y1195.545
G01 X252.223 Y1147.045
G01 X206.463 Y1120.117
G01 X263.292 Y1117.157
G01 X235.091 Y1047.698
G01 X253.274 Y1073.410
G01 X267.432 Y992.246
G01 X237.392 Y1008.663
G01 X286.279 Y954.716
G01 X231.284 Y930.324
G01 X280.316 Y922.747
G01 X239.699 Y855.389
G01 X252.260 Y879.945
G01 X253.065 Y798.564
G01 X216.915 Y818.080
G01 X254.431 Y762.045
G01 X190.561 Y743.389
G01 X231.757 Y734.300
G01 X179.306 Y672.448
G01 X186.696 Y698.746
G01 X174.809 Y620.576
G01 X133.553 Y646.049
G01 X160.454 Y591.138
G01 X89.143 Y581.184
G01 X123.519 Y573.440
G01 X60.883 Y520.165
G01 X64.568 Y550.741
G01 X41.683 Y478.791
G01 X5.000 Y506.732
G01 X5.000 Y490.768
G01 X15.318 Y461.528
G01 X5.000 Y461.680
G01 X5.000 Y1413.320
G01 X36.669 Y1410.695
G01 X13.361 Y1363.471
G01 X61.971 Y1393.269
G01 X76.985 Y1320.503
G01 X77.593 Y1352.629
G01 X134.376 Y1293.729
G01 X100.158 Y1291.301
G01 X170.708 Y1274.350
G01 X138.538 Y1224.134
G01 X183.464 Y1245.788
G01 X187.217 Y1167.876
G01 X184.023 Y1195.921
G01 X230.058 Y1129.407
G01 X189.265 Y1126.141
G01 X251.755 Y1101.101
G01 X209.241 Y1050.676
G01 X248.719 Y1066.666
G01 X239.794 Y986.686
G01 X231.550 Y1013.233
G01 X265.465 Y942.244
G01 X217.322 Y940.997
G01 X270.570 Y910.886
G01 X217.228 Y863.441
G01 X250.485 Y876.636
G01 X228.511 Y797.987
G01 X214.988 Y825.889
G01 X236.477 Y753.803
G01 X181.259 Y757.586
G01 X225.152 Y725.562
G01 X161.580 Y684.335
G01 X188.900 Y697.631
G01 X154.598 Y623.669
G01 X136.616 Y655.687
G01 X146.455 Y585.751
G01 X85.482 Y597.363
G01 X120.954 Y566.360
G01 X48.785 Y534.271
G01 X71.455 Y550.237
G01 X26.562 Y483.916
G01 X5.895 Y522.362
G01 X5.831 Y457.344
G01 X5.000 Y457.623
G01 X5.000 Y1389.591
G01 X22.235 Y1382.912
G01 X5.000 Y1369.699
G01 X5.000 Y1361.466
G01 X55.457 Y1372.695
G01 X47.969 Y1307.766
G01 X71.665 Y1343.658
G01 X108.595 Y1272.885
G01 X86.831 Y1290.999
G01 X154.411 Y1251.549
G01 X115.033 Y1224.370
G01 X175.988 Y1229.645
G01 X158.068 Y1161.191
G01 X178.375 Y1191.313
G01 X203.947 Y1114.387
G01 X177.267 Y1130.681
G01 X235.358 Y1083.386
G01 X187.524 Y1056.419
G01 X241.992 Y1054.857
G01 X212.331 Y985.824
G01 X227.864 Y1012.666
G01 X240.797 Y932.701
G01 X208.330 Y949.849
G01 X255.750 Y897.764
G01 X198.978 Y873.997
G01 X246.075 Y868.485
G01 X204.373 Y802.139
G01 X214.739 Y828.479
G01 X214.797 Y748.829
G01 X176.690 Y769.677
G01 X213.307 Y716.011
G01 X148.158 Y698.492
G01 X188.041 Y691.965
G01 X135.067 Y631.539
G01 X140.898 Y660.090
G01 X128.906 Y583.990
G01 X86.323 Y611.198
G01 X113.040 Y558.953
G01 X41.088 Y550.436
G01 X74.902 Y545.525
G01 X12.417 Y493.867
G01 X15.286 Y526.930
G01 X5.000 Y494.681
G01 X5.000 Y1351.438
G01 X45.843 Y1347.946
G01 X20.865 Y1299.535
G01 X66.767 Y1329.180
G01 X80.361 Y1255.952
G01 X78.171 Y1287.536
G01 X133.300 Y1228.945
G01 X96.690 Y1225.768
G01 X165.015 Y1209.538
G01 X131.050 Y1158.841
G01 X173.249 Y1181.122
G01 X175.567 Y1103.435
G01 X169.585 Y1131.725
G01 X214.064 Y1066.217
G01 X170.930 Y1062.951
G01 X231.380 Y1039.361
G01 X187.197 Y989.149
G01 X224.183 Y1006.516
G01 X214.053 Y927.407
G01 X203.282 Y954.935
G01 X235.979 Y885.583
G01 X185.788 Y885.013
G01 X237.419 Y856.988
G01 X182.762 Y810.353
G01 X213.992 Y825.561
G01 X191.259 Y748.310
G01 X175.687 Y777.795
G01 X196.502 Y707.833
G01 X139.731 Y712.820
G01 X182.620 Y683.352
G01 X118.270 Y643.364
G01 X144.206 Y659.128
G01 X109.754 Y586.903
G01 X90.363 Y620.910
G01 X100.215 Y553.377
G01 X38.323 Y566.513
G01 X73.531 Y538.315
G01 X5.000 Y509.270
G01 X5.000 Y510.861
G01 X23.271 Y526.329
G01 X5.000 Y499.763
G01 X5.000 Y1331.521
G01 X31.874 Y1320.836
G01 X5.000 Y1300.364
G01 X5.000 Y1296.442
G01 X60.712 Y1309.385
G01 X51.749 Y1243.702
G01 X72.640 Y1279.348
G01 X108.114 Y1208.624
G01 X83.736 Y1226.139
G01 X149.423 Y1187.364
G01 X107.997 Y1159.599
G01 X166.476 Y1165.695
G01 X147.043 Y1097.170
G01 X164.573 Y1127.822
G01 X188.764 Y1051.621
G01 X159.528 Y1068.074
G01 X215.903 Y1022.149
G01 X166.135 Y995.300
G01 X218.371 Y995.283
G01 X187.398 Y926.825
G01 X200.430 Y954.923
G01 X212.294 Y876.295
G01 X177.570 Y894.288
G01 X223.682 Y844.181
G01 X165.316 Y821.142
G01 X210.649 Y817.786
G01 X168.054 Y752.545
G01 X176.409 Y780.737
G01 X175.911 Y702.895
G01 X136.045 Y725.126
G01 X171.951 Y673.883
G01 X105.732 Y657.538
G01 X144.495 Y653.599
G01 X91.206 Y594.625
G01 X95.676 Y625.430
G01 X83.782 Y551.409
G01 X40.079 Y580.332
G01 X66.805 Y530.738
G01 X5.000 Y524.665
G01 X5.000 Y522.956
G01 X27.864 Y521.506
G01 X5.000 Y503.075
G01 X5.000 Y1300.008
G01 X13.163 Y1293.544
G01 X5.000 Y1293.058
G01 X5.000 Y1289.351
G01 X51.587 Y1285.368
G01 X24.966 Y1235.977
G01 X68.185 Y1265.660
G01 X80.400 Y1192.176
G01 X75.463 Y1223.407
G01 X128.989 Y1165.324
G01 X90.064 Y1161.583
G01 X156.231 Y1146.259
G01 X120.566 Y1095.269
G01 X160.128 Y1118.347
G01 X161.116 Y1041.066
G01 X152.460 Y1069.761
G01 X195.497 Y1005.428
G01 X150.159 Y1002.315
G01 X208.695 Y980.322
G01 X162.992 Y930.470
G01 X197.631 Y949.342
G01 X186.453 Y871.242
G01 X173.318 Y899.861
G01 X204.960 Y832.266
G01 X152.901 Y832.473
G01 X203.082 Y806.628
G01 X147.301 Y760.893
G01 X176.683 Y778.185
G01 X153.383 Y702.409
G01 X135.957 Y733.527
G01 X156.287 Y665.744
G01 X98.168 Y671.971
G01 X140.244 Y645.090
G01 X75.325 Y606.363
G01 X100.071 Y624.598
G01 X65.673 Y554.119
G01 X45.075 Y590.097
G01 X55.135 Y524.956
G01 X5.000 Y536.669
G01 X5.000 Y530.556
G01 X27.662 Y514.152
G01 X5.000 Y504.976
G01 X5.000 Y1272.345
G01 X38.114 Y1258.924
G01 X5.000 Y1234.006
G01 X5.000 Y1232.460
G01 X62.616 Y1246.634
G01 X52.222 Y1180.401
G01 X70.354 Y1215.985
G01 X104.427 Y1145.510
G01 X77.507 Y1162.609
G01 X141.369 Y1124.697
G01 X97.988 Y1096.526
G01 X154.077 Y1103.616
G01 X133.237 Y1035.199
G01 X148.099 Y1066.541
G01 X171.025 Y991.233
G01 X139.366 Y1007.993
G01 X194.150 Y963.592
G01 X142.597 Y937.002
G01 X192.739 Y938.661
G01 X160.614 Y870.913
G01 X171.304 Y900.379
G01 X182.262 Y823.207
G01 X145.456 Y842.141
G01 X190.429 Y794.112
G01 X130.658 Y771.887
G01 X174.403 Y770.762
G01 X131.107 Y706.701
G01 X137.641 Y736.796
G01 X136.777 Y660.820
G01 X95.354 Y684.467
G01 X130.739 Y635.681
G01 X63.657 Y620.531
G01 X101.490 Y619.187
G01 X48.092 Y561.674
G01 X51.399 Y594.715
G01 X39.800 Y522.763
G01 X5.000 Y546.630
G01 X5.000 Y536.230
G01 X22.103 Y506.390
G01 X5.000 Y505.035
G01 X5.000 Y1244.294
G01 X19.879 Y1232.227
G01 X5.000 Y1230.941
G01 X5.000 Y1227.390
G01 X54.009 Y1223.337
G01 X25.790 Y1173.166
G01 X66.368 Y1203.073
G01 X77.260 Y1129.532
G01 X69.644 Y1160.589
G01 X121.636 Y1103.203
G01 X80.487 Y1099.077
G01 X144.580 Y1084.833
G01 X107.322 Y1033.726
G01 X144.351 Y1057.759
G01 X144.126 Y981.054
G01 X132.924 Y1010.300
G01 X174.644 Y947.297
G01 X127.248 Y944.474
G01 X184.008 Y924.214
G01 X136.946 Y874.852
G01 X169.389 Y895.342
G01 X157.329 Y818.371
G01 X142.002 Y848.177
G01 X172.756 Y782.440
G01 X119.017 Y783.506
G01 X167.921 Y759.921
G01 X111.210 Y715.157
G01 X138.927 Y734.586
G01 X115.254 Y660.344
G01 X96.169 Y693.126
G01 X116.206 Y627.562
G01 X56.943 Y635.045
G01 X98.394 Y610.763
G01 X33.113 Y573.303
G01 X56.860 Y593.995
G01 X22.717 Y525.253
G01 X5.000 Y556.338
G01 X5.000 Y539.806
G01 X11.567 Y500.388
G01 X5.000 Y502.060
G01 X5.000 Y1212.352
G01 X41.061 Y1197.551
G01 X5.000 Y1170.871
G01 X5.000 Y1169.944
G01 X61.311 Y1184.802
G01 X49.544 Y1118.217
G01 X64.980 Y1153.917
G01 X97.721 Y1083.882
G01 X68.348 Y1100.738
G01 X130.466 Y1063.866
G01 X85.239 Y1035.462
G01 X139.037 Y1043.706
G01 X116.910 Y975.565
G01 X129.227 Y1007.740
G01 X151.015 Y933.482
G01 X117.075 Y950.684
G01 X170.405 Y907.944
G01 X117.225 Y881.742
G01 X165.423 Y885.191
G01 X132.314 Y818.272
G01 X140.825 Y849.201
G01 X151.047 Y773.590
G01 X112.343 Y793.544
G01 X156.348 Y747.674
G01 X95.366 Y726.332
G01 X137.702 Y727.493
G01 X93.902 Y664.670
G01 X98.804 Y696.700
G01 X97.767 Y622.631
G01 X54.987 Y647.707
G01 X90.040 Y601.397
G01 X22.301 Y587.442
G01 X59.392 Y588.685
G01 X6.087 Y532.622
G01 X8.421 Y567.865
G01 X5.000 Y546.338
G01 X5.000 Y1186.611
G01 X23.330 Y1171.441
G01 X5.000 Y1169.509
G01 X5.000 Y1165.926
G01 X53.246 Y1162.217
G01 X23.490 Y1111.458
G01 X61.484 Y1141.766
G01 X71.126 Y1068.360
G01 X60.916 Y1099.412
G01 X111.456 Y1042.904
G01 X68.188 Y1038.559
G01 X130.304 Y1025.559
G01 X91.575 Y974.497
G01 X126.186 Y999.632
G01 X124.880 Y923.659
G01 X111.270 Y953.587
G01 X151.809 Y892.055
G01 X102.513 Y889.645
G01 X157.641 Y871.236
G01 X109.389 Y822.481
G01 X139.796 Y844.684
G01 X127.026 Y768.947
G01 X109.684 Y800.016
G01 X139.724 Y736.224
G01 X84.494 Y738.214
G01 X132.299 Y716.948
G01 X74.854 Y673.211
G01 X101.092 Y694.811
G01 X77.241 Y622.143
G01 X56.692 Y656.604
G01 X76.625 Y593.279
G01 X16.422 Y602.017
G01 X57.433 Y580.330
G01 X5.000 Y551.320
G01 X5.000 Y557.234
G01 X14.929 Y567.242
G01 X5.000 Y547.489
G01 X5.000 Y1151.879
G01 X40.848 Y1137.078
G01 X5.000 Y1111.097
G01 X5.000 Y1109.369
G01 X56.961 Y1124.239
G01 X43.896 Y1057.489
G01 X56.716 Y1093.474
G01 X88.208 Y1024.060
G01 X56.485 Y1040.835
G01 X116.956 Y1005.170
G01 X70.003 Y976.693
G01 X121.623 Y986.238
G01 X98.341 Y918.527
G01 X108.244 Y951.666
G01 X129.032 Y878.601
G01 X92.966 Y896.364
G01 X144.986 Y855.407
G01 X90.348 Y829.704
G01 X136.758 Y835.043
G01 X102.838 Y769.055
G01 X109.344 Y801.524
G01 X119.005 Y727.560
G01 X78.588 Y748.598
G01 X121.803 Y704.951
G01 X59.805 Y684.543
G01 X100.913 Y688.029
G01 X56.805 Y626.483
G01 X60.265 Y660.462
G01 X59.248 Y588.323
G01 X15.309 Y614.826
G01 X50.215 Y570.990
G01 X5.000 Y562.520
G01 X5.000 Y560.608
G01 X18.554 Y562.018
G01 X5.000 Y548.048
G01 X5.000 Y1127.232
G01 X23.648 Y1111.548
G01 X5.000 Y1109.348
G01 X5.000 Y1105.372
G01 X49.461 Y1102.353
G01 X18.244 Y1051.193
G01 X53.729 Y1082.070
G01 X62.207 Y1008.979
G01 X49.500 Y1040.186
G01 X98.685 Y984.725
G01 X53.419 Y980.315
G01 X113.666 Y968.710
G01 X73.599 Y917.845
G01 X105.922 Y944.213
G01 X103.673 Y869.114
G01 X87.804 Y899.841
G01 X127.308 Y839.905
G01 X76.277 Y838.016
G01 X129.927 Y821.561
G01 X80.660 Y773.512
G01 X109.199 Y797.508
G01 X95.896 Y723.091
G01 X76.720 Y755.485
G01 X106.223 Y693.704
G01 X49.697 Y696.666
G01 X96.581 Y677.761
G01 X38.600 Y635.088
G01 X63.543 Y658.876
G01 X39.709 Y587.806
G01 X17.890 Y623.942
G01 X37.906 Y562.858
G01 X5.000 Y568.244
G01 X5.000 Y559.682
G01 X17.715 Y553.718
G01 X5.000 Y546.917
G01 X5.000 Y1091.309
G01 X37.635 Y1077.854
G01 X5.000 Y1054.750
G01 X5.000 Y1051.254
G01 X49.758 Y1065.274
G01 X35.484 Y998.539
G01 X45.782 Y1034.966
G01 X76.124 Y966.344
G01 X42.167 Y983.188
G01 X101.098 Y948.884
G01 X52.553 Y920.480
G01 X102.119 Y931.460
G01 X77.824 Y864.319
G01 X85.458 Y898.539
G01 X105.393 Y826.793
G01 X67.362 Y845.222
G01 X118.224 Y806.154
G01 X62.303 Y781.045
G01 X107.087 Y788.356
G01 X72.536 Y723.386
G01 X77.213 Y757.455
G01 X86.492 Y685.209
G01 X44.553 Y707.373
G01 X87.154 Y665.996
G01 X24.338 Y646.556
G01 X64.400 Y652.387
G01 X20.180 Y592.140
G01 X22.386 Y628.065
G01 X21.578 Y557.861
G01 X5.000 Y568.165
G01 X5.000 Y552.227
G01 X11.617 Y544.391
G01 X5.000 Y543.267
G01 X5.000 Y1066.504
G01 X20.989 Y1052.894
G01 X5.000 Y1050.890
G01 X5.000 Y1046.181
G01 X42.841 Y1044.077
G01 X10.255 Y992.692
G01 X43.319 Y1024.294
G01 X50.734 Y951.690
G01 X35.644 Y983.198
G01 X83.581 Y928.942
G01 X36.449 Y924.609
G01 X94.949 Y914.535
G01 X53.688 Y864.005
G01 X83.860 Y891.723
G01 X80.819 Y817.624
G01 X62.847 Y849.253
G01 X101.469 Y791.021
G01 X48.877 Y789.746
G01 X101.209 Y775.329
G01 X51.107 Y728.070
G01 X77.948 Y753.920
G01 X64.295 Y680.894
G01 X43.470 Y714.656
G01 X72.614 Y654.936
G01 X14.987 Y658.900
G01 X61.128 Y642.381
G01 X5.000 Y602.353
G01 X5.000 Y603.178
G01 X26.641 Y626.766
G01 X5.000 Y563.137
G01 X5.000 Y1031.079
G01 X31.608 Y1020.207
G01 X5.000 Y1001.849
G01 X5.000 Y996.163
G01 X39.917 Y1008.217
G01 X24.538 Y941.667
G01 X32.419 Y978.681
G01 X61.722 Y911.009
G01 X25.660 Y928.061
G01 X83.171 Y895.258
G01 X33.178 Y867.059
G01 X80.823 Y879.594
G01 X55.668 Y813.149
G01 X61.184 Y848.551
G01 X80.422 Y778.235
G01 X40.595 Y797.418
G01 X90.459 Y760.329
G01 X33.435 Y735.894
G01 X76.760 Y745.241
G01 X41.762 Y681.356
G01 X44.789 Y717.069
G01 X53.866 Y646.592
G01 X10.597 Y669.912
G01 X52.763 Y630.833
G01 X5.000 Y616.937
G01 X5.000 Y615.647
G01 X28.520 Y620.556
G01 X5.000 Y589.146
G01 X5.000 Y1004.845
G01 X15.536 Y995.810
G01 X5.000 Y994.455
G01 X5.000 Y988.839
G01 X33.600 Y987.700
G01 X5.000 Y944.233
G01 X5.000 Y941.800
G01 X30.495 Y968.729
G01 X36.960 Y896.769
G01 X19.610 Y928.714
G01 X66.421 Y875.804
G01 X17.565 Y871.678
G01 X74.448 Y863.258
G01 X32.147 Y813.184
G01 X60.315 Y842.354
G01 X56.639 Y769.368
G01 X36.730 Y801.984
G01 X74.630 Y745.549
G01 X20.655 Y744.962
G01 X71.833 Y732.654
G01 X21.081 Y686.248
G01 X46.399 Y713.999
G01 X32.578 Y642.415
G01 X10.291 Y677.571
G01 X39.256 Y619.945
G01 X5.000 Y622.858
G01 X5.000 Y617.398
G01 X26.298 Y610.798
G01 X5.000 Y596.041
G01 X5.000 Y971.667
G01 X22.977 Y964.450
G01 X5.000 Y952.384
G01 X5.000 Y944.690
G01 X27.675 Y953.359
G01 X11.306 Y887.149
G01 X16.890 Y924.885
G01 X45.276 Y858.308
G01 X7.248 Y875.692
G01 X63.470 Y844.516
G01 X12.182 Y816.642
G01 X58.049 Y830.836
G01 X32.194 Y765.196
G01 X35.752 Y801.865
G01 X54.453 Y733.074
G01 X13.006 Y753.082
G01 X62.035 Y718.044
G01 X5.000 Y694.716
G01 X5.000 Y694.591
G01 X46.130 Y705.777
G01 X10.871 Y643.028
G01 X12.428 Y680.411
G01 X21.486 Y611.738
G01 X5.000 Y620.827
G01 X5.000 Y611.724
G01 X18.985 Y599.454
G01 X5.000 Y595.627
G01 X5.000 Y942.752
G01 X7.495 Y940.607
G01 X5.000 Y940.286
G01 X5.000 Y933.858
G01 X21.971 Y933.510
G01 X5.000 Y908.608
G01 X5.000 Y903.305
G01 X15.514 Y915.639
G01 X21.155 Y844.468
G01 X5.000 Y871.432
G01 X5.000 Y873.246
G01 X47.495 Y825.539
G01 X5.000 Y822.331
G01 X5.000 Y820.779
G01 X52.474 Y815.074
G01 X9.294 Y765.563
G01 X35.613 Y796.272
G01 X31.467 Y724.492
G01 X9.790 Y758.165
G01 X47.133 Y703.604
G01 X5.000 Y703.726
G01 X5.000 Y701.126
G01 X42.150 Y693.614
G01 X5.000 Y660.608
G01 X5.000 Y665.526
G01 X14.906 Y677.790
G01 X5.000 Y627.482
G01 X5.000 Y591.605
G01 X6.503 Y588.724
G01 X5.000 Y588.876
G01 X5.000 Y913.597
G01 X11.970 Y910.872
G01 X5.000 Y906.327
G01 X5.000 Y897.447
G01 X13.287 Y900.966
G01 X5.000 Y869.356
G01 X5.000 Y860.733
G01 X27.075 Y808.466
G01 X5.000 Y818.343
G01 X5.000 Y816.794
G01 X42.301 Y796.855
G01 X5.000 Y777.324
G01 X5.000 Y774.855
G01 X34.121 Y785.349
G01 X7.732 Y720.609
G01 X9.497 Y758.614
G01 X27.829 Y691.425
G01 X5.000 Y702.544
G01 X5.000 Y698.655
G01 X33.303 Y679.383
G01 X5.000 Y668.328
G01 X5.000 Y666.519
G01 X15.550 Y670.012
G01 X5.000 Y651.626
G01 X5.000 Y881.769
G01 X8.207 Y881.776
G01 X5.000 Y877.223
G01 X5.000 Y802.855
G01 X27.110 Y778.342
G01 X5.000 Y776.898
G01 X5.000 Y772.313
G01 X29.349 Y770.150
G01 X5.000 Y743.046
G01 X5.000 Y746.934
G01 X10.088 Y753.610
G01 X5.640 Y683.116
G01 X5.000 Y684.074
G01 X5.000 Y685.673
G01 X19.325 Y665.271
G01 X5.000 Y665.512
G01 X5.000 Y659.472
G01 X12.511 Y658.262
G01 X5.000 Y651.761
G01 X5.000 Y767.435
G01 X7.423 Y761.683
G01 X5.000 Y762.755
G01 X5.000 Y760.094
G01 X19.986 Y752.443
G01 X5.000 Y744.882
G01 X5.000 Y741.456
G01 X9.371 Y743.271
G01 X5.000 Y732.853
G01 X5.000 Y735.019
G01 X5.582 Y734.385
G01 X5.000 Y734.354
G01 X5.000 Y731.500

; BEGIN POST
; file: mishegoss5
; 27:03
; END POST
; file trimmed by trimify2x.pl
; QQQQQQQ

