; file trimmed by trimify2x.pl
; Created by Sandify
; 
;   https://sandify.org
; 
;   Sandify Version: 0.1.4
; 
;   Machine Type: Rectangular
;     MinX: 5 MaxX: 710 MinY: 5 MaxY: 1600
;   Content Type: Shapes
;     Starting Size: 304
;     Offset: X: -444 Y: -600
;     Selected Shape: Reuleaux
;       Reuleaux Sides: 2.5
;     Number of Loops: 163
;     Spin: true
;       Spin Value: -1.7
;       Spin Switchbacks: 1
;     Grow: true
;       Grow Value: 8.2
;     Track: true
;       Track Size: 53
;       Track Length: 880.7
;       Track Grow: true
;           Track Grow Value: -17
;   Path Reversed: true
; 
; filename: 'rolo3'

; BEGIN PRE
G28  Y
G28 X
G01 F30000; END PRE
G01 X710.000 Y5.000
G01 X710.000 Y1587.899
G01 X707.746 Y1592.877
G01 X710.000 Y1595.287
G01 X710.000 Y1597.788
G01 X703.610 Y1594.461
G01 X700.489 Y1600.000
G01 X710.000 Y1600.000
G01 X710.000 Y1590.543
G01 X706.295 Y1589.948
G01 X706.852 Y1600.000
G01 X710.000 Y1600.000
G01 X710.000 Y23.827
G01 X693.452 Y28.506
G01 X697.231 Y47.350
G01 X710.000 Y43.080
G01 X710.000 Y26.139
G01 X692.406 Y22.137
G01 X663.254 Y40.238
G01 X678.934 Y52.879
G01 X710.000 Y32.121
G01 X710.000 Y33.829
G01 X708.251 Y32.548
G01 X653.415 Y31.458
G01 X637.537 Y52.083
G01 X662.657 Y55.477
G01 X699.515 Y15.853
G01 X700.979 Y5.000
G01 X710.000 Y5.000
G01 X710.000 Y256.845
G01 X708.334 Y257.132
G01 X706.608 Y275.758
G01 X710.000 Y274.936
G01 X710.000 Y56.495
G01 X664.121 Y34.422
G01 X618.635 Y43.610
G01 X615.833 Y62.900
G01 X647.236 Y54.832
G01 X676.904 Y5.000
G01 X710.000 Y5.000
G01 X710.000 Y254.522
G01 X683.333 Y266.585
G01 X693.530 Y280.491
G01 X710.000 Y271.018
G01 X710.000 Y85.557
G01 X684.718 Y57.757
G01 X622.402 Y41.131
G01 X588.348 Y57.387
G01 X597.392 Y71.743
G01 X631.490 Y50.969
G01 X647.626 Y5.000
G01 X710.000 Y5.000
G01 X710.000 Y260.543
G01 X683.117 Y257.792
G01 X662.611 Y276.396
G01 X682.660 Y282.467
G01 X710.000 Y256.311
G01 X710.000 Y123.708
G01 X701.694 Y102.187
G01 X641.048 Y55.650
G01 X584.020 Y51.845
G01 X562.501 Y71.575
G01 X581.256 Y77.926
G01 X614.310 Y44.242
G01 X620.108 Y5.000
G01 X710.000 Y5.000
G01 X710.000 Y266.734
G01 X701.246 Y261.789
G01 X653.734 Y266.823
G01 X645.815 Y285.440
G01 X672.912 Y281.289
G01 X703.695 Y235.385
G01 X703.824 Y160.490
G01 X661.970 Y91.446
G01 X598.403 Y58.771
G01 X549.628 Y65.538
G01 X540.721 Y85.049
G01 X566.334 Y81.070
G01 X594.746 Y35.293
G01 X593.585 Y5.000
G01 X710.000 Y5.000
G01 X710.000 Y279.984
G01 X665.744 Y264.775
G01 X628.492 Y277.650
G01 X632.309 Y292.751
G01 X663.155 Y276.881
G01 X686.293 Y220.430
G01 X672.617 Y144.653
G01 X620.704 Y85.565
G01 X557.896 Y66.651
G01 X519.575 Y81.072
G01 X522.356 Y96.852
G01 X551.498 Y81.114
G01 X572.077 Y24.994
G01 X567.625 Y5.000
G01 X710.000 Y5.000
G01 X710.000 Y486.673
G01 X707.310 Y488.442
G01 X710.000 Y489.893
G01 X710.000 Y297.152
G01 X690.178 Y279.952
G01 X633.064 Y271.719
G01 X607.439 Y289.117
G01 X621.234 Y297.596
G01 X652.299 Y269.482
G01 X665.186 Y204.952
G01 X638.015 Y131.897
G01 X579.057 Y84.788
G01 X520.459 Y78.556
G01 X493.888 Y97.282
G01 X506.535 Y106.265
G01 X535.668 Y78.318
G01 X545.862 Y14.376
G01 X541.931 Y5.000
G01 X710.000 Y5.000
G01 X710.000 Y477.533
G01 X707.618 Y477.575
G01 X694.988 Y495.003
G01 X710.000 Y494.432
G01 X710.000 Y312.421
G01 X654.105 Y279.074
G01 X603.912 Y281.702
G01 X590.311 Y300.122
G01 X611.585 Y299.520
G01 X639.384 Y259.622
G01 X640.212 Y190.056
G01 X600.808 Y123.056
G01 X538.195 Y89.035
G01 X486.781 Y93.544
G01 X472.283 Y113.067
G01 X492.244 Y112.847
G01 X517.897 Y73.225
G01 X515.979 Y5.000
G01 X710.000 Y5.000
G01 X710.000 Y479.474
G01 X687.071 Y484.837
G01 X685.917 Y500.085
G01 X710.000 Y489.911
G01 X710.000 Y343.119
G01 X680.666 Y305.693
G01 X619.638 Y282.761
G01 X578.712 Y293.672
G01 X576.566 Y309.701
G01 X602.287 Y298.373
G01 X623.647 Y248.070
G01 X611.523 Y176.840
G01 X561.969 Y118.716
G01 X499.207 Y97.929
G01 X457.265 Y110.550
G01 X454.201 Y127.470
G01 X478.413 Y116.465
G01 X497.441 Y66.612
G01 X484.356 Y5.000
G01 X710.000 Y5.000
G01 X710.000 Y480.506
G01 X699.589 Y478.217
G01 X670.411 Y492.947
G01 X679.339 Y502.918
G01 X707.982 Y479.917
G01 X710.000 Y471.874
G01 X710.000 Y380.094
G01 X700.550 Y350.030
G01 X645.849 Y300.854
G01 X587.722 Y290.395
G01 X557.583 Y306.526
G01 X565.434 Y317.098
G01 X592.292 Y294.307
G01 X604.578 Y235.765
G01 X579.560 Y166.308
G01 X522.586 Y119.175
G01 X463.024 Y110.824
G01 X432.011 Y128.462
G01 X438.857 Y139.744
G01 X463.996 Y117.288
G01 X473.815 Y59.424
G01 X451.643 Y5.000
G01 X710.000 Y5.000
G01 X710.000 Y484.970
G01 X675.330 Y483.976
G01 X657.478 Y500.842
G01 X674.335 Y502.989
G01 X700.991 Y468.648
G01 X704.912 Y403.823
G01 X670.598 Y337.744
G01 X611.324 Y300.711
G01 X559.084 Y301.143
G01 X540.344 Y319.197
G01 X555.987 Y321.811
G01 X580.652 Y287.761
G01 X581.952 Y223.742
G01 X545.019 Y159.297
G01 X483.770 Y124.428
G01 X430.360 Y126.866
G01 X410.816 Y146.211
G01 X425.316 Y149.402
G01 X448.058 Y115.768
G01 X446.817 Y52.692
G01 X416.795 Y5.000
G01 X710.000 Y5.000
G01 X710.000 Y490.201
G01 X697.506 Y484.558
G01 X654.601 Y491.841
G01 X647.834 Y507.563
G01 X669.899 Y500.065
G01 X691.448 Y455.413
G01 X683.333 Y387.956
G01 X638.691 Y329.450
G01 X578.151 Y304.998
G01 X534.193 Y314.028
G01 X526.541 Y330.732
G01 X547.218 Y323.625
G01 X566.593 Y279.408
G01 X555.842 Y213.044
G01 X508.786 Y156.418
G01 X446.576 Y134.179
G01 X401.663 Y145.061
G01 X393.209 Y162.847
G01 X412.569 Y156.243
G01 X429.844 Y112.588
G01 X416.546 Y47.453
G01 X378.173 Y5.000
G01 X710.000 Y5.000
G01 X710.000 Y497.434
G01 X670.741 Y487.518
G01 X637.604 Y500.780
G01 X640.810 Y512.331
G01 X665.019 Y494.207
G01 X678.788 Y441.062
G01 X658.399 Y374.222
G01 X605.831 Y325.521
G01 X547.262 Y313.181
G01 X513.229 Y328.007
G01 X515.490 Y340.358
G01 X538.118 Y322.614
G01 X549.572 Y270.103
G01 X526.603 Y204.647
G01 X471.871 Y158.018
G01 X411.927 Y147.869
G01 X377.095 Y164.358
G01 X378.492 Y177.609
G01 X399.611 Y160.357
G01 X408.830 Y108.608
G01 X383.379 Y44.667
G01 X332.686 Y5.000
G01 X240.812 Y5.000
G01 X229.862 Y10.623
G01 X230.484 Y24.867
G01 X250.176 Y8.214
G01 X250.623 Y5.000
G01 X710.000 Y5.000
G01 X710.000 Y504.787
G01 X699.211 Y497.127
G01 X646.761 Y493.591
G01 X624.255 Y509.768
G01 X635.567 Y514.596
G01 X658.760 Y485.749
G01 X662.711 Y426.554
G01 X630.696 Y363.473
G01 X573.066 Y326.046
G01 X519.399 Y324.512
G01 X496.089 Y342.053
G01 X506.344 Y347.539
G01 X527.763 Y319.127
G01 X529.310 Y260.807
G01 X494.840 Y199.382
G01 X435.326 Y164.155
G01 X380.550 Y164.727
G01 X356.530 Y183.725
G01 X365.808 Y189.969
G01 X385.528 Y162.106
G01 X384.760 Y104.787
G01 X347.938 Y45.146
G01 X286.657 Y12.233
G01 X230.886 Y15.008
G01 X206.257 Y35.550
G01 X214.645 Y42.645
G01 X232.751 Y15.439
G01 X232.196 Y5.000
G01 X710.000 Y5.000
G01 X710.000 Y514.941
G01 X671.441 Y496.507
G01 X626.085 Y501.893
G01 X614.198 Y517.869
G01 X631.167 Y514.073
G01 X650.332 Y475.268
G01 X643.194 Y412.885
G01 X601.008 Y356.361
G01 X541.414 Y330.833
G01 X495.064 Y338.092
G01 X482.399 Y355.229
G01 X498.160 Y352.002
G01 X515.376 Y313.750
G01 X505.810 Y252.506
G01 X461.352 Y197.878
G01 X400.168 Y174.610
G01 X352.930 Y183.837
G01 X339.578 Y202.229
G01 X354.210 Y199.670
G01 X369.559 Y162.086
G01 X357.659 Y102.107
G01 X311.040 Y49.494
G01 X248.384 Y28.591
G01 X200.371 Y39.876
G01 X186.430 Y59.606
G01 X200.020 Y57.810
G01 X213.589 Y21.003
G01 X209.730 Y5.000
G01 X710.000 Y5.000
G01 X710.000 Y523.427
G01 X702.490 Y515.669
G01 X645.439 Y499.653
G01 X608.967 Y511.457
G01 X606.850 Y524.298
G01 X626.650 Y510.750
G01 X639.149 Y463.527
G01 X620.491 Y401.005
G01 X570.258 Y353.296
G01 X511.790 Y339.431
G01 X474.493 Y352.939
G01 X471.561 Y366.760
G01 X489.979 Y353.750
G01 X500.391 Y307.252
G01 X479.347 Y246.141
G01 X427.073 Y200.518
G01 X367.300 Y188.905
G01 X329.282 Y204.208
G01 X325.625 Y219.100
G01 X342.742 Y206.730
G01 X351.153 Y161.072
G01 X327.823 Y101.492
G01 X273.624 Y58.068
G01 X212.668 Y48.804
G01 X174.039 Y65.984
G01 X169.752 Y82.029
G01 X185.657 Y70.393
G01 X192.159 Y25.685
G01 X183.053 Y5.000
G01 X710.000 Y5.000
G01 X710.000 Y536.704
G01 X675.301 Y511.260
G01 X621.963 Y505.921
G01 X595.390 Y521.306
G01 X601.449 Y528.482
G01 X621.110 Y504.883
G01 X624.867 Y451.410
G01 X595.101 Y391.750
G01 X539.431 Y354.423
G01 X484.939 Y351.173
G01 X457.648 Y368.073
G01 X462.804 Y376.081
G01 X480.905 Y353.053
G01 X482.484 Y300.519
G01 X450.437 Y242.528
G01 X392.989 Y207.420
G01 X337.456 Y206.353
G01 X309.549 Y224.853
G01 X313.889 Y233.784
G01 X330.515 Y211.429
G01 X330.007 Y159.949
G01 X295.788 Y103.743
G01 X236.683 Y70.957
G01 X180.229 Y72.162
G01 X151.813 Y92.340
G01 X155.432 Y102.275
G01 X170.672 Y80.689
G01 X168.177 Y30.371
G01 X151.232 Y5.000
G01 X710.000 Y5.000
G01 X710.000 Y546.143
G01 X705.350 Y539.209
G01 X648.740 Y510.860
G01 X601.559 Y514.504
G01 X585.075 Y530.529
G01 X597.128 Y530.089
G01 X613.766 Y496.963
G01 X607.404 Y439.852
G01 X567.724 Y385.780
G01 X509.498 Y359.616
G01 X461.389 Y365.235
G01 X444.233 Y382.582
G01 X455.253 Y382.873
G01 X470.168 Y350.411
G01 X461.594 Y294.480
G01 X419.798 Y242.306
G01 X360.072 Y218.430
G01 X311.147 Y226.112
G01 X293.417 Y244.862
G01 X303.492 Y245.974
G01 X316.771 Y214.279
G01 X306.083 Y159.639
G01 X262.284 Y109.474
G01 X201.183 Y87.982
G01 X151.559 Y97.806
G01 X133.360 Y118.034
G01 X142.585 Y120.050
G01 X154.320 Y89.218
G01 X141.624 Y35.976
G01 X112.180 Y5.000
G01 X710.000 Y5.000
G01 X710.000 Y562.753
G01 X680.217 Y531.348
G01 X623.700 Y514.120
G01 X584.523 Y524.501
G01 X577.519 Y538.349
G01 X592.981 Y529.046
G01 X604.020 Y487.672
G01 X586.941 Y429.760
G01 X539.206 Y383.531
G01 X481.349 Y368.502
G01 X441.420 Y380.704
G01 X433.729 Y395.694
G01 X448.005 Y387.076
G01 X457.185 Y346.511
G01 X437.923 Y290.029
G01 X388.282 Y245.886
G01 X329.202 Y233.150
G01 X288.632 Y247.256
G01 X280.350 Y263.466
G01 X293.528 Y255.625
G01 X300.942 Y215.972
G01 X279.601 Y161.029
G01 X228.174 Y119.075
G01 X167.996 Y108.718
G01 X126.901 Y124.800
G01 X118.130 Y142.305
G01 X130.304 Y135.321
G01 X136.048 Y96.677
G01 X112.740 Y43.374
G01 X61.389 Y5.000
G01 X710.000 Y5.000
G01 X710.000 Y681.752
G01 X706.738 Y683.194
G01 X708.721 Y691.477
G01 X710.000 Y690.073
G01 X710.000 Y574.681
G01 X706.251 Y566.202
G01 X654.593 Y527.329
G01 X600.936 Y520.474
G01 X570.897 Y534.986
G01 X572.039 Y544.174
G01 X588.140 Y525.537
G01 X591.492 Y477.817
G01 X563.898 Y421.947
G01 X510.463 Y385.194
G01 X455.723 Y380.492
G01 X425.053 Y396.647
G01 X425.442 Y406.826
G01 X440.195 Y388.886
G01 X441.597 Y342.163
G01 X411.908 Y287.966
G01 X356.812 Y253.434
G01 X301.108 Y250.970
G01 X269.915 Y268.846
G01 X269.644 Y280.093
G01 X283.140 Y262.942
G01 X282.687 Y217.318
G01 X251.015 Y164.898
G01 X194.382 Y132.681
G01 X137.838 Y132.534
G01 X106.236 Y152.199
G01 X105.406 Y164.586
G01 X117.738 Y148.306
G01 X115.534 Y103.877
G01 X81.996 Y53.330
G01 X23.957 Y23.516
G01 X5.000 Y24.257
G01 X5.000 Y5.000
G01 X710.000 Y5.000
G01 X710.000 Y680.202
G01 X699.257 Y688.049
G01 X707.568 Y689.808
G01 X710.000 Y685.389
G01 X710.000 Y594.390
G01 X684.360 Y555.683
G01 X629.400 Y527.114
G01 X581.005 Y529.192
G01 X560.473 Y545.082
G01 X567.836 Y547.636
G01 X581.839 Y519.973
G01 X576.051 Y468.268
G01 X538.894 Y417.071
G01 X482.417 Y390.705
G01 X433.165 Y394.838
G01 X412.064 Y412.186
G01 X418.566 Y415.621
G01 X431.069 Y388.724
G01 X423.290 Y338.232
G01 X384.182 Y288.926
G01 X326.308 Y264.859
G01 X276.317 Y271.124
G01 X254.752 Y290.003
G01 X260.487 Y294.396
G01 X271.581 Y268.357
G01 X261.912 Y219.178
G01 X220.972 Y171.863
G01 X161.828 Y150.178
G01 X111.220 Y158.647
G01 X89.302 Y179.122
G01 X94.367 Y184.545
G01 X104.151 Y159.447
G01 X92.702 Y111.675
G01 X50.052 Y66.440
G01 X5.000 Y52.073
G01 X5.000 Y5.000
G01 X710.000 Y5.000
G01 X710.000 Y677.512
G01 X705.152 Y678.372
G01 X694.393 Y691.750
G01 X706.716 Y685.603
G01 X710.000 Y674.851
G01 X710.000 Y617.735
G01 X704.261 Y594.750
G01 X661.018 Y548.477
G01 X605.500 Y530.423
G01 X564.242 Y539.440
G01 X552.822 Y554.024
G01 X564.064 Y548.612
G01 X573.475 Y512.955
G01 X557.812 Y459.885
G01 X512.695 Y415.587
G01 X455.923 Y399.761
G01 X413.991 Y410.693
G01 X402.008 Y426.559
G01 X412.254 Y421.967
G01 X420.035 Y387.197
G01 X402.397 Y335.569
G01 X355.522 Y293.345
G01 X297.619 Y279.832
G01 X255.128 Y292.751
G01 X242.682 Y309.969
G01 X252.027 Y306.275
G01 X258.274 Y272.483
G01 X238.770 Y222.394
G01 X190.258 Y182.336
G01 X131.351 Y171.213
G01 X88.421 Y186.183
G01 X75.622 Y204.816
G01 X84.163 Y202.091
G01 X88.978 Y169.360
G01 X67.720 Y120.900
G01 X17.700 Y83.090
G01 X5.000 Y81.250
G01 X5.000 Y5.000
G01 X710.000 Y5.000
G01 X710.000 Y678.061
G01 X694.245 Y683.879
G01 X691.549 Y693.690
G01 X705.334 Y678.966
G01 X709.900 Y636.014
G01 X686.386 Y582.681
G01 X637.068 Y544.838
G01 X583.632 Y536.766
G01 X550.738 Y550.347
G01 X547.337 Y561.214
G01 X559.894 Y547.218
G01 X562.643 Y505.217
G01 X537.120 Y453.451
G01 X486.151 Y417.724
G01 X431.711 Y411.847
G01 X398.274 Y427.178
G01 X394.264 Y439.175
G01 X405.680 Y425.992
G01 X406.707 Y385.040
G01 X379.282 Y334.942
G01 X326.781 Y301.424
G01 X271.461 Y297.818
G01 X237.593 Y314.966
G01 X233.074 Y328.160
G01 X243.444 Y315.869
G01 X242.849 Y276.057
G01 X213.637 Y227.719
G01 X159.730 Y196.493
G01 X103.656 Y195.228
G01 X69.476 Y214.251
G01 X64.552 Y228.703
G01 X73.975 Y217.376
G01 X71.864 Y178.785
G01 X40.983 Y132.293
G01 X5.000 Y113.475
G01 X5.000 Y5.000
G01 X710.000 Y5.000
G01 X710.000 Y675.147
G01 X709.715 Y675.139
G01 X686.272 Y689.224
G01 X690.005 Y693.466
G01 X702.673 Y670.227
G01 X699.125 Y622.851
G01 X666.360 Y573.127
G01 X613.378 Y544.778
G01 X564.361 Y545.486
G01 X540.347 Y561.075
G01 X543.290 Y566.256
G01 X554.585 Y543.792
G01 X549.170 Y497.561
G01 X514.517 Y449.616
G01 X460.128 Y423.472
G01 X410.332 Y426.290
G01 X385.850 Y443.454
G01 X388.097 Y449.647
G01 X398.111 Y428.044
G01 X390.928 Y383.054
G01 X354.500 Y336.983
G01 X298.826 Y313.128
G01 X248.372 Y318.126
G01 X223.533 Y336.926
G01 X225.182 Y344.199
G01 X234.010 Y323.535
G01 X225.165 Y279.875
G01 X187.082 Y235.765
G01 X130.252 Y214.276
G01 X79.266 Y221.514
G01 X54.185 Y242.006
G01 X55.339 Y250.419
G01 X63.083 Y230.765
G01 X52.685 Y188.514
G01 X13.072 Y146.446
G01 X5.000 Y143.787
G01 X5.000 Y5.000
G01 X710.000 Y5.000
G01 X710.000 Y677.952
G01 X695.681 Y679.935
G01 X680.890 Y693.662
G01 X688.976 Y690.899
G01 X698.118 Y659.904
G01 X685.561 Y610.487
G01 X644.863 Y566.576
G01 X590.770 Y548.082
G01 X548.048 Y555.816
G01 X532.710 Y570.879
G01 X539.891 Y568.983
G01 X547.535 Y538.859
G01 X533.112 Y490.797
G01 X490.694 Y448.846
G01 X435.444 Y432.590
G01 X392.128 Y442.309
G01 X376.345 Y458.775
G01 X382.715 Y457.819
G01 X388.955 Y428.652
G01 X372.771 Y382.039
G01 X328.751 Y342.137
G01 X272.468 Y328.193
G01 X228.677 Y339.961
G01 X212.557 Y357.889
G01 X218.213 Y357.941
G01 X223.148 Y329.810
G01 X205.312 Y284.729
G01 X159.815 Y246.957
G01 X102.629 Y235.395
G01 X58.486 Y249.266
G01 X42.140 Y268.708
G01 X47.185 Y269.826
G01 X50.919 Y242.802
G01 X31.548 Y199.332
G01 X5.000 Y179.174
G01 X5.000 Y5.000
G01 X710.000 Y5.000
G01 X710.000 Y677.567
G01 X684.537 Y685.558
G01 X677.577 Y696.589
G01 X687.679 Y686.037
G01 X691.236 Y648.653
G01 X669.471 Y599.682
G01 X622.670 Y563.307
G01 X569.962 Y554.327
G01 X534.824 Y566.944
G01 X527.292 Y579.161
G01 X536.361 Y569.452
G01 X538.325 Y533.078
G01 X514.748 Y485.673
G01 X466.432 Y451.398
G01 X412.808 Y444.634
G01 X377.215 Y459.083
G01 X369.211 Y472.550
G01 X377.339 Y463.760
G01 X377.809 Y428.480
G01 X352.530 Y382.730
G01 X302.820 Y350.637
G01 X248.405 Y346.155
G01 X212.472 Y362.495
G01 X204.101 Y377.270
G01 X211.387 Y369.464
G01 X210.465 Y335.357
G01 X183.600 Y291.343
G01 X132.624 Y261.505
G01 X77.547 Y259.366
G01 X41.396 Y277.645
G01 X32.767 Y293.777
G01 X39.313 Y287.015
G01 X37.107 Y254.151
G01 X8.776 Y211.946
G01 X5.000 Y209.952
G01 X5.000 Y5.000
G01 X710.000 Y5.000
G01 X710.000 Y678.062
G01 X702.652 Y677.678
G01 X676.211 Y691.217
G01 X675.680 Y697.585
G01 X685.395 Y679.143
G01 X681.803 Y637.215
G01 X651.311 Y591.084
G01 X600.591 Y563.379
G01 X551.520 Y562.929
G01 X524.601 Y578.075
G01 X523.434 Y585.508
G01 X531.985 Y567.937
G01 X526.746 Y527.188
G01 X494.547 Y482.821
G01 X442.539 Y457.307
G01 X392.771 Y459.001
G01 X365.485 Y475.813
G01 X363.778 Y484.375
G01 X371.260 Y467.750
G01 X364.477 Y428.264
G01 X330.687 Y385.744
G01 X277.515 Y362.494
G01 X227.174 Y366.392
G01 X199.634 Y384.924
G01 X197.490 Y394.672
G01 X204.002 Y379.059
G01 X195.783 Y340.911
G01 X160.522 Y300.315
G01 X106.315 Y279.395
G01 X55.529 Y285.549
G01 X27.852 Y305.846
G01 X25.379 Y316.827
G01 X31.025 Y302.285
G01 X21.481 Y265.544
G01 X5.000 Y248.164
G01 X5.000 Y5.000
G01 X710.000 Y5.000
G01 X710.000 Y680.064
G01 X688.719 Y682.336
G01 X670.421 Y696.192
G01 X674.478 Y696.436
G01 X681.523 Y670.663
G01 X669.809 Y626.350
G01 X631.688 Y585.184
G01 X579.404 Y566.631
G01 X535.818 Y573.187
G01 X517.083 Y588.489
G01 X520.407 Y589.716
G01 X526.171 Y564.889
G01 X512.805 Y521.943
G01 X473.126 Y482.712
G01 X419.790 Y466.389
G01 X375.693 Y474.977
G01 X356.627 Y491.780
G01 X359.315 Y494.055
G01 X363.896 Y470.248
G01 X348.983 Y428.749
G01 X307.868 Y391.531
G01 X253.606 Y377.503
G01 X209.119 Y388.177
G01 X189.833 Y406.532
G01 X191.986 Y409.910
G01 X195.486 Y387.189
G01 X179.139 Y347.210
G01 X136.712 Y312.076
G01 X81.652 Y300.400
G01 X36.902 Y313.206
G01 X17.510 Y333.154
G01 X19.234 Y337.682
G01 X21.759 Y316.106
G01 X5.000 Y279.683
G01 X5.000 Y5.000
G01 X710.000 Y5.000
G01 X710.000 Y679.156
G01 X677.493 Y687.940
G01 X666.715 Y699.891
G01 X673.237 Y693.141
G01 X675.623 Y661.183
G01 X655.459 Y616.777
G01 X611.308 Y582.280
G01 X559.800 Y572.706
G01 X523.025 Y584.349
G01 X511.802 Y597.597
G01 X517.479 Y591.795
G01 X518.494 Y560.898
G01 X496.719 Y518.050
G01 X451.198 Y485.623
G01 X398.867 Y478.265
G01 X361.725 Y491.800
G01 X350.161 Y506.400
G01 X355.088 Y501.609
G01 X354.832 Y471.846
G01 X331.560 Y430.633
G01 X284.791 Y400.347
G01 X231.764 Y395.263
G01 X194.373 Y410.739
G01 X182.576 Y426.738
G01 X186.855 Y423.013
G01 X185.434 Y394.449
G01 X160.779 Y354.941
G01 X112.890 Y326.859
G01 X59.297 Y324.099
G01 X21.780 Y341.556
G01 X9.861 Y358.993
G01 X13.599 Y356.381
G01 X11.121 Y329.075
G01 X5.000 Y320.161
G01 X5.000 Y5.000
G01 X710.000 Y5.000
G01 X710.000 Y681.738
G01 X697.800 Y680.851
G01 X668.947 Y693.746
G01 X664.507 Y701.884
G01 X671.275 Y687.905
G01 X667.447 Y651.377
G01 X639.142 Y609.122
G01 X590.922 Y582.466
G01 X542.334 Y581.083
G01 X513.098 Y595.665
G01 X508.164 Y604.977
G01 X513.970 Y591.956
G01 X508.716 Y556.635
G01 X478.892 Y516.120
G01 X429.511 Y491.625
G01 X380.314 Y492.398
G01 X350.805 Y508.717
G01 X345.481 Y519.257
G01 X350.422 Y507.256
G01 X343.847 Y473.214
G01 X312.619 Y434.511
G01 X262.203 Y412.241
G01 X212.521 Y415.221
G01 X182.857 Y433.320
G01 X177.248 Y445.134
G01 X181.427 Y434.209
G01 X173.638 Y401.508
G01 X141.128 Y364.683
G01 X89.805 Y344.692
G01 X39.767 Y349.923
G01 X10.067 Y369.838
G01 X5.000 Y381.335
G01 X5.000 Y380.966
G01 X7.805 Y373.160
G01 X5.000 Y363.284
G01 X5.000 Y5.000
G01 X710.000 Y5.000
G01 X710.000 Y683.195
G01 X684.123 Y685.283
G01 X662.860 Y699.069
G01 X663.136 Y701.932
G01 X668.008 Y681.107
G01 X656.946 Y641.947
G01 X621.396 Y603.867
G01 X571.260 Y585.629
G01 X527.393 Y591.131
G01 X505.798 Y606.449
G01 X505.504 Y610.398
G01 X509.306 Y590.585
G01 X496.805 Y552.798
G01 X459.869 Y516.618
G01 X408.793 Y500.584
G01 X364.499 Y508.142
G01 X342.681 Y525.040
G01 X341.917 Y530.129
G01 X344.750 Y511.390
G01 X330.920 Y475.043
G01 X292.717 Y440.831
G01 X240.827 Y427.056
G01 X196.230 Y436.716
G01 X174.302 Y455.234
G01 X173.173 Y461.506
G01 X175.140 Y443.896
G01 X160.092 Y409.052
G01 X120.747 Y376.865
G01 X68.173 Y365.398
G01 X23.398 Y377.196
G01 X5.000 Y394.125
G01 X5.000 Y5.000
G01 X710.000 Y5.000
G01 X710.000 Y682.035
G01 X672.961 Y690.747
G01 X658.838 Y703.331
G01 X661.924 Y699.994
G01 X662.999 Y673.265
G01 X644.271 Y633.568
G01 X602.861 Y601.323
G01 X552.981 Y591.470
G01 X515.168 Y602.153
G01 X500.720 Y616.127
G01 X503.138 Y613.829
G01 X503.059 Y588.204
G01 X482.926 Y550.051
G01 X440.297 Y519.834
G01 X389.695 Y512.180
G01 X351.600 Y524.793
G01 X336.934 Y540.199
G01 X338.786 Y538.992
G01 X337.654 Y514.534
G01 X316.228 Y477.990
G01 X272.504 Y449.862
G01 X221.305 Y444.454
G01 X183.050 Y459.036
G01 X168.276 Y475.913
G01 X169.665 Y475.840
G01 X167.587 Y452.602
G01 X144.983 Y417.725
G01 X100.290 Y391.738
G01 X48.626 Y388.617
G01 X10.333 Y405.198
G01 X5.000 Y411.834
G01 X5.000 Y5.000
G01 X710.000 Y5.000
G01 X710.000 Y685.705
G01 X695.003 Y684.372
G01 X664.328 Y696.549
G01 X656.362 Y706.104
G01 X660.226 Y696.222
G01 X655.983 Y664.987
G01 X629.752 Y626.834
G01 X584.225 Y601.610
G01 X536.624 Y599.532
G01 X505.655 Y613.453
G01 X497.333 Y624.275
G01 X500.427 Y615.426
G01 X494.976 Y585.420
G01 X467.417 Y548.976
G01 X420.863 Y525.868
G01 X372.743 Y525.939
G01 X341.596 Y541.645
G01 X333.022 Y553.776
G01 X335.447 Y546.013
G01 X328.893 Y517.295
G01 X300.121 Y482.621
G01 X252.666 Y461.683
G01 X204.153 Y463.944
G01 X172.944 Y481.470
G01 X164.227 Y494.945
G01 X166.086 Y488.310
G01 X158.538 Y460.932
G01 X128.674 Y428.082
G01 X80.445 Y409.359
G01 X31.666 Y413.844
G01 X5.000 Y430.427
G01 X5.000 Y5.000
G01 X710.000 Y5.000
G01 X710.000 Y686.819
G01 X681.725 Y688.505
G01 X658.050 Y702.041
G01 X654.833 Y707.131
G01 X657.484 Y690.936
G01 X646.881 Y656.918
G01 X613.863 Y622.217
G01 X566.168 Y604.657
G01 X522.575 Y609.245
G01 X498.668 Y624.380
G01 X495.033 Y630.643
G01 X496.818 Y615.518
G01 X484.991 Y582.873
G01 X450.761 Y550.027
G01 X402.245 Y534.629
G01 X358.310 Y541.278
G01 X334.283 Y558.050
G01 X330.334 Y565.528
G01 X331.355 Y551.523
G01 X318.411 Y520.307
G01 X283.090 Y489.374
G01 X233.877 Y476.183
G01 X189.725 Y484.929
G01 X165.692 Y503.367
G01 X161.535 Y512.095
G01 X161.897 Y499.254
G01 X147.949 Y469.516
G01 X111.659 Y440.543
G01 X61.878 Y429.598
G01 X17.635 Y440.467
G01 X5.000 Y451.099
G01 X5.000 Y5.000
G01 X710.000 Y5.000
G01 X710.000 Y686.193
G01 X708.723 Y685.870
G01 X670.768 Y693.722
G01 X653.792 Y706.670
G01 X653.624 Y706.338
G01 X653.270 Y684.589
G01 X635.801 Y649.685
G01 X597.178 Y620.028
G01 X549.313 Y610.214
G01 X511.043 Y619.974
G01 X493.856 Y634.382
G01 X493.189 Y635.167
G01 X491.891 Y614.561
G01 X473.222 Y581.180
G01 X433.538 Y553.499
G01 X385.055 Y545.847
G01 X346.589 Y557.552
G01 X329.299 Y573.455
G01 X328.236 Y575.398
G01 X326.097 Y555.984
G01 X306.339 Y524.181
G01 X265.717 Y498.526
G01 X216.743 Y493.074
G01 X178.201 Y506.755
G01 X160.920 Y524.181
G01 X159.566 Y527.315
G01 X156.692 Y509.134
G01 X135.961 Y478.955
G01 X94.525 Y455.367
G01 X45.187 Y452.148
G01 X6.693 Y467.825
G01 X5.000 Y469.697
G01 X5.000 Y5.000
G01 X710.000 Y5.000
G01 X710.000 Y689.581
G01 X694.087 Y687.974
G01 X662.173 Y699.383
G01 X651.096 Y710.012
G01 X652.134 Y703.833
G01 X647.310 Y677.727
G01 X623.016 Y643.848
G01 X580.325 Y620.409
G01 X534.176 Y617.884
G01 X502.057 Y631.072
G01 X490.751 Y643.041
G01 X491.202 Y637.960
G01 X485.382 Y613.099
G01 X459.953 Y580.891
G01 X416.375 Y559.512
G01 X369.802 Y559.108
G01 X337.592 Y574.108
G01 X326.164 Y587.449
G01 X326.131 Y583.508
G01 X319.420 Y559.939
G01 X292.971 Y529.453
G01 X248.631 Y510.177
G01 X201.756 Y511.926
G01 X169.575 Y528.763
G01 X158.134 Y543.502
G01 X157.721 Y540.732
G01 X150.228 Y518.497
G01 X122.876 Y489.773
G01 X77.900 Y472.636
G01 X30.852 Y476.563
G01 X5.000 Y491.647
G01 X5.000 Y5.000
G01 X710.000 Y5.000
G01 X710.000 Y690.515
G01 X681.340 Y691.749
G01 X655.812 Y704.880
G01 X649.420 Y711.802
G01 X649.836 Y699.882
G01 X639.503 Y670.936
G01 X608.941 Y639.856
G01 X563.932 Y623.320
G01 X521.136 Y627.156
G01 X495.471 Y641.930
G01 X488.805 Y650.096
G01 X488.549 Y639.295
G01 X477.201 Y611.716
G01 X445.606 Y582.441
G01 X399.898 Y568.009
G01 X356.848 Y573.889
G01 X331.159 Y590.336
G01 X324.323 Y599.778
G01 X323.498 Y590.134
G01 X311.243 Y563.968
G01 X278.733 Y536.542
G01 X232.451 Y524.252
G01 X189.270 Y532.202
G01 X163.671 Y550.342
G01 X156.772 Y561.084
G01 X155.484 Y552.630
G01 X142.432 Y527.914
G01 X109.128 Y502.375
G01 X62.398 Y492.255
G01 X19.211 Y502.294
G01 X5.000 Y513.402
G01 X5.000 Y5.000
G01 X710.000 Y5.000
G01 X710.000 Y689.990
G01 X708.652 Y689.644
G01 X670.717 Y696.630
G01 X651.399 Y709.688
G01 X648.193 Y711.943
G01 X646.317 Y694.879
G01 X629.919 Y664.793
G01 X594.089 Y638.021
G01 X548.578 Y628.557
G01 X510.412 Y637.453
G01 X490.987 Y652.023
G01 X487.441 Y655.459
G01 X484.822 Y639.568
G01 X467.427 Y610.980
G01 X430.698 Y586.122
G01 X384.678 Y578.767
G01 X346.399 Y589.603
G01 X326.978 Y605.711
G01 X323.194 Y610.358
G01 X319.936 Y595.678
G01 X301.655 Y568.631
G01 X264.147 Y545.725
G01 X217.742 Y540.510
G01 X179.471 Y553.307
G01 X160.165 Y570.970
G01 X156.250 Y576.852
G01 X152.459 Y563.414
G01 X133.405 Y537.942
G01 X95.241 Y517.021
G01 X48.576 Y513.966
G01 X10.435 Y528.737
G01 X5.000 Y534.216
G01 X5.000 Y5.000
G01 X710.000 Y5.000
G01 X710.000 Y693.057
G01 X694.862 Y691.412
G01 X662.284 Y702.027
G01 X648.532 Y713.398
G01 X646.858 Y710.505
G01 X641.301 Y689.311
G01 X618.785 Y659.819
G01 X579.027 Y638.491
G01 X534.754 Y635.773
G01 X502.055 Y648.181
G01 X488.192 Y660.946
G01 X486.104 Y659.206
G01 X479.755 Y639.267
G01 X456.296 Y611.403
G01 X415.797 Y592.067
G01 X371.194 Y591.424
G01 X338.489 Y605.649
G01 X324.624 Y619.832
G01 X322.223 Y619.273
G01 X315.189 Y600.626
G01 X290.901 Y574.429
G01 X249.781 Y557.118
G01 X204.972 Y558.574
G01 X172.380 Y574.633
G01 X158.620 Y590.250
G01 X156.012 Y590.895
G01 X148.399 Y573.568
G01 X123.398 Y549.069
G01 X81.781 Y533.809
G01 X36.891 Y537.379
G01 X5.000 Y555.020
G01 X5.000 Y5.000
G01 X710.000 Y5.000
G01 X710.000 Y693.942
G01 X682.766 Y694.785
G01 X655.943 Y707.379
G01 X646.726 Y715.742
G01 X644.924 Y707.707
G01 X634.674 Y683.706
G01 X606.461 Y656.440
G01 X564.331 Y641.256
G01 X522.824 Y644.514
G01 X495.953 Y658.775
G01 X486.594 Y668.437
G01 X484.303 Y661.560
G01 X473.241 Y638.915
G01 X444.175 Y613.396
G01 X401.474 Y600.246
G01 X359.799 Y605.512
G01 X332.994 Y621.461
G01 X323.597 Y632.443
G01 X320.921 Y626.753
G01 X309.155 Y605.500
G01 X279.352 Y581.760
G01 X236.201 Y570.673
G01 X194.481 Y577.964
G01 X167.856 Y595.613
G01 X158.528 Y607.930
G01 X155.570 Y603.448
G01 X143.210 Y583.612
G01 X112.787 Y561.679
G01 X69.310 Y552.674
G01 X27.667 Y562.001
G01 X5.000 Y578.661
G01 X5.000 Y5.000
G01 X710.000 Y5.000
G01 X710.000 Y693.038
G01 X709.980 Y693.033
G01 X672.600 Y699.254
G01 X651.458 Y712.192
G01 X645.463 Y716.608
G01 X641.997 Y703.892
G01 X626.475 Y678.589
G01 X593.402 Y654.954
G01 X550.536 Y646.146
G01 X513.007 Y654.259
G01 X491.856 Y668.741
G01 X485.668 Y674.388
G01 X481.650 Y662.868
G01 X465.330 Y639.033
G01 X431.522 Y617.242
G01 X388.257 Y610.475
G01 X350.699 Y620.503
G01 X329.649 Y636.545
G01 X323.370 Y643.443
G01 X318.904 Y633.146
G01 X301.895 Y610.811
G01 X267.469 Y590.893
G01 X223.929 Y586.188
G01 X186.458 Y598.143
G01 X165.620 Y615.755
G01 X159.356 Y623.918
G01 X154.546 Y614.864
G01 X136.960 Y594.052
G01 X102.036 Y576.028
G01 X58.342 Y573.399
G01 X21.079 Y587.284
G01 X5.000 Y602.321
G01 X5.000 Y5.000
G01 X710.000 Y5.000
G01 X710.000 Y695.896
G01 X697.129 Y694.461
G01 X664.443 Y704.281
G01 X648.473 Y716.077
G01 X644.235 Y716.036
G01 X637.810 Y699.487
G01 X616.892 Y674.441
G01 X580.118 Y655.516
G01 X538.097 Y652.861
G01 X505.371 Y664.468
G01 X489.399 Y677.694
G01 X484.906 Y678.847
G01 X477.885 Y663.558
G01 X456.215 Y640.091
G01 X418.847 Y623.080
G01 X376.594 Y622.438
G01 X343.944 Y635.847
G01 X328.076 Y650.519
G01 X323.430 Y652.886
G01 X315.918 Y638.882
G01 X293.608 Y617.022
G01 X255.763 Y601.950
G01 X213.400 Y603.336
G01 X180.941 Y618.556
G01 X165.286 Y634.679
G01 X160.590 Y638.271
G01 X152.693 Y625.571
G01 X129.855 Y605.339
G01 X91.654 Y592.220
G01 X49.301 Y595.641
G01 X17.150 Y612.672
G01 X5.000 Y626.599
G01 X5.000 Y5.000
G01 X710.000 Y5.000
G01 X710.000 Y696.832
G01 X685.790 Y697.403
G01 X658.226 Y709.352
G01 X646.559 Y718.773
G01 X642.586 Y714.207
G01 X632.238 Y694.967
G01 X606.237 Y671.656
G01 X567.131 Y658.130
G01 X527.361 Y660.998
G01 X499.833 Y674.619
G01 X488.143 Y685.376
G01 X483.853 Y681.999
G01 X472.891 Y664.100
G01 X446.215 Y642.471
G01 X406.667 Y630.898
G01 X366.817 Y635.720
G01 X339.438 Y651.024
G01 X327.831 Y663.131
G01 X323.325 Y660.960
G01 X311.854 Y644.427
G01 X284.616 Y624.503
G01 X244.746 Y614.903
G01 X204.935 Y621.688
G01 X177.817 Y638.679
G01 X166.398 Y652.140
G01 X161.779 Y651.186
G01 X149.906 Y636.034
G01 X122.222 Y617.833
G01 X82.148 Y610.214
G01 X42.495 Y618.963
G01 X15.751 Y637.638
G01 X5.000 Y651.953
G01 X5.000 Y5.000
G01 X710.000 Y5.000
G01 X710.000 Y696.210
G01 X676.191 Y701.399
G01 X653.749 Y714.010
G01 X645.248 Y720.159
G01 X640.149 Y711.415
G01 X625.302 Y690.805
G01 X594.911 Y670.516
G01 X554.928 Y662.658
G01 X518.540 Y670.090
G01 X496.179 Y684.257
G01 X487.617 Y691.672
G01 X482.146 Y684.140
G01 X466.694 Y664.964
G01 X435.732 Y646.442
G01 X395.465 Y640.544
G01 X359.126 Y649.846
G01 X336.977 Y665.577
G01 X328.480 Y674.263
G01 X322.763 Y667.944
G01 X306.838 Y650.201
G01 X275.444 Y633.436
G01 X235.035 Y629.476
G01 X198.886 Y640.609
G01 X177.038 Y657.856
G01 X168.687 Y667.773
G01 X162.804 Y662.643
G01 X146.489 Y646.319
G01 X114.753 Y631.302
G01 X74.295 Y629.269
G01 X38.425 Y642.223
G01 X16.982 Y660.979
G01 X8.876 Y672.125
G01 X5.000 Y669.559
G01 X5.000 Y5.000
G01 X710.000 Y5.000
G01 X710.000 Y717.829
G01 X705.139 Y717.147
G01 X673.197 Y724.988
G01 X655.785 Y735.694
G01 X649.458 Y736.831
G01 X642.330 Y723.379
G01 X623.087 Y701.534
G01 X589.561 Y684.014
G01 X550.370 Y680.418
G01 X518.389 Y689.954
G01 X500.993 Y702.045
G01 X494.475 Y704.342
G01 X486.856 Y692.084
G01 X466.967 Y671.704
G01 X432.912 Y655.951
G01 X393.505 Y654.228
G01 X361.591 Y665.473
G01 X344.311 Y678.959
G01 X337.699 Y682.431
G01 X329.686 Y671.390
G01 X309.253 Y652.497
G01 X274.778 Y638.530
G01 X235.267 Y638.695
G01 X203.527 Y651.654
G01 X186.465 Y666.540
G01 X179.855 Y671.196
G01 X171.546 Y661.384
G01 X150.673 Y643.995
G01 X115.888 Y631.828
G01 X76.384 Y633.885
G01 X44.927 Y648.556
G01 X28.183 Y664.839
G01 X21.672 Y670.681
G01 X13.166 Y662.106
G01 X5.000 Y655.993
G01 X5.000 Y5.000
G01 X710.000 Y5.000
G01 X710.000 Y740.678
G01 X698.258 Y740.145
G01 X671.119 Y748.883
G01 X657.997 Y756.489
G01 X652.509 Y752.437
G01 X642.444 Y735.199
G01 X619.018 Y713.394
G01 X583.532 Y699.259
G01 X546.386 Y699.376
G01 X519.195 Y709.687
G01 X505.991 Y718.570
G01 X500.173 Y715.648
G01 X489.510 Y699.654
G01 X465.415 Y679.385
G01 X429.447 Y667.038
G01 X392.135 Y668.966
G01 X364.994 Y680.864
G01 X351.804 Y691.039
G01 X345.750 Y689.267
G01 X334.588 Y674.542
G01 X309.927 Y655.837
G01 X273.585 Y645.299
G01 X236.215 Y649.049
G01 X209.229 Y662.543
G01 X196.151 Y674.020
G01 X189.956 Y673.411
G01 X178.393 Y659.974
G01 X153.270 Y642.850
G01 X116.664 Y634.134
G01 X79.347 Y639.714
G01 X52.619 Y654.806
G01 X39.752 Y667.585
G01 X33.512 Y668.147
G01 X21.646 Y656.009
G01 X5.000 Y645.862
G01 X5.000 Y5.000
G01 X710.000 Y5.000
G01 X710.000 Y762.841
G01 X691.879 Y763.561
G01 X669.583 Y771.924
G01 X659.771 Y775.625
G01 X653.874 Y766.675
G01 X640.313 Y746.828
G01 X613.271 Y726.249
G01 X577.099 Y715.811
G01 X543.025 Y718.857
G01 X520.637 Y728.669
G01 X510.627 Y733.562
G01 X504.269 Y725.737
G01 X490.033 Y707.194
G01 X462.324 Y688.210
G01 X425.724 Y679.552
G01 X391.515 Y684.321
G01 X369.134 Y695.601
G01 X359.022 Y701.705
G01 X352.296 Y695.031
G01 X337.481 Y677.820
G01 X309.210 Y660.458
G01 X272.288 Y653.603
G01 X238.051 Y660.110
G01 X215.777 Y672.869
G01 X205.657 Y680.197
G01 X198.656 Y674.691
G01 X183.361 Y658.834
G01 X154.632 Y643.116
G01 X117.497 Y638.078
G01 X83.339 Y646.329
G01 X61.273 Y660.572
G01 X51.242 Y669.131
G01 X44.062 Y664.805
G01 X28.386 Y650.318
G01 X5.000 Y639.010
G01 X5.000 Y5.000
G01 X710.000 Y5.000
G01 X710.000 Y784.253
G01 X686.090 Y786.944
G01 X668.321 Y793.759
G01 X660.691 Y793.096
G01 X653.316 Y779.862
G01 X636.067 Y758.644
G01 X606.249 Y740.229
G01 X570.641 Y733.430
G01 X540.358 Y738.410
G01 X522.433 Y746.560
G01 X514.485 Y747.026
G01 X506.532 Y734.934
G01 X488.557 Y715.082
G01 X458.096 Y698.301
G01 X422.110 Y693.248
G01 X391.705 Y699.849
G01 X373.719 Y709.354
G01 X365.544 Y710.974
G01 X357.106 Y700.054
G01 X338.501 Y681.599
G01 X307.501 Y666.480
G01 X271.242 Y663.196
G01 X240.816 Y671.433
G01 X222.866 Y682.309
G01 X214.557 Y685.101
G01 X205.727 Y675.375
G01 X186.592 Y658.342
G01 X155.157 Y644.908
G01 X118.733 Y643.407
G01 X88.390 Y653.291
G01 X70.574 Y665.544
G01 X62.224 Y669.520
G01 X53.097 Y661.004
G01 X33.531 Y645.412
G01 X5.000 Y634.871
G01 X5.000 Y5.000
G01 X710.000 Y5.000
G01 X710.000 Y806.039
G01 X706.732 Y805.531
G01 X680.856 Y809.856
G01 X666.995 Y814.145
G01 X660.387 Y809.011
G01 X650.719 Y792.354
G01 X629.941 Y770.958
G01 X598.370 Y755.342
G01 X564.446 Y751.793
G01 X538.338 Y757.603
G01 X524.237 Y763.125
G01 X517.189 Y759.083
G01 X506.848 Y743.603
G01 X485.319 Y723.628
G01 X453.143 Y709.660
G01 X418.884 Y707.798
G01 X392.639 Y715.119
G01 X378.392 Y721.898
G01 X370.992 Y718.978
G01 X360.069 Y704.706
G01 X337.886 Y686.188
G01 X305.207 Y673.898
G01 X270.716 Y673.745
G01 X244.435 Y682.596
G01 X230.133 Y690.651
G01 X222.474 Y688.875
G01 X211.062 Y675.838
G01 X188.324 Y658.803
G01 X155.246 Y648.214
G01 X120.626 Y649.788
G01 X94.409 Y660.179
G01 X80.148 Y669.522
G01 X72.321 Y668.905
G01 X60.516 Y657.125
G01 X37.323 Y641.593
G01 X5.000 Y633.000
G01 X5.000 Y5.000
G01 X710.000 Y5.000
G01 X710.000 Y828.757
G01 X697.663 Y827.746
G01 X676.031 Y831.908
G01 X665.240 Y832.954
G01 X658.559 Y823.578
G01 X646.087 Y804.517
G01 X622.249 Y783.992
G01 X590.029 Y771.476
G01 X558.701 Y770.517
G01 X536.804 Y776.052
G01 X525.676 Y778.247
G01 X518.441 Y769.949
G01 X505.222 Y752.107
G01 X480.632 Y733.049
G01 X447.851 Y722.171
G01 X416.216 Y722.819
G01 X394.148 Y729.755
G01 X382.772 Y733.128
G01 X375.069 Y725.942
G01 X361.197 Y709.355
G01 X335.951 Y691.799
G01 X302.708 Y682.590
G01 X270.866 Y684.870
G01 X248.722 Y693.227
G01 X237.190 Y697.801
G01 X229.109 Y691.753
G01 X214.675 Y676.451
G01 X188.872 Y660.425
G01 X155.271 Y652.909
G01 X123.323 Y656.839
G01 X101.199 Y666.632
G01 X89.602 Y672.422
G01 X81.235 Y667.533
G01 X66.335 Y653.539
G01 X40.076 Y639.067
G01 X6.219 Y633.260
G01 X5.000 Y633.473
G01 X5.000 Y5.000
G01 X710.000 Y5.000
G01 X710.000 Y850.333
G01 X689.027 Y849.804
G01 X671.384 Y852.786
G01 X662.693 Y850.173
G01 X655.002 Y837.073
G01 X639.536 Y816.682
G01 X613.352 Y797.860
G01 X581.566 Y788.419
G01 X553.475 Y789.202
G01 X535.515 Y793.451
G01 X526.384 Y791.925
G01 X518.035 Y779.909
G01 X501.776 Y760.781
G01 X474.857 Y743.453
G01 X442.552 Y735.616
G01 X414.164 Y737.914
G01 X395.976 Y743.459
G01 X386.490 Y743.053
G01 X377.571 Y732.158
G01 X360.610 Y714.333
G01 X333.051 Y698.536
G01 X300.325 Y692.334
G01 X271.737 Y696.172
G01 X253.413 Y703.038
G01 X243.661 Y703.779
G01 X234.260 Y694.034
G01 X216.690 Y677.545
G01 X188.590 Y663.308
G01 X155.544 Y658.767
G01 X126.853 Y664.165
G01 X108.486 Y672.370
G01 X98.558 Y674.277
G01 X88.766 Y665.708
G01 X70.682 Y650.579
G01 X42.139 Y637.928
G01 X8.875 Y635.065
G01 X5.000 Y636.006
G01 X5.000 Y5.000
G01 X710.000 Y5.000
G01 X710.000 Y872.515
G01 X704.914 Y871.116
G01 X680.799 Y871.318
G01 X666.623 Y872.272
G01 X659.032 Y865.899
G01 X649.616 Y849.813
G01 X631.281 Y829.124
G01 X603.625 Y812.567
G01 X573.244 Y805.881
G01 X548.732 Y807.464
G01 X534.168 Y809.589
G01 X526.033 Y804.262
G01 X515.876 Y789.280
G01 X496.723 Y769.895
G01 X468.360 Y754.840
G01 X437.496 Y749.702
G01 X412.677 Y752.700
G01 X397.812 Y756.031
G01 X389.216 Y751.787
G01 X378.404 Y737.947
G01 X358.524 Y719.908
G01 X329.550 Y706.391
G01 X298.298 Y702.835
G01 X273.264 Y707.276
G01 X258.187 Y711.839
G01 X249.217 Y708.708
G01 X237.838 Y696.046
G01 X217.324 Y679.387
G01 X187.834 Y667.440
G01 X156.292 Y665.490
G01 X131.139 Y671.395
G01 X115.939 Y677.213
G01 X106.683 Y675.219
G01 X94.827 Y663.762
G01 X73.773 Y648.511
G01 X43.866 Y638.159
G01 X12.134 Y637.835
G01 X5.000 Y639.927
G01 X5.000 Y5.000
G01 X710.000 Y5.000
G01 X710.000 Y895.356
G01 X693.327 Y891.783
G01 X672.855 Y891.943
G01 X661.430 Y890.252
G01 X654.000 Y880.313
G01 X642.414 Y862.113
G01 X621.604 Y842.034
G01 X593.419 Y828.010
G01 X565.228 Y823.524
G01 X544.333 Y824.962
G01 X532.439 Y824.364
G01 X524.366 Y815.450
G01 X511.977 Y798.382
G01 X490.345 Y779.637
G01 X461.488 Y767.100
G01 X432.837 Y764.090
G01 X411.605 Y766.844
G01 X399.326 Y767.376
G01 X390.693 Y759.527
G01 X377.585 Y743.632
G01 X355.221 Y726.264
G01 X325.785 Y715.253
G01 X296.766 Y713.752
G01 X275.287 Y717.851
G01 X262.707 Y719.544
G01 X253.598 Y712.795
G01 X239.859 Y698.110
G01 X216.855 Y682.156
G01 X186.935 Y672.702
G01 X157.643 Y672.737
G01 X136.008 Y678.206
G01 X123.216 Y681.085
G01 X113.718 Y675.463
G01 X99.436 Y662.020
G01 X75.888 Y647.510
G01 X45.580 Y639.639
G01 X16.112 Y641.231
G01 X5.000 Y644.743
G01 X5.000 Y5.000
G01 X710.000 Y5.000
G01 X710.000 Y917.957
G01 X706.960 Y916.507
G01 X682.042 Y912.149
G01 X664.994 Y911.404
G01 X655.494 Y906.719
G01 X647.424 Y893.660
G01 X633.509 Y874.265
G01 X610.831 Y855.506
G01 X583.039 Y843.998
G01 X557.582 Y840.992
G01 X540.067 Y841.429
G01 X530.012 Y837.777
G01 X521.213 Y825.738
G01 X506.452 Y807.504
G01 X482.965 Y790.095
G01 X454.535 Y780.039
G01 X428.625 Y778.425
G01 X410.727 Y780.083
G01 X400.196 Y777.504
G01 X390.749 Y766.529
G01 X375.227 Y749.500
G01 X351.018 Y733.485
G01 X322.040 Y724.920
G01 X295.768 Y724.733
G01 X277.571 Y727.646
G01 X266.648 Y726.174
G01 X256.637 Y716.300
G01 X240.439 Y700.516
G01 X215.600 Y685.933
G01 X186.168 Y678.891
G01 X159.624 Y680.160
G01 X141.217 Y684.353
G01 X129.986 Y684.017
G01 X119.496 Y675.277
G01 X102.713 Y660.771
G01 X77.337 Y647.650
G01 X47.545 Y642.160
G01 X20.823 Y644.907
G01 X5.000 Y649.599
G01 X5.000 Y5.000
G01 X710.000 Y5.000
G01 X710.000 Y942.457
G01 X692.935 Y935.455
G01 X671.036 Y931.873
G01 X656.963 Y929.514
G01 X648.539 Y921.762
G01 X639.231 Y906.215
G01 X623.099 Y886.503
G01 X599.296 Y869.536
G01 X572.714 Y860.268
G01 X550.271 Y857.947
G01 X535.673 Y856.684
G01 X526.608 Y849.923
G01 X516.501 Y835.404
G01 X499.500 Y816.877
G01 X474.910 Y801.259
G01 X447.718 Y793.390
G01 X424.813 Y792.371
G01 X409.770 Y792.247
G01 X400.141 Y786.519
G01 X389.314 Y773.074
G01 X371.529 Y755.780
G01 X346.238 Y741.555
G01 X318.523 Y735.126
G01 X295.243 Y735.446
G01 X279.838 Y736.495
G01 X269.725 Y731.839
G01 X258.261 Y719.509
G01 X239.777 Y703.488
G01 X213.875 Y690.695
G01 X185.728 Y685.739
G01 X162.160 Y687.429
G01 X146.478 Y689.681
G01 X135.965 Y686.129
G01 X123.948 Y674.948
G01 X104.854 Y660.237
G01 X78.432 Y648.908
G01 X49.946 Y645.452
G01 X26.181 Y648.536
G01 X10.308 Y652.016
G01 X5.000 Y650.829
G01 X5.000 Y1600.000
G01 X710.000 Y1600.000
G01 X710.000 Y967.854
G01 X703.096 Y963.040
G01 X679.047 Y954.251
G01 X660.199 Y950.656
G01 X648.487 Y946.182
G01 X640.353 Y935.546
G01 X629.447 Y918.256
G01 X611.442 Y898.984
G01 X587.310 Y884.023
G01 X562.586 Y876.519
G01 X543.172 Y874.094
G01 X530.869 Y870.644
G01 X522.012 Y860.973
G01 X510.255 Y844.726
G01 X491.378 Y826.655
G01 X466.485 Y813.023
G01 X441.168 Y806.852
G01 X421.267 Y805.640
G01 X408.448 Y803.259
G01 X398.945 Y794.599
G01 X386.415 Y779.442
G01 X366.747 Y762.622
G01 X341.178 Y750.364
G01 X315.353 Y745.566
G01 X295.047 Y745.606
G01 X281.793 Y744.332
G01 X271.723 Y736.725
G01 X258.500 Y722.701
G01 X238.127 Y707.174
G01 X211.969 Y696.330
G01 X185.723 Y692.940
G01 X165.098 Y694.265
G01 X151.491 Y694.131
G01 X140.934 Y687.612
G01 X127.103 Y674.759
G01 X106.112 Y660.561
G01 X79.455 Y651.164
G01 X52.879 Y649.212
G01 X32.021 Y651.848
G01 X18.145 Y652.882
G01 X7.186 Y647.480
G01 X5.000 Y645.706
G01 X5.000 Y1600.000
G01 X710.000 Y1600.000
G01 X710.000 Y994.368
G01 X687.124 Y980.139
G01 X665.357 Y972.582
G01 X649.353 Y968.264
G01 X639.303 Y961.411
G01 X630.802 Y948.288
G01 X618.188 Y930.030
G01 X598.834 Y911.779
G01 X575.138 Y898.787
G01 X552.705 Y892.439
G01 X536.098 Y889.206
G01 X525.385 Y883.321
G01 X516.092 Y871.151
G01 X502.592 Y853.950
G01 X482.375 Y836.904
G01 X457.944 Y825.204
G01 X434.922 Y820.112
G01 X417.788 Y818.009
G01 X406.487 Y813.138
G01 X396.476 Y801.971
G01 X382.167 Y785.877
G01 X361.166 Y770.086
G01 X336.083 Y759.724
G01 X312.553 Y755.931
G01 X294.971 Y754.998
G01 X283.159 Y751.184
G01 X272.507 Y741.063
G01 X257.470 Y726.121
G01 X235.769 Y711.629
G01 X210.118 Y702.645
G01 X186.166 Y700.187
G01 X168.218 Y700.460
G01 X155.974 Y697.738
G01 X144.761 Y688.701
G01 X129.078 Y674.952
G01 X106.763 Y661.796
G01 X80.632 Y654.225
G01 X56.344 Y653.132
G01 X38.114 Y654.640
G01 X25.520 Y653.041
G01 X13.830 Y645.122
G01 X5.000 Y638.314
G01 X5.000 Y1600.000
G01 X710.000 Y1600.000
G01 X710.000 Y1025.666
G01 X692.914 Y1009.602
G01 X671.110 Y997.137
G01 X651.839 Y990.153
G01 X638.277 Y984.548
G01 X629.182 Y975.292
G01 X619.841 Y960.233
G01 X605.643 Y941.732
G01 X585.571 Y924.868
G01 X562.975 Y913.591
G01 X543.031 Y907.734
G01 X528.818 Y903.137
G01 X518.992 Y894.808
G01 X508.803 Y880.700
G01 X493.702 Y863.267
G01 X472.783 Y847.597
G01 X449.472 Y837.561
G01 X428.929 Y832.880
G01 X414.139 Y829.339
G01 X403.652 Y821.986
G01 X392.689 Y808.881
G01 X376.760 Y792.567
G01 X355.072 Y778.141
G01 X331.126 Y769.392
G01 X310.063 Y765.931
G01 X294.771 Y763.490
G01 X283.699 Y757.158
G01 X272.036 Y745.101
G01 X255.358 Y729.953
G01 X232.984 Y716.817
G01 X208.485 Y709.396
G01 X186.982 Y707.193
G01 X171.267 Y705.889
G01 X159.687 Y700.616
G01 X147.404 Y689.649
G01 X130.060 Y675.709
G01 X107.082 Y663.900
G01 X82.115 Y657.843
G01 X60.258 Y656.931
G01 X44.201 Y656.796
G01 X32.193 Y652.617
G01 X19.370 Y642.775
G01 X5.000 Y632.597
G01 X5.000 Y1600.000
G01 X710.000 Y1600.000
G01 X710.000 Y1062.097
G01 X709.108 Y1060.473
G01 X694.622 Y1041.326
G01 X675.395 Y1024.874
G01 X655.181 Y1013.768
G01 X638.388 Y1006.709
G01 X626.735 Y999.443
G01 X617.956 Y987.979
G01 X607.516 Y971.620
G01 X592.055 Y953.485
G01 X571.927 Y938.145
G01 X550.936 Y928.164
G01 X533.449 Y922.153
G01 X521.092 Y915.831
G01 X511.518 Y905.267
G01 X500.191 Y889.861
G01 X483.823 Y872.796
G01 X462.868 Y858.624
G01 X441.172 Y849.821
G01 X423.064 Y844.908
G01 X410.073 Y839.580
G01 X399.773 Y829.968
G01 X387.629 Y815.568
G01 X370.429 Y799.626
G01 X348.723 Y786.673
G01 X326.400 Y779.095
G01 X307.745 Y775.326
G01 X294.192 Y771.038
G01 X283.240 Y762.424
G01 X270.353 Y749.079
G01 X252.399 Y734.308
G01 X230.021 Y722.619
G01 X207.150 Y716.308
G01 X188.026 Y713.723
G01 X173.987 Y710.515
G01 X162.459 Y702.941
G01 X148.907 Y690.695
G01 X130.278 Y677.138
G01 X107.310 Y666.753
G01 X83.974 Y661.746
G01 X64.462 Y660.379
G01 X50.017 Y658.287
G01 X37.989 Y651.790
G01 X23.853 Y640.679
G01 X5.000 Y628.608
G01 X5.000 Y1600.000
G01 X710.000 Y1600.000
G01 X710.000 Y1104.776
G01 X702.260 Y1091.222
G01 X691.660 Y1073.310
G01 X676.366 Y1054.980
G01 X657.681 Y1040.017
G01 X639.377 Y1029.755
G01 X624.840 Y1022.063
G01 X614.506 Y1012.971
G01 X605.531 Y999.673
G01 X593.953 Y982.657
G01 X577.691 Y965.330
G01 X558.126 Y951.439
G01 X539.048 Y942.231
G01 X523.788 Y935.513
G01 X512.693 Y927.315
G01 X502.871 Y914.900
G01 X490.380 Y898.838
G01 X473.219 Y882.572
G01 X452.845 Y869.809
G01 X433.062 Y861.710
G01 X417.146 Y856.018
G01 X405.358 Y848.766
G01 X394.756 Y837.288
G01 X381.422 Y822.236
G01 X363.435 Y807.086
G01 X342.324 Y795.501
G01 X321.911 Y788.559
G01 X305.410 Y783.939
G01 X293.000 Y777.682
G01 X281.688 Y767.190
G01 X267.584 Y753.199
G01 X248.846 Y739.212
G01 X227.076 Y728.852
G01 X206.108 Y723.112
G01 X189.098 Y719.607
G01 X176.139 Y714.386
G01 X164.192 Y704.926
G01 X149.394 Y692.039
G01 X129.983 Y679.260
G01 X107.635 Y670.166
G01 X86.192 Y665.665
G01 X68.750 Y663.312
G01 X55.318 Y659.166
G01 X42.813 Y650.775
G01 X27.400 Y639.033
G01 X7.398 Y627.500
G01 X5.000 Y626.682
G01 X5.000 Y1600.000
G01 X710.000 Y1600.000
G01 X710.000 Y1137.387
G01 X701.987 Y1130.891
G01 X693.266 Y1119.223
G01 X684.706 Y1103.771
G01 X673.136 Y1085.786
G01 X657.567 Y1068.533
G01 X639.941 Y1054.813
G01 X623.658 Y1044.844
G01 X611.001 Y1036.102
G01 X601.407 Y1025.231
G01 X591.898 Y1010.591
G01 X579.340 Y993.498
G01 X562.818 Y977.226
G01 X544.328 Y964.525
G01 X527.263 Y955.540
G01 X513.843 Y947.705
G01 X503.436 Y937.690
G01 X493.039 Y923.924
G01 X479.558 Y907.784
G01 X462.150 Y892.552
G01 X442.863 Y880.925
G01 X425.081 Y872.979
G01 X410.963 Y866.106
G01 X399.807 Y857.002
G01 X388.588 Y844.165
G01 X374.252 Y829.033
G01 X356.028 Y814.895
G01 X336.015 Y804.397
G01 X317.587 Y797.538
G01 X302.839 Y791.677
G01 X291.003 Y783.534
G01 X279.031 Y771.677
G01 X263.911 Y757.605
G01 X244.944 Y744.611
G01 X224.279 Y735.287
G01 X205.278 Y729.561
G01 X189.973 Y724.756
G01 X177.528 Y717.619
G01 X164.877 Y706.789
G01 X149.046 Y693.823
G01 X129.414 Y682.018
G01 X108.174 Y673.910
G01 X88.677 Y669.357
G01 X72.889 Y665.647
G01 X59.910 Y659.557
G01 X46.653 Y649.795
G01 X30.191 Y637.976
G01 X9.972 Y627.398
G01 X5.000 Y625.830
G01 X5.000 Y1600.000
G01 X710.000 Y1600.000
G01 X710.000 Y1169.108
G01 X707.526 Y1166.882
G01 X694.039 Y1155.839
G01 X683.652 Y1145.011
G01 X675.216 Y1131.824
G01 X666.001 Y1115.583
G01 X653.770 Y1097.995
G01 X638.469 Y1081.876
G01 X622.268 Y1069.017
G01 X607.920 Y1058.829
G01 X596.668 Y1048.794
G01 X587.314 Y1036.376
G01 X577.126 Y1020.939
G01 X563.910 Y1004.232
G01 X547.673 Y989.060
G01 X530.616 Y977.159
G01 X515.464 Y967.885
G01 X503.407 Y958.705
G01 X493.194 Y947.116
G01 X482.092 Y932.545
G01 X467.953 Y916.779
G01 X450.844 Y902.613
G01 X432.993 Y891.727
G01 X417.103 Y883.424
G01 X404.302 Y875.153
G01 X393.293 Y864.451
G01 X381.340 Y850.803
G01 X366.344 Y836.036
G01 X348.431 Y822.930
G01 X329.855 Y813.113
G01 X313.293 Y805.832
G01 X299.814 Y798.522
G01 X288.074 Y788.758
G01 X275.339 Y776.086
G01 X259.556 Y762.370
G01 X240.908 Y750.375
G01 X221.678 Y741.675
G01 X204.515 Y735.462
G01 X190.427 Y729.160
G01 X178.027 Y720.382
G01 X164.580 Y708.734
G01 X148.082 Y696.115
G01 X128.775 Y685.277
G01 X108.966 Y677.737
G01 X91.274 Y672.634
G01 X76.651 Y667.382
G01 X63.662 Y659.632
G01 X49.577 Y649.051
G01 X32.440 Y637.573
G01 X12.551 Y627.931
G01 X5.000 Y625.573
G01 X5.000 Y1600.000
G01 X710.000 Y1600.000
G01 X710.000 Y1206.976
G01 X699.556 Y1194.699
G01 X685.882 Y1181.415
G01 X674.096 Y1169.800
G01 X664.650 Y1157.674
G01 X656.121 Y1143.333
G01 X646.288 Y1126.833
G01 X633.816 Y1109.952
G01 X619.269 Y1094.839
G01 X604.679 Y1082.388
G01 X592.006 Y1071.563
G01 X581.657 Y1060.188
G01 X572.177 Y1046.595
G01 X561.358 Y1030.890
G01 X547.911 Y1014.868
G01 X532.442 Y1000.655
G01 X516.992 Y989.098
G01 X503.489 Y979.125
G01 X492.292 Y968.562
G01 X481.917 Y955.780
G01 X470.171 Y940.931
G01 X455.809 Y925.829
G01 X439.479 Y912.577
G01 X423.230 Y901.973
G01 X408.958 Y892.909
G01 X396.971 Y883.215
G01 X385.763 Y871.302
G01 X373.151 Y857.368
G01 X357.937 Y843.244
G01 X340.811 Y831.008
G01 X323.828 Y821.410
G01 X308.849 Y813.309
G01 X296.138 Y804.537
G01 X284.159 Y793.547
G01 X270.748 Y780.582
G01 X254.750 Y767.489
G01 X236.896 Y756.320
G01 X219.247 Y747.777
G01 X203.630 Y740.686
G01 X190.261 Y732.886
G01 X177.580 Y722.868
G01 X163.438 Y710.921
G01 X146.727 Y698.907
G01 X128.217 Y688.851
G01 X109.973 Y681.410
G01 X93.789 Y675.373
G01 X79.832 Y668.587
G01 X66.519 Y659.587
G01 X51.718 Y648.702
G01 X34.368 Y637.810
G01 X15.276 Y628.910
G01 X5.000 Y625.458
G01 X5.000 Y1600.000
G01 X710.000 Y1600.000
G01 X710.000 Y1258.575
G01 X709.228 Y1257.022
G01 X700.019 Y1240.006
G01 X688.788 Y1223.198
G01 X676.335 Y1208.029
G01 X664.276 Y1194.760
G01 X653.817 Y1182.290
G01 X644.844 Y1168.993
G01 X636.011 Y1153.949
G01 X625.765 Y1137.645
G01 X613.519 Y1121.598
G01 X600.098 Y1107.212
G01 X587.114 Y1094.711
G01 X575.739 Y1082.977
G01 X565.827 Y1070.396
G01 X556.021 Y1056.086
G01 X544.789 Y1040.560
G01 X531.581 Y1025.340
G01 X517.247 Y1011.800
G01 X503.390 Y1000.130
G01 X491.153 Y989.194
G01 X480.355 Y977.394
G01 X469.631 Y963.880
G01 X457.469 Y949.196
G01 X443.357 Y934.863
G01 X428.167 Y922.230
G01 X413.495 Y911.451
G01 X400.453 Y901.372
G01 X388.826 Y890.411
G01 X377.242 Y877.752
G01 X364.210 Y863.969
G01 X349.255 Y850.582
G01 X333.270 Y838.912
G01 X317.846 Y829.078
G01 X304.059 Y819.911
G01 X291.666 Y809.843
G01 X279.283 Y798.096
G01 X265.446 Y785.268
G01 X249.712 Y772.881
G01 X232.999 Y762.226
G01 X216.887 Y753.388
G01 X202.421 Y745.183
G01 X189.325 Y736.060
G01 X176.211 Y725.274
G01 X161.635 Y713.452
G01 X145.192 Y702.113
G01 X127.819 Y692.520
G01 X111.087 Y684.724
G01 X96.011 Y677.527
G01 X82.280 Y669.395
G01 X68.503 Y659.617
G01 X53.260 Y648.846
G01 X36.178 Y638.600
G01 X18.217 Y630.112
G01 X5.000 Y624.978
G01 X5.000 Y1600.000
G01 X710.000 Y1600.000
G01 X710.000 Y1314.238
G01 X708.774 Y1312.417
G01 X700.197 Y1298.356
G01 X692.332 Y1283.542
G01 X684.194 Y1267.623
G01 X674.898 Y1251.152
G01 X664.325 Y1235.168
G01 X653.215 Y1220.407
G01 X642.601 Y1206.750
G01 X633.032 Y1193.314
G01 X624.154 Y1179.125
G01 X614.986 Y1163.856
G01 X604.663 Y1148.073
G01 X593.091 Y1132.806
G01 X581.015 Y1118.769
G01 X569.459 Y1105.820
G01 X558.942 Y1093.076
G01 X549.098 Y1079.580
G01 X538.948 Y1065.028
G01 X527.647 Y1050.000
G01 X515.126 Y1035.516
G01 X502.136 Y1022.267
G01 X489.686 Y1010.091
G01 X478.274 Y998.102
G01 X467.515 Y985.362
G01 X456.434 Y971.592
G01 X444.210 Y957.383
G01 X430.793 Y943.744
G01 X416.944 Y931.343
G01 X403.656 Y920.000
G01 X391.402 Y908.827
G01 X379.783 Y896.904
G01 X367.829 Y883.976
G01 X354.738 Y870.644
G01 X340.485 Y857.908
G01 X325.836 Y846.413
G01 X311.768 Y835.959
G01 X298.731 Y825.658
G01 X286.311 Y814.608
G01 X273.543 Y802.578
G01 X259.649 Y790.179
G01 X244.622 Y778.401
G01 X229.234 Y767.865
G01 X214.449 Y758.352
G01 X200.692 Y748.974
G01 X187.534 Y738.850
G01 X174.017 Y727.770
G01 X159.383 Y716.355
G01 X143.648 Y705.585
G01 X127.588 Y696.056
G01 X112.151 Y687.532
G01 X97.740 Y679.126
G01 X83.910 Y669.975
G01 X69.711 Y659.893
G01 X54.407 Y649.508
G01 X38.033 Y639.791
G01 X21.370 Y631.312
G01 X5.351 Y623.820
G01 X5.000 Y623.647
G01 X5.000 Y1600.000
G01 X710.000 Y1600.000
G01 X710.000 Y1372.680
G01 X708.538 Y1369.666
G01 X700.026 Y1353.701
G01 X691.323 Y1338.339
G01 X682.854 Y1323.413
G01 X674.753 Y1308.488
G01 X666.760 Y1293.194
G01 X658.427 Y1277.503
G01 X649.450 Y1261.752
G01 X639.907 Y1246.384
G01 X630.190 Y1231.618
G01 X620.712 Y1217.280
G01 X611.592 Y1202.946
G01 X602.573 Y1188.257
G01 X593.212 Y1173.197
G01 X583.224 Y1158.100
G01 X572.692 Y1143.398
G01 X562.004 Y1129.295
G01 X551.559 Y1115.615
G01 X541.465 Y1101.939
G01 X531.463 Y1087.923
G01 X521.121 Y1073.562
G01 X510.168 Y1059.186
G01 X498.694 Y1045.216
G01 X487.083 Y1031.842
G01 X475.719 Y1018.883
G01 X464.699 Y1005.929
G01 X453.762 Y992.652
G01 X442.489 Y979.053
G01 X430.623 Y965.462
G01 X418.259 Y952.286
G01 X405.776 Y939.702
G01 X393.544 Y927.526
G01 X381.650 Y915.357
G01 X369.832 Y902.879
G01 X357.683 Y890.104
G01 X344.958 Y877.358
G01 X331.760 Y865.034
G01 X318.461 Y853.298
G01 X305.418 Y841.963
G01 X292.706 Y830.636
G01 X280.064 Y819.015
G01 X267.097 Y807.121
G01 X253.573 Y795.275
G01 X239.600 Y783.859
G01 X225.544 Y773.025
G01 X211.749 Y762.584
G01 X198.280 Y752.152
G01 X184.876 Y741.442
G01 X171.152 Y730.481
G01 X156.892 Y719.587
G01 X142.208 Y709.129
G01 X127.459 Y699.247
G01 X112.975 Y689.750
G01 X98.811 Y680.264
G01 X84.709 Y670.514
G01 X70.295 Y660.534
G01 X55.364 Y650.640
G01 X40.035 Y641.186
G01 X24.659 Y632.301
G01 X9.553 Y623.793
G01 X5.000 Y621.178
G01 X5.000 Y1600.000
G01 X710.000 Y1600.000
G01 X710.000 Y1449.156
G01 X707.446 Y1442.937
G01 X700.511 Y1426.879
G01 X693.378 Y1411.030
G01 X686.179 Y1395.375
G01 X678.981 Y1379.799
G01 X671.735 Y1364.180
G01 X664.313 Y1348.478
G01 X656.601 Y1332.775
G01 X648.592 Y1317.209
G01 X640.391 Y1301.877
G01 X632.139 Y1286.756
G01 X623.906 Y1271.722
G01 X615.636 Y1256.643
G01 X607.188 Y1241.480
G01 X598.444 Y1226.323
G01 X589.399 Y1211.321
G01 X580.167 Y1196.577
G01 X570.901 Y1182.061
G01 X561.671 Y1167.638
G01 X552.416 Y1153.167
G01 X542.983 Y1138.612
G01 X533.247 Y1124.069
G01 X523.206 Y1109.701
G01 X512.986 Y1095.612
G01 X502.749 Y1081.768
G01 X492.568 Y1068.023
G01 X482.371 Y1054.228
G01 X471.997 Y1040.345
G01 X461.314 Y1026.482
G01 X450.323 Y1012.813
G01 X439.162 Y999.446
G01 X428.002 Y986.339
G01 X416.917 Y973.335
G01 X405.828 Y960.277
G01 X394.562 Y947.129
G01 X382.980 Y934.010
G01 X371.089 Y921.102
G01 X359.038 Y908.518
G01 X347.007 Y896.209
G01 X335.072 Y884.007
G01 X323.144 Y871.745
G01 X311.038 Y859.392
G01 X298.611 Y847.074
G01 X285.874 Y834.987
G01 X272.989 Y823.244
G01 X260.143 Y811.791
G01 X247.413 Y800.446
G01 X234.702 Y789.036
G01 X221.813 Y777.533
G01 X208.598 Y766.073
G01 X195.074 Y754.861
G01 X181.413 Y744.013
G01 X167.812 Y733.469
G01 X154.349 Y723.034
G01 X140.915 Y712.528
G01 X127.304 Y701.925
G01 X113.362 Y691.373
G01 X99.112 Y681.088
G01 X84.737 Y671.187
G01 X70.446 Y661.600
G01 X56.311 Y652.123
G01 X42.219 Y642.569
G01 X27.949 Y632.913
G01 X13.344 Y623.317
G01 X5.000 Y618.106
G01 X5.000 Y1600.000
G01 X710.000 Y1600.000
G01 X710.000 Y1546.516
G01 X703.977 Y1531.039
G01 X698.284 Y1515.761
G01 X693.240 Y1500.366
G01 X688.408 Y1484.287
G01 X683.070 Y1467.516
G01 X676.770 Y1450.614
G01 X669.665 Y1434.288
G01 X662.406 Y1418.856
G01 X655.649 Y1404.006
G01 X649.554 Y1389.029
G01 X643.664 Y1373.360
G01 X637.251 Y1357.006
G01 X629.864 Y1340.546
G01 X621.678 Y1324.694
G01 X613.362 Y1309.758
G01 X605.572 Y1295.408
G01 X598.457 Y1280.920
G01 X591.541 Y1265.732
G01 X584.085 Y1249.867
G01 X575.644 Y1233.921
G01 X566.412 Y1218.614
G01 X557.074 Y1204.246
G01 X548.288 Y1190.466
G01 X540.189 Y1176.537
G01 X532.284 Y1161.899
G01 X523.821 Y1146.591
G01 X514.364 Y1131.228
G01 X504.125 Y1116.536
G01 X493.804 Y1102.804
G01 X484.063 Y1089.661
G01 X475.022 Y1076.358
G01 X466.168 Y1062.337
G01 X456.740 Y1047.652
G01 X446.310 Y1032.939
G01 X435.107 Y1018.929
G01 X423.849 Y1005.898
G01 X413.198 Y993.456
G01 X403.260 Y980.842
G01 X393.502 Y967.500
G01 X383.156 Y953.504
G01 X371.799 Y939.504
G01 X359.680 Y926.237
G01 X347.534 Y913.970
G01 X336.023 Y902.291
G01 X325.238 Y890.427
G01 X314.626 Y877.824
G01 X303.411 Y864.575
G01 X291.178 Y851.349
G01 X278.196 Y838.887
G01 X265.215 Y827.442
G01 X252.897 Y816.584
G01 X241.319 Y805.525
G01 X229.908 Y793.719
G01 X217.877 Y781.274
G01 X204.823 Y768.877
G01 X191.034 Y757.275
G01 X177.275 Y746.708
G01 X164.208 Y736.724
G01 X151.894 Y726.525
G01 X139.740 Y715.567
G01 X126.952 Y703.978
G01 X113.136 Y692.465
G01 X98.600 Y681.775
G01 X84.123 Y672.136
G01 X70.369 Y663.077
G01 X57.380 Y653.785
G01 X44.544 Y643.724
G01 X31.060 Y633.041
G01 X16.543 Y622.459
G01 X5.000 Y615.080
G01 X5.000 Y1600.000
G01 X688.921 Y1600.000
G01 X686.306 Y1586.958
G01 X681.069 Y1569.171
G01 X674.771 Y1552.628
G01 X668.697 Y1537.584
G01 X663.844 Y1523.194
G01 X660.168 Y1508.149
G01 X656.614 Y1491.672
G01 X651.914 Y1474.108
G01 X645.551 Y1456.666
G01 X638.149 Y1440.507
G01 X631.009 Y1425.862
G01 X625.117 Y1411.856
G01 X620.402 Y1397.172
G01 X615.782 Y1381.048
G01 X609.989 Y1363.859
G01 X602.524 Y1346.836
G01 X594.046 Y1331.136
G01 X585.868 Y1316.962
G01 X578.966 Y1303.412
G01 X573.240 Y1289.159
G01 X567.584 Y1273.460
G01 X560.726 Y1256.718
G01 X552.192 Y1240.187
G01 X542.669 Y1225.016
G01 X533.486 Y1211.384
G01 X525.608 Y1198.359
G01 X518.904 Y1184.607
G01 X512.245 Y1169.401
G01 X504.356 Y1153.177
G01 X494.788 Y1137.207
G01 X484.257 Y1122.635
G01 X474.108 Y1109.613
G01 X465.292 Y1097.180
G01 X457.648 Y1083.995
G01 X450.024 Y1069.349
G01 X441.143 Y1053.710
G01 X430.582 Y1038.368
G01 X419.085 Y1024.462
G01 X408.011 Y1012.115
G01 X398.300 Y1000.339
G01 X389.759 Y987.785
G01 X381.212 Y973.764
G01 X371.383 Y958.773
G01 X359.872 Y944.124
G01 X347.456 Y930.948
G01 X335.505 Y919.338
G01 X324.945 Y908.280
G01 X315.554 Y896.417
G01 X306.130 Y883.080
G01 X295.401 Y868.801
G01 X282.989 Y854.906
G01 X269.703 Y842.519
G01 X256.926 Y831.705
G01 X245.569 Y821.423
G01 X235.378 Y810.308
G01 X225.129 Y797.715
G01 X213.550 Y784.203
G01 X200.291 Y771.120
G01 X186.190 Y759.580
G01 X172.642 Y749.618
G01 X160.542 Y740.165
G01 X149.606 Y729.852
G01 X138.586 Y718.056
G01 X126.213 Y705.366
G01 X112.163 Y693.149
G01 X97.305 Y682.508
G01 X83.044 Y673.450
G01 X70.260 Y664.876
G01 X58.638 Y655.416
G01 X46.905 Y644.466
G01 X33.796 Y632.649
G01 X19.015 Y621.348
G01 X5.000 Y612.615
G01 X5.000 Y1600.000
G01 X652.687 Y1600.000
G01 X651.075 Y1591.096
G01 X645.456 Y1573.121
G01 X638.892 Y1557.221
G01 X633.280 Y1543.246
G01 X629.679 Y1529.617
G01 X627.508 Y1514.521
G01 X624.984 Y1497.288
G01 X620.471 Y1478.902
G01 X613.723 Y1461.257
G01 X606.072 Y1445.726
G01 X599.422 Y1432.117
G01 X594.806 Y1418.820
G01 X591.599 Y1404.023
G01 X587.995 Y1387.092
G01 X582.369 Y1369.051
G01 X574.515 Y1351.811
G01 X565.803 Y1336.722
G01 X558.143 Y1323.551
G01 X552.537 Y1310.655
G01 X548.320 Y1296.229
G01 X543.660 Y1279.672
G01 X536.949 Y1262.049
G01 X528.018 Y1245.285
G01 X518.275 Y1230.710
G01 X509.635 Y1218.046
G01 X503.069 Y1205.621
G01 X497.872 Y1191.634
G01 X492.188 Y1175.521
G01 X484.423 Y1158.386
G01 X474.450 Y1142.169
G01 X463.710 Y1128.176
G01 X454.125 Y1116.087
G01 X446.636 Y1104.200
G01 X440.493 Y1090.719
G01 X433.820 Y1075.117
G01 X425.037 Y1058.538
G01 X414.059 Y1042.935
G01 X402.364 Y1029.590
G01 X391.874 Y1018.141
G01 X383.501 Y1006.856
G01 X376.452 Y993.945
G01 X368.829 Y978.918
G01 X359.070 Y962.961
G01 X347.129 Y948.038
G01 X334.521 Y935.406
G01 X323.172 Y924.659
G01 X313.959 Y914.036
G01 X306.047 Y901.756
G01 X297.519 Y887.367
G01 X286.828 Y872.094
G01 X273.972 Y857.912
G01 X260.500 Y846.053
G01 X248.339 Y836.066
G01 X238.335 Y826.165
G01 X229.609 Y814.574
G01 X220.223 Y800.881
G01 X208.649 Y786.351
G01 X194.929 Y772.969
G01 X180.646 Y761.939
G01 X167.726 Y752.770
G01 X156.982 Y743.644
G01 X147.492 Y732.796
G01 X137.301 Y719.855
G01 X124.898 Y706.123
G01 X110.369 Y693.596
G01 X95.329 Y683.450
G01 X81.707 Y675.149
G01 X70.279 Y666.849
G01 X60.081 Y656.796
G01 X49.140 Y644.657
G01 X35.964 Y631.775
G01 X20.684 Y620.155
G01 X5.000 Y610.973
G01 X5.000 Y1600.000
G01 X616.742 Y1600.000
G01 X615.497 Y1593.389
G01 X609.304 Y1575.672
G01 X602.686 Y1560.842
G01 X597.984 Y1548.034
G01 X595.972 Y1534.873
G01 X595.269 Y1519.279
G01 X593.383 Y1501.041
G01 X588.600 Y1481.985
G01 X581.286 Y1464.588
G01 X573.610 Y1450.108
G01 X567.903 Y1437.622
G01 X564.893 Y1424.732
G01 X563.147 Y1409.377
G01 X560.161 Y1391.400
G01 X554.251 Y1372.670
G01 X545.837 Y1355.669
G01 X537.126 Y1341.609
G01 X530.439 Y1329.517
G01 X526.453 Y1316.968
G01 X523.688 Y1301.923
G01 X519.623 Y1284.279
G01 X512.610 Y1265.949
G01 X503.125 Y1249.414
G01 X493.407 Y1235.845
G01 X485.767 Y1224.216
G01 X480.833 Y1212.076
G01 X477.075 Y1197.411
G01 X471.960 Y1180.170
G01 X463.875 Y1162.309
G01 X453.349 Y1146.311
G01 X442.657 Y1133.303
G01 X434.097 Y1122.203
G01 X428.248 Y1110.539
G01 X423.529 Y1096.320
G01 X417.397 Y1079.550
G01 X408.273 Y1062.228
G01 X396.742 Y1046.834
G01 X385.114 Y1034.452
G01 X375.672 Y1023.946
G01 X368.944 Y1012.821
G01 X363.300 Y999.113
G01 X356.187 Y982.880
G01 X346.064 Y966.162
G01 X333.570 Y951.438
G01 X321.048 Y939.746
G01 X310.765 Y929.896
G01 X303.199 Y919.371
G01 X296.671 Y906.236
G01 X288.619 Y890.602
G01 X277.538 Y874.552
G01 X264.127 Y860.560
G01 X250.756 Y849.618
G01 X239.679 Y840.482
G01 X231.320 Y830.617
G01 X223.953 Y818.113
G01 X215.007 Y803.139
G01 X203.017 Y787.816
G01 X188.736 Y774.615
G01 X174.568 Y764.480
G01 X162.746 Y756.115
G01 X153.643 Y746.964
G01 X145.485 Y735.147
G01 X135.695 Y720.888
G01 X122.847 Y706.351
G01 X107.750 Y693.996
G01 X92.838 Y684.722
G01 X80.325 Y677.180
G01 X70.532 Y668.794
G01 X61.635 Y657.715
G01 X51.053 Y644.226
G01 X37.402 Y630.526
G01 X21.546 Y619.070
G01 X5.947 Y610.707
G01 X5.000 Y610.227
G01 X5.000 Y1600.000
G01 X580.788 Y1600.000
G01 X579.475 Y1593.991
G01 X572.687 Y1577.041
G01 X566.385 Y1563.612
G01 X563.063 Y1551.882
G01 X562.847 Y1538.765
G01 X563.388 Y1522.244
G01 X561.650 Y1502.909
G01 X556.203 Y1483.509
G01 X548.316 Y1466.871
G01 X540.992 Y1453.763
G01 X536.698 Y1442.303
G01 X535.492 Y1429.391
G01 X534.976 Y1413.055
G01 X532.114 Y1393.951
G01 X525.533 Y1374.868
G01 X516.565 Y1358.617
G01 X508.242 Y1345.901
G01 X502.996 Y1334.780
G01 X500.820 Y1322.143
G01 X499.265 Y1306.063
G01 X495.301 Y1287.262
G01 X487.609 Y1268.570
G01 X477.587 Y1252.776
G01 X468.289 Y1240.520
G01 X462.117 Y1229.807
G01 X458.995 Y1217.513
G01 X456.426 Y1201.758
G01 X451.385 Y1183.332
G01 X442.610 Y1165.100
G01 X431.562 Y1149.833
G01 X421.321 Y1138.107
G01 X414.252 Y1127.867
G01 X410.213 Y1115.982
G01 X406.659 Y1100.619
G01 X400.572 Y1082.636
G01 X390.746 Y1064.934
G01 X378.707 Y1050.261
G01 X367.558 Y1039.130
G01 X359.628 Y1029.428
G01 X354.706 Y1018.016
G01 X350.200 Y1003.110
G01 X343.100 Y985.637
G01 X332.260 Y968.531
G01 X319.270 Y954.518
G01 X307.252 Y944.044
G01 X298.499 Y934.940
G01 X292.731 Y924.063
G01 X287.311 Y909.678
G01 X279.238 Y892.778
G01 X267.425 Y876.332
G01 X253.527 Y863.041
G01 X240.685 Y853.285
G01 X231.152 Y844.839
G01 X224.581 Y834.554
G01 X218.288 Y820.749
G01 X209.285 Y804.483
G01 X196.546 Y788.759
G01 X181.786 Y776.248
G01 X168.168 Y767.267
G01 X157.902 Y759.534
G01 X150.573 Y749.899
G01 X143.454 Y736.730
G01 X133.568 Y721.156
G01 X119.951 Y706.210
G01 X104.382 Y694.537
G01 X90.038 Y686.384
G01 X79.091 Y679.417
G01 X71.054 Y670.482
G01 X63.158 Y658.004
G01 X52.440 Y643.176
G01 X37.998 Y629.063
G01 X21.674 Y618.279
G01 X6.661 Y611.005
G01 X5.000 Y610.122
G01 X5.000 Y1600.000
G01 X544.816 Y1600.000
G01 X542.965 Y1593.105
G01 X535.754 Y1577.431
G01 X530.253 Y1565.581
G01 X528.739 Y1554.658
G01 X530.351 Y1541.077
G01 X531.744 Y1523.288
G01 X529.623 Y1502.949
G01 X523.239 Y1483.677
G01 X514.961 Y1468.304
G01 X508.482 Y1456.737
G01 X506.022 Y1446.020
G01 X506.641 Y1432.578
G01 X506.954 Y1414.929
G01 X503.690 Y1394.804
G01 X496.176 Y1375.847
G01 X486.850 Y1360.848
G01 X479.411 Y1349.633
G01 X476.023 Y1339.191
G01 X475.667 Y1325.958
G01 X474.915 Y1308.519
G01 X470.527 Y1288.681
G01 X461.905 Y1270.112
G01 X451.553 Y1255.558
G01 X443.179 Y1244.763
G01 X438.885 Y1234.663
G01 X437.574 Y1221.707
G01 X435.780 Y1204.547
G01 X430.290 Y1185.068
G01 X420.587 Y1166.958
G01 X409.238 Y1152.916
G01 X399.956 Y1142.608
G01 X394.783 Y1132.916
G01 X392.543 Y1120.303
G01 X389.732 Y1103.491
G01 X383.170 Y1084.439
G01 X372.416 Y1066.856
G01 X360.102 Y1053.394
G01 X349.945 Y1043.638
G01 X343.924 Y1034.418
G01 X340.787 Y1022.211
G01 X336.990 Y1005.814
G01 X329.388 Y987.256
G01 X317.618 Y970.267
G01 X304.376 Y957.450
G01 X293.380 Y948.308
G01 X286.548 Y939.620
G01 X282.547 Y927.882
G01 X277.799 Y911.962
G01 X269.194 Y893.963
G01 X256.448 Y877.632
G01 X242.321 Y865.521
G01 X230.528 Y857.053
G01 X222.925 Y848.957
G01 X218.099 Y837.746
G01 X212.439 Y822.364
G01 X202.872 Y804.987
G01 X189.194 Y789.375
G01 X174.226 Y778.030
G01 X161.681 Y770.292
G01 X153.350 Y762.843
G01 X147.742 Y752.217
G01 X141.214 Y737.431
G01 X130.731 Y720.733
G01 X116.168 Y705.900
G01 X100.409 Y695.376
G01 X87.162 Y688.422
G01 X78.151 Y681.672
G01 X71.808 Y671.684
G01 X64.458 Y657.549
G01 X53.107 Y641.587
G01 X37.711 Y627.586
G01 X21.214 Y617.936
G01 X7.318 Y611.817
G01 X5.000 Y610.374
G01 X5.000 Y1600.000
G01 X509.023 Y1600.000
G01 X505.999 Y1590.967
G01 X498.720 Y1577.008
G01 X494.570 Y1566.729
G01 X495.179 Y1556.172
G01 X498.455 Y1541.605
G01 X500.170 Y1522.349
G01 X497.163 Y1501.295
G01 X489.739 Y1482.720
G01 X481.437 Y1469.045
G01 X476.353 Y1458.997
G01 X476.034 Y1448.577
G01 X478.304 Y1434.087
G01 X478.910 Y1414.936
G01 X474.748 Y1394.092
G01 X466.213 Y1375.835
G01 X456.905 Y1362.514
G01 X450.902 Y1352.766
G01 X449.670 Y1342.550
G01 X450.947 Y1328.205
G01 X450.460 Y1309.232
G01 X445.158 Y1288.671
G01 X435.532 Y1270.802
G01 X425.240 Y1257.904
G01 X418.339 Y1248.524
G01 X416.212 Y1238.578
G01 X416.515 Y1224.448
G01 X414.953 Y1205.722
G01 X408.535 Y1185.514
G01 X397.842 Y1168.105
G01 X386.591 Y1155.697
G01 X378.818 Y1146.750
G01 X375.821 Y1137.140
G01 X375.172 Y1123.290
G01 X372.558 Y1104.880
G01 X365.049 Y1085.096
G01 X353.320 Y1068.213
G01 X341.141 Y1056.363
G01 X332.525 Y1047.912
G01 X328.685 Y1038.701
G01 X327.112 Y1025.196
G01 X323.476 Y1007.169
G01 X314.907 Y987.875
G01 X302.173 Y971.587
G01 X289.101 Y960.357
G01 X279.678 Y952.464
G01 X275.028 Y943.713
G01 X272.562 Y930.615
G01 X267.935 Y913.036
G01 X258.342 Y894.298
G01 X244.643 Y878.667
G01 X230.717 Y868.120
G01 X220.524 Y860.844
G01 X215.101 Y852.611
G01 X211.778 Y839.981
G01 X206.198 Y822.911
G01 X195.620 Y804.792
G01 X180.998 Y789.880
G01 X166.262 Y780.073
G01 X155.341 Y773.471
G01 X149.186 Y765.813
G01 X145.046 Y753.708
G01 X138.554 Y737.206
G01 X127.034 Y719.765
G01 X111.534 Y705.631
G01 X96.035 Y696.621
G01 X84.434 Y690.745
G01 X77.591 Y683.715
G01 X72.678 Y672.189
G01 X65.318 Y656.312
G01 X52.904 Y639.606
G01 X36.578 Y626.304
G01 X20.367 Y618.143
G01 X8.135 Y613.045
G01 X5.000 Y610.383
G01 X5.000 Y1600.000
G01 X473.748 Y1600.000
G01 X468.688 Y1587.816
G01 X461.852 Y1575.879
G01 X459.596 Y1566.955
G01 X462.480 Y1556.203
G01 X467.056 Y1540.178
G01 X468.479 Y1519.442
G01 X464.181 Y1498.143
G01 X455.816 Y1480.874
G01 X448.011 Y1469.192
G01 X444.860 Y1460.437
G01 X446.822 Y1449.748
G01 X450.367 Y1433.745
G01 X450.655 Y1413.096
G01 X445.200 Y1392.013
G01 X435.757 Y1375.061
G01 X426.996 Y1363.703
G01 X422.964 Y1355.184
G01 X424.015 Y1344.624
G01 X426.541 Y1328.712
G01 X425.705 Y1308.223
G01 X419.107 Y1287.427
G01 X408.605 Y1270.864
G01 X398.909 Y1259.896
G01 X394.013 Y1251.680
G01 X394.169 Y1241.315
G01 X395.691 Y1225.564
G01 X393.748 Y1205.304
G01 X386.029 Y1184.867
G01 X374.490 Y1168.761
G01 X363.881 Y1158.251
G01 X358.144 Y1150.401
G01 X357.426 Y1140.297
G01 X357.963 Y1124.772
G01 X354.936 Y1104.811
G01 X346.119 Y1084.802
G01 X333.572 Y1069.221
G01 X322.079 Y1059.233
G01 X315.528 Y1051.813
G01 X313.960 Y1042.032
G01 X313.537 Y1026.800
G01 X309.452 Y1007.204
G01 X299.567 Y987.692
G01 X286.043 Y972.701
G01 X273.699 Y963.299
G01 X266.365 Y956.368
G01 X263.976 Y946.973
G01 X262.623 Y932.096
G01 X257.509 Y912.931
G01 X246.591 Y893.980
G01 X232.126 Y879.644
G01 X218.968 Y870.887
G01 X210.886 Y864.505
G01 X207.711 Y855.553
G01 X205.459 Y841.093
G01 X199.353 Y822.423
G01 X187.438 Y804.096
G01 X172.074 Y790.475
G01 X158.142 Y782.421
G01 X149.352 Y776.644
G01 X145.428 Y768.193
G01 X142.315 Y754.208
G01 X135.254 Y736.092
G01 X122.386 Y718.450
G01 X106.167 Y705.602
G01 X91.507 Y698.307
G01 X82.052 Y693.189
G01 X77.419 Y685.291
G01 X73.487 Y671.836
G01 X65.515 Y654.332
G01 X51.739 Y637.433
G01 X34.713 Y625.413
G01 X19.373 Y618.929
G01 X9.300 Y614.519
G01 X5.000 Y608.596
G01 X5.000 Y1600.000
G01 X439.282 Y1600.000
G01 X439.172 Y1599.502
G01 X431.219 Y1583.870
G01 X425.450 Y1574.078
G01 X425.552 Y1566.092
G01 X430.656 Y1554.517
G01 X435.990 Y1536.681
G01 X436.493 Y1514.668
G01 X430.655 Y1493.740
G01 X421.659 Y1478.350
G01 X414.977 Y1468.769
G01 X414.217 Y1460.880
G01 X418.391 Y1449.294
G01 X422.663 Y1431.439
G01 X422.007 Y1409.510
G01 X415.024 Y1388.809
G01 X404.998 Y1373.731
G01 X397.415 Y1364.430
G01 X395.802 Y1356.702
G01 X399.055 Y1345.173
G01 X402.272 Y1327.368
G01 X400.469 Y1305.594
G01 X392.354 Y1285.193
G01 X381.315 Y1270.495
G01 X372.847 Y1261.540
G01 X370.396 Y1254.039
G01 X372.741 Y1242.632
G01 X374.917 Y1224.946
G01 X371.981 Y1203.398
G01 X362.755 Y1183.366
G01 X350.722 Y1169.118
G01 X341.392 Y1160.572
G01 X338.122 Y1153.362
G01 X339.575 Y1142.143
G01 X340.728 Y1124.643
G01 X336.679 Y1103.390
G01 X326.364 Y1083.797
G01 X313.365 Y1070.064
G01 X303.197 Y1061.993
G01 X299.133 Y1055.135
G01 X299.716 Y1044.166
G01 X299.866 Y1026.918
G01 X294.729 Y1006.028
G01 X283.354 Y986.942
G01 X269.418 Y973.790
G01 X258.444 Y966.253
G01 X253.612 Y959.808
G01 X253.351 Y949.151
G01 X252.526 Y932.220
G01 X246.330 Y911.759
G01 X233.926 Y893.245
G01 X219.089 Y880.735
G01 X207.342 Y873.793
G01 X201.775 Y867.820
G01 X200.701 Y857.534
G01 X198.931 Y840.981
G01 X191.708 Y821.014
G01 X178.313 Y803.134
G01 X162.613 Y791.327
G01 X150.132 Y785.038
G01 X143.866 Y779.591
G01 X142.012 Y769.734
G01 X139.332 Y753.619
G01 X131.120 Y734.206
G01 X116.775 Y717.022
G01 X100.255 Y705.976
G01 X87.081 Y700.392
G01 X80.157 Y695.525
G01 X77.562 Y686.151
G01 X74.009 Y670.532
G01 X64.850 Y651.732
G01 X49.599 Y635.301
G01 X32.305 Y625.070
G01 X18.486 Y620.245
G01 X10.946 Y616.008
G01 X7.652 Y607.169
G01 X5.000 Y598.050
G01 X5.000 Y1600.000
G01 X404.319 Y1600.000
G01 X401.984 Y1592.574
G01 X393.850 Y1579.301
G01 X389.812 Y1571.554
G01 X392.593 Y1563.918
G01 X399.639 Y1550.897
G01 X405.053 Y1531.079
G01 X404.064 Y1508.208
G01 X396.643 Y1488.353
G01 X387.526 Y1475.309
G01 X382.631 Y1467.717
G01 X384.569 Y1460.097
G01 X390.665 Y1447.000
G01 X394.982 Y1427.135
G01 X392.820 Y1404.358
G01 X384.282 Y1384.745
G01 X374.194 Y1371.997
G01 X368.452 Y1364.625
G01 X369.554 Y1357.087
G01 X374.704 Y1343.979
G01 X377.929 Y1324.139
G01 X374.605 Y1301.526
G01 X364.963 Y1282.227
G01 X353.918 Y1269.841
G01 X347.342 Y1262.755
G01 X347.619 Y1255.361
G01 X351.834 Y1242.310
G01 X353.977 Y1222.562
G01 X349.505 Y1200.185
G01 X338.778 Y1181.268
G01 X326.795 Y1169.312
G01 X319.404 Y1162.574
G01 X318.872 Y1155.388
G01 X322.165 Y1142.458
G01 X323.243 Y1122.872
G01 X317.640 Y1100.799
G01 X305.850 Y1082.333
G01 X292.953 Y1070.872
G01 X284.770 Y1064.545
G01 X283.450 Y1057.628
G01 X285.839 Y1044.882
G01 X285.871 Y1025.524
G01 X279.161 Y1003.825
G01 X266.334 Y985.876
G01 X252.552 Y974.972
G01 X243.604 Y969.116
G01 X241.520 Y962.529
G01 X243.029 Y950.029
G01 X242.039 Y930.964
G01 X234.250 Y909.705
G01 X220.418 Y892.338
G01 X205.783 Y882.054
G01 X196.102 Y876.728
G01 X193.282 Y870.527
G01 X193.938 Y858.335
G01 X191.954 Y839.626
G01 X183.117 Y818.870
G01 X168.315 Y802.149
G01 X152.865 Y792.543
G01 X142.485 Y787.802
G01 X138.963 Y782.045
G01 X138.797 Y770.218
G01 X135.852 Y751.926
G01 X126.003 Y731.736
G01 X110.271 Y715.720
G01 X94.046 Y706.850
G01 X83.007 Y702.749
G01 X78.818 Y697.488
G01 X77.867 Y686.081
G01 X73.996 Y668.264
G01 X63.176 Y648.700
G01 X46.557 Y633.447
G01 X29.601 Y625.366
G01 X17.946 Y621.955
G01 X13.132 Y617.242
G01 X11.432 Y606.308
G01 X6.677 Y589.022
G01 X5.000 Y586.327
G01 X5.000 Y1600.000
G01 X370.982 Y1600.000
G01 X364.541 Y1584.815
G01 X356.886 Y1574.210
G01 X355.216 Y1568.176
G01 X360.794 Y1560.179
G01 X369.283 Y1545.173
G01 X374.029 Y1523.422
G01 X371.106 Y1500.306
G01 X362.291 Y1482.248
G01 X353.722 Y1471.843
G01 X351.245 Y1465.893
G01 X355.985 Y1457.831
G01 X363.490 Y1442.692
G01 X367.104 Y1420.886
G01 X363.009 Y1397.885
G01 X353.123 Y1380.080
G01 X343.649 Y1369.941
G01 X340.371 Y1364.140
G01 X344.277 Y1356.074
G01 X350.801 Y1340.871
G01 X353.286 Y1319.080
G01 X348.028 Y1296.264
G01 X337.084 Y1278.782
G01 X326.717 Y1268.974
G01 X322.650 Y1263.384
G01 X325.729 Y1255.379
G01 X331.279 Y1240.176
G01 X332.645 Y1218.470
G01 X326.237 Y1195.910
G01 X314.250 Y1178.819
G01 X303.008 Y1169.407
G01 X298.166 Y1164.090
G01 X300.431 Y1156.208
G01 X305.018 Y1141.072
G01 X305.279 Y1119.519
G01 X297.738 Y1097.283
G01 X284.730 Y1080.650
G01 X272.634 Y1071.697
G01 X267.038 Y1066.714
G01 X268.506 Y1059.016
G01 X272.146 Y1044.011
G01 X271.319 Y1022.679
G01 X262.667 Y1000.836
G01 X248.664 Y984.727
G01 X235.740 Y976.294
G01 X229.414 Y971.705
G01 X230.105 Y964.251
G01 X232.819 Y949.440
G01 X230.926 Y928.394
G01 X221.190 Y907.010
G01 X206.221 Y891.489
G01 X192.500 Y883.637
G01 X185.471 Y879.498
G01 X185.412 Y872.348
G01 X187.223 Y857.791
G01 X184.291 Y837.096
G01 X173.502 Y816.235
G01 X157.601 Y801.363
G01 X143.118 Y794.151
G01 X135.418 Y790.518
G01 X134.637 Y783.726
G01 X135.574 Y769.483
G01 X131.634 Y749.200
G01 X119.826 Y728.926
G01 X103.031 Y714.763
G01 X87.824 Y708.245
G01 X79.490 Y705.172
G01 X78.021 Y698.793
G01 X78.116 Y684.920
G01 X73.203 Y665.110
G01 X60.415 Y645.481
G01 X42.768 Y632.084
G01 X26.879 Y626.313
G01 X17.951 Y623.851
G01 X15.830 Y617.935
G01 X15.120 Y604.488
G01 X9.272 Y585.206
G01 X5.000 Y579.316
G01 X5.000 Y1600.000
G01 X337.183 Y1600.000
G01 X335.834 Y1592.255
G01 X327.070 Y1576.466
G01 X320.660 Y1568.614
G01 X321.887 Y1563.739
G01 X330.141 Y1554.617
G01 X339.382 Y1537.240
G01 X342.712 Y1513.851
G01 X337.607 Y1491.255
G01 X327.828 Y1475.655
G01 X320.576 Y1467.960
G01 X321.034 Y1463.087
G01 X328.438 Y1453.818
G01 X336.654 Y1436.269
G01 X338.824 Y1412.834
G01 X332.565 Y1390.379
G01 X321.777 Y1375.037
G01 X313.689 Y1367.561
G01 X313.382 Y1362.752
G01 X319.937 Y1353.400
G01 X327.128 Y1335.746
G01 X328.140 Y1312.335
G01 X320.735 Y1290.092
G01 X308.948 Y1275.074
G01 X300.035 Y1267.880
G01 X298.971 Y1263.198
G01 X304.681 Y1253.826
G01 X310.851 Y1236.133
G01 X310.714 Y1212.816
G01 X302.175 Y1190.854
G01 X289.405 Y1176.226
G01 X279.681 Y1169.378
G01 X277.871 Y1164.882
G01 X282.745 Y1155.552
G01 X287.905 Y1137.888
G01 X286.630 Y1114.733
G01 X276.973 Y1093.121
G01 X263.239 Y1078.949
G01 X252.724 Y1072.507
G01 X250.185 Y1068.258
G01 X254.237 Y1059.031
G01 X258.399 Y1041.460
G01 X256.003 Y1018.535
G01 X245.250 Y997.340
G01 X230.576 Y983.688
G01 X219.292 Y977.714
G01 X216.045 Y973.769
G01 X219.293 Y964.706
G01 X222.475 Y947.292
G01 X218.978 Y924.663
G01 X207.155 Y903.951
G01 X191.569 Y890.882
G01 X179.546 Y885.433
G01 X175.615 Y881.850
G01 X178.081 Y873.009
G01 X180.304 Y855.814
G01 X175.732 Y833.546
G01 X162.867 Y813.382
G01 X146.403 Y800.956
G01 X133.671 Y796.089
G01 X129.085 Y792.923
G01 X130.794 Y784.361
G01 X132.086 Y767.445
G01 X126.468 Y745.601
G01 X112.596 Y726.047
G01 X95.289 Y714.322
G01 X81.884 Y710.092
G01 X76.675 Y707.396
G01 X77.659 Y699.167
G01 X78.048 Y682.589
G01 X71.419 Y661.229
G01 X56.576 Y642.344
G01 X38.467 Y631.377
G01 X24.428 Y627.835
G01 X18.634 Y625.660
G01 X18.924 Y617.817
G01 X18.446 Y601.631
G01 X10.841 Y580.814
G01 X5.000 Y574.089
G01 X5.000 Y1600.000
G01 X304.667 Y1600.000
G01 X299.025 Y1580.507
G01 X289.868 Y1567.709
G01 X285.503 Y1562.442
G01 X289.975 Y1557.986
G01 X300.527 Y1546.999
G01 X309.690 Y1527.080
G01 X310.941 Y1502.593
G01 X303.648 Y1481.364
G01 X293.551 Y1468.748
G01 X288.414 Y1463.575
G01 X292.141 Y1459.032
G01 X301.815 Y1447.826
G01 X309.908 Y1427.715
G01 X309.982 Y1403.206
G01 X301.573 Y1382.147
G01 X290.542 Y1369.778
G01 X284.635 Y1364.761
G01 X287.617 Y1360.191
G01 X296.411 Y1348.830
G01 X303.431 Y1328.593
G01 X302.331 Y1304.132
G01 X292.813 Y1283.313
G01 X280.855 Y1271.256
G01 X274.187 Y1266.455
G01 X276.428 Y1261.919
G01 X284.343 Y1250.466
G01 X290.295 Y1230.171
G01 X288.027 Y1205.827
G01 X277.410 Y1185.315
G01 X264.540 Y1173.634
G01 X257.122 Y1169.112
G01 X258.631 Y1164.669
G01 X265.674 Y1153.186
G01 X270.563 Y1132.899
G01 X267.138 Y1108.741
G01 X255.439 Y1088.604
G01 X241.675 Y1077.363
G01 X233.524 Y1073.178
G01 X234.313 Y1068.887
G01 X240.494 Y1057.436
G01 X244.332 Y1037.224
G01 X239.767 Y1013.320
G01 X227.005 Y993.624
G01 X212.368 Y982.885
G01 X203.505 Y979.096
G01 X203.591 Y975.016
G01 X208.925 Y963.657
G01 X211.729 Y943.584
G01 X206.042 Y920.000
G01 X192.242 Y900.811
G01 X176.760 Y890.635
G01 X167.208 Y887.298
G01 X166.613 Y883.485
G01 X171.119 Y872.279
G01 X172.908 Y852.407
G01 X166.124 Y829.208
G01 X151.315 Y810.590
G01 X135.017 Y801.035
G01 X124.806 Y798.206
G01 X123.555 Y794.715
G01 X127.256 Y783.718
G01 X128.053 Y764.110
G01 X120.201 Y741.360
G01 X104.415 Y723.373
G01 X87.337 Y714.497
G01 X76.499 Y712.230
G01 X74.621 Y709.113
G01 X77.543 Y698.382
G01 X77.378 Y679.097
G01 X68.489 Y656.857
G01 X51.764 Y639.560
G01 X33.943 Y631.417
G01 X22.516 Y629.763
G01 X20.043 Y627.071
G01 X22.217 Y616.659
G01 X21.121 Y597.755
G01 X11.232 Y576.083
G01 X5.000 Y570.231
G01 X5.000 Y1600.000
G01 X270.257 Y1600.000
G01 X270.177 Y1587.258
G01 X262.022 Y1568.121
G01 X253.281 Y1558.649
G01 X251.713 Y1555.530
G01 X259.540 Y1550.627
G01 X271.764 Y1537.143
G01 X279.951 Y1514.774
G01 X278.621 Y1489.943
G01 X269.405 Y1470.934
G01 X259.809 Y1461.619
G01 X257.529 Y1458.517
G01 X264.615 Y1453.434
G01 X275.920 Y1439.674
G01 X282.994 Y1417.112
G01 X280.488 Y1392.294
G01 X270.212 Y1373.481
G01 X259.764 Y1364.386
G01 X256.772 Y1361.360
G01 X263.115 Y1356.158
G01 X273.496 Y1342.184
G01 X279.452 Y1319.496
G01 X275.772 Y1294.762
G01 X264.443 Y1276.211
G01 X253.149 Y1267.398
G01 X249.451 Y1264.508
G01 X255.051 Y1259.245
G01 X264.507 Y1245.121
G01 X269.348 Y1222.375
G01 X264.499 Y1197.794
G01 X252.126 Y1179.571
G01 X239.999 Y1171.103
G01 X235.603 Y1168.406
G01 X240.466 Y1163.142
G01 X248.999 Y1148.932
G01 X252.730 Y1126.195
G01 X246.723 Y1101.834
G01 X233.323 Y1084.006
G01 X220.378 Y1075.943
G01 X215.296 Y1073.499
G01 X219.431 Y1068.292
G01 X227.050 Y1054.058
G01 X229.682 Y1031.396
G01 X222.532 Y1007.323
G01 X208.122 Y989.955
G01 X194.379 Y982.357
G01 X188.630 Y980.222
G01 X192.050 Y975.131
G01 X198.767 Y960.933
G01 X200.313 Y938.413
G01 X192.039 Y914.694
G01 X176.643 Y897.848
G01 X162.127 Y890.775
G01 X155.733 Y889.006
G01 X158.455 Y884.086
G01 X164.286 Y869.986
G01 X164.764 Y847.670
G01 X155.390 Y824.371
G01 X139.037 Y808.110
G01 X123.775 Y801.619
G01 X116.760 Y800.268
G01 X118.807 Y795.575
G01 X123.771 Y781.631
G01 X123.205 Y759.583
G01 X112.759 Y736.767
G01 X95.478 Y721.151
G01 X79.503 Y715.297
G01 X71.897 Y714.418
G01 X73.294 Y710.004
G01 X77.416 Y696.273
G01 X75.833 Y674.553
G01 X64.344 Y652.281
G01 X46.173 Y637.369
G01 X29.521 Y632.205
G01 X21.356 Y631.849
G01 X22.132 Y627.766
G01 X25.441 Y614.302
G01 X22.870 Y592.969
G01 X10.376 Y571.300
G01 X5.000 Y567.301
G01 X5.000 Y1600.000
G01 X236.433 Y1600.000
G01 X237.736 Y1595.777
G01 X234.706 Y1571.526
G01 X225.087 Y1555.367
G01 X217.683 Y1549.293
G01 X219.525 Y1547.638
G01 X230.539 Y1541.374
G01 X243.600 Y1524.949
G01 X249.929 Y1500.501
G01 X245.747 Y1476.239
G01 X235.142 Y1460.225
G01 X226.970 Y1454.264
G01 X228.147 Y1452.536
G01 X238.406 Y1446.003
G01 X250.496 Y1429.262
G01 X255.676 Y1404.641
G01 X250.340 Y1380.437
G01 X238.750 Y1364.632
G01 X229.810 Y1358.845
G01 X230.320 Y1357.100
G01 X239.817 Y1350.358
G01 X250.929 Y1333.365
G01 X254.956 Y1308.638
G01 X248.466 Y1284.559
G01 X235.896 Y1269.029
G01 X226.194 Y1263.475
G01 X226.037 Y1261.771
G01 X234.771 Y1254.879
G01 X244.902 Y1237.698
G01 X247.776 Y1212.932
G01 X240.137 Y1189.048
G01 X226.596 Y1173.855
G01 X216.141 Y1168.594
G01 X215.324 Y1166.988
G01 X223.295 Y1160.005
G01 X232.446 Y1142.699
G01 X234.172 Y1117.963
G01 X225.395 Y1094.340
G01 X210.898 Y1079.549
G01 X199.703 Y1074.639
G01 X198.234 Y1073.189
G01 X205.449 Y1066.173
G01 X213.626 Y1048.806
G01 X214.213 Y1024.166
G01 X204.312 Y1000.870
G01 X188.876 Y986.545
G01 X176.958 Y982.044
G01 X174.852 Y980.804
G01 X181.321 Y973.814
G01 X188.533 Y956.448
G01 X187.994 Y931.970
G01 X176.988 Y909.068
G01 X160.635 Y895.269
G01 X148.016 Y891.235
G01 X145.291 Y890.260
G01 X151.028 Y883.353
G01 X157.289 Y866.048
G01 X155.641 Y841.797
G01 X143.553 Y819.353
G01 X126.310 Y806.141
G01 X113.016 Y802.629
G01 X109.693 Y801.973
G01 X114.716 Y795.203
G01 X120.043 Y778.020
G01 X117.309 Y754.059
G01 X104.165 Y732.136
G01 X86.062 Y719.569
G01 X72.122 Y716.633
G01 X68.227 Y716.348
G01 X72.558 Y709.769
G01 X76.974 Y692.767
G01 X73.179 Y669.157
G01 X59.010 Y647.816
G01 X40.081 Y635.951
G01 X25.529 Y633.642
G01 X21.091 Y633.777
G01 X24.756 Y627.442
G01 X28.286 Y610.676
G01 X23.459 Y587.478
G01 X8.301 Y566.778
G01 X5.000 Y564.918
G01 X5.000 Y1600.000
G01 X200.581 Y1600.000
G01 X204.792 Y1577.731
G01 X198.877 Y1555.004
G01 X188.556 Y1542.445
G01 X183.437 Y1539.549
G01 X189.092 Y1538.470
G01 X202.833 Y1529.969
G01 X215.743 Y1510.411
G01 X219.438 Y1484.530
G01 X212.415 Y1461.840
G01 X201.198 Y1449.427
G01 X195.394 Y1446.580
G01 X200.413 Y1445.329
G01 X213.365 Y1436.480
G01 X225.249 Y1416.589
G01 X227.773 Y1390.573
G01 X219.638 Y1367.985
G01 X207.525 Y1355.780
G01 X201.035 Y1353.040
G01 X205.411 Y1351.670
G01 X217.565 Y1342.534
G01 X228.414 Y1322.374
G01 X229.763 Y1296.289
G01 X220.517 Y1273.871
G01 X207.512 Y1261.935
G01 X200.338 Y1259.359
G01 X204.069 Y1257.928
G01 X215.419 Y1248.563
G01 X225.228 Y1228.198
G01 X225.402 Y1202.113
G01 X215.051 Y1179.930
G01 X201.162 Y1168.325
G01 X193.310 Y1165.970
G01 X196.398 Y1164.534
G01 X206.943 Y1154.999
G01 X215.711 Y1134.494
G01 X214.715 Y1108.476
G01 X203.267 Y1086.594
G01 X188.507 Y1075.382
G01 X179.987 Y1073.304
G01 X182.439 Y1071.918
G01 X192.182 Y1062.272
G01 X199.913 Y1041.692
G01 X197.753 Y1015.807
G01 X185.224 Y994.291
G01 X169.608 Y983.532
G01 X160.436 Y981.788
G01 X162.261 Y980.507
G01 X171.209 Y970.810
G01 X177.910 Y950.215
G01 X174.601 Y924.530
G01 X161.008 Y903.446
G01 X144.558 Y893.200
G01 X134.751 Y891.844
G01 X135.964 Y890.722
G01 X144.128 Y881.030
G01 X149.812 Y860.485
G01 X145.370 Y835.064
G01 X130.735 Y814.474
G01 X113.474 Y804.798
G01 X103.056 Y803.885
G01 X103.675 Y802.976
G01 X111.069 Y793.344
G01 X115.752 Y772.910
G01 X110.197 Y747.817
G01 X94.547 Y727.784
G01 X76.506 Y718.735
G01 X65.502 Y718.316
G01 X65.548 Y717.670
G01 X72.191 Y708.155
G01 X75.893 Y687.891
G01 X69.251 Y663.188
G01 X52.616 Y643.771
G01 X33.826 Y635.405
G01 X22.267 Y635.530
G01 X21.765 Y635.197
G01 X27.681 Y625.852
G01 X30.425 Y605.815
G01 X22.725 Y581.563
G01 X5.140 Y562.820
G01 X5.000 Y562.765
G01 X5.000 Y1600.000
G01 X160.841 Y1600.000
G01 X169.751 Y1584.516
G01 X171.389 Y1558.239
G01 X162.884 Y1538.042
G01 X152.819 Y1529.467
G01 X150.868 Y1529.227
G01 X160.462 Y1527.699
G01 X176.191 Y1516.216
G01 X187.895 Y1493.634
G01 X188.370 Y1467.206
G01 X178.823 Y1447.088
G01 X167.962 Y1438.639
G01 X165.399 Y1438.366
G01 X174.364 Y1436.563
G01 X189.253 Y1424.669
G01 X199.878 Y1401.761
G01 X199.181 Y1375.250
G01 X188.588 Y1355.273
G01 X176.929 Y1347.011
G01 X173.750 Y1346.759
G01 X182.075 Y1344.734
G01 X196.114 Y1332.491
G01 X205.648 Y1309.320
G01 X203.774 Y1282.792
G01 X192.136 Y1263.022
G01 X179.682 Y1255.004
G01 X175.886 Y1254.828
G01 X183.565 Y1252.638
G01 X196.745 Y1240.104
G01 X205.184 Y1216.736
G01 X202.132 Y1190.258
G01 X189.454 Y1170.758
G01 X176.211 Y1163.044
G01 X171.801 Y1162.999
G01 X178.834 Y1160.698
G01 X191.151 Y1147.933
G01 X198.491 Y1124.433
G01 X194.267 Y1098.072
G01 X180.557 Y1078.907
G01 X166.535 Y1071.555
G01 X161.519 Y1071.694
G01 X167.908 Y1069.338
G01 X179.362 Y1056.402
G01 X185.607 Y1032.834
G01 X180.217 Y1006.657
G01 X165.490 Y987.889
G01 X150.704 Y980.957
G01 X145.093 Y981.336
G01 X150.843 Y978.979
G01 X161.439 Y965.931
G01 X166.595 Y942.360
G01 X160.053 Y916.431
G01 X144.325 Y898.123
G01 X128.794 Y891.669
G01 X122.602 Y892.341
G01 X127.726 Y890.037
G01 X137.471 Y876.935
G01 X141.549 Y853.423
G01 X133.870 Y827.807
G01 X117.164 Y810.022
G01 X100.909 Y804.101
G01 X94.157 Y805.117
G01 X98.667 Y802.919
G01 X107.575 Y789.821
G01 X110.589 Y766.431
G01 X101.795 Y741.192
G01 X84.135 Y723.989
G01 X67.184 Y718.655
G01 X59.893 Y720.067
G01 X63.809 Y718.026
G01 X71.894 Y704.988
G01 X73.864 Y681.780
G01 X63.979 Y656.981
G01 X45.395 Y640.418
G01 X27.777 Y635.725
G01 X19.975 Y637.582
G01 X23.317 Y635.748
G01 X30.600 Y622.824
G01 X31.548 Y599.858
G01 X20.600 Y575.558
G01 X5.000 Y562.849
G01 X5.000 Y1600.000
G01 X114.664 Y1600.000
G01 X128.857 Y1588.335
G01 X139.433 Y1563.517
G01 X137.511 Y1537.697
G01 X127.020 Y1520.945
G01 X118.291 Y1516.439
G01 X120.231 Y1518.053
G01 X133.573 Y1515.000
G01 X150.314 Y1500.007
G01 X159.780 Y1474.828
G01 X156.717 Y1448.920
G01 X145.270 Y1432.276
G01 X135.847 Y1427.855
G01 X137.233 Y1429.337
G01 X149.928 Y1425.910
G01 X165.769 Y1410.467
G01 X174.111 Y1384.992
G01 X169.896 Y1359.060
G01 X157.490 Y1342.586
G01 X147.371 Y1338.306
G01 X148.194 Y1339.708
G01 X160.229 Y1335.961
G01 X175.155 Y1320.128
G01 X182.361 Y1294.421
G01 X176.992 Y1268.531
G01 X163.626 Y1252.287
G01 X152.810 Y1248.205
G01 X153.067 Y1249.580
G01 X164.434 Y1245.568
G01 X178.435 Y1229.404
G01 X184.499 Y1203.530
G01 X177.975 Y1177.749
G01 X163.654 Y1161.797
G01 X152.145 Y1157.967
G01 X151.835 Y1159.368
G01 X162.528 Y1155.147
G01 X175.598 Y1138.713
G01 X180.519 Y1112.738
G01 X172.843 Y1087.130
G01 X157.575 Y1071.532
G01 X145.382 Y1068.011
G01 X144.508 Y1069.491
G01 X154.528 Y1065.114
G01 X166.665 Y1048.471
G01 X170.443 Y1022.459
G01 X161.623 Y997.090
G01 X145.422 Y981.907
G01 X132.556 Y978.750
G01 X131.127 Y980.361
G01 X140.475 Y975.884
G01 X151.681 Y959.092
G01 X154.322 Y933.108
G01 X144.372 Y908.042
G01 X127.253 Y893.334
G01 X113.731 Y890.596
G01 X111.757 Y892.390
G01 X120.441 Y887.867
G01 X130.722 Y870.985
G01 X132.237 Y845.092
G01 X121.172 Y820.395
G01 X103.156 Y806.221
G01 X88.997 Y803.955
G01 X86.495 Y805.983
G01 X94.525 Y801.467
G01 X103.891 Y784.554
G01 X104.293 Y758.816
G01 X92.134 Y734.548
G01 X73.245 Y720.967
G01 X58.474 Y719.225
G01 X55.462 Y721.538
G01 X62.853 Y717.081
G01 X71.318 Y700.193
G01 X70.626 Y674.672
G01 X57.396 Y650.896
G01 X37.663 Y637.964
G01 X22.307 Y636.797
G01 X18.808 Y639.442
G01 X25.578 Y635.094
G01 X33.159 Y618.289
G01 X31.395 Y593.044
G01 X17.123 Y569.820
G01 X5.000 Y562.604
G01 X5.000 Y1600.000
G01 X75.022 Y1600.000
G01 X65.398 Y1588.686
G01 X59.696 Y1588.031
G01 X66.514 Y1590.757
G01 X83.746 Y1585.664
G01 X101.304 Y1567.449
G01 X108.761 Y1540.721
G01 X103.256 Y1516.518
G01 X91.660 Y1503.941
G01 X85.374 Y1503.255
G01 X91.687 Y1505.689
G01 X108.253 Y1500.083
G01 X124.862 Y1481.343
G01 X131.181 Y1454.306
G01 X124.581 Y1430.079
G01 X112.133 Y1417.621
G01 X105.252 Y1416.955
G01 X111.045 Y1419.149
G01 X126.925 Y1413.083
G01 X142.568 Y1393.877
G01 X147.734 Y1366.595
G01 X140.030 Y1342.406
G01 X126.725 Y1330.126
G01 X119.243 Y1329.533
G01 X124.505 Y1331.536
G01 X139.684 Y1325.063
G01 X154.343 Y1305.452
G01 X158.345 Y1277.989
G01 X149.534 Y1253.902
G01 X135.372 Y1241.858
G01 X127.287 Y1241.391
G01 X132.010 Y1243.255
G01 X146.475 Y1236.431
G01 X160.139 Y1216.475
G01 X162.970 Y1188.896
G01 X153.051 Y1164.975
G01 X138.036 Y1153.226
G01 X129.349 Y1152.938
G01 X133.529 Y1154.715
G01 X147.273 Y1147.593
G01 X159.935 Y1127.355
G01 X161.592 Y1099.724
G01 X150.570 Y1076.033
G01 X134.708 Y1064.638
G01 X125.424 Y1064.582
G01 X129.062 Y1066.322
G01 X142.080 Y1058.959
G01 X153.736 Y1038.499
G01 X154.222 Y1010.882
G01 X142.104 Y987.485
G01 X125.406 Y976.501
G01 X115.535 Y976.730
G01 X118.635 Y978.486
G01 X130.928 Y970.937
G01 X141.577 Y950.316
G01 X140.897 Y922.778
G01 X127.696 Y899.738
G01 X110.178 Y889.223
G01 X99.733 Y889.789
G01 X102.301 Y891.611
G01 X113.872 Y883.930
G01 X123.520 Y863.209
G01 X121.685 Y835.813
G01 X107.416 Y813.192
G01 X89.097 Y803.204
G01 X78.095 Y804.158
G01 X80.144 Y806.096
G01 X91.000 Y798.338
G01 X99.655 Y777.576
G01 X96.677 Y750.387
G01 X81.361 Y728.247
G01 X62.264 Y718.840
G01 X50.725 Y720.233
G01 X52.270 Y722.336
G01 X62.423 Y714.553
G01 X70.097 Y693.810
G01 X65.994 Y666.888
G01 X49.655 Y645.289
G01 X29.807 Y636.519
G01 X17.756 Y638.398
G01 X18.815 Y640.715
G01 X28.280 Y632.959
G01 X34.989 Y612.292
G01 X29.783 Y585.699
G01 X12.449 Y564.699
G01 X5.000 Y561.773
G01 X5.000 Y1600.000
G01 X47.407 Y1600.000
G01 X47.623 Y1598.759
G01 X39.869 Y1577.364
G01 X29.000 Y1569.363
G01 X26.685 Y1572.022
G01 X38.029 Y1574.494
G01 X57.702 Y1566.039
G01 X73.972 Y1544.165
G01 X77.598 Y1516.522
G01 X68.834 Y1495.101
G01 X57.237 Y1487.156
G01 X54.426 Y1489.699
G01 X65.279 Y1491.768
G01 X84.230 Y1482.731
G01 X99.488 Y1460.345
G01 X101.968 Y1432.460
G01 X92.182 Y1411.073
G01 X79.847 Y1403.236
G01 X76.528 Y1405.713
G01 X86.870 Y1407.429
G01 X105.078 Y1397.863
G01 X119.303 Y1375.023
G01 X120.623 Y1346.960
G01 X109.806 Y1325.667
G01 X96.728 Y1317.994
G01 X92.892 Y1320.454
G01 X102.709 Y1321.865
G01 X120.155 Y1311.824
G01 X133.330 Y1288.592
G01 X133.481 Y1260.415
G01 X121.629 Y1239.277
G01 X107.806 Y1231.822
G01 X103.448 Y1234.315
G01 X112.729 Y1235.473
G01 X129.397 Y1225.012
G01 X141.511 Y1201.449
G01 X140.484 Y1173.221
G01 X127.599 Y1152.300
G01 X113.032 Y1145.119
G01 X108.150 Y1147.696
G01 X116.887 Y1148.650
G01 X132.769 Y1137.826
G01 X143.812 Y1113.993
G01 X141.606 Y1085.780
G01 X127.690 Y1065.137
G01 X112.386 Y1058.285
G01 X106.981 Y1060.996
G01 X115.171 Y1061.797
G01 X130.259 Y1050.666
G01 X140.227 Y1026.626
G01 X136.844 Y998.491
G01 X121.906 Y978.188
G01 X105.874 Y971.721
G01 X99.953 Y974.616
G01 X107.596 Y975.316
G01 X121.887 Y963.933
G01 X130.779 Y939.747
G01 X126.225 Y911.755
G01 X110.276 Y891.854
G01 X93.530 Y885.825
G01 X87.102 Y888.956
G01 X94.202 Y889.604
G01 X107.697 Y878.024
G01 X115.517 Y853.755
G01 X109.801 Y825.970
G01 X92.857 Y806.530
G01 X75.414 Y800.994
G01 X68.494 Y804.409
G01 X75.058 Y805.055
G01 X87.762 Y793.334
G01 X94.517 Y769.042
G01 X87.654 Y741.527
G01 X69.734 Y722.607
G01 X51.615 Y717.618
G01 X44.219 Y721.365
G01 X50.259 Y722.059
G01 X62.180 Y710.251
G01 X67.881 Y685.996
G01 X59.888 Y658.812
G01 X41.017 Y640.472
G01 X22.247 Y636.081
G01 X14.395 Y640.207
G01 X19.926 Y640.996
G01 X31.076 Y629.155
G01 X35.738 Y604.996
G01 X26.637 Y578.204
G01 X6.843 Y560.500
G01 X5.000 Y560.144
G01 X5.000 Y1600.000
G01 X12.691 Y1600.000
G01 X13.786 Y1598.184
G01 X14.274 Y1571.050
G01 X5.000 Y1555.414
G01 X5.000 Y1555.877
G01 X11.739 Y1556.293
G01 X32.761 Y1543.817
G01 X46.539 Y1518.722
G01 X45.917 Y1491.365
G01 X34.566 Y1473.790
G01 X24.208 Y1470.599
G01 X25.728 Y1475.465
G01 X40.929 Y1475.924
G01 X61.160 Y1462.822
G01 X73.870 Y1437.252
G01 X72.121 Y1409.733
G01 X59.844 Y1392.237
G01 X48.867 Y1389.117
G01 X49.946 Y1393.811
G01 X64.620 Y1393.808
G01 X84.035 Y1380.133
G01 X95.657 Y1354.149
G01 X92.767 Y1326.529
G01 X79.557 Y1309.168
G01 X67.953 Y1306.172
G01 X68.580 Y1310.741
G01 X82.707 Y1310.324
G01 X101.286 Y1296.131
G01 X111.803 Y1269.794
G01 X107.763 Y1242.135
G01 X93.615 Y1224.969
G01 X81.381 Y1222.147
G01 X81.546 Y1226.638
G01 X95.114 Y1225.858
G01 X112.840 Y1211.203
G01 X122.239 Y1184.574
G01 X117.044 Y1156.940
G01 X101.958 Y1140.026
G01 X89.093 Y1137.430
G01 X88.792 Y1141.893
G01 X101.788 Y1140.800
G01 X118.649 Y1125.739
G01 X126.921 Y1098.881
G01 X120.568 Y1071.335
G01 X104.548 Y1054.732
G01 X91.056 Y1052.415
G01 X90.288 Y1056.897
G01 X102.706 Y1055.541
G01 X118.693 Y1040.132
G01 X125.833 Y1013.107
G01 X118.325 Y985.711
G01 X101.377 Y969.479
G01 X87.266 Y967.492
G01 X86.032 Y972.043
G01 X97.869 Y970.475
G01 X112.977 Y954.774
G01 X118.984 Y927.645
G01 X110.327 Y900.463
G01 X92.464 Y884.660
G01 X77.744 Y883.055
G01 X76.051 Y887.723
G01 X87.306 Y885.993
G01 X101.533 Y870.057
G01 X106.411 Y842.885
G01 X96.615 Y815.981
G01 X77.852 Y800.664
G01 X62.539 Y799.493
G01 X60.395 Y804.324
G01 X71.074 Y802.483
G01 X84.423 Y786.369
G01 X88.178 Y759.217
G01 X77.256 Y732.652
G01 X57.612 Y717.878
G01 X41.725 Y717.191
G01 X39.144 Y722.233
G01 X49.253 Y720.330
G01 X61.730 Y704.092
G01 X64.373 Y677.021
G01 X52.345 Y650.856
G01 X31.842 Y636.682
G01 X15.402 Y636.527
G01 X12.402 Y641.827
G01 X21.952 Y639.910
G01 X33.567 Y623.604
G01 X35.113 Y596.673
G01 X21.999 Y570.968
G01 X5.000 Y560.195
G01 X5.000 Y1521.816
G01 X8.533 Y1518.994
G01 X18.743 Y1491.467
G01 X13.811 Y1465.720
G01 X5.000 Y1456.960
G01 X5.000 Y1459.491
G01 X18.437 Y1457.831
G01 X38.650 Y1440.353
G01 X47.753 Y1412.415
G01 X41.743 Y1386.587
G01 X27.985 Y1373.818
G01 X19.636 Y1375.135
G01 X25.672 Y1380.864
G01 X44.085 Y1377.961
G01 X63.403 Y1359.896
G01 X71.379 Y1331.606
G01 X64.277 Y1305.756
G01 X49.701 Y1293.144
G01 X40.837 Y1294.516
G01 X46.460 Y1300.001
G01 X64.281 Y1296.589
G01 X82.682 Y1277.991
G01 X89.516 Y1249.410
G01 X81.313 Y1223.600
G01 X65.914 Y1211.200
G01 X56.529 Y1212.675
G01 X61.727 Y1217.961
G01 X78.939 Y1214.089
G01 X96.406 Y1195.016
G01 X102.084 Y1166.206
G01 X92.776 Y1140.495
G01 X76.553 Y1128.362
G01 X66.644 Y1129.990
G01 X71.407 Y1135.124
G01 X87.997 Y1130.842
G01 X104.515 Y1111.351
G01 X109.029 Y1082.375
G01 X98.614 Y1056.825
G01 X81.571 Y1045.015
G01 X71.139 Y1046.844
G01 X75.463 Y1051.872
G01 X91.419 Y1047.232
G01 X106.978 Y1027.380
G01 X110.324 Y998.300
G01 X98.804 Y972.974
G01 X80.947 Y961.541
G01 X69.998 Y963.620
G01 X73.881 Y968.590
G01 X89.197 Y963.643
G01 X103.791 Y943.489
G01 X105.967 Y914.368
G01 X93.350 Y889.325
G01 X74.689 Y878.327
G01 X63.230 Y880.705
G01 X66.675 Y885.664
G01 X81.347 Y880.460
G01 X94.973 Y860.061
G01 X95.982 Y830.962
G01 X82.279 Y806.265
G01 X62.829 Y795.754
G01 X50.871 Y798.479
G01 X53.883 Y803.474
G01 X67.913 Y798.065
G01 X80.572 Y777.479
G01 X80.422 Y748.463
G01 X65.645 Y724.172
G01 X45.424 Y714.204
G01 X32.984 Y717.324
G01 X35.573 Y722.400
G01 X48.964 Y716.836
G01 X60.661 Y696.121
G01 X59.362 Y667.249
G01 X43.531 Y643.423
G01 X22.560 Y634.051
G01 X9.657 Y637.613
G01 X11.834 Y642.815
G01 X24.595 Y637.146
G01 X35.337 Y616.357
G01 X32.905 Y587.690
G01 X16.041 Y564.389
G01 X5.000 Y559.948
G01 X5.000 Y1428.546
G01 X16.300 Y1415.457
G01 X20.977 Y1386.271
G01 X11.065 Y1363.462
G01 X5.000 Y1360.205
G01 X5.000 Y1366.050
G01 X24.951 Y1359.641
G01 X42.782 Y1337.286
G01 X46.318 Y1307.831
G01 X35.392 Y1285.073
G01 X20.716 Y1277.716
G01 X15.763 Y1282.768
G01 X26.558 Y1287.813
G01 X47.108 Y1280.413
G01 X63.944 Y1257.543
G01 X66.324 Y1227.879
G01 X54.377 Y1205.230
G01 X39.005 Y1198.076
G01 X33.626 Y1203.136
G01 X44.003 Y1207.856
G01 X63.873 Y1199.922
G01 X79.695 Y1176.593
G01 X80.908 Y1146.781
G01 X67.934 Y1124.300
G01 X51.864 Y1117.401
G01 X46.054 Y1122.514
G01 X56.000 Y1126.955
G01 X75.174 Y1118.538
G01 X89.968 Y1094.808
G01 X90.004 Y1064.910
G01 X76.003 Y1042.656
G01 X59.238 Y1036.063
G01 X52.994 Y1041.275
G01 X62.500 Y1045.484
G01 X80.965 Y1036.634
G01 X94.719 Y1012.563
G01 X93.576 Y982.641
G01 X78.550 Y960.673
G01 X61.095 Y954.438
G01 X54.418 Y959.796
G01 X63.480 Y963.818
G01 X81.226 Y954.589
G01 X93.933 Y930.235
G01 X91.610 Y900.351
G01 X75.567 Y878.727
G01 X57.430 Y872.904
G01 X50.326 Y878.453
G01 X58.941 Y882.335
G01 X75.962 Y872.778
G01 X87.619 Y848.201
G01 X84.120 Y818.417
G01 X67.071 Y797.197
G01 X48.265 Y791.835
G01 X40.742 Y797.623
G01 X48.912 Y801.410
G01 X65.206 Y791.577
G01 X75.813 Y766.835
G01 X71.145 Y737.213
G01 X53.104 Y716.455
G01 X33.645 Y711.607
G01 X25.716 Y717.677
G01 X33.446 Y721.417
G01 X49.015 Y711.358
G01 X58.575 Y686.511
G01 X52.749 Y657.112
G01 X33.734 Y636.873
G01 X13.642 Y632.588
G01 X5.321 Y638.986
G01 X12.620 Y642.722
G01 X27.469 Y632.490
G01 X35.991 Y607.594
G01 X29.023 Y578.478
G01 X9.055 Y558.814
G01 X5.000 Y558.095
G01 X5.000 Y540.974
G01 X8.171 Y530.445
G01 X5.000 Y519.170
G01 X5.000 Y1339.625
G01 X6.819 Y1338.709
G01 X21.805 Y1312.571
G01 X20.442 Y1283.318
G01 X6.470 Y1264.851
G01 X5.000 Y1264.633
G01 X5.000 Y1272.996
G01 X8.766 Y1273.760
G01 X30.787 Y1261.665
G01 X44.709 Y1235.058
G01 X42.207 Y1205.689
G01 X27.317 Y1187.386
G01 X13.387 Y1185.573
G01 X12.956 Y1193.157
G01 X28.254 Y1195.906
G01 X49.510 Y1183.230
G01 X62.350 Y1156.210
G01 X58.697 Y1126.785
G01 X42.887 Y1108.702
G01 X28.389 Y1107.101
G01 X27.596 Y1114.620
G01 X42.437 Y1116.969
G01 X62.908 Y1103.762
G01 X74.652 Y1076.391
G01 X69.842 Y1046.970
G01 X53.110 Y1029.161
G01 X38.043 Y1027.822
G01 X36.884 Y1035.318
G01 X51.255 Y1037.313
G01 X70.926 Y1023.629
G01 X81.562 Y995.964
G01 X75.592 Y966.608
G01 X57.942 Y949.131
G01 X42.310 Y948.101
G01 X40.781 Y955.619
G01 X54.674 Y957.306
G01 X73.533 Y943.197
G01 X83.055 Y915.299
G01 X75.925 Y886.069
G01 X57.364 Y868.980
G01 X41.173 Y868.307
G01 X39.276 Y875.891
G01 X52.685 Y877.316
G01 X70.725 Y862.837
G01 X79.128 Y834.765
G01 X70.843 Y805.723
G01 X51.381 Y789.076
G01 X34.642 Y788.810
G01 X32.382 Y796.504
G01 X45.304 Y797.713
G01 X62.520 Y782.916
G01 X69.805 Y754.731
G01 X60.373 Y725.936
G01 X40.024 Y709.788
G01 X22.751 Y709.975
G01 X20.136 Y717.823
G01 X32.573 Y718.862
G01 X48.965 Y703.800
G01 X55.136 Y675.561
G01 X44.568 Y647.074
G01 X23.350 Y631.479
G01 X5.560 Y632.167
G01 X5.000 Y633.690
G01 X5.000 Y640.395
G01 X14.558 Y641.126
G01 X30.129 Y625.852
G01 X35.192 Y597.617
G01 X23.505 Y569.498
G01 X5.000 Y556.928
G01 X5.000 Y550.584
G01 X6.105 Y549.428
G01 X10.073 Y521.255
G01 X5.000 Y510.269
G01 X5.000 Y1248.019
G01 X14.868 Y1240.344
G01 X24.688 Y1210.923
G01 X17.278 Y1183.346
G01 X5.000 Y1173.764
G01 X5.000 Y1182.006
G01 X14.231 Y1181.745
G01 X35.398 Y1164.016
G01 X44.089 Y1134.258
G01 X35.578 Y1106.717
G01 X18.099 Y1093.945
G01 X6.601 Y1097.287
G01 X11.424 Y1105.860
G01 X30.459 Y1104.800
G01 X50.746 Y1086.527
G01 X58.293 Y1056.491
G01 X48.677 Y1029.046
G01 X30.402 Y1016.574
G01 X18.456 Y1020.100
G01 X22.950 Y1028.516
G01 X41.457 Y1026.996
G01 X60.848 Y1008.232
G01 X67.240 Y977.977
G01 X56.516 Y950.687
G01 X37.449 Y938.568
G01 X25.056 Y942.324
G01 X29.215 Y950.626
G01 X47.181 Y948.692
G01 X65.663 Y929.492
G01 X70.893 Y899.078
G01 X59.063 Y872.002
G01 X39.210 Y860.287
G01 X26.374 Y864.319
G01 X30.195 Y872.549
G01 X47.612 Y870.248
G01 X65.175 Y850.666
G01 X69.241 Y820.155
G01 X56.310 Y793.351
G01 X35.681 Y782.094
G01 X22.409 Y786.445
G01 X25.893 Y794.646
G01 X42.755 Y792.025
G01 X59.394 Y772.117
G01 X62.296 Y741.567
G01 X48.272 Y715.096
G01 X26.881 Y704.347
G01 X13.184 Y709.063
G01 X16.335 Y717.277
G01 X32.640 Y714.383
G01 X48.353 Y694.203
G01 X50.095 Y663.674
G01 X34.992 Y637.593
