; file trimmed by trimify2x.pl
; Created by Sandify
; 
;   https://sandify.org
; 
;   Sandify Version: 0.1.4
; 
;   Machine Type: Rectangular
;     MinX: 5 MaxX: 710 MinY: 5 MaxY: 1600
;   Content Type: Shapes
;     Starting Size: 576
;     Offset: X: 1 Y: -1069
;     Selected Shape: Reuleaux
;       Reuleaux Sides: 3.3
;     Number of Loops: 121
;     Spin: true
;       Spin Value: -0.6
;       Spin Switchbacks: 1
;     Grow: true
;       Grow Value: 5.2
;     Track: true
;       Track Size: 53
;       Track Length: 880.7
;       Track Grow: true
;           Track Grow Value: -22
;   Path Reversed: true
;  35:17
; filename: 'rolo1'

; BEGIN PRE
G28  Y
G28 X
G01 F30000; END PRE
G01 X710.000 Y1600.000
G01 X88.017 Y1600.000
G01 X87.929 Y1599.817
G01 X87.174 Y1600.000
G01 X97.759 Y1600.000
G01 X98.085 Y1597.853
G01 X76.031 Y1583.100
G01 X54.914 Y1600.000
G01 X96.377 Y1600.000
G01 X90.390 Y1573.045
G01 X63.447 Y1572.751
G01 X46.628 Y1600.000
G01 X88.672 Y1600.000
G01 X96.760 Y1574.343
G01 X79.557 Y1553.853
G01 X51.949 Y1568.559
G01 X43.185 Y1600.000
G01 X77.568 Y1600.000
G01 X91.666 Y1582.912
G01 X91.001 Y1547.883
G01 X67.279 Y1540.762
G01 X43.159 Y1569.845
G01 X42.299 Y1600.000
G01 X63.541 Y1600.000
G01 X73.531 Y1593.702
G01 X93.394 Y1551.892
G01 X81.519 Y1526.501
G01 X55.290 Y1533.777
G01 X38.432 Y1575.528
G01 X43.169 Y1600.000
G01 X44.428 Y1600.000
G01 X83.893 Y1561.507
G01 X89.722 Y1524.146
G01 X69.891 Y1510.868
G01 X45.240 Y1532.436
G01 X38.760 Y1584.216
G01 X45.354 Y1600.000
G01 X5.799 Y1600.000
G01 X61.607 Y1571.661
G01 X88.027 Y1530.303
G01 X81.830 Y1500.888
G01 X57.794 Y1501.194
G01 X38.564 Y1535.853
G01 X44.709 Y1594.320
G01 X48.513 Y1600.000
G01 X343.847 Y1600.000
G01 X325.107 Y1589.046
G01 X314.316 Y1600.000
G01 X5.000 Y1600.000
G01 X5.000 Y1581.845
G01 X27.679 Y1577.412
G01 X74.238 Y1540.401
G01 X86.540 Y1501.644
G01 X71.163 Y1482.950
G01 X46.872 Y1497.224
G01 X36.384 Y1542.803
G01 X55.022 Y1600.000
G01 X342.274 Y1600.000
G01 X335.557 Y1575.643
G01 X312.222 Y1577.503
G01 X301.885 Y1600.000
G01 X5.000 Y1600.000
G01 X5.000 Y1566.725
G01 X48.129 Y1549.446
G01 X80.724 Y1509.386
G01 X80.430 Y1476.842
G01 X59.313 Y1470.733
G01 X38.617 Y1498.276
G01 X39.434 Y1551.819
G01 X66.568 Y1600.000
G01 X333.025 Y1600.000
G01 X339.613 Y1573.307
G01 X323.462 Y1555.898
G01 X300.862 Y1571.496
G01 X296.558 Y1600.000
G01 X5.000 Y1600.000
G01 X5.000 Y1553.538
G01 X11.419 Y1552.820
G01 X62.838 Y1519.435
G01 X81.470 Y1480.187
G01 X70.991 Y1456.868
G01 X47.897 Y1464.185
G01 X34.255 Y1503.298
G01 X48.011 Y1561.315
G01 X80.760 Y1600.000
G01 X318.650 Y1600.000
G01 X333.779 Y1578.577
G01 X331.479 Y1546.516
G01 X310.578 Y1541.871
G01 X292.443 Y1570.246
G01 X295.174 Y1600.000
G01 X5.000 Y1600.000
G01 X5.000 Y1535.564
G01 X33.287 Y1526.954
G01 X71.576 Y1488.960
G01 X77.282 Y1454.185
G01 X59.714 Y1442.296
G01 X38.434 Y1462.822
G01 X34.664 Y1510.963
G01 X61.968 Y1569.706
G01 X99.098 Y1600.000
G01 X298.917 Y1600.000
G01 X316.219 Y1586.961
G01 X332.037 Y1547.003
G01 X320.385 Y1524.720
G01 X298.488 Y1533.397
G01 X288.093 Y1572.631
G01 X296.826 Y1600.000
G01 X585.685 Y1600.000
G01 X584.790 Y1593.357
G01 X564.200 Y1590.119
G01 X558.894 Y1600.000
G01 X5.000 Y1600.000
G01 X5.000 Y1522.079
G01 X49.848 Y1498.467
G01 X74.551 Y1459.585
G01 X69.297 Y1432.469
G01 X48.163 Y1433.266
G01 X32.228 Y1465.775
G01 X40.319 Y1519.778
G01 X80.737 Y1575.531
G01 X125.086 Y1600.000
G01 X270.552 Y1600.000
G01 X287.001 Y1593.682
G01 X322.202 Y1553.592
G01 X325.642 Y1518.938
G01 X307.835 Y1508.375
G01 X288.648 Y1529.889
G01 X288.581 Y1577.286
G01 X301.311 Y1600.000
G01 X581.736 Y1600.000
G01 X584.599 Y1591.085
G01 X571.864 Y1569.887
G01 X551.235 Y1579.796
G01 X547.514 Y1600.000
G01 X5.000 Y1600.000
G01 X5.000 Y1506.756
G01 X17.279 Y1504.105
G01 X60.696 Y1468.859
G01 X72.378 Y1432.734
G01 X58.883 Y1415.766
G01 X37.857 Y1429.488
G01 X30.283 Y1471.868
G01 X51.262 Y1528.198
G01 X103.385 Y1577.557
G01 X169.686 Y1600.000
G01 X194.723 Y1600.000
G01 X248.028 Y1594.431
G01 X300.771 Y1561.734
G01 X322.569 Y1521.732
G01 X315.789 Y1495.368
G01 X295.375 Y1497.507
G01 X282.279 Y1530.401
G01 X294.263 Y1582.709
G01 X308.905 Y1600.000
G01 X571.190 Y1600.000
G01 X574.597 Y1595.537
G01 X575.814 Y1561.150
G01 X557.862 Y1551.890
G01 X540.798 Y1574.203
G01 X542.749 Y1600.000
G01 X5.000 Y1600.000
G01 X5.000 Y1490.147
G01 X35.440 Y1477.379
G01 X65.849 Y1439.657
G01 X66.025 Y1409.588
G01 X47.531 Y1404.392
G01 X30.156 Y1430.279
G01 X33.227 Y1479.719
G01 X67.118 Y1534.751
G01 X128.693 Y1574.872
G01 X202.686 Y1586.039
G01 X268.404 Y1566.840
G01 X308.815 Y1529.110
G01 X318.027 Y1492.733
G01 X303.875 Y1476.908
G01 X284.477 Y1491.720
G01 X280.279 Y1533.706
G01 X305.070 Y1587.382
G01 X320.570 Y1600.000
G01 X554.363 Y1600.000
G01 X572.148 Y1561.422
G01 X563.920 Y1535.892
G01 X544.305 Y1539.277
G01 X534.018 Y1572.324
G01 X542.636 Y1600.000
G01 X5.000 Y1600.000
G01 X5.000 Y1477.721
G01 X48.218 Y1448.930
G01 X65.734 Y1412.305
G01 X56.726 Y1391.005
G01 X36.737 Y1398.247
G01 X26.161 Y1434.624
G01 X41.285 Y1487.848
G01 X87.132 Y1538.143
G01 X155.262 Y1566.936
G01 X227.471 Y1565.009
G01 X283.793 Y1536.551
G01 X311.263 Y1497.311
G01 X309.612 Y1467.686
G01 X291.385 Y1463.762
G01 X276.426 Y1490.246
G01 X283.166 Y1538.401
G01 X320.526 Y1589.887
G01 X338.907 Y1600.000
G01 X527.461 Y1600.000
G01 X558.288 Y1566.945
G01 X565.051 Y1530.484
G01 X550.332 Y1515.813
G01 X532.607 Y1531.556
G01 X531.688 Y1572.889
G01 X546.815 Y1600.000
G01 X5.000 Y1600.000
G01 X5.000 Y1460.858
G01 X19.795 Y1456.071
G01 X55.453 Y1420.230
G01 X61.145 Y1388.051
G01 X45.877 Y1377.466
G01 X27.889 Y1396.831
G01 X26.640 Y1441.266
G01 X54.265 Y1494.792
G01 X110.240 Y1537.352
G01 X181.619 Y1553.619
G01 X248.713 Y1539.729
G01 X293.742 Y1504.974
G01 X308.640 Y1467.720
G01 X298.598 Y1447.345
G01 X279.781 Y1455.722
G01 X272.229 Y1492.009
G01 X291.052 Y1543.018
G01 X339.798 Y1589.009
G01 X372.324 Y1600.000
G01 X488.697 Y1600.000
G01 X533.351 Y1573.321
G01 X557.819 Y1532.790
G01 X554.402 Y1503.719
G01 X536.524 Y1501.005
G01 X523.974 Y1527.879
G01 X534.215 Y1574.485
G01 X555.862 Y1600.000
G01 X5.000 Y1600.000
G01 X5.000 Y1444.961
G01 X34.290 Y1429.038
G01 X57.391 Y1392.717
G01 X53.169 Y1367.865
G01 X34.930 Y1369.045
G01 X22.164 Y1399.297
G01 X31.979 Y1448.808
G01 X71.592 Y1499.222
G01 X135.157 Y1531.700
G01 X206.334 Y1535.196
G01 X265.463 Y1511.306
G01 X298.200 Y1473.566
G01 X301.815 Y1441.508
G01 X286.390 Y1432.077
G01 X270.389 Y1452.197
G01 X272.547 Y1495.721
G01 X303.643 Y1546.138
G01 X361.766 Y1583.825
G01 X433.151 Y1594.659
G01 X498.230 Y1576.227
G01 X540.220 Y1538.879
G01 X552.498 Y1501.184
G01 X541.505 Y1481.773
G01 X523.916 Y1491.160
G01 X519.317 Y1527.118
G01 X541.601 Y1575.664
G01 X571.637 Y1600.000
G01 X5.000 Y1600.000
G01 X5.000 Y1432.904
G01 X43.474 Y1401.143
G01 X54.650 Y1367.683
G01 X43.094 Y1352.369
G01 X25.278 Y1365.424
G01 X20.445 Y1404.524
G01 X42.164 Y1455.823
G01 X92.362 Y1500.032
G01 X160.485 Y1520.891
G01 X228.129 Y1512.311
G01 X277.124 Y1481.044
G01 X297.514 Y1443.721
G01 X291.926 Y1419.544
G01 X274.418 Y1421.853
G01 X264.302 Y1452.270
G01 X277.658 Y1499.983
G01 X320.280 Y1546.498
G01 X385.122 Y1573.763
G01 X455.399 Y1572.091
G01 X511.957 Y1544.420
G01 X541.683 Y1505.016
G01 X543.265 Y1473.210
G01 X527.766 Y1464.906
G01 X513.764 Y1485.600
G01 X519.190 Y1527.961
G01 X553.456 Y1575.056
G01 X599.079 Y1600.000
G01 X5.000 Y1600.000
G01 X5.000 Y1415.221
G01 X19.079 Y1409.070
G01 X47.415 Y1373.794
G01 X48.163 Y1346.186
G01 X32.307 Y1341.804
G01 X18.148 Y1365.924
G01 X23.267 Y1411.215
G01 X56.798 Y1460.967
G01 X115.421 Y1496.423
G01 X184.819 Y1505.023
G01 X245.966 Y1485.917
G01 X283.481 Y1450.336
G01 X292.384 Y1416.660
G01 X280.282 Y1402.346
G01 X264.024 Y1416.259
G01 X262.304 Y1454.780
G01 X287.446 Y1503.399
G01 X339.994 Y1543.081
G01 X408.473 Y1558.636
G01 X474.427 Y1545.379
G01 X520.527 Y1511.195
G01 X538.179 Y1473.073
G01 X531.298 Y1449.640
G01 X514.585 Y1452.985
G01 X507.073 Y1483.349
G01 X523.764 Y1529.018
G01 X569.041 Y1571.470
G01 X634.743 Y1593.509
G01 X703.750 Y1586.819
G01 X710.000 Y1583.190
G01 X710.000 Y1600.000
G01 X5.000 Y1600.000
G01 X5.000 Y1399.293
G01 X30.041 Y1382.251
G01 X46.560 Y1348.306
G01 X39.096 Y1328.970
G01 X22.181 Y1336.025
G01 X14.521 Y1369.573
G01 X30.780 Y1418.001
G01 X75.139 Y1463.075
G01 X139.459 Y1487.950
G01 X206.857 Y1484.569
G01 X259.120 Y1457.200
G01 X284.704 Y1420.561
G01 X283.802 Y1393.353
G01 X268.258 Y1390.050
G01 X256.363 Y1414.539
G01 X264.824 Y1458.417
G01 X301.422 Y1504.679
G01 X361.597 Y1535.188
G01 X430.450 Y1538.642
G01 X489.289 Y1515.533
G01 X523.832 Y1477.936
G01 X530.486 Y1444.198
G01 X517.917 Y1430.885
G01 X503.247 Y1445.505
G01 X504.529 Y1483.210
G01 X532.823 Y1528.928
G01 X587.334 Y1563.982
G01 X655.763 Y1574.290
G01 X710.000 Y1559.249
G01 X710.000 Y1600.000
G01 X5.000 Y1600.000
G01 X5.000 Y1386.663
G01 X35.895 Y1355.372
G01 X41.683 Y1325.799
G01 X28.751 Y1316.429
G01 X13.974 Y1334.521
G01 X15.055 Y1375.188
G01 X42.758 Y1423.545
G01 X96.172 Y1461.247
G01 X163.118 Y1474.545
G01 X225.494 Y1460.324
G01 X267.226 Y1427.472
G01 X281.328 Y1392.971
G01 X272.966 Y1374.445
G01 X257.191 Y1382.412
G01 X252.323 Y1415.671
G01 X271.911 Y1461.828
G01 X318.774 Y1502.738
G01 X383.772 Y1522.480
G01 X449.812 Y1514.340
G01 X499.361 Y1483.768
G01 X522.141 Y1445.978
G01 X519.647 Y1419.267
G01 X504.483 Y1416.978
G01 X494.829 Y1441.644
G01 X506.456 Y1483.870
G01 X545.795 Y1526.466
G01 X607.118 Y1551.993
G01 X675.050 Y1550.424
G01 X710.000 Y1533.731
G01 X710.000 Y1600.000
G01 X5.000 Y1600.000
G01 X5.000 Y1369.180
G01 X15.299 Y1363.426
G01 X36.918 Y1329.745
G01 X33.816 Y1307.123
G01 X18.464 Y1308.578
G01 X8.736 Y1336.472
G01 X20.056 Y1381.471
G01 X58.624 Y1426.645
G01 X118.693 Y1454.907
G01 X185.096 Y1456.513
G01 X239.900 Y1433.342
G01 X270.291 Y1398.073
G01 X274.193 Y1368.610
G01 X261.181 Y1360.224
G01 X248.276 Y1378.841
G01 X252.465 Y1418.446
G01 X283.244 Y1463.719
G01 X338.444 Y1496.769
G01 X405.185 Y1504.989
G01 X465.535 Y1486.593
G01 X504.381 Y1451.397
G01 X516.068 Y1416.513
G01 X506.882 Y1398.826
G01 X492.286 Y1407.584
G01 X490.128 Y1440.333
G01 X512.802 Y1483.998
G01 X561.805 Y1520.626
G01 X627.080 Y1535.268
G01 X691.429 Y1522.548
G01 X710.000 Y1509.200
G01 X710.000 Y1600.000
G01 X5.000 Y1600.000
G01 X5.000 Y1352.279
G01 X22.937 Y1337.297
G01 X33.726 Y1306.534
G01 X24.164 Y1292.802
G01 X9.499 Y1305.074
G01 X7.237 Y1340.819
G01 X29.457 Y1387.115
G01 X77.507 Y1426.323
G01 X141.409 Y1443.835
G01 X204.242 Y1434.491
G01 X249.576 Y1404.840
G01 X268.683 Y1370.268
G01 X264.374 Y1348.235
G01 X249.756 Y1350.611
G01 X242.483 Y1378.459
G01 X256.992 Y1421.572
G01 X298.172 Y1462.957
G01 X359.209 Y1486.295
G01 X424.584 Y1483.110
G01 X476.884 Y1456.491
G01 X504.455 Y1419.733
G01 X506.513 Y1390.500
G01 X493.491 Y1383.064
G01 X482.454 Y1402.037
G01 X489.603 Y1440.350
G01 X523.161 Y1482.354
G01 X579.757 Y1510.696
G01 X645.915 Y1513.938
G01 X703.963 Y1491.584
G01 X710.000 Y1485.301
G01 X710.000 Y1600.000
G01 X5.000 Y1600.000
G01 X5.000 Y1337.624
G01 X25.790 Y1311.834
G01 X27.210 Y1286.670
G01 X14.006 Y1283.006
G01 X5.000 Y1301.137
G01 X5.000 Y1317.321
G01 X9.916 Y1346.356
G01 X42.846 Y1390.905
G01 X98.322 Y1421.888
G01 X163.037 Y1428.174
G01 X219.643 Y1409.393
G01 X254.375 Y1376.103
G01 X263.089 Y1345.151
G01 X253.087 Y1332.270
G01 X239.904 Y1345.175
G01 X240.486 Y1380.171
G01 X265.745 Y1423.777
G01 X315.771 Y1458.649
G01 X379.788 Y1471.197
G01 X440.888 Y1457.552
G01 X483.458 Y1425.264
G01 X500.036 Y1389.987
G01 X494.584 Y1368.602
G01 X480.750 Y1371.804
G01 X475.872 Y1399.404
G01 X493.360 Y1440.415
G01 X536.810 Y1477.875
G01 X598.421 Y1496.300
G01 X662.426 Y1488.481
G01 X710.000 Y1459.863
G01 X710.000 Y1600.000
G01 X5.000 Y1600.000
G01 X5.000 Y1321.970
G01 X8.669 Y1319.432
G01 X24.314 Y1288.221
G01 X18.467 Y1270.793
G01 X5.000 Y1277.349
G01 X5.000 Y1321.672
G01 X16.860 Y1351.823
G01 X59.500 Y1391.804
G01 X119.854 Y1412.985
G01 X182.404 Y1408.404
G01 X230.681 Y1382.328
G01 X254.506 Y1348.384
G01 X254.453 Y1323.569
G01 X241.598 Y1320.788
G01 X232.654 Y1343.186
G01 X242.627 Y1382.764
G01 X278.229 Y1423.899
G01 X334.927 Y1450.200
G01 X398.936 Y1451.710
G01 X453.272 Y1429.277
G01 X485.211 Y1394.181
G01 X491.878 Y1363.179
G01 X481.505 Y1351.145
G01 X469.816 Y1364.539
G01 X473.120 Y1398.568
G01 X501.149 Y1439.294
G01 X552.780 Y1469.756
G01 X616.533 Y1477.417
G01 X675.610 Y1459.671
G01 X710.000 Y1429.599
G01 X710.000 Y1372.373
G01 X709.779 Y1372.440
G01 X707.221 Y1399.600
G01 X710.000 Y1404.916
G01 X710.000 Y1600.000
G01 X5.000 Y1600.000
G01 X5.000 Y1302.792
G01 X13.263 Y1294.415
G01 X19.259 Y1267.451
G01 X8.699 Y1259.210
G01 X5.000 Y1264.514
G01 X5.000 Y1320.192
G01 X27.811 Y1356.010
G01 X78.457 Y1389.029
G01 X140.861 Y1399.604
G01 X198.532 Y1385.296
G01 X237.072 Y1354.510
G01 X250.504 Y1322.807
G01 X243.892 Y1306.067
G01 X231.116 Y1313.516
G01 X228.776 Y1343.673
G01 X248.900 Y1385.002
G01 X293.662 Y1420.979
G01 X354.426 Y1437.350
G01 X415.541 Y1428.390
G01 X461.212 Y1399.416
G01 X482.439 Y1364.452
G01 X480.967 Y1340.070
G01 X468.517 Y1338.108
G01 X461.640 Y1360.476
G01 X474.444 Y1398.315
G01 X512.400 Y1435.889
G01 X569.938 Y1457.496
G01 X632.893 Y1454.366
G01 X684.729 Y1428.510
G01 X710.000 Y1396.626
G01 X710.000 Y1352.059
G01 X707.771 Y1349.723
G01 X697.575 Y1363.463
G01 X703.466 Y1396.323
G01 X710.000 Y1404.390
G01 X710.000 Y1600.000
G01 X5.000 Y1600.000
G01 X5.000 Y1283.671
G01 X13.493 Y1270.693
G01 X11.599 Y1250.260
G01 X5.000 Y1251.120
G01 X5.000 Y1317.899
G01 X42.197 Y1357.844
G01 X98.598 Y1382.102
G01 X160.168 Y1382.073
G01 X210.707 Y1359.841
G01 X238.876 Y1327.159
G01 X243.176 Y1300.290
G01 X232.607 Y1292.858
G01 X222.706 Y1309.870
G01 X228.734 Y1345.515
G01 X258.962 Y1385.719
G01 X311.046 Y1414.323
G01 X373.054 Y1420.183
G01 X428.705 Y1402.063
G01 X464.522 Y1369.176
G01 X475.749 Y1337.139
G01 X468.436 Y1321.110
G01 X456.784 Y1329.134
G01 X456.905 Y1358.612
G01 X479.745 Y1397.437
G01 X526.279 Y1429.318
G01 X587.078 Y1440.933
G01 X646.456 Y1427.777
G01 X689.356 Y1396.144
G01 X707.960 Y1360.358
G01 X705.127 Y1336.485
G01 X693.129 Y1335.274
G01 X688.266 Y1357.439
G01 X703.703 Y1393.344
G01 X710.000 Y1398.681
G01 X710.000 Y1600.000
G01 X5.000 Y1600.000
G01 X5.000 Y1262.531
G01 X9.964 Y1249.301
G01 X5.000 Y1241.224
G01 X5.000 Y1306.484
G01 X13.501 Y1322.107
G01 X59.186 Y1356.470
G01 X118.738 Y1370.876
G01 X176.754 Y1361.018
G01 X218.520 Y1333.166
G01 X236.475 Y1301.412
G01 X233.530 Y1281.479
G01 X221.785 Y1283.816
G01 X217.217 Y1309.010
G01 X232.662 Y1347.530
G01 X272.175 Y1383.910
G01 X329.252 Y1403.545
G01 X389.684 Y1399.106
G01 X437.801 Y1373.752
G01 X463.350 Y1339.749
G01 X465.997 Y1313.079
G01 X455.475 Y1306.418
G01 X447.306 Y1323.575
G01 X455.983 Y1357.816
G01 X488.605 Y1394.821
G01 X541.759 Y1418.979
G01 X603.019 Y1420.237
G01 X656.404 Y1398.523
G01 X689.397 Y1363.767
G01 X698.437 Y1331.548
G01 X690.488 Y1316.246
G01 X679.974 Y1324.729
G01 X682.445 Y1353.337
G01 X707.747 Y1389.489
G01 X710.000 Y1390.791
G01 X710.000 Y1600.000
G01 X5.000 Y1600.000
G01 X5.000 Y1299.257
G01 X25.622 Y1324.596
G01 X77.765 Y1351.305
G01 X137.717 Y1355.530
G01 X189.824 Y1337.305
G01 X221.891 Y1306.447
G01 X230.540 Y1278.236
G01 X222.688 Y1266.712
G01 X212.512 Y1278.504
G01 X215.218 Y1309.918
G01 X240.365 Y1348.565
G01 X287.665 Y1378.800
G01 X347.110 Y1388.591
G01 X403.368 Y1374.807
G01 X442.516 Y1344.590
G01 X458.155 Y1312.217
G01 X454.216 Y1292.829
G01 X443.236 Y1295.786
G01 X440.849 Y1320.548
G01 X458.917 Y1356.922
G01 X500.325 Y1389.532
G01 X557.708 Y1404.578
G01 X616.692 Y1395.892
G01 X662.202 Y1367.650
G01 X685.085 Y1332.533
G01 X686.126 Y1306.161
G01 X675.705 Y1300.230
G01 X669.234 Y1317.378
G01 X680.391 Y1350.024
G01 X710.000 Y1378.749
G01 X710.000 Y1600.000
G01 X5.000 Y1600.000
G01 X5.000 Y1293.740
G01 X40.575 Y1324.357
G01 X96.819 Y1342.076
G01 X154.492 Y1336.549
G01 X198.864 Y1311.967
G01 X221.061 Y1280.808
G01 X221.958 Y1258.360
G01 X211.798 Y1256.004
G01 X205.689 Y1276.215
G01 X216.969 Y1311.480
G01 X251.347 Y1347.592
G01 X304.397 Y1369.897
G01 X363.502 Y1369.723
G01 X413.393 Y1348.193
G01 X442.858 Y1315.729
G01 X449.662 Y1287.473
G01 X441.528 Y1276.638
G01 X432.747 Y1288.705
G01 X437.893 Y1319.016
G01 X465.431 Y1354.821
G01 X513.993 Y1380.878
G01 X572.980 Y1386.148
G01 X627.220 Y1368.640
G01 X663.627 Y1336.288
G01 X676.950 Y1303.464
G01 X672.078 Y1284.665
G01 X661.889 Y1288.148
G01 X661.595 Y1312.302
G01 X682.059 Y1346.359
G01 X710.000 Y1365.062
G01 X710.000 Y1600.000
G01 X5.000 Y1600.000
G01 X5.000 Y1285.480
G01 X9.778 Y1292.204
G01 X57.457 Y1320.722
G01 X115.221 Y1328.826
G01 X168.209 Y1314.671
G01 X203.669 Y1286.112
G01 X216.560 Y1257.247
G01 X211.766 Y1242.232
G01 X201.945 Y1249.057
G01 X201.974 Y1276.043
G01 X222.411 Y1312.577
G01 X264.859 Y1343.774
G01 X321.262 Y1357.015
G01 X377.445 Y1347.491
G01 X419.335 Y1320.309
G01 X439.146 Y1288.253
G01 X438.795 Y1266.166
G01 X429.057 Y1264.433
G01 X424.835 Y1284.419
G01 X438.611 Y1317.872
G01 X474.965 Y1350.545
G01 X528.564 Y1368.457
G01 X586.504 Y1364.030
G01 X633.977 Y1339.419
G01 X660.774 Y1305.563
G01 X665.768 Y1277.381
G01 X657.408 Y1267.219
G01 X650.005 Y1279.428
G01 X657.447 Y1308.455
G01 X687.100 Y1341.281
G01 X710.000 Y1351.400
G01 X710.000 Y1600.000
G01 X5.000 Y1600.000
G01 X5.000 Y1275.539
G01 X22.665 Y1292.834
G01 X75.237 Y1313.308
G01 X131.926 Y1311.901
G01 X178.265 Y1290.823
G01 X204.341 Y1260.842
G01 X209.155 Y1236.559
G01 X201.054 Y1229.992
G01 X194.067 Y1245.300
G01 X201.740 Y1276.954
G01 X231.189 Y1312.171
G01 X279.973 Y1336.525
G01 X337.167 Y1340.283
G01 X388.161 Y1322.680
G01 X421.074 Y1292.254
G01 X431.973 Y1263.094
G01 X426.597 Y1248.655
G01 X417.839 Y1255.845
G01 X420.077 Y1281.994
G01 X442.863 Y1316.029
G01 X486.726 Y1343.333
G01 X542.941 Y1352.169
G01 X597.360 Y1338.834
G01 X636.624 Y1309.281
G01 X654.035 Y1276.509
G01 X652.489 Y1254.848
G01 X643.207 Y1253.670
G01 X640.806 Y1273.271
G01 X656.877 Y1304.743
G01 X694.894 Y1333.886
G01 X710.000 Y1337.694
G01 X710.000 Y1600.000
G01 X5.000 Y1600.000
G01 X5.000 Y1267.935
G01 X37.754 Y1290.487
G01 X92.839 Y1302.031
G01 X146.040 Y1291.910
G01 X184.340 Y1266.037
G01 X201.278 Y1237.164
G01 X199.783 Y1219.283
G01 X190.890 Y1221.478
G01 X188.890 Y1243.939
G01 X205.054 Y1277.877
G01 X242.682 Y1309.386
G01 X295.653 Y1325.550
G01 X351.116 Y1320.116
G01 X395.132 Y1296.239
G01 X418.796 Y1265.095
G01 X422.146 Y1240.972
G01 X414.145 Y1234.996
G01 X408.745 Y1250.245
G01 X418.757 Y1280.395
G01 X450.222 Y1312.502
G01 X499.764 Y1332.685
G01 X556.068 Y1332.223
G01 X604.849 Y1311.385
G01 X635.131 Y1279.309
G01 X644.058 Y1249.992
G01 X638.156 Y1236.137
G01 X630.458 Y1243.580
G01 X634.784 Y1268.723
G01 X659.668 Y1300.117
G01 X704.611 Y1323.491
G01 X710.000 Y1323.930
G01 X710.000 Y1600.000
G01 X5.000 Y1600.000
G01 X5.000 Y1261.517
G01 X5.475 Y1262.044
G01 X54.107 Y1284.684
G01 X109.228 Y1287.105
G01 X156.886 Y1269.667
G01 X186.414 Y1241.374
G01 X195.121 Y1215.920
G01 X189.467 Y1205.674
G01 X182.229 Y1216.249
G01 X186.883 Y1244.034
G01 X211.692 Y1277.785
G01 X256.070 Y1303.561
G01 X310.844 Y1310.848
G01 X362.282 Y1297.176
G01 X398.124 Y1269.201
G01 X412.962 Y1239.785
G01 X410.619 Y1222.343
G01 X402.467 Y1224.952
G01 X402.428 Y1246.807
G01 X420.863 Y1278.572
G01 X460.021 Y1306.482
G01 X513.049 Y1318.389
G01 X567.004 Y1309.099
G01 X608.537 Y1282.647
G01 X629.756 Y1250.530
G01 X631.686 Y1226.653
G01 X623.826 Y1221.224
G01 X619.967 Y1236.271
G01 X632.140 Y1264.752
G01 X665.331 Y1293.648
G01 X710.000 Y1307.984
G01 X710.000 Y1600.000
G01 X5.000 Y1600.000
G01 X5.000 Y1249.984
G01 X18.714 Y1260.736
G01 X70.710 Y1275.229
G01 X123.491 Y1269.013
G01 X164.048 Y1246.121
G01 X184.753 Y1217.834
G01 X186.702 Y1197.724
G01 X179.240 Y1195.694
G01 X175.849 Y1213.631
G01 X188.229 Y1244.574
G01 X221.161 Y1275.777
G01 X270.402 Y1294.303
G01 X324.555 Y1292.707
G01 X370.070 Y1272.307
G01 X397.196 Y1242.600
G01 X404.262 Y1217.096
G01 X398.412 Y1207.378
G01 X392.461 Y1218.021
G01 X399.271 Y1244.579
G01 X426.099 Y1275.542
G01 X471.410 Y1297.388
G01 X525.552 Y1300.526
G01 X574.996 Y1283.503
G01 X608.275 Y1253.645
G01 X621.021 Y1223.837
G01 X617.883 Y1206.865
G01 X610.481 Y1209.799
G01 X612.304 Y1230.890
G01 X632.784 Y1260.338
G01 X673.153 Y1284.598
G01 X710.000 Y1289.997
G01 X710.000 Y1600.000
G01 X5.000 Y1600.000
G01 X5.000 Y1240.819
G01 X33.522 Y1256.326
G01 X86.558 Y1262.213
G01 X134.896 Y1248.453
G01 X167.393 Y1222.276
G01 X179.876 Y1196.287
G01 X176.968 Y1182.930
G01 X170.057 Y1189.028
G01 X172.297 Y1212.781
G01 X192.826 Y1244.560
G01 X232.755 Y1271.138
G01 X284.679 Y1281.496
G01 X335.932 Y1271.664
G01 X374.145 Y1246.465
G01 X392.683 Y1217.392
G01 X393.554 Y1197.565
G01 X386.525 Y1195.963
G01 X384.836 Y1213.488
G01 X399.379 Y1242.562
G01 X433.917 Y1270.464
G01 X483.433 Y1284.908
G01 X536.329 Y1279.449
G01 X579.525 Y1256.304
G01 X604.197 Y1225.382
G01 X609.658 Y1199.932
G01 X603.654 Y1190.720
G01 X598.961 Y1201.307
G01 X607.774 Y1226.480
G01 X636.352 Y1254.546
G01 X682.265 Y1272.467
G01 X710.000 Y1272.007
G01 X710.000 Y1600.000
G01 X5.000 Y1600.000
G01 X5.000 Y1233.217
G01 X48.959 Y1248.519
G01 X100.732 Y1245.994
G01 X142.946 Y1226.283
G01 X167.065 Y1199.112
G01 X172.508 Y1177.406
G01 X166.901 Y1171.614
G01 X162.732 Y1185.121
G01 X171.859 Y1212.760
G01 X200.305 Y1243.083
G01 X245.614 Y1263.390
G01 X297.927 Y1265.306
G01 X344.315 Y1248.458
G01 X374.453 Y1220.639
G01 X385.159 Y1194.384
G01 X381.785 Y1181.465
G01 X375.867 Y1187.720
G01 X380.060 Y1210.492
G01 X402.575 Y1239.793
G01 X443.577 Y1262.695
G01 X495.109 Y1269.007
G01 X544.590 Y1255.748
G01 X580.339 Y1228.459
G01 X596.704 Y1198.765
G01 X596.543 Y1179.272
G01 X589.967 Y1178.031
G01 X589.901 Y1194.998
G01 X606.403 Y1222.061
G01 X642.249 Y1246.597
G01 X691.712 Y1257.022
G01 X710.000 Y1253.764
G01 X710.000 Y1600.000
G01 X5.000 Y1600.000
G01 X5.000 Y1223.023
G01 X13.554 Y1228.362
G01 X64.063 Y1237.291
G01 X112.464 Y1227.158
G01 X147.408 Y1203.439
G01 X163.465 Y1177.508
G01 X163.507 Y1161.629
G01 X157.444 Y1163.581
G01 X157.874 Y1183.233
G01 X174.543 Y1212.610
G01 X210.073 Y1239.389
G01 X258.803 Y1252.317
G01 X309.280 Y1246.151
G01 X349.288 Y1223.958
G01 X371.210 Y1195.771
G01 X375.378 Y1174.177
G01 X369.918 Y1168.796
G01 X367.187 Y1182.047
G01 X378.340 Y1208.097
G01 X408.434 Y1235.413
G01 X454.205 Y1251.838
G01 X505.503 Y1249.919
G01 X549.750 Y1230.192
G01 X577.462 Y1200.933
G01 X586.414 Y1174.535
G01 X582.618 Y1162.053
G01 X577.678 Y1168.360
G01 X583.694 Y1190.000
G01 X607.947 Y1216.709
G01 X649.705 Y1235.925
G01 X700.537 Y1238.304
G01 X710.000 Y1235.019
G01 X710.000 Y1600.000
G01 X5.000 Y1600.000
G01 X5.000 Y1212.528
G01 X27.691 Y1222.009
G01 X77.925 Y1222.886
G01 X121.193 Y1206.462
G01 X148.314 Y1180.865
G01 X157.205 Y1158.179
G01 X153.797 Y1149.132
G01 X149.425 Y1158.390
G01 X155.852 Y1182.505
G01 X180.100 Y1211.430
G01 X221.368 Y1232.934
G01 X271.384 Y1237.973
G01 X318.036 Y1224.660
G01 X350.693 Y1199.096
G01 X364.873 Y1172.686
G01 X364.209 Y1157.132
G01 X358.855 Y1159.295
G01 X361.021 Y1178.179
G01 X379.613 Y1205.371
G01 X416.320 Y1228.738
G01 X464.876 Y1237.752
G01 X513.805 Y1228.119
G01 X551.470 Y1203.658
G01 X571.174 Y1174.628
G01 X574.108 Y1153.220
G01 X568.821 Y1148.201
G01 X567.468 Y1161.067
G01 X580.467 Y1185.387
G01 X611.927 Y1209.624
G01 X657.841 Y1222.208
G01 X707.849 Y1216.613
G01 X710.000 Y1215.465
G01 X710.000 Y1600.000
G01 X5.000 Y1600.000
G01 X5.000 Y1203.515
G01 X41.874 Y1212.424
G01 X89.757 Y1205.776
G01 X126.598 Y1184.769
G01 X145.949 Y1159.436
G01 X149.053 Y1141.631
G01 X144.290 Y1139.830
G01 X143.500 Y1155.408
G01 X156.779 Y1182.031
G01 X188.047 Y1208.445
G01 X233.328 Y1223.415
G01 X282.492 Y1220.661
G01 X323.707 Y1201.613
G01 X348.635 Y1174.785
G01 X356.091 Y1152.033
G01 X352.566 Y1143.350
G01 X349.369 Y1152.475
G01 X357.664 Y1175.252
G01 X383.566 Y1201.459
G01 X425.453 Y1219.295
G01 X474.682 Y1220.562
G01 X519.381 Y1204.270
G01 X549.668 Y1177.064
G01 X561.984 Y1150.311
G01 X560.659 Y1135.105
G01 X556.009 Y1137.393
G01 X559.802 Y1155.367
G01 X580.090 Y1180.257
G01 X617.673 Y1200.186
G01 X665.748 Y1205.382
G01 X710.000 Y1193.265
G01 X710.000 Y1600.000
G01 X5.000 Y1600.000
G01 X5.000 Y1194.845
G01 X6.988 Y1195.815
G01 X55.220 Y1199.741
G01 X98.949 Y1186.617
G01 X128.610 Y1162.975
G01 X140.820 Y1139.892
G01 X139.865 Y1128.128
G01 X135.817 Y1133.397
G01 X140.109 Y1153.860
G01 X160.512 Y1180.934
G01 X197.724 Y1203.061
G01 X245.062 Y1210.784
G01 X291.399 Y1200.902
G01 X326.049 Y1177.872
G01 X343.460 Y1151.854
G01 X345.652 Y1134.246
G01 X341.327 Y1132.679
G01 X342.047 Y1147.666
G01 X357.156 Y1172.379
G01 X389.674 Y1195.645
G01 X434.972 Y1206.857
G01 X482.808 Y1200.631
G01 X521.819 Y1179.168
G01 X544.517 Y1151.291
G01 X550.573 Y1128.564
G01 X546.961 Y1120.218
G01 X544.895 Y1129.094
G01 X554.900 Y1150.397
G01 X582.194 Y1173.805
G01 X624.391 Y1187.999
G01 X672.554 Y1185.637
G01 X710.000 Y1168.868
G01 X710.000 Y1600.000
G01 X5.000 Y1600.000
G01 X5.000 Y1183.092
G01 X20.104 Y1187.706
G01 X66.935 Y1184.323
G01 X105.109 Y1166.192
G01 X127.411 Y1141.934
G01 X133.598 Y1122.792
G01 X130.510 Y1117.685
G01 X129.064 Y1129.299
G01 X139.454 Y1152.904
G01 X166.679 Y1178.432
G01 X208.347 Y1194.901
G01 X255.721 Y1195.238
G01 X297.563 Y1179.381
G01 X325.064 Y1154.312
G01 X335.715 Y1130.985
G01 X334.404 Y1119.514
G01 X331.274 Y1124.737
G01 X337.260 Y1144.086
G01 X359.291 Y1168.719
G01 X397.247 Y1187.403
G01 X444.008 Y1191.447
G01 X488.586 Y1178.519
G01 X520.946 Y1153.671
G01 X536.417 Y1127.116
G01 X537.738 Y1109.745
G01 X533.858 Y1108.344
G01 X535.999 Y1122.611
G01 X552.733 Y1145.295
G01 X586.212 Y1165.377
G01 X631.228 Y1172.909
G01 X677.495 Y1163.388
G01 X710.000 Y1142.419
G01 X710.000 Y1600.000
G01 X5.000 Y1600.000
G01 X5.000 Y1172.648
G01 X32.752 Y1176.625
G01 X76.377 Y1166.728
G01 X108.081 Y1145.337
G01 X123.399 Y1122.400
G01 X125.063 Y1108.472
G01 X121.807 Y1110.079
G01 X124.526 Y1126.854
G01 X141.491 Y1151.698
G01 X174.718 Y1173.896
G01 X219.082 Y1183.829
G01 X264.566 Y1177.192
G01 X300.666 Y1156.888
G01 X320.995 Y1131.751
G01 X326.096 Y1112.665
G01 X323.195 Y1107.786
G01 X323.031 Y1118.956
G01 X335.135 Y1140.901
G01 X363.648 Y1163.543
G01 X405.499 Y1176.429
G01 X451.755 Y1173.320
G01 X491.545 Y1154.934
G01 X516.835 Y1128.626
G01 X525.952 Y1105.158
G01 X524.320 Y1093.975
G01 X522.077 Y1099.053
G01 X529.619 Y1117.157
G01 X553.036 Y1139.262
G01 X591.438 Y1154.515
G01 X637.343 Y1155.005
G01 X679.967 Y1139.234
G01 X709.957 Y1112.776
G01 X710.000 Y1112.691
G01 X710.000 Y1600.000
G01 X5.000 Y1600.000
G01 X5.000 Y1163.185
G01 X44.148 Y1162.835
G01 X83.096 Y1147.652
G01 X107.947 Y1124.878
G01 X117.151 Y1104.965
G01 X116.034 Y1097.036
G01 X114.456 Y1104.881
G01 X122.479 Y1125.290
G01 X145.950 Y1149.467
G01 X183.930 Y1166.892
G01 X229.110 Y1169.942
G01 X271.018 Y1157.236
G01 X300.621 Y1134.245
G01 X314.288 Y1110.885
G01 X315.386 Y1097.163
G01 X312.800 Y1098.781
G01 X317.027 Y1114.635
G01 X335.568 Y1137.298
G01 X369.633 Y1156.285
G01 X413.609 Y1162.654
G01 X457.527 Y1152.940
G01 X491.438 Y1130.667
G01 X509.784 Y1104.808
G01 X513.836 Y1085.838
G01 X511.135 Y1081.136
G01 X512.180 Y1091.745
G01 X525.815 Y1111.913
G01 X555.345 Y1131.622
G01 X597.084 Y1140.987
G01 X641.976 Y1134.598
G01 X679.571 Y1113.895
G01 X702.614 Y1086.535
G01 X710.000 Y1063.738
G01 X710.000 Y1061.719
G01 X708.309 Y1052.120
G01 X706.913 Y1056.958
G01 X710.000 Y1062.733
G01 X710.000 Y1600.000
G01 X5.000 Y1600.000
G01 X5.000 Y1152.474
G01 X10.643 Y1153.620
G01 X53.632 Y1146.795
G01 X86.862 Y1127.866
G01 X105.006 Y1105.562
G01 X109.368 Y1090.027
G01 X107.303 Y1088.359
G01 X108.994 Y1101.497
G01 X122.970 Y1123.808
G01 X152.366 Y1145.562
G01 X193.545 Y1157.205
G01 X237.693 Y1153.556
G01 X274.695 Y1136.081
G01 X297.572 Y1112.248
G01 X305.548 Y1092.246
G01 X304.388 Y1084.514
G01 X303.865 Y1092.029
G01 X313.469 Y1111.004
G01 X338.235 Y1132.549
G01 X376.535 Y1146.579
G01 X420.793 Y1146.241
G01 X460.810 Y1130.922
G01 X488.246 Y1106.522
G01 X500.279 Y1082.858
G01 X500.847 Y1069.353
G01 X498.913 Y1070.898
G01 X504.529 Y1085.708
G01 X524.422 Y1106.100
G01 X559.039 Y1121.875
G01 X602.350 Y1124.792
G01 X644.498 Y1112.191
G01 X676.127 Y1088.158
G01 X692.490 Y1061.731
G01 X695.534 Y1042.930
G01 X693.041 Y1038.356
G01 X695.213 Y1048.293
G01 X710.000 Y1066.358
G01 X710.000 Y1600.000
G01 X5.000 Y1600.000
G01 X5.000 Y1140.515
G01 X21.538 Y1141.364
G01 X60.713 Y1129.114
G01 X87.669 Y1108.155
G01 X99.743 Y1088.006
G01 X100.808 Y1077.765
G01 X99.574 Y1082.105
G01 X105.758 Y1099.229
G01 X125.822 Y1121.654
G01 X160.128 Y1139.506
G01 X202.783 Y1144.847
G01 X244.229 Y1135.170
G01 X275.436 Y1114.493
G01 X291.870 Y1091.595
G01 X295.484 Y1076.164
G01 X293.857 Y1074.535
G01 X296.863 Y1086.914
G01 X312.338 Y1107.288
G01 X342.635 Y1126.062
G01 X383.593 Y1134.280
G01 X426.361 Y1127.552
G01 X461.292 Y1107.985
G01 X482.171 Y1083.257
G01 X488.951 Y1063.242
G01 X487.767 Y1055.675
G01 X488.242 Y1062.755
G01 X499.262 Y1080.181
G01 X525.070 Y1099.040
G01 X563.404 Y1109.724
G01 X606.491 Y1106.148
G01 X644.462 Y1088.422
G01 X669.683 Y1062.805
G01 X680.108 Y1038.950
G01 X680.180 Y1025.669
G01 X678.871 Y1027.062
G01 X685.747 Y1040.717
G01 X706.765 Y1058.768
G01 X710.000 Y1059.936
G01 X710.000 Y1600.000
G01 X5.000 Y1600.000
G01 X5.000 Y1129.296
G01 X30.867 Y1126.838
G01 X65.096 Y1110.494
G01 X85.726 Y1089.250
G01 X92.775 Y1072.652
G01 X92.229 Y1068.140
G01 X93.407 Y1077.773
G01 X104.871 Y1097.333
G01 X130.664 Y1118.174
G01 X168.533 Y1131.020
G01 X210.923 Y1130.041
G01 X248.290 Y1115.411
G01 X273.297 Y1093.229
G01 X284.032 Y1072.846
G01 X284.847 Y1062.751
G01 X284.448 Y1066.846
G01 X292.065 Y1082.734
G01 X313.406 Y1102.771
G01 X348.140 Y1117.425
G01 X390.054 Y1119.460
G01 X429.771 Y1107.117
G01 X458.877 Y1084.884
G01 X473.609 Y1061.523
G01 X476.511 Y1046.224
G01 X475.312 Y1044.567
G01 X479.533 Y1056.073
G01 X496.302 Y1074.416
G01 X527.228 Y1090.200
G01 X567.690 Y1095.088
G01 X608.870 Y1085.461
G01 X641.622 Y1064.010
G01 X660.494 Y1038.550
G01 X666.115 Y1018.590
G01 X664.921 Y1011.155
G01 X666.328 Y1017.702
G01 X678.592 Y1033.481
G01 X705.187 Y1049.622
G01 X710.000 Y1050.558
G01 X710.000 Y1600.000
G01 X5.000 Y1600.000
G01 X5.000 Y1118.579
G01 X38.112 Y1110.565
G01 X66.702 Y1091.669
G01 X81.424 Y1071.776
G01 X84.797 Y1059.743
G01 X84.322 Y1060.907
G01 X89.189 Y1074.741
G01 X106.242 Y1095.087
G01 X136.969 Y1112.860
G01 X176.852 Y1120.041
G01 X217.349 Y1113.195
G01 X249.650 Y1094.981
G01 X268.539 Y1072.983
G01 X274.690 Y1056.379
G01 X274.364 Y1051.910
G01 X276.664 Y1060.918
G01 X289.531 Y1078.762
G01 X316.260 Y1096.851
G01 X354.050 Y1106.425
G01 X395.237 Y1102.393
G01 X430.660 Y1085.578
G01 X453.682 Y1062.346
G01 X463.105 Y1041.816
G01 X463.694 Y1031.853
G01 X464.085 Y1035.610
G01 X472.990 Y1050.153
G01 X495.370 Y1067.741
G01 X530.256 Y1079.232
G01 X571.178 Y1078.097
G01 X609.003 Y1063.287
G01 X635.947 Y1039.692
G01 X648.995 Y1015.993
G01 X651.219 Y1000.851
G01 X650.434 Y999.101
G01 X655.758 Y1009.631
G01 X673.612 Y1025.869
G01 X704.898 Y1038.675
G01 X710.000 Y1038.890
G01 X710.000 Y1600.000
G01 X5.000 Y1600.000
G01 X5.000 Y1107.007
G01 X8.223 Y1106.893
G01 X42.930 Y1093.173
G01 X65.654 Y1073.343
G01 X75.301 Y1056.206
G01 X76.520 Y1049.314
G01 X77.662 Y1055.650
G01 X87.106 Y1072.325
G01 X109.587 Y1091.840
G01 X144.109 Y1105.385
G01 X184.386 Y1106.707
G01 X221.604 Y1094.854
G01 X248.290 Y1074.596
G01 X261.593 Y1054.325
G01 X264.535 Y1042.372
G01 X264.685 Y1043.348
G01 X270.829 Y1056.119
G01 X289.115 Y1074.304
G01 X320.352 Y1089.081
G01 X359.653 Y1093.058
G01 X398.584 Y1083.523
G01 X428.867 Y1063.631
G01 X446.014 Y1041.019
G01 X451.299 Y1024.453
G01 X451.194 Y1019.975
G01 X454.531 Y1028.254
G01 X468.614 Y1044.287
G01 X496.020 Y1059.606
G01 X533.461 Y1065.988
G01 X573.232 Y1059.073
G01 X606.594 Y1040.276
G01 X627.609 Y1016.163
G01 X635.752 Y995.571
G01 X636.135 Y985.722
G01 X637.265 Y989.055
G01 X647.304 Y1002.157
G01 X670.485 Y1017.256
G01 X705.253 Y1025.644
G01 X710.000 Y1025.148
G01 X710.000 Y1600.000
G01 X5.000 Y1600.000
G01 X5.000 Y1093.855
G01 X15.443 Y1092.007
G01 X45.177 Y1075.341
G01 X62.262 Y1056.140
G01 X67.983 Y1042.835
G01 X68.616 Y1041.202
G01 X72.668 Y1051.826
G01 X87.142 Y1069.840
G01 X114.462 Y1087.069
G01 X151.406 Y1095.619
G01 X190.525 Y1091.341
G01 X223.409 Y1075.655
G01 X244.388 Y1054.927
G01 X253.013 Y1037.669
G01 X254.258 Y1030.803
G01 X256.330 Y1036.620
G01 X267.066 Y1051.776
G01 X290.491 Y1068.761
G01 X325.050 Y1079.196
G01 X364.290 Y1077.518
G01 X399.697 Y1063.414
G01 X424.432 Y1041.969
G01 X436.335 Y1021.420
G01 X438.873 Y1009.550
G01 X439.616 Y1010.259
G01 X446.908 Y1021.861
G01 X466.208 Y1037.821
G01 X497.688 Y1049.625
G01 X536.159 Y1050.522
G01 X573.350 Y1038.488
G01 X601.543 Y1017.112
G01 X616.957 Y994.023
G01 X621.410 Y977.535
G01 X621.522 Y972.998
G01 X625.800 Y980.450
G01 X640.908 Y994.598
G01 X668.736 Y1007.148
G01 X705.571 Y1010.442
G01 X710.000 Y1009.326
G01 X710.000 Y1600.000
G01 X5.000 Y1600.000
G01 X5.000 Y1080.856
G01 X20.512 Y1075.874
G01 X44.903 Y1057.740
G01 X56.981 Y1040.549
G01 X60.132 Y1031.760
G01 X61.660 Y1035.074
G01 X69.579 Y1048.813
G01 X89.094 Y1066.654
G01 X120.312 Y1080.412
G01 X158.199 Y1083.627
G01 X194.788 Y1074.410
G01 X222.681 Y1056.263
G01 X238.293 Y1036.548
G01 X243.430 Y1023.246
G01 X244.491 Y1021.459
G01 X249.659 Y1031.165
G01 X265.304 Y1047.229
G01 X293.189 Y1061.662
G01 X329.691 Y1067.128
G01 X367.398 Y1060.164
G01 X398.360 Y1042.703
G01 X417.582 Y1021.223
G01 X425.216 Y1003.903
G01 X426.493 Y997.027
G01 X429.424 Y1002.229
G01 X441.283 Y1015.775
G01 X465.408 Y1030.201
G01 X499.741 Y1037.597
G01 X537.727 Y1033.075
G01 X571.195 Y1016.920
G01 X593.947 Y994.461
G01 X604.479 Y973.732
G01 X606.637 Y961.942
G01 X607.932 Y962.309
G01 X616.237 Y972.652
G01 X636.328 Y986.341
G01 X667.789 Y995.219
G01 X705.196 Y993.179
G01 X710.000 Y991.228
G01 X710.000 Y1600.000
G01 X5.000 Y1600.000
G01 X5.000 Y1067.725
G01 X23.233 Y1059.113
G01 X42.341 Y1040.976
G01 X50.371 Y1026.903
G01 X52.387 Y1022.893
G01 X56.092 Y1030.461
G01 X68.443 Y1045.972
G01 X92.596 Y1062.241
G01 X126.519 Y1071.684
G01 X163.888 Y1069.655
G01 X196.861 Y1056.481
G01 X219.524 Y1037.320
G01 X230.486 Y1019.895
G01 X233.488 Y1011.099
G01 X235.763 Y1013.973
G01 X244.851 Y1026.367
G01 X265.296 Y1041.888
G01 X296.643 Y1052.705
G01 X333.642 Y1052.993
G01 X368.554 Y1041.487
G01 X394.548 Y1022.037
G01 X408.701 Y1001.919
G01 X413.281 Y988.638
G01 X414.748 Y986.631
G01 X420.920 Y995.319
G01 X437.532 Y1009.365
G01 X465.725 Y1021.016
G01 X501.538 Y1023.509
G01 X537.655 Y1014.040
G01 X566.612 Y994.999
G01 X584.078 Y972.913
G01 X590.754 Y955.584
G01 X592.065 Y948.662
G01 X595.777 Y953.162
G01 X608.584 Y965.021
G01 X633.167 Y976.882
G01 X667.022 Y981.328
G01 X703.552 Y974.137
G01 X710.000 Y970.442
G01 X710.000 Y1600.000
G01 X5.000 Y1600.000
G01 X5.000 Y1054.142
G01 X23.595 Y1042.351
G01 X37.870 Y1025.547
G01 X43.036 Y1015.352
G01 X45.314 Y1015.974
G01 X52.191 Y1026.808
G01 X69.127 Y1042.699
G01 X97.164 Y1056.210
G01 X132.461 Y1060.887
G01 X167.987 Y1054.093
G01 X196.607 Y1038.166
G01 X214.213 Y1019.390
G01 X221.531 Y1005.238
G01 X223.796 Y1001.087
G01 X228.456 Y1007.856
G01 X241.900 Y1021.608
G01 X266.646 Y1035.275
G01 X300.245 Y1041.766
G01 X336.349 Y1037.079
G01 X367.503 Y1022.058
G01 X388.416 Y1002.025
G01 X398.288 Y984.436
G01 X401.155 Y975.612
G01 X404.118 Y977.961
G01 X414.224 Y988.921
G01 X435.369 Y1002.086
G01 X466.588 Y1010.022
G01 X502.481 Y1007.528
G01 X535.579 Y993.926
G01 X559.633 Y973.351
G01 X572.348 Y952.939
G01 X576.398 Y939.691
G01 X578.244 Y937.400
G01 X585.299 Y944.984
G01 X602.672 Y956.963
G01 X630.922 Y965.868
G01 X665.814 Y965.518
G01 X700.181 Y953.738
G01 X710.000 Y946.278
G01 X710.000 Y1600.000
G01 X5.000 Y1600.000
G01 X5.000 Y1039.718
G01 X21.759 Y1026.172
G01 X31.980 Y1011.809
G01 X35.579 Y1005.869
G01 X39.364 Y1010.606
G01 X50.056 Y1023.525
G01 X71.339 Y1038.471
G01 X102.241 Y1048.341
G01 X137.561 Y1048.198
G01 X170.153 Y1037.442
G01 X194.066 Y1020.069
G01 X207.156 Y1002.921
G01 X212.024 Y992.674
G01 X214.875 Y992.913
G01 X222.793 Y1002.552
G01 X240.625 Y1016.317
G01 X268.857 Y1027.060
G01 X303.398 Y1028.900
G01 X337.378 Y1019.803
G01 X364.165 Y1002.479
G01 X380.277 Y983.186
G01 X386.909 Y968.986
G01 X389.411 Y964.639
G01 X394.930 Y970.518
G01 X409.277 Y982.441
G01 X434.373 Y993.512
G01 X467.404 Y997.151
G01 X502.060 Y989.978
G01 X531.302 Y973.303
G01 X550.458 Y952.548
G01 X559.271 Y934.862
G01 X562.011 Y925.988
G01 X565.598 Y927.733
G01 X576.562 Y937.183
G01 X598.178 Y947.979
G01 X629.024 Y953.112
G01 X663.606 Y948.000
G01 X694.775 Y932.502
G01 X710.000 Y917.666
G01 X710.000 Y1600.000
G01 X5.000 Y1600.000
G01 X5.000 Y1023.992
G01 X18.037 Y1011.072
G01 X25.222 Y999.955
G01 X28.548 Y998.262
G01 X34.840 Y1006.300
G01 X49.617 Y1020.039
G01 X74.664 Y1032.887
G01 X107.252 Y1038.581
G01 X141.335 Y1033.938
G01 X170.208 Y1020.256
G01 X189.447 Y1002.738
G01 X198.853 Y988.211
G01 X202.541 Y982.125
G01 X207.125 Y986.158
G01 X218.819 Y997.487
G01 X240.704 Y1010.019
G01 X271.377 Y1017.077
G01 X305.564 Y1014.325
G01 X336.443 Y1001.675
G01 X358.633 Y983.326
G01 X370.560 Y965.916
G01 X375.146 Y955.610
G01 X378.525 Y955.390
G01 X387.347 Y963.748
G01 X405.860 Y975.348
G01 X434.040 Y983.370
G01 X467.605 Y982.508
G01 X499.895 Y971.296
G01 X524.798 Y952.755
G01 X539.432 Y933.062
G01 X545.408 Y918.840
G01 X548.127 Y914.247
G01 X554.399 Y919.152
G01 X569.460 Y929.195
G01 X594.664 Y937.697
G01 X626.897 Y938.601
G01 X659.938 Y929.127
G01 X687.195 Y910.994
G01 X704.600 Y889.665
G01 X710.000 Y877.380
G01 X710.000 Y1600.000
G01 X5.000 Y1600.000
G01 X5.000 Y1006.550
G01 X12.852 Y997.419
G01 X18.154 Y990.009
G01 X22.391 Y992.202
G01 X31.886 Y1002.517
G01 X50.647 Y1015.846
G01 X78.604 Y1025.697
G01 X111.648 Y1027.045
G01 X143.427 Y1018.540
G01 X168.142 Y1003.099
G01 X183.090 Y986.620
G01 X189.850 Y975.399
G01 X193.590 Y973.358
G01 X200.794 Y980.327
G01 X216.416 Y992.119
G01 X241.703 Y1002.368
G01 X273.647 Y1005.327
G01 X306.308 Y998.392
G01 X333.423 Y983.242
G01 X351.153 Y965.104
G01 X359.772 Y950.458
G01 X363.542 Y944.184
G01 X368.843 Y947.429
G01 X381.366 Y957.098
G01 X403.620 Y967.214
G01 X433.824 Y971.548
G01 X466.693 Y966.349
G01 X495.759 Y951.996
G01 X516.209 Y932.826
G01 X527.002 Y915.234
G01 X531.320 Y904.859
G01 X535.173 Y904.112
G01 X544.758 Y911.114
G01 X563.735 Y920.528
G01 X591.622 Y925.898
G01 X624.007 Y922.486
G01 X654.485 Y909.355
G01 X677.470 Y889.776
G01 X690.650 Y869.795
G01 X696.000 Y855.573
G01 X698.910 Y850.685
G01 X705.825 Y854.546
G01 X710.000 Y856.724
G01 X710.000 Y1600.000
G01 X5.000 Y1600.000
G01 X5.000 Y987.589
G01 X6.699 Y985.435
G01 X11.297 Y981.837
G01 X17.430 Y987.259
G01 X30.482 Y998.724
G01 X52.793 Y1010.541
G01 X82.633 Y1016.806
G01 X114.958 Y1013.993
G01 X143.628 Y1002.505
G01 X164.102 Y986.492
G01 X175.434 Y972.031
G01 X180.684 Y964.457
G01 X185.573 Y966.019
G01 X195.973 Y974.892
G01 X215.323 Y985.983
G01 X243.124 Y993.165
G01 X275.154 Y991.969
G01 X305.326 Y981.548
G01 X328.357 Y965.045
G01 X342.093 Y948.214
G01 X348.448 Y936.894
G01 X352.566 Y934.441
G01 X360.560 Y940.259
G01 X376.826 Y950.059
G01 X402.113 Y957.747
G01 X433.194 Y958.098
G01 X464.285 Y949.050
G01 X489.583 Y932.614
G01 X505.815 Y913.982
G01 X513.676 Y899.254
G01 X517.519 Y892.754
G01 X523.444 Y895.134
G01 X536.621 Y903.089
G01 X559.013 Y910.808
G01 X588.521 Y912.525
G01 X619.902 Y905.056
G01 X647.073 Y889.194
G01 X665.782 Y869.358
G01 X675.475 Y851.656
G01 X679.537 Y841.199
G01 X683.804 Y839.860
G01 X694.002 Y845.448
G01 X710.000 Y851.463
G01 X710.000 Y1600.000
G01 X5.000 Y1600.000
G01 X5.000 Y975.170
G01 X5.093 Y975.170
G01 X13.837 Y982.950
G01 X30.457 Y994.437
G01 X55.620 Y1003.855
G01 X86.238 Y1006.280
G01 X116.819 Y999.798
G01 X141.885 Y986.349
G01 X158.370 Y970.873
G01 X166.972 Y959.139
G01 X171.842 Y955.212
G01 X178.759 Y959.669
G01 X192.593 Y969.346
G01 X215.168 Y978.727
G01 X244.456 Y982.370
G01 X275.472 Y977.295
G01 X302.464 Y964.290
G01 X321.435 Y947.570
G01 X331.901 Y932.918
G01 X337.099 Y925.153
G01 X342.570 Y926.007
G01 X353.716 Y933.368
G01 X373.435 Y942.212
G01 X400.845 Y946.803
G01 X431.673 Y943.218
G01 X460.130 Y931.066
G01 X481.454 Y913.663
G01 X494.004 Y896.569
G01 X499.972 Y885.152
G01 X504.427 Y882.227
G01 X513.082 Y886.822
G01 X529.789 Y894.606
G01 X554.843 Y899.792
G01 X584.857 Y897.675
G01 X614.248 Y886.706
G01 X637.687 Y869.164
G01 X652.442 Y850.158
G01 X659.575 Y835.383
G01 X663.475 Y828.617
G01 X669.929 Y830.066
G01 X683.578 Y836.271
G01 X705.884 Y841.629
G01 X710.000 Y841.518
G01 X710.000 Y1600.000
G01 X5.000 Y1600.000
G01 X5.000 Y973.627
G01 X11.633 Y978.782
G01 X31.517 Y989.260
G01 X58.647 Y995.665
G01 X88.965 Y994.323
G01 X117.005 Y984.903
G01 X138.297 Y970.565
G01 X151.327 Y956.568
G01 X158.201 Y947.960
G01 X163.719 Y947.366
G01 X173.267 Y953.831
G01 X190.450 Y963.241
G01 X215.508 Y970.133
G01 X245.214 Y970.092
G01 X274.289 Y961.692
G01 X297.721 Y947.118
G01 X312.966 Y931.210
G01 X321.062 Y919.333
G01 X326.176 Y915.023
G01 X333.769 Y918.437
G01 X348.199 Y926.278
G01 X370.806 Y933.253
G01 X399.325 Y934.390
G01 X428.880 Y927.226
G01 X454.128 Y912.886
G01 X471.600 Y895.591
G01 X481.228 Y880.799
G01 X486.373 Y872.813
G01 X492.346 Y872.889
G01 X504.076 Y878.684
G01 X523.945 Y885.291
G01 X550.742 Y887.389
G01 X580.195 Y881.583
G01 X606.848 Y867.894
G01 X626.458 Y849.748
G01 X637.852 Y832.474
G01 X643.450 Y820.959
G01 X648.193 Y817.506
G01 X657.375 Y820.820
G01 X674.320 Y826.582
G01 X698.919 Y829.343
G01 X710.000 Y827.638
G01 X710.000 Y1600.000
G01 X5.000 Y1600.000
G01 X5.000 Y970.666
G01 X10.696 Y974.299
G01 X33.280 Y982.915
G01 X61.400 Y985.993
G01 X90.456 Y981.251
G01 X115.431 Y969.782
G01 X133.093 Y955.574
G01 X143.414 Y943.762
G01 X149.580 Y938.367
G01 X156.594 Y940.535
G01 X169.074 Y948.033
G01 X189.225 Y956.228
G01 X215.876 Y960.128
G01 X244.987 Y956.570
G01 X271.430 Y945.608
G01 X291.237 Y930.492
G01 X303.344 Y916.238
G01 X310.054 Y907.425
G01 X316.028 Y906.184
G01 X326.236 Y911.265
G01 X343.771 Y918.583
G01 X368.496 Y923.018
G01 X397.101 Y920.658
G01 X424.556 Y910.523
G01 X446.324 Y894.987
G01 X460.351 Y878.744
G01 X467.963 Y866.737
G01 X473.289 Y861.994
G01 X481.443 Y864.296
G01 X496.278 Y870.274
G01 X518.692 Y874.892
G01 X546.240 Y873.655
G01 X574.200 Y864.587
G01 X597.654 Y849.095
G01 X613.643 Y831.352
G01 X622.466 Y816.464
G01 X627.551 Y808.228
G01 X633.942 Y807.464
G01 X646.089 Y811.654
G01 X665.892 Y816.055
G01 X691.864 Y815.776
G01 X710.000 Y810.680
G01 X710.000 Y1600.000
G01 X5.000 Y1600.000
G01 X5.000 Y961.328
G01 X7.773 Y962.760
G01 X32.338 Y969.219
G01 X60.508 Y969.283
G01 X87.571 Y962.064
G01 X109.292 Y949.819
G01 X123.779 Y936.952
G01 X132.308 Y928.083
G01 X138.762 Y926.020
G01 X147.929 Y930.523
G01 X163.391 Y938.414
G01 X185.958 Y944.971
G01 X213.309 Y946.004
G01 X241.014 Y939.692
G01 X264.476 Y927.386
G01 X280.952 Y913.011
G01 X290.758 Y901.345
G01 X297.126 Y895.919
G01 X304.782 Y897.467
G01 X317.877 Y903.604
G01 X338.157 Y909.877
G01 X364.198 Y911.716
G01 X392.033 Y906.448
G01 X416.896 Y894.463
G01 X435.311 Y879.047
G01 X446.619 Y864.938
G01 X453.267 Y856.241
G01 X459.732 Y854.632
G01 X470.554 Y858.616
G01 X488.342 Y864.190
G01 X512.626 Y866.600
G01 X540.068 Y862.426
G01 X565.926 Y851.088
G01 X586.135 Y835.099
G01 X599.095 Y818.957
G01 X606.370 Y807.175
G01 X611.999 Y802.296
G01 X620.725 Y803.776
G01 X635.908 Y808.228
G01 X658.051 Y810.905
G01 X684.579 Y807.790
G01 X710.000 Y797.742
G01 X710.000 Y1600.000
G01 X5.000 Y1600.000
G01 X5.000 Y949.175
G01 X5.770 Y949.484
G01 X31.471 Y953.477
G01 X58.816 Y950.825
G01 X83.366 Y941.924
G01 X101.903 Y929.858
G01 X113.846 Y919.045
G01 X121.501 Y913.293
G01 X129.049 Y914.133
G01 X140.711 Y920.145
G01 X158.889 Y927.581
G01 X183.116 Y932.014
G01 X210.260 Y930.282
G01 X235.897 Y921.875
G01 X256.260 Y909.159
G01 X269.886 Y896.337
G01 X278.261 Y887.600
G01 X285.166 Y885.292
G01 X295.013 Y888.875
G01 X310.910 Y895.170
G01 X333.296 Y899.755
G01 X359.746 Y898.903
G01 X386.039 Y891.222
G01 X408.008 Y878.264
G01 X423.377 Y863.845
G01 X432.750 Y852.366
G01 X439.351 Y846.880
G01 X447.605 Y847.755
G01 X461.195 Y852.511
G01 X481.441 Y856.911
G01 X506.727 Y856.820
G01 X533.205 Y850.025
G01 X556.488 Y837.203
G01 X573.576 Y821.623
G01 X584.172 Y807.712
G01 X590.813 Y799.110
G01 X597.751 Y797.071
G01 X609.089 Y799.913
G01 X626.975 Y803.759
G01 X650.664 Y804.240
G01 X676.840 Y798.413
G01 X701.076 Y786.054
G01 X710.000 Y778.277
G01 X710.000 Y1600.000
G01 X5.000 Y1600.000
G01 X5.000 Y934.942
G01 X30.581 Y936.370
G01 X56.377 Y931.483
G01 X78.152 Y921.726
G01 X93.819 Y910.645
G01 X103.968 Y902.315
G01 X111.606 Y899.544
G01 X120.835 Y902.644
G01 X135.048 Y909.293
G01 X155.443 Y915.556
G01 X180.493 Y917.614
G01 X206.622 Y913.443
G01 X229.769 Y903.696
G01 X247.176 Y891.422
G01 X258.598 Y880.725
G01 X266.406 Y874.958
G01 X274.549 Y875.255
G01 X286.816 Y880.032
G01 X305.171 Y885.684
G01 X328.895 Y888.168
G01 X354.898 Y884.779
G01 X379.078 Y875.340
G01 X398.122 Y862.274
G01 X410.961 Y849.543
G01 X419.235 Y840.907
G01 X426.578 Y838.272
G01 X437.014 Y840.856
G01 X453.193 Y845.531
G01 X475.229 Y848.198
G01 X500.647 Y845.589
G01 X525.470 Y836.699
G01 X545.971 Y823.230
G01 X560.302 Y808.841
G01 X569.310 Y797.540
G01 X576.159 Y791.926
G01 X584.946 Y792.047
G01 X598.893 Y795.380
G01 X618.939 Y797.941
G01 X643.325 Y796.032
G01 X668.367 Y787.870
G01 X690.073 Y774.364
G01 X705.899 Y758.720
G01 X710.000 Y753.084
G01 X710.000 Y1600.000
G01 X5.000 Y1600.000
G01 X5.000 Y919.005
G01 X29.340 Y918.129
G01 X53.076 Y911.645
G01 X72.078 Y901.845
G01 X85.388 Y892.382
G01 X94.542 Y886.706
G01 X102.895 Y886.546
G01 X114.144 Y891.158
G01 X130.710 Y897.644
G01 X152.669 Y902.232
G01 X177.723 Y901.930
G01 X202.207 Y895.840
G01 X222.699 Y885.552
G01 X237.525 Y874.443
G01 X247.488 Y866.198
G01 X255.518 Y863.187
G01 X265.384 Y865.428
G01 X280.035 Y870.577
G01 X300.310 Y874.963
G01 X324.564 Y875.195
G01 X349.398 Y869.655
G01 X371.144 Y859.206
G01 X387.481 Y846.813
G01 X398.451 Y836.241
G01 X406.441 Y830.400
G01 X415.131 Y830.067
G01 X427.879 Y833.550
G01 X446.246 Y837.427
G01 X469.311 Y838.051
G01 X494.074 Y833.153
G01 X516.777 Y822.837
G01 X534.551 Y809.532
G01 X546.677 Y796.929
G01 X554.900 Y788.355
G01 X562.660 Y785.314
G01 X573.585 Y786.831
G01 X589.891 Y789.874
G01 X611.414 Y790.692
G01 X635.681 Y786.462
G01 X658.996 Y776.525
G01 X678.062 Y762.677
G01 X691.432 Y748.382
G01 X700.138 Y737.245
G01 X707.241 Y731.434
G01 X710.000 Y731.223
G01 X710.000 Y1600.000
G01 X5.000 Y1600.000
G01 X5.000 Y901.743
G01 X27.517 Y899.060
G01 X48.920 Y891.697
G01 X65.389 Y882.581
G01 X76.987 Y875.150
G01 X85.909 Y872.046
G01 X95.523 Y873.955
G01 X108.884 Y879.310
G01 X127.394 Y884.975
G01 X150.190 Y887.628
G01 X174.517 Y885.214
G01 X196.945 Y877.854
G01 X214.870 Y867.783
G01 X227.659 Y858.376
G01 X236.925 Y852.659
G01 X245.821 Y851.983
G01 X257.651 Y855.434
G01 X274.420 Y860.230
G01 X295.952 Y862.949
G01 X319.973 Y861.026
G01 X343.104 Y853.885
G01 X362.346 Y843.188
G01 X376.400 Y832.104
G01 X386.232 Y823.919
G01 X394.650 Y820.591
G01 X405.070 Y821.893
G01 X420.013 Y825.511
G01 X440.001 Y828.065
G01 X463.325 Y826.588
G01 X486.800 Y819.834
G01 X507.160 Y808.823
G01 X522.493 Y796.390
G01 X533.080 Y785.943
G01 X541.271 Y779.964
G01 X550.451 Y778.922
G01 X563.552 Y781.063
G01 X581.767 Y783.189
G01 X604.025 Y782.055
G01 X627.465 Y775.799
G01 X648.686 Y764.759
G01 X665.248 Y751.320
G01 X676.737 Y738.871
G01 X684.949 Y730.314
G01 X693.098 Y726.790
G01 X704.404 Y727.178
G01 X710.000 Y727.664
G01 X710.000 Y1600.000
G01 X5.000 Y1600.000
G01 X5.000 Y883.339
G01 X24.991 Y879.511
G01 X44.033 Y871.986
G01 X58.397 Y864.131
G01 X68.977 Y858.911
G01 X78.326 Y858.082
G01 X89.530 Y861.414
G01 X104.858 Y866.800
G01 X124.757 Y871.176
G01 X147.665 Y871.873
G01 X170.692 Y867.783
G01 X190.889 Y859.848
G01 X206.548 Y850.646
G01 X217.943 Y843.256
G01 X227.215 Y839.908
G01 X237.428 Y841.003
G01 X251.222 Y844.939
G01 X269.657 Y848.813
G01 X291.743 Y849.700
G01 X314.879 Y845.933
G01 X335.993 Y837.838
G01 X352.895 Y827.590
G01 X365.230 Y818.254
G01 X374.642 Y812.443
G01 X384.042 Y811.167
G01 X396.338 Y813.394
G01 X413.148 Y816.501
G01 X434.098 Y817.429
G01 X456.981 Y814.024
G01 X478.731 Y805.986
G01 X496.765 Y794.995
G01 X510.120 Y783.978
G01 X519.872 Y775.820
G01 X528.665 Y772.098
G01 X539.548 Y772.389
G01 X554.633 Y774.458
G01 X574.173 Y775.239
G01 X596.445 Y772.181
G01 X618.514 Y764.371
G01 X637.514 Y752.932
G01 X651.914 Y740.528
G01 X662.183 Y730.197
G01 X670.587 Y724.016
G01 X680.191 Y722.187
G01 X693.511 Y722.952
G01 X710.000 Y723.332
G01 X710.000 Y5.000
G01 X5.000 Y5.000
G01 X5.000 Y864.003
G01 X21.759 Y859.836
G01 X38.629 Y852.792
G01 X51.440 Y846.578
G01 X61.675 Y843.521
G01 X71.945 Y844.504
G01 X84.841 Y848.587
G01 X101.795 Y853.414
G01 X122.452 Y856.253
G01 X144.826 Y855.192
G01 X166.172 Y849.981
G01 X184.194 Y842.140
G01 X198.049 Y834.291
G01 X208.717 Y829.005
G01 X218.571 Y827.675
G01 X230.332 Y829.904
G01 X245.877 Y833.680
G01 X265.409 Y836.262
G01 X287.374 Y835.380
G01 X309.141 Y830.237
G01 X328.158 Y821.854
G01 X343.072 Y812.622
G01 X354.322 Y805.254
G01 X363.946 Y801.589
G01 X374.683 Y801.790
G01 X388.772 Y804.269
G01 X406.966 Y806.388
G01 X428.205 Y805.618
G01 X450.080 Y800.647
G01 X469.889 Y791.958
G01 X485.828 Y781.615
G01 X497.778 Y772.357
G01 X507.359 Y766.393
G01 X517.216 Y764.436
G01 X529.855 Y765.387
G01 X546.547 Y766.821
G01 X566.766 Y766.051
G01 X588.423 Y761.309
G01 X608.780 Y752.523
G01 X625.658 Y741.346
G01 X638.387 Y730.429
G01 X648.104 Y722.259
G01 X657.249 Y718.067
G01 X668.496 Y717.284
G01 X683.573 Y717.799
G01 X702.510 Y716.881
G01 X710.000 Y706.125
G01 X710.000 Y5.000
G01 X5.000 Y5.000
G01 X5.000 Y844.036
G01 X17.925 Y840.354
G01 X32.988 Y834.301
G01 X44.851 Y829.897
G01 X55.321 Y828.751
G01 X66.810 Y830.988
G01 X81.282 Y835.196
G01 X99.385 Y839.047
G01 X120.166 Y840.318
G01 X141.496 Y837.869
G01 X160.999 Y832.143
G01 X177.098 Y824.968
G01 X189.706 Y818.758
G01 X200.263 Y815.448
G01 X211.101 Y815.649
G01 X224.424 Y818.378
G01 X241.332 Y821.489
G01 X261.348 Y822.622
G01 X282.618 Y820.233
G01 X302.733 Y814.273
G01 X319.783 Y806.213
G01 X333.196 Y798.391
G01 X343.988 Y792.990
G01 X354.316 Y791.077
G01 X366.527 Y792.136
G01 X382.132 Y794.296
G01 X401.140 Y795.152
G01 X422.053 Y792.823
G01 X442.527 Y786.777
G01 X460.400 Y778.062
G01 X474.639 Y768.850
G01 X485.798 Y761.477
G01 X495.766 Y757.421
G01 X506.944 Y756.653
G01 X521.184 Y757.650
G01 X538.978 Y758.065
G01 X559.246 Y755.758
G01 X579.803 Y749.735
G01 X598.327 Y740.586
G01 X613.371 Y730.223
G01 X625.002 Y721.040
G01 X634.770 Y714.863
G01 X645.024 Y712.148
G01 X657.881 Y711.782
G01 X674.298 Y711.572
G01 X693.649 Y709.208
G01 X703.107 Y693.496
G01 X710.000 Y677.048
G01 X710.000 Y5.000
G01 X5.000 Y5.000
G01 X5.000 Y823.869
G01 X13.682 Y821.325
G01 X27.419 Y816.596
G01 X38.921 Y813.960
G01 X50.058 Y814.323
G01 X62.856 Y817.227
G01 X78.609 Y821.045
G01 X97.310 Y823.699
G01 X117.651 Y823.572
G01 X137.606 Y820.219
G01 X155.310 Y814.559
G01 X169.888 Y808.475
G01 X181.830 Y803.980
G01 X192.779 Y802.342
G01 X204.806 Y803.518
G01 X219.503 Y806.182
G01 X237.281 Y808.304
G01 X257.192 Y808.041
G01 X277.344 Y804.550
G01 X295.733 Y798.354
G01 X311.123 Y791.112
G01 X323.588 Y784.892
G01 X334.474 Y781.260
G01 X345.814 Y780.597
G01 X359.430 Y781.927
G01 X376.132 Y783.350
G01 X395.366 Y782.878
G01 X415.456 Y779.304
G01 X434.340 Y772.735
G01 X450.475 Y764.543
G01 X463.515 Y756.760
G01 X474.461 Y751.191
G01 X485.220 Y748.614
G01 X497.767 Y748.447
G01 X513.278 Y748.998
G01 X531.613 Y748.212
G01 X551.379 Y744.575
G01 X570.540 Y737.775
G01 X587.314 Y728.839
G01 X600.951 Y719.684
G01 X612.066 Y712.272
G01 X622.364 Y707.751
G01 X633.891 Y705.949
G01 X648.136 Y705.452
G01 X665.378 Y704.226
G01 X684.561 Y700.511
G01 X693.119 Y683.831
G01 X699.676 Y664.671
G01 X703.112 Y644.751
G01 X703.634 Y626.113
G01 X702.674 Y610.220
G01 X702.266 Y597.320
G01 X704.151 Y586.333
G01 X709.010 Y575.330
G01 X710.000 Y573.539
G01 X710.000 Y5.000
G01 X5.000 Y5.000
G01 X5.000 Y804.070
G01 X9.288 Y802.920
G01 X22.227 Y799.654
G01 X33.869 Y798.558
G01 X45.926 Y799.940
G01 X59.925 Y802.967
G01 X76.537 Y806.035
G01 X95.284 Y807.474
G01 X114.746 Y806.278
G01 X133.189 Y802.549
G01 X149.324 Y797.451
G01 X162.870 Y792.697
G01 X174.681 Y789.799
G01 X186.366 Y789.400
G01 X199.584 Y790.998
G01 X215.313 Y793.163
G01 X233.423 Y794.167
G01 X252.732 Y792.743
G01 X271.526 Y788.641
G01 X288.312 Y782.738
G01 X302.472 Y776.649
G01 X314.533 Y772.021
G01 X325.936 Y769.808
G01 X338.401 Y769.854
G01 X353.172 Y770.960
G01 X370.469 Y771.414
G01 X389.396 Y769.743
G01 X408.329 Y765.357
G01 X425.634 Y758.809
G01 X440.384 Y751.552
G01 X452.759 Y745.301
G01 X463.975 Y741.276
G01 X475.741 Y739.673
G01 X489.512 Y739.573
G01 X505.850 Y739.350
G01 X524.175 Y737.385
G01 X543.024 Y732.775
G01 X560.690 Y725.731
G01 X575.973 Y717.485
G01 X588.706 Y709.745
G01 X599.828 Y703.950
G01 X610.968 Y700.633
G01 X623.731 Y699.193
G01 X638.994 Y698.156
G01 X656.517 Y695.825
G01 X675.054 Y691.025
G01 X682.506 Y673.886
G01 X687.775 Y655.177
G01 X690.352 Y636.532
G01 X690.864 Y619.546
G01 X690.795 Y605.068
G01 X691.833 Y592.836
G01 X695.129 Y581.590
G01 X700.796 Y569.625
G01 X707.853 Y555.544
G01 X710.000 Y550.286
G01 X710.000 Y5.000
G01 X5.000 Y5.000
G01 X5.000 Y785.219
G01 X5.026 Y785.214
G01 X17.679 Y783.354
G01 X29.826 Y783.434
G01 X42.863 Y785.318
G01 X57.788 Y788.027
G01 X74.773 Y790.170
G01 X93.079 Y790.559
G01 X111.387 Y788.725
G01 X128.378 Y785.126
G01 X143.306 Y780.946
G01 X156.329 Y777.572
G01 X168.439 Y775.986
G01 X181.021 Y776.336
G01 X195.249 Y777.870
G01 X211.568 Y779.266
G01 X229.499 Y779.216
G01 X247.850 Y776.998
G01 X265.240 Y772.793
G01 X280.706 Y767.605
G01 X294.122 Y762.819
G01 X306.256 Y759.593
G01 X318.430 Y758.349
G01 X331.940 Y758.592
G01 X347.486 Y759.123
G01 X364.865 Y758.569
G01 X383.060 Y755.988
G01 X400.688 Y751.277
G01 X416.607 Y745.220
G01 X430.416 Y739.145
G01 X442.630 Y734.334
G01 X454.453 Y731.467
G01 X467.249 Y730.321
G01 X481.941 Y729.868
G01 X498.609 Y728.731
G01 X516.451 Y725.784
G01 X534.140 Y720.649
G01 X550.402 Y713.862
G01 X564.581 Y706.635
G01 X576.919 Y700.323
G01 X588.454 Y695.833
G01 X600.562 Y693.221
G01 X614.348 Y691.672
G01 X630.169 Y689.859
G01 X647.469 Y686.522
G01 X665.030 Y681.027
G01 X671.363 Y663.941
G01 X675.653 Y646.087
G01 X677.863 Y628.838
G01 X678.824 Y613.286
G01 X679.865 Y599.765
G01 X682.231 Y587.703
G01 X686.536 Y575.879
G01 X692.493 Y562.953
G01 X699.044 Y548.062
G01 X704.819 Y531.194
G01 X708.746 Y513.194
G01 X710.000 Y500.561
G01 X710.000 Y5.000
G01 X5.000 Y5.000
G01 X5.000 Y767.976
G01 X13.974 Y767.500
G01 X26.824 Y768.312
G01 X40.717 Y770.226
G01 X56.181 Y772.322
G01 X73.052 Y773.552
G01 X90.549 Y773.201
G01 X107.613 Y771.199
G01 X123.377 Y768.153
G01 X137.540 Y765.076
G01 X150.504 Y762.947
G01 X163.192 Y762.278
G01 X176.645 Y762.890
G01 X191.560 Y763.994
G01 X207.991 Y764.536
G01 X225.318 Y763.662
G01 X242.527 Y761.093
G01 X258.649 Y757.243
G01 X273.188 Y753.041
G01 X286.339 Y749.520
G01 X298.898 Y747.364
G01 X311.914 Y746.609
G01 X326.225 Y746.628
G01 X342.094 Y746.405
G01 X359.092 Y744.984
G01 X376.284 Y741.888
G01 X392.647 Y737.328
G01 X407.509 Y732.108
G01 X420.852 Y727.273
G01 X433.314 Y723.650
G01 X445.909 Y721.484
G01 X459.580 Y720.334
G01 X474.786 Y719.265
G01 X491.302 Y717.259
G01 X508.316 Y713.664
G01 X524.785 Y708.478
G01 X539.897 Y702.352
G01 X553.423 Y696.297
G01 X565.816 Y691.250
G01 X578.016 Y687.652
G01 X591.029 Y685.263
G01 X605.492 Y683.266
G01 X621.389 Y680.624
G01 X638.060 Y676.541
G01 X654.492 Y670.804
G01 X659.870 Y654.221
G01 X663.589 Y637.469
G01 X665.903 Y621.549
G01 X667.638 Y607.083
G01 X669.823 Y594.039
G01 X673.243 Y581.750
G01 X678.092 Y569.206
G01 X683.889 Y555.496
G01 X689.689 Y540.214
G01 X694.501 Y523.629
G01 X697.720 Y506.573
G01 X699.394 Y490.073
G01 X700.200 Y474.899
G01 X701.149 Y461.230
G01 X703.138 Y448.572
G01 X706.559 Y435.981
G01 X710.000 Y425.808
G01 X710.000 Y5.000
G01 X5.000 Y5.000
G01 X5.000 Y751.777
G01 X11.227 Y751.849
G01 X24.794 Y752.930
G01 X39.270 Y754.502
G01 X54.828 Y755.865
G01 X71.168 Y756.363
G01 X87.645 Y755.674
G01 X103.553 Y753.948
G01 X118.438 Y751.741
G01 X132.291 Y749.773
G01 X145.556 Y748.606
G01 X158.929 Y748.405
G01 X173.057 Y748.861
G01 X188.248 Y749.328
G01 X204.343 Y749.110
G01 X220.778 Y747.764
G01 X236.842 Y745.295
G01 X251.977 Y742.152
G01 X266.034 Y739.032
G01 X279.328 Y736.571
G01 X292.505 Y735.069
G01 X306.253 Y734.355
G01 X321.002 Y733.865
G01 X336.736 Y732.891
G01 X352.998 Y730.889
G01 X369.094 Y727.722
G01 X384.396 Y723.715
G01 X398.615 Y719.514
G01 X411.932 Y715.801
G01 X424.913 Y712.996
G01 X438.261 Y711.072
G01 X452.506 Y709.569
G01 X467.776 Y707.793
G01 X483.736 Y705.129
G01 X499.738 Y701.301
G01 X515.108 Y696.500
G01 X529.436 Y691.296
G01 X542.761 Y686.387
G01 X555.548 Y682.296
G01 X568.485 Y679.137
G01 X582.180 Y676.570
G01 X596.895 Y673.948
G01 X612.429 Y670.604
G01 X628.208 Y666.144
G01 X643.539 Y660.615
G01 X648.265 Y644.871
G01 X651.858 Y629.290
G01 X654.665 Y614.471
G01 X657.333 Y600.666
G01 X660.521 Y587.666
G01 X664.612 Y574.897
G01 X669.547 Y561.673
G01 X674.848 Y547.494
G01 X679.833 Y532.271
G01 X683.911 Y516.359
G01 X686.845 Y500.405
G01 X688.852 Y485.062
G01 X690.509 Y470.702
G01 X692.499 Y457.256
G01 X695.309 Y444.242
G01 X699.019 Y430.984
G01 X703.266 Y416.900
G01 X707.405 Y401.766
G01 X710.000 Y389.543
G01 X710.000 Y5.000
G01 X5.000 Y5.000
G01 X5.000 Y735.955
G01 X9.457 Y736.136
G01 X23.587 Y737.073
G01 X38.267 Y738.075
G01 X53.485 Y738.762
G01 X68.992 Y738.842
G01 X84.411 Y738.247
G01 X99.408 Y737.153
G01 X113.831 Y735.910
G01 X127.779 Y734.884
G01 X141.558 Y734.295
G01 X155.546 Y734.126
G01 X170.023 Y734.127
G01 X185.052 Y733.927
G01 X200.451 Y733.196
G01 X215.872 Y731.794
G01 X230.956 Y729.824
G01 X245.487 Y727.593
G01 X259.489 Y725.473
G01 X273.212 Y723.740
G01 X287.023 Y722.450
G01 X301.243 Y721.420
G01 X316.006 Y720.304
G01 X331.202 Y718.750
G01 X346.525 Y716.550
G01 X361.606 Y713.736
G01 X376.178 Y710.559
G01 X390.188 Y707.383
G01 X403.824 Y704.524
G01 X417.427 Y702.110
G01 X431.343 Y700.027
G01 X445.771 Y697.969
G01 X460.675 Y695.576
G01 X475.799 Y692.587
G01 X490.785 Y688.958
G01 X505.322 Y684.880
G01 X519.289 Y680.693
G01 X532.804 Y676.737
G01 X546.170 Y673.205
G01 X559.742 Y670.057
G01 X573.774 Y667.037
G01 X588.301 Y663.790
G01 X603.131 Y660.016
G01 X617.925 Y655.601
G01 X632.348 Y650.667
G01 X636.814 Y635.943
G01 X640.699 Y621.425
G01 X644.258 Y607.361
G01 X647.842 Y593.781
G01 X651.745 Y580.493
G01 X656.075 Y567.162
G01 X660.704 Y553.460
G01 X665.331 Y539.213
G01 X669.610 Y524.470
G01 X673.301 Y509.489
G01 X676.380 Y494.617
G01 X679.043 Y480.144
G01 X681.622 Y466.169
G01 X684.438 Y452.564
G01 X687.662 Y439.029
G01 X691.237 Y425.225
G01 X694.907 Y410.920
G01 X698.329 Y396.097
G01 X701.223 Y380.955
G01 X703.494 Y365.823
G01 X705.276 Y351.019
G01 X706.868 Y336.705
G01 X708.605 Y322.822
G01 X710.000 Y313.739
G01 X710.000 Y5.000
G01 X5.000 Y5.000
G01 X5.000 Y719.980
G01 X8.589 Y720.117
G01 X22.984 Y720.597
G01 X37.446 Y720.971
G01 X51.959 Y721.197
G01 X66.486 Y721.255
G01 X80.984 Y721.150
G01 X95.426 Y720.912
G01 X109.806 Y720.583
G01 X124.148 Y720.194
G01 X138.488 Y719.757
G01 X152.861 Y719.256
G01 X167.283 Y718.660
G01 X181.749 Y717.932
G01 X196.229 Y717.046
G01 X210.687 Y716.003
G01 X225.095 Y714.823
G01 X239.442 Y713.539
G01 X253.741 Y712.183
G01 X268.021 Y710.769
G01 X282.314 Y709.290
G01 X296.638 Y707.724
G01 X310.993 Y706.038
G01 X325.359 Y704.210
G01 X339.708 Y702.231
G01 X354.012 Y700.115
G01 X368.257 Y697.887
G01 X382.450 Y695.575
G01 X396.611 Y693.196
G01 X410.765 Y690.749
G01 X424.932 Y688.218
G01 X439.117 Y685.579
G01 X453.306 Y682.809
G01 X467.477 Y679.900
G01 X481.607 Y676.857
G01 X495.683 Y673.699
G01 X509.704 Y670.449
G01 X523.684 Y667.122
G01 X537.642 Y663.721
G01 X551.596 Y660.237
G01 X565.551 Y656.652
G01 X579.500 Y652.949
G01 X593.428 Y649.117
G01 X607.318 Y645.160
G01 X621.155 Y641.088
G01 X625.780 Y627.393
G01 X630.288 Y613.682
G01 X634.695 Y599.959
G01 X639.012 Y586.221
G01 X643.246 Y572.457
G01 X647.394 Y558.654
G01 X651.447 Y544.806
G01 X655.394 Y530.913
G01 X659.225 Y516.983
G01 X662.938 Y503.026
G01 X666.539 Y489.053
G01 X670.033 Y475.066
G01 X673.431 Y461.064
G01 X676.735 Y447.041
G01 X679.943 Y432.991
G01 X683.052 Y418.911
G01 X686.054 Y404.802
G01 X688.946 Y390.668
G01 X691.727 Y376.514
G01 X694.401 Y362.345
G01 X696.970 Y348.161
G01 X699.437 Y333.962
G01 X701.802 Y319.744
G01 X704.062 Y305.507
G01 X706.215 Y291.253
G01 X708.258 Y276.984
G01 X710.000 Y264.141
G01 X710.000 Y5.000
G01 X5.000 Y5.000
G01 X5.000 Y703.552
G01 X8.461 Y703.589
G01 X22.733 Y703.449
G01 X36.572 Y703.306
G01 X50.138 Y703.411
G01 X63.710 Y703.859
G01 X77.569 Y704.550
G01 X91.868 Y705.230
G01 X106.569 Y705.600
G01 X121.457 Y705.454
G01 X136.231 Y704.762
G01 X150.639 Y703.691
G01 X164.587 Y702.528
G01 X178.182 Y701.554
G01 X191.684 Y700.926
G01 X205.392 Y700.598
G01 X219.515 Y700.350
G01 X234.074 Y699.877
G01 X248.898 Y698.927
G01 X263.691 Y697.409
G01 X278.169 Y695.439
G01 X292.178 Y693.282
G01 X305.767 Y691.243
G01 X319.162 Y689.532
G01 X332.674 Y688.165
G01 X346.554 Y686.966
G01 X360.887 Y685.634
G01 X375.555 Y683.882
G01 X390.281 Y681.561
G01 X404.756 Y678.725
G01 X418.774 Y675.610
G01 X432.318 Y672.530
G01 X445.575 Y669.739
G01 X458.847 Y667.321
G01 X472.424 Y665.149
G01 X486.453 Y662.943
G01 X500.874 Y660.391
G01 X515.442 Y657.287
G01 X529.838 Y653.622
G01 X543.806 Y649.590
G01 X557.266 Y645.500
G01 X570.352 Y641.645
G01 X583.348 Y638.171
G01 X596.570 Y635.010
G01 X610.222 Y631.915
G01 X615.388 Y619.090
G01 X620.718 Y605.817
G01 X625.896 Y592.023
G01 X630.626 Y577.849
G01 X634.767 Y563.588
G01 X638.390 Y549.560
G01 X641.751 Y535.970
G01 X645.179 Y522.818
G01 X648.928 Y509.897
G01 X653.071 Y496.887
G01 X657.460 Y483.492
G01 X661.795 Y469.573
G01 X665.753 Y455.209
G01 X669.133 Y440.665
G01 X671.939 Y426.274
G01 X674.387 Y412.294
G01 X676.802 Y398.791
G01 X679.484 Y385.612
G01 X682.568 Y372.453
G01 X685.969 Y358.988
G01 X689.416 Y345.018
G01 X692.574 Y330.555
G01 X695.184 Y315.821
G01 X697.185 Y301.149
G01 X698.737 Y286.840
G01 X700.153 Y273.028
G01 X701.761 Y259.622
G01 X703.760 Y246.347
G01 X706.133 Y232.860
G01 X708.651 Y218.908
G01 X710.000 Y210.508
G01 X710.000 Y5.000
G01 X5.000 Y5.000
G01 X5.000 Y686.553
G01 X8.852 Y686.423
G01 X22.576 Y685.666
G01 X35.467 Y685.273
G01 X48.000 Y685.666
G01 X60.811 Y686.877
G01 X74.413 Y688.531
G01 X88.977 Y690.015
G01 X104.250 Y690.741
G01 X119.665 Y690.410
G01 X134.595 Y689.140
G01 X148.621 Y687.417
G01 X161.721 Y685.882
G01 X174.279 Y685.049
G01 X186.915 Y685.079
G01 X200.216 Y685.709
G01 X214.474 Y686.365
G01 X229.559 Y686.416
G01 X244.974 Y685.450
G01 X260.072 Y683.456
G01 X274.341 Y680.830
G01 X287.628 Y678.200
G01 X300.208 Y676.153
G01 X312.662 Y674.976
G01 X325.622 Y674.528
G01 X339.494 Y674.301
G01 X354.279 Y673.647
G01 X369.570 Y672.056
G01 X384.730 Y669.386
G01 X399.171 Y665.923
G01 X412.615 Y662.257
G01 X425.213 Y659.026
G01 X437.480 Y656.630
G01 X450.071 Y655.059
G01 X463.491 Y653.898
G01 X477.872 Y652.503
G01 X492.917 Y650.288
G01 X508.024 Y646.983
G01 X522.555 Y642.751
G01 X536.115 Y638.119
G01 X548.721 Y633.747
G01 X560.803 Y630.137
G01 X573.008 Y627.413
G01 X585.921 Y625.267
G01 X599.805 Y623.091
G01 X605.802 Y610.830
G01 X611.988 Y597.575
G01 X617.699 Y583.356
G01 X622.435 Y568.616
G01 X626.081 Y554.010
G01 X628.959 Y540.122
G01 X631.685 Y527.210
G01 X634.898 Y515.086
G01 X638.984 Y503.206
G01 X643.900 Y490.903
G01 X649.195 Y477.681
G01 X654.207 Y463.437
G01 X658.353 Y448.505
G01 X661.385 Y433.509
G01 X663.502 Y419.092
G01 X665.260 Y405.635
G01 X667.330 Y393.083
G01 X670.203 Y380.976
G01 X673.974 Y368.647
G01 X678.299 Y355.515
G01 X682.545 Y341.342
G01 X686.067 Y326.338
G01 X688.495 Y311.072
G01 X689.891 Y296.218
G01 X690.730 Y282.264
G01 X691.686 Y269.297
G01 X693.337 Y256.961
G01 X695.913 Y244.615
G01 X699.194 Y231.616
G01 X702.603 Y217.600
G01 X705.460 Y202.643
G01 X707.284 Y187.230
G01 X707.999 Y172.041
G01 X707.973 Y157.656
G01 X707.856 Y144.296
G01 X708.292 Y131.729
G01 X709.640 Y119.369
G01 X710.000 Y117.239
G01 X710.000 Y5.000
G01 X5.000 Y5.000
G01 X5.000 Y668.977
G01 X9.503 Y668.579
G01 X22.285 Y667.380
G01 X34.031 Y667.119
G01 X45.620 Y668.220
G01 X58.002 Y670.463
G01 X71.781 Y673.081
G01 X86.950 Y675.097
G01 X102.890 Y675.752
G01 X118.646 Y674.841
G01 X133.339 Y672.799
G01 X146.559 Y670.517
G01 X158.540 Y668.946
G01 X170.062 Y668.683
G01 X182.105 Y669.703
G01 X195.421 Y671.376
G01 X210.200 Y672.738
G01 X225.991 Y672.914
G01 X241.890 Y671.507
G01 X256.945 Y668.770
G01 X270.569 Y665.494
G01 X282.801 Y662.667
G01 X294.287 Y661.033
G01 X305.997 Y660.771
G01 X318.801 Y661.410
G01 X333.083 Y662.040
G01 X348.575 Y661.709
G01 X364.468 Y659.840
G01 X379.774 Y656.490
G01 X393.751 Y652.319
G01 X406.239 Y648.307
G01 X417.720 Y645.320
G01 X429.116 Y643.732
G01 X441.378 Y643.256
G01 X455.071 Y643.075
G01 X470.124 Y642.194
G01 X485.858 Y639.883
G01 X501.288 Y635.995
G01 X515.549 Y631.031
G01 X528.281 Y625.923
G01 X539.787 Y621.624
G01 X550.896 Y618.688
G01 X562.606 Y617.028
G01 X575.637 Y615.953
G01 X590.124 Y614.470
G01 X597.100 Y602.367
G01 X604.002 Y588.715
G01 X609.877 Y573.834
G01 X614.181 Y558.569
G01 X617.017 Y543.921
G01 X619.092 Y530.605
G01 X621.405 Y518.740
G01 X624.809 Y507.792
G01 X629.638 Y496.811
G01 X635.554 Y484.846
G01 X641.701 Y471.366
G01 X647.076 Y456.491
G01 X650.971 Y440.944
G01 X653.286 Y425.731
G01 X654.569 Y411.702
G01 X655.781 Y399.176
G01 X657.873 Y387.802
G01 X661.365 Y376.710
G01 X666.120 Y364.897
G01 X671.402 Y351.664
G01 X676.199 Y336.927
G01 X679.666 Y321.252
G01 X681.500 Y305.611
G01 X682.069 Y290.952
G01 X682.255 Y277.786
G01 X683.064 Y265.959
G01 X685.188 Y254.723
G01 X688.695 Y243.060
G01 X693.004 Y230.132
G01 X697.134 Y215.649
G01 X700.139 Y199.999
G01 X701.521 Y184.077
G01 X701.450 Y168.891
G01 X700.693 Y155.125
G01 X700.271 Y142.832
G01 X701.018 Y131.415
G01 X703.210 Y119.886
G01 X706.442 Y107.302
G01 X709.810 Y93.177
G01 X710.000 Y91.999
G01 X710.000 Y23.719
G01 X709.414 Y18.994
G01 X708.799 Y7.362
G01 X708.970 Y5.000
G01 X5.000 Y5.000
G01 X5.000 Y650.868
G01 X10.155 Y650.112
G01 X21.686 Y648.799
G01 X32.256 Y649.116
G01 X43.157 Y651.291
G01 X55.543 Y654.688
G01 X69.915 Y658.094
G01 X85.906 Y660.242
G01 X102.438 Y660.377
G01 X118.193 Y658.580
G01 X132.198 Y655.740
G01 X144.243 Y653.159
G01 X154.984 Y651.983
G01 X165.647 Y652.700
G01 X177.494 Y654.919
G01 X191.267 Y657.546
G01 X206.861 Y659.265
G01 X223.369 Y659.110
G01 X239.479 Y656.896
G01 X254.052 Y653.298
G01 X266.618 Y649.555
G01 X277.587 Y646.928
G01 X288.069 Y646.146
G01 X299.383 Y647.082
G01 X312.481 Y648.811
G01 X327.528 Y650.015
G01 X343.828 Y649.562
G01 X360.129 Y647.003
G01 X375.171 Y642.769
G01 X388.242 Y637.986
G01 X399.488 Y633.977
G01 X409.852 Y631.684
G01 X420.658 Y631.251
G01 X433.032 Y631.963
G01 X447.402 Y632.556
G01 X463.315 Y631.775
G01 X479.629 Y628.924
G01 X495.019 Y624.172
G01 X508.554 Y618.482
G01 X520.110 Y613.184
G01 X530.423 Y609.398
G01 X540.766 Y607.534
G01 X552.391 Y607.118
G01 X565.977 Y606.994
G01 X581.333 Y605.836
G01 X589.267 Y593.437
G01 X596.583 Y579.046
G01 X602.171 Y563.421
G01 X605.638 Y547.847
G01 X607.483 Y533.574
G01 X608.873 Y521.266
G01 X611.138 Y510.712
G01 X615.181 Y500.915
G01 X621.084 Y490.529
G01 X628.069 Y478.455
G01 X634.841 Y464.321
G01 X640.153 Y448.647
G01 X643.359 Y432.616
G01 X644.693 Y417.561
G01 X645.171 Y404.372
G01 X646.143 Y393.110
G01 X648.701 Y382.979
G01 X653.199 Y372.674
G01 X659.094 Y360.953
G01 X665.190 Y347.188
G01 X670.154 Y331.636
G01 X673.110 Y315.331
G01 X674.018 Y299.631
G01 X673.696 Y285.619
G01 X673.460 Y273.628
G01 X674.546 Y263.098
G01 X677.568 Y252.816
G01 X682.245 Y241.452
G01 X687.527 Y228.144
G01 X692.053 Y212.875
G01 X694.748 Y196.483
G01 X695.300 Y180.296
G01 X694.292 Y165.544
G01 X692.952 Y152.826
G01 X692.609 Y141.839
G01 X694.114 Y131.515
G01 X697.460 Y120.491
G01 X701.791 Y107.703
G01 X705.772 Y92.860
G01 X708.175 Y76.566
G01 X708.423 Y60.065
G01 X706.841 Y44.685
G01 X704.513 Y31.264
G01 X702.810 Y19.776
G01 X702.785 Y9.342
G01 X703.565 Y5.000
G01 X5.000 Y5.000
G01 X5.000 Y632.286
G01 X10.574 Y631.170
G01 X20.690 Y630.184
G01 X30.231 Y631.526
G01 X40.844 Y635.028
G01 X53.705 Y639.527
G01 X69.009 Y643.381
G01 X85.877 Y645.185
G01 X102.746 Y644.390
G01 X118.051 Y641.545
G01 X130.915 Y638.060
G01 X141.533 Y635.580
G01 X151.088 Y635.268
G01 X161.231 Y637.294
G01 X173.355 Y640.754
G01 X187.984 Y644.073
G01 X204.540 Y645.692
G01 X221.598 Y644.754
G01 X237.509 Y641.483
G01 X251.125 Y637.084
G01 X262.302 Y633.216
G01 X271.968 Y631.261
G01 X281.710 Y631.721
G01 X293.081 Y633.993
G01 X306.916 Y636.633
G01 X322.964 Y637.993
G01 X339.998 Y636.943
G01 X356.352 Y633.365
G01 X370.652 Y628.213
G01 X382.422 Y623.087
G01 X392.291 Y619.535
G01 X401.717 Y618.373
G01 X412.350 Y619.322
G01 X425.303 Y621.135
G01 X440.665 Y622.140
G01 X457.459 Y620.978
G01 X474.070 Y617.195
G01 X488.957 Y611.450
G01 X501.326 Y605.218
G01 X511.479 Y600.149
G01 X520.686 Y597.340
G01 X530.624 Y596.855
G01 X542.639 Y597.692
G01 X557.160 Y598.228
G01 X573.501 Y596.927
G01 X582.190 Y583.797
G01 X589.488 Y568.451
G01 X594.317 Y552.179
G01 X596.639 Y536.665
G01 X597.480 Y523.246
G01 X598.475 Y512.324
G01 X601.153 Y503.191
G01 X606.263 Y494.338
G01 X613.445 Y484.117
G01 X621.388 Y471.468
G01 X628.404 Y456.382
G01 X633.170 Y439.910
G01 X635.309 Y423.697
G01 X635.556 Y409.268
G01 X635.437 Y397.348
G01 X636.598 Y387.553
G01 X640.083 Y378.551
G01 X645.872 Y368.651
G01 X652.893 Y356.544
G01 X659.489 Y341.879
G01 X664.146 Y325.419
G01 X666.159 Y308.706
G01 X665.942 Y293.386
G01 X664.848 Y280.484
G01 X664.571 Y269.955
G01 X666.409 Y260.702
G01 X670.686 Y251.061
G01 X676.614 Y239.526
G01 X682.636 Y225.416
G01 X687.110 Y209.174
G01 X689.030 Y192.172
G01 X688.468 Y176.111
G01 X686.546 Y162.274
G01 X684.939 Y150.961
G01 X685.144 Y141.358
G01 X687.819 Y131.894
G01 X692.496 Y120.930
G01 X697.781 Y107.480
G01 X701.972 Y91.647
G01 X703.802 Y74.574
G01 X702.998 Y57.949
G01 X700.399 Y43.258
G01 X697.593 Y31.139
G01 X696.216 Y21.093
G01 X697.233 Y11.712
G01 X699.348 Y5.000
G01 X5.000 Y5.000
G01 X5.000 Y613.300
G01 X10.589 Y611.977
G01 X19.298 Y611.819
G01 X28.136 Y614.570
G01 X38.954 Y619.494
G01 X52.740 Y624.858
G01 X69.180 Y628.694
G01 X86.794 Y629.658
G01 X103.592 Y627.627
G01 X117.939 Y623.750
G01 X129.278 Y619.947
G01 X138.377 Y618.061
G01 X146.986 Y619.055
G01 X157.074 Y622.582
G01 X169.961 Y627.141
G01 X185.738 Y630.733
G01 X203.227 Y631.742
G01 X220.494 Y629.640
G01 X235.704 Y625.225
G01 X247.919 Y620.269
G01 X257.517 Y616.741
G01 X266.023 Y615.939
G01 X275.442 Y617.924
G01 X287.375 Y621.490
G01 X302.316 Y624.692
G01 X319.437 Y625.701
G01 X336.947 Y623.610
G01 X352.877 Y618.829
G01 X365.950 Y612.909
G01 X376.137 Y607.859
G01 X384.672 Y605.265
G01 X393.512 Y605.595
G01 X404.473 Y607.987
G01 X418.438 Y610.633
G01 X434.962 Y611.569
G01 X452.471 Y609.539
G01 X468.949 Y604.548
G01 X482.825 Y597.858
G01 X493.664 Y591.439
G01 X502.356 Y587.100
G01 X510.727 Y585.695
G01 X520.738 Y586.749
G01 X533.621 Y588.664
G01 X549.339 Y589.422
G01 X566.600 Y587.469
G01 X575.673 Y573.253
G01 X582.443 Y556.903
G01 X586.081 Y540.264
G01 X587.097 Y525.294
G01 X587.110 Y513.204
G01 X588.144 Y503.926
G01 X591.733 Y496.142
G01 X598.252 Y487.861
G01 X606.748 Y477.297
G01 X615.357 Y463.652
G01 X622.125 Y447.466
G01 X625.867 Y430.384
G01 X626.682 Y414.434
G01 X625.919 Y401.133
G01 X625.576 Y390.825
G01 X627.430 Y382.526
G01 X632.253 Y374.359
G01 X639.470 Y364.375
G01 X647.414 Y351.411
G01 X654.058 Y335.603
G01 X657.900 Y318.326
G01 X658.630 Y301.589
G01 X657.263 Y287.160
G01 X655.692 Y275.779
G01 X655.864 Y266.844
G01 X658.915 Y258.665
G01 X664.679 Y249.211
G01 X671.754 Y237.004
G01 X678.121 Y221.764
G01 X682.028 Y204.537
G01 X682.761 Y187.235
G01 X680.957 Y171.798
G01 X678.329 Y159.340
G01 X676.908 Y149.662
G01 X678.156 Y141.337
G01 X682.320 Y132.336
G01 X688.324 Y120.921
G01 X694.243 Y106.410
G01 X698.143 Y89.473
G01 X698.934 Y71.844
G01 X696.851 Y55.557
G01 X693.347 Y42.055
G01 X690.460 Y31.553
G01 X689.914 Y22.947
G01 X692.366 Y14.295
G01 X696.517 Y5.000
G01 X5.000 Y5.000
G01 X5.000 Y594.004
G01 X10.111 Y592.815
G01 X17.615 Y593.982
G01 X26.220 Y598.400
G01 X37.777 Y604.653
G01 X52.847 Y610.474
G01 X70.449 Y613.746
G01 X88.494 Y613.426
G01 X104.698 Y610.009
G01 X117.588 Y605.307
G01 X127.146 Y601.657
G01 X134.822 Y600.894
G01 X142.893 Y603.541
G01 X153.466 Y608.585
G01 X167.549 Y613.916
G01 X184.610 Y617.253
G01 X202.809 Y617.152
G01 X219.803 Y613.633
G01 X233.779 Y608.177
G01 X244.245 Y603.077
G01 X252.251 Y600.425
G01 X259.928 Y601.201
G01 X269.548 Y604.835
G01 X282.531 Y609.461
G01 X298.818 Y612.733
G01 X316.893 Y612.859
G01 X334.453 Y609.383
G01 X349.417 Y603.393
G01 X360.837 Y597.038
G01 X369.320 Y592.588
G01 X376.758 Y591.436
G01 X385.498 Y593.484
G01 X397.314 Y597.189
G01 X412.621 Y600.235
G01 X430.297 Y600.554
G01 X448.173 Y597.234
G01 X463.984 Y590.919
G01 X476.364 Y583.529
G01 X485.448 Y577.414
G01 X492.811 Y574.326
G01 X500.779 Y574.646
G01 X511.404 Y577.217
G01 X525.564 Y579.852
G01 X542.579 Y580.294
G01 X560.502 Y577.205
G01 X569.455 Y561.688
G01 X575.167 Y544.478
G01 X577.292 Y527.911
G01 X577.022 Y514.028
G01 X576.564 Y503.674
G01 X578.167 Y496.132
G01 X583.140 Y489.433
G01 X591.270 Y481.222
G01 X600.920 Y469.793
G01 X609.744 Y454.839
G01 X615.717 Y437.589
G01 X618.028 Y420.266
G01 X617.433 Y405.115
G01 X615.925 Y393.415
G01 X615.861 Y384.917
G01 X618.923 Y377.952
G01 X625.382 Y370.168
G01 X633.977 Y359.557
G01 X642.465 Y345.342
G01 X648.611 Y328.317
G01 X651.167 Y310.502
G01 X650.420 Y294.254
G01 X648.068 Y281.232
G01 X646.475 Y271.671
G01 X647.631 Y264.274
G01 X652.280 Y256.786
G01 X659.590 Y246.980
G01 X667.520 Y233.639
G01 X673.712 Y217.088
G01 X676.532 Y199.058
G01 X675.784 Y181.920
G01 X672.799 Y167.648
G01 X669.849 Y156.953
G01 X669.152 Y148.966
G01 X671.896 Y141.622
G01 X677.716 Y132.567
G01 X684.855 Y120.192
G01 X690.933 Y104.338
G01 X693.995 Y86.372
G01 X693.367 Y68.584
G01 X689.954 Y53.181
G01 X685.845 Y41.321
G01 X683.394 Y32.601
G01 X684.185 Y25.237
G01 X688.339 Y16.842
G01 X694.455 Y5.480
G01 X694.641 Y5.000
G01 X5.000 Y5.000
G01 X5.000 Y574.587
G01 X9.150 Y573.992
G01 X15.839 Y576.907
G01 X24.781 Y583.077
G01 X37.578 Y590.366
G01 X54.143 Y596.101
G01 X72.737 Y598.251
G01 X90.732 Y596.317
G01 X105.764 Y591.555
G01 X116.773 Y586.421
G01 X124.469 Y583.494
G01 X131.017 Y584.346
G01 X139.091 Y588.847
G01 X150.698 Y595.223
G01 X166.293 Y600.835
G01 X184.581 Y603.336
G01 X203.084 Y601.704
G01 X219.228 Y596.692
G01 X231.474 Y590.496
G01 X239.995 Y585.792
G01 X246.598 Y584.562
G01 X253.934 Y587.220
G01 X264.331 Y592.433
G01 X278.772 Y597.702
G01 X296.463 Y600.463
G01 X315.177 Y599.210
G01 X332.237 Y594.160
G01 X345.686 Y587.155
G01 X355.150 Y580.858
G01 X362.003 Y577.580
G01 X368.760 Y578.267
G01 X377.979 Y582.082
G01 X391.131 Y586.772
G01 X407.955 Y589.660
G01 X426.573 Y588.815
G01 X444.311 Y583.908
G01 X458.878 Y576.351
G01 X469.364 Y568.681
G01 X476.649 Y563.446
G01 X483.012 Y562.084
G01 X491.131 Y564.292
G01 X502.907 Y568.158
G01 X518.628 Y571.001
G01 X536.841 Y570.548
G01 X554.990 Y565.930
G01 X563.238 Y549.079
G01 X567.413 Y531.348
G01 X567.862 Y515.414
G01 X566.530 Y503.154
G01 X566.108 Y494.812
G01 X568.849 Y488.900
G01 X575.581 Y482.845
G01 X585.340 Y474.120
G01 X595.793 Y461.358
G01 X604.262 Y444.948
G01 X608.903 Y426.870
G01 X609.510 Y409.824
G01 X607.614 Y396.044
G01 X605.805 Y386.319
G01 X606.598 Y379.642
G01 X611.326 Y373.657
G01 X619.556 Y365.689
G01 X629.277 Y353.922
G01 X637.780 Y338.196
G01 X642.854 Y320.080
G01 X643.752 Y302.182
G01 X641.520 Y287.005
G01 X638.543 Y275.849
G01 X637.491 Y268.236
G01 X640.153 Y262.124
G01 X646.646 Y254.800
G01 X655.363 Y244.073
G01 X663.681 Y229.238
G01 X669.110 Y211.385
G01 X670.387 Y192.923
G01 X668.034 Y176.522
G01 X664.125 Y163.938
G01 X661.381 Y155.248
G01 X661.970 Y148.808
G01 X666.558 Y141.979
G01 X674.012 Y132.286
G01 X681.900 Y118.505
G01 X687.559 Y101.200
G01 X689.261 Y82.479
G01 X686.975 Y65.069
G01 X682.383 Y51.115
G01 X678.138 Y41.243
G01 X676.702 Y34.280
G01 X679.264 Y27.771
G01 X685.216 Y19.058
G01 X692.418 Y6.444
G01 X692.919 Y5.000
G01 X5.000 Y5.000
G01 X5.000 Y555.508
G01 X7.821 Y555.803
G01 X14.241 Y560.753
G01 X24.130 Y568.558
G01 X38.570 Y576.407
G01 X56.651 Y581.430
G01 X75.864 Y581.957
G01 X93.206 Y578.249
G01 X106.499 Y572.392
G01 X115.344 Y567.373
G01 X121.300 Y565.773
G01 X127.197 Y568.632
G01 X135.895 Y574.992
G01 X149.026 Y582.315
G01 X166.277 Y587.599
G01 X185.526 Y588.697
G01 X203.774 Y585.257
G01 X218.460 Y578.883
G01 X228.587 Y572.426
G01 X235.161 Y568.736
G01 X240.748 Y569.407
G01 X248.349 Y574.079
G01 X260.079 Y580.591
G01 X276.242 Y585.937
G01 X295.189 Y587.577
G01 X314.049 Y584.561
G01 X329.984 Y577.941
G01 X341.438 Y570.314
G01 X348.819 Y564.680
G01 X354.323 Y563.125
G01 X360.967 Y565.901
G01 X371.265 Y571.322
G01 X386.124 Y576.495
G01 X404.442 Y578.597
G01 X423.593 Y576.112
G01 X440.580 Y569.497
G01 X453.350 Y560.987
G01 X461.695 Y553.606
G01 X467.345 Y549.847
G01 X473.212 Y550.571
G01 X482.102 Y554.631
G01 X495.493 Y559.374
G01 X512.877 Y561.806
G01 X531.984 Y559.908
G01 X549.780 Y553.521
G01 X556.718 Y535.513
G01 X558.995 Y517.771
G01 X557.806 Y503.093
G01 X555.829 Y492.914
G01 X556.055 Y486.679
G01 X560.470 Y482.084
G01 X569.184 Y476.090
G01 X580.379 Y466.256
G01 X591.111 Y451.811
G01 X598.600 Y433.998
G01 X601.449 Y415.522
G01 X600.265 Y399.372
G01 X597.385 Y387.499
G01 X595.855 Y379.965
G01 X598.094 Y374.913
G01 X604.823 Y369.382
G01 X614.755 Y360.608
G01 X625.159 Y347.239
G01 X633.052 Y329.929
G01 X636.518 Y311.053
G01 X635.545 Y293.662
G01 X632.031 Y280.148
G01 X628.954 Y271.188
G01 X629.061 Y265.450
G01 X633.663 Y260.176
G01 X642.058 Y252.393
G01 X651.837 Y240.220
G01 X659.944 Y223.695
G01 X664.017 Y204.758
G01 X663.424 Y186.402
G01 X659.545 Y171.358
G01 X655.163 Y160.895
G01 X653.245 Y154.262
G01 X655.635 Y149.020
G01 X662.249 Y142.109
G01 X671.104 Y131.195
G01 X679.195 Y115.695
G01 X683.809 Y97.034
G01 X683.722 Y78.022
G01 X679.732 Y61.616
G01 X674.313 Y49.628
G01 X670.529 Y41.922
G01 X670.685 Y36.478
G01 X675.318 Y30.277
G01 X682.957 Y20.627
G01 X690.771 Y6.346
G01 X691.146 Y5.000
G01 X5.000 Y5.000
G01 X5.000 Y537.718
G01 X6.340 Y538.504
G01 X13.146 Y545.587
G01 X24.557 Y554.690
G01 X40.883 Y562.478
G01 X60.282 Y566.150
G01 X79.563 Y564.676
G01 X95.590 Y559.243
G01 X106.659 Y552.742
G01 X113.247 Y548.491
G01 X117.802 Y548.785
G01 X123.670 Y553.880
G01 X133.621 Y561.887
G01 X148.639 Y569.596
G01 X167.480 Y573.886
G01 X187.225 Y573.098
G01 X204.556 Y567.765
G01 X217.216 Y560.374
G01 X224.999 Y554.279
G01 X229.843 Y552.227
G01 X234.976 Y555.150
G01 X243.502 Y561.753
G01 X257.033 Y569.088
G01 X274.985 Y573.843
G01 X294.828 Y573.797
G01 X313.201 Y568.800
G01 X327.384 Y560.835
G01 X336.495 Y553.152
G01 X341.879 Y548.838
G01 X346.514 Y549.460
G01 X353.706 Y554.381
G01 X365.637 Y561.034
G01 X382.403 Y566.050
G01 X401.974 Y566.739
G01 X421.081 Y562.273
G01 X436.655 Y554.046
G01 X447.173 Y545.066
G01 X453.326 Y538.636
G01 X457.719 Y536.897
G01 X463.725 Y539.895
G01 X474.005 Y545.552
G01 X489.336 Y550.585
G01 X508.270 Y551.944
G01 X527.771 Y548.151
G01 X544.545 Y539.954
G01 X549.626 Y521.176
G01 X549.819 Y504.066
G01 X547.247 Y491.258
G01 X545.209 Y483.477
G01 X546.736 Y479.227
G01 X553.257 Y475.444
G01 X563.973 Y468.844
G01 X576.203 Y457.362
G01 X586.563 Y441.064
G01 X592.454 Y422.117
G01 X593.200 Y403.839
G01 X590.350 Y389.239
G01 X586.994 Y379.702
G01 X586.409 Y374.374
G01 X590.619 Y370.540
G01 X599.503 Y364.813
G01 X610.852 Y354.626
G01 X621.334 Y339.357
G01 X627.958 Y320.606
G01 X629.391 Y301.489
G01 X626.539 Y285.276
G01 X622.155 Y273.948
G01 X619.626 Y267.334
G01 X621.490 Y263.179
G01 X628.314 Y258.139
G01 X638.452 Y249.245
G01 X648.760 Y235.214
G01 X655.982 Y217.006
G01 X658.176 Y197.410
G01 X655.570 Y179.817
G01 X650.463 Y166.729
G01 X646.213 Y158.664
G01 X645.766 Y153.926
G01 X650.357 Y149.348
G01 X658.973 Y141.684
G01 X668.790 Y129.038
G01 X676.419 Y111.693
G01 X679.391 Y91.989
G01 X677.241 Y73.301
G01 X671.718 Y58.549
G01 X666.010 Y48.922
G01 X663.353 Y43.353
G01 X665.601 Y38.986
G01 X672.416 Y32.432
G01 X681.415 Y21.257
G01 X689.215 Y5.052
G01 X689.225 Y5.000
G01 X5.000 Y5.000
G01 X5.000 Y522.270
G01 X5.002 Y522.272
G01 X12.893 Y531.363
G01 X26.296 Y541.229
G01 X44.543 Y548.241
G01 X64.842 Y549.982
G01 X83.505 Y546.313
G01 X97.563 Y539.432
G01 X106.074 Y532.910
G01 X110.536 Y530.122
G01 X114.230 Y532.766
G01 X120.777 Y540.115
G01 X132.551 Y549.338
G01 X149.631 Y556.738
G01 X169.769 Y559.381
G01 X189.375 Y556.381
G01 X205.091 Y549.293
G01 X215.271 Y541.429
G01 X220.698 Y536.403
G01 X224.247 Y536.547
G01 X229.617 Y541.882
G01 X239.710 Y550.110
G01 X255.353 Y557.623
G01 X274.937 Y561.087
G01 X295.119 Y558.906
G01 X312.290 Y551.924
G01 X324.164 Y543.057
G01 X330.778 Y536.008
G01 X334.477 Y533.648
G01 X338.886 Y536.746
G01 X347.318 Y543.639
G01 X361.315 Y550.955
G01 X379.974 Y555.097
G01 X400.340 Y553.821
G01 X418.703 Y547.226
G01 X432.227 Y537.707
G01 X440.199 Y528.905
G01 X444.338 Y524.111
G01 X448.044 Y524.815
G01 X454.901 Y530.057
G01 X467.109 Y536.842
G01 X484.508 Y541.460
G01 X504.656 Y541.110
G01 X523.893 Y535.137
G01 X538.954 Y525.316
G01 X541.755 Y506.347
G01 X539.897 Y490.583
G01 X536.411 Y480.176
G01 X535.011 Y474.912
G01 X538.459 Y472.300
G01 X547.353 Y468.668
G01 X559.863 Y460.775
G01 X572.535 Y447.237
G01 X581.805 Y429.135
G01 X585.568 Y409.538
G01 X584.099 Y392.162
G01 X579.936 Y379.733
G01 X576.766 Y372.791
G01 X577.802 Y369.454
G01 X584.377 Y366.242
G01 X595.352 Y359.606
G01 X607.619 Y347.488
G01 X617.465 Y330.223
G01 X622.202 Y310.399
G01 X621.347 Y291.713
G01 X616.837 Y277.356
G01 X612.179 Y268.605
G01 X610.907 Y264.264
G01 X615.032 Y261.190
G01 X624.159 Y255.672
G01 X635.657 Y245.060
G01 X645.813 Y228.932
G01 X651.468 Y209.280
G01 X651.400 Y189.634
G01 X646.861 Y173.514
G01 X641.031 Y162.886
G01 X637.622 Y157.293
G01 X639.242 Y154.060
G01 X646.256 Y149.465
G01 X656.620 Y140.378
G01 X666.780 Y125.630
G01 X673.232 Y106.536
G01 X674.061 Y86.311
G01 X669.784 Y68.662
G01 X663.122 Y56.161
G01 X657.806 Y49.111
G01 X656.939 Y45.419
G01 X661.633 Y41.508
G01 X670.518 Y33.892
G01 X680.344 Y20.707
G01 X686.448 Y5.000
G01 X5.000 Y5.000
G01 X5.000 Y508.122
G01 X13.804 Y517.924
G01 X29.496 Y527.851
G01 X49.460 Y533.351
G01 X70.044 Y532.714
G01 X87.331 Y526.885
G01 X98.852 Y519.055
G01 X104.678 Y513.254
G01 X107.382 Y512.586
G01 X110.916 Y517.863
G01 X118.869 Y527.247
G01 X132.897 Y537.058
G01 X151.987 Y543.388
G01 X172.907 Y543.821
G01 X191.622 Y538.489
G01 X205.065 Y530.022
G01 X212.488 Y522.387
G01 X215.786 Y519.149
G01 X218.668 Y521.907
G01 X225.031 Y529.585
G01 X237.240 Y538.909
G01 X255.097 Y545.844
G01 X275.921 Y547.362
G01 X295.726 Y542.777
G01 X310.974 Y534.046
G01 X320.125 Y524.908
G01 X324.316 Y519.246
G01 X326.862 Y519.377
G01 X331.799 Y525.037
G01 X342.114 Y533.495
G01 X358.428 Y540.752
G01 X378.727 Y543.297
G01 X399.240 Y539.650
G01 X416.101 Y531.011
G01 X427.041 Y520.737
G01 X432.388 Y512.866
G01 X434.925 Y510.342
G01 X438.662 Y513.726
G01 X447.083 Y520.943
G01 X461.609 Y528.199
G01 X480.973 Y531.642
G01 X501.780 Y529.055
G01 X519.992 Y520.833
G01 X532.706 Y509.808
G01 X532.995 Y491.373
G01 X529.356 Y477.663
G01 X525.612 Y470.040
G01 X525.598 Y467.178
G01 X531.477 Y465.642
G01 X542.791 Y461.398
G01 X556.656 Y451.587
G01 X569.034 Y435.776
G01 X576.504 Y416.156
G01 X577.763 Y396.576
G01 X574.201 Y380.854
G01 X569.290 Y371.101
G01 X567.062 Y366.794
G01 X570.335 Y365.003
G01 X579.474 Y361.678
G01 X592.235 Y353.431
G01 X604.743 Y339.021
G01 X613.198 Y319.900
G01 X615.544 Y299.580
G01 X612.370 Y282.089
G01 X606.654 Y270.200
G01 X602.455 Y264.217
G01 X603.132 Y261.838
G01 X609.864 Y259.166
G01 X621.136 Y252.421
G01 X633.401 Y239.602
G01 X642.637 Y221.364
G01 X646.116 Y200.734
G01 X643.599 Y181.781
G01 X637.445 Y167.829
G01 X631.575 Y159.998
G01 X629.748 Y156.712
G01 X633.911 Y154.388
G01 X643.344 Y149.013
G01 X654.974 Y137.903
G01 X664.725 Y120.887
G01 X669.308 Y100.381
G01 X667.663 Y80.326
G01 X661.431 Y64.461
G01 X654.230 Y54.680
G01 X650.066 Y50.198
G01 X651.576 Y47.896
G01 X658.867 Y43.692
G01 X669.469 Y34.333
G01 X679.419 Y18.822
G01 X683.285 Y5.000
G01 X5.000 Y5.000
G01 X5.000 Y494.010
G01 X16.143 Y505.006
G01 X34.197 Y514.185
G01 X55.430 Y517.497
G01 X75.530 Y514.231
G01 X90.686 Y506.527
G01 X99.264 Y498.439
G01 X102.521 Y494.154
G01 X104.058 Y496.151
G01 X108.236 Y504.114
G01 X118.260 Y515.070
G01 X134.773 Y524.691
G01 X155.570 Y529.198
G01 X176.567 Y527.019
G01 X193.593 Y519.483
G01 X204.223 Y510.232
G01 X208.842 Y503.628
G01 X210.478 Y502.833
G01 X213.472 Y508.420
G01 X221.570 Y518.122
G01 X236.279 Y527.827
G01 X256.203 Y533.383
G01 X277.654 Y532.419
G01 X296.275 Y525.394
G01 X308.947 Y515.389
G01 X315.166 Y506.759
G01 X317.260 Y503.218
G01 X319.369 Y506.208
G01 X325.626 Y514.267
G01 X338.343 Y523.667
G01 X356.992 Y530.052
G01 X378.437 Y530.352
G01 X398.311 Y524.134
G01 X412.933 Y513.786
G01 X420.925 Y503.478
G01 X423.817 Y497.323
G01 X425.378 Y497.577
G01 X429.956 Y503.640
G01 X440.574 Y512.327
G01 X457.598 Y519.260
G01 X478.573 Y520.793
G01 X499.306 Y515.615
G01 X515.702 Y505.324
G01 X525.566 Y493.729
G01 X523.345 Y476.638
G01 X518.434 Y465.609
G01 X515.220 Y460.938
G01 X517.312 Y460.112
G01 X525.957 Y458.914
G01 X539.487 Y453.272
G01 X554.057 Y441.050
G01 X565.326 Y422.987
G01 X570.371 Y402.373
G01 X568.964 Y383.604
G01 X563.681 Y370.255
G01 X558.761 Y363.505
G01 X558.255 Y361.621
G01 X564.239 Y360.720
G01 X575.904 Y356.471
G01 X589.910 Y346.001
G01 X601.854 Y329.155
G01 X608.201 Y308.567
G01 X607.837 Y288.502
G01 X602.563 Y272.985
G01 X596.299 Y264.035
G01 X593.367 Y260.772
G01 X596.591 Y259.809
G01 X606.055 Y256.736
G01 X619.066 Y248.057
G01 X631.338 Y232.729
G01 X638.871 Y212.618
G01 X639.709 Y191.681
G01 X634.801 Y174.232
G01 X627.584 Y163.042
G01 X622.473 Y158.126
G01 X622.924 Y156.734
G01 X629.914 Y154.559
G01 X641.512 Y147.629
G01 X653.724 Y134.049
G01 X662.251 Y114.840
G01 X664.373 Y93.487
G01 X660.146 Y74.410
G01 X652.380 Y61.026
G01 X645.400 Y54.243
G01 X643.155 Y52.066
G01 X647.473 Y50.468
G01 X657.268 Y45.161
G01 X669.007 Y33.482
G01 X678.267 Y15.557
G01 X679.955 Y5.000
G01 X5.000 Y5.000
G01 X5.000 Y479.460
G01 X5.446 Y480.179
G01 X20.087 Y492.259
G01 X40.314 Y499.851
G01 X62.147 Y500.435
G01 X80.905 Y494.535
G01 X93.262 Y485.488
G01 X98.709 Y477.975
G01 X99.775 Y475.969
G01 X100.920 Y480.991
G01 X106.574 Y491.435
G01 X119.193 Y503.279
G01 X138.177 Y511.848
G01 X160.132 Y513.866
G01 X180.365 Y508.899
G01 X194.938 Y499.544
G01 X202.401 Y490.289
G01 X204.430 Y485.542
G01 X205.091 Y487.698
G01 X209.052 Y496.080
G01 X219.537 Y507.243
G01 X236.903 Y516.480
G01 X258.489 Y519.894
G01 X279.778 Y516.106
G01 X296.385 Y506.865
G01 X305.978 Y496.278
G01 X309.306 Y489.008
G01 X309.872 Y488.226
G01 X312.389 Y494.217
G01 X320.717 Y504.253
G01 X336.160 Y513.794
G01 X356.899 Y518.478
G01 X378.784 Y516.038
G01 X397.159 Y507.301
G01 X408.908 Y495.821
G01 X413.819 Y486.324
G01 X414.684 Y482.627
G01 X416.068 Y485.966
G01 X422.306 Y494.449
G01 X435.600 Y503.887
G01 X455.048 Y509.634
G01 X477.040 Y508.629
G01 X496.845 Y500.738
G01 X510.685 Y488.816
G01 X517.396 Y477.451
G01 X512.931 Y462.522
G01 X507.466 Y454.641
G01 X505.634 Y452.835
G01 X510.443 Y453.443
G01 X521.951 Y451.726
G01 X537.239 Y443.953
G01 X551.695 Y429.033
G01 X561.037 Y409.001
G01 X563.195 Y388.123
G01 X559.219 Y371.022
G01 X552.822 Y360.650
G01 X548.746 Y356.990
G01 X550.682 Y357.063
G01 X559.646 Y356.234
G01 X573.534 Y350.251
G01 X588.043 Y337.113
G01 X598.564 Y317.945
G01 X602.200 Y296.512
G01 X599.048 Y277.560
G01 X592.148 Y264.736
G01 X586.154 Y258.984
G01 X585.289 Y258.130
G01 X591.488 Y257.837
G01 X603.550 Y253.509
G01 X617.662 Y242.310
G01 X629.076 Y224.413
G01 X634.190 Y202.919
G01 X632.136 Y182.504
G01 X625.156 Y167.359
G01 X617.624 Y159.352
G01 X614.120 Y157.208
G01 X617.421 Y157.067
G01 X627.280 Y154.179
G01 X640.534 Y144.991
G01 X652.492 Y128.708
G01 X658.994 Y107.644
G01 X658.241 Y86.206
G01 X651.584 Y68.959
G01 X642.932 Y58.620
G01 X637.034 Y54.869
G01 X637.396 Y54.481
G01 X644.739 Y52.750
G01 X656.682 Y45.552
G01 X668.784 Y31.156
G01 X676.500 Y10.988
G01 X676.683 Y5.000
G01 X5.000 Y5.000
G01 X5.000 Y463.477
G01 X8.235 Y467.819
G01 X25.697 Y479.282
G01 X47.640 Y484.495
G01 X69.225 Y482.020
G01 X85.775 Y473.757
G01 X94.829 Y464.116
G01 X97.223 Y458.078
G01 X96.725 Y459.004
G01 X98.379 Y467.165
G01 X106.287 Y479.615
G01 X121.813 Y491.490
G01 X142.976 Y498.140
G01 X165.326 Y497.174
G01 X183.889 Y489.509
G01 X195.361 Y478.969
G01 X199.552 Y470.607
G01 X199.473 Y468.483
G01 X200.017 Y473.884
G01 X205.802 Y484.755
G01 X219.151 Y496.601
G01 X239.064 Y504.462
G01 X261.661 Y505.093
G01 X281.882 Y498.385
G01 X295.710 Y487.419
G01 X301.936 Y477.109
G01 X302.691 Y472.048
G01 X302.508 Y474.488
G01 X306.335 Y483.351
G01 X317.358 Y494.699
G01 X335.602 Y503.469
G01 X357.921 Y505.691
G01 X379.375 Y500.235
G01 X395.401 Y489.306
G01 X403.820 Y477.480
G01 X405.788 Y469.689
G01 X405.295 Y469.062
G01 X407.410 Y475.542
G01 X416.054 Y485.918
G01 X432.280 Y495.228
G01 X453.804 Y498.943
G01 X476.015 Y494.953
G01 X493.991 Y484.499
G01 X504.667 Y471.622
G01 X508.179 Y461.396
G01 X501.999 Y449.365
G01 X496.853 Y444.876
G01 X497.237 Y445.573
G01 X505.187 Y446.808
G01 X519.385 Y443.676
G01 X535.734 Y433.176
G01 X549.160 Y415.527
G01 X555.839 Y394.072
G01 X554.875 Y373.812
G01 X548.699 Y359.211
G01 X541.997 Y352.232
G01 X539.655 Y351.479
G01 X544.611 Y352.804
G01 X556.567 Y351.133
G01 X572.114 Y342.693
G01 X586.233 Y326.671
G01 X594.498 Y305.570
G01 X595.017 Y284.112
G01 X589.269 Y267.165
G01 X581.451 Y257.605
G01 X576.636 Y255.052
G01 X578.547 Y256.035
G01 X587.917 Y255.519
G01 X602.171 Y249.115
G01 X616.552 Y235.007
G01 X626.213 Y214.752
G01 X628.343 Y192.599
G01 X623.405 Y173.620
G01 X614.933 Y161.484
G01 X607.977 Y156.846
G01 X606.890 Y157.059
G01 X613.412 Y157.334
G01 X625.908 Y152.846
G01 X640.081 Y140.851
G01 X650.864 Y121.894
G01 X654.641 Y99.571
G01 X650.838 Y78.948
G01 X642.175 Y64.339
G01 X633.473 Y57.410
G01 X629.535 Y56.447
G01 X633.038 Y57.108
G01 X643.357 Y54.330
G01 X656.835 Y44.553
G01 X668.393 Y27.285
G01 X673.758 Y5.317
G01 X673.722 Y5.000
G01 X5.000 Y5.000
G01 X5.000 Y447.396
G01 X12.767 Y455.759
G01 X32.903 Y465.652
G01 X55.854 Y467.835
G01 X76.233 Y462.231
G01 X89.788 Y452.150
G01 X95.267 Y442.833
G01 X94.975 Y439.152
G01 X93.752 Y443.470
G01 X96.859 Y454.602
G01 X107.657 Y468.335
G01 X126.137 Y479.277
G01 X148.918 Y483.226
G01 X170.733 Y479.015
G01 X186.744 Y469.026
G01 X194.663 Y458.145
G01 X195.759 Y451.616
G01 X194.302 Y452.736
G01 X195.688 Y461.409
G01 X204.066 Y474.187
G01 X220.518 Y485.780
G01 X242.583 Y491.384
G01 X265.334 Y488.790
G01 X283.543 Y479.352
G01 X293.978 Y467.396
G01 X296.820 Y458.321
G01 X295.589 Y456.225
G01 X295.592 Y462.107
G01 X301.598 Y473.427
G01 X315.738 Y485.219
G01 X336.573 Y492.275
G01 X359.719 Y491.429
G01 X379.778 Y482.951
G01 X392.703 Y470.428
G01 X397.580 Y459.190
G01 X397.028 Y453.966
G01 X396.047 Y456.813
G01 X399.828 Y466.206
G01 X411.467 Y477.708
G01 X430.606 Y485.923
G01 X453.592 Y486.858
G01 X475.075 Y479.685
G01 X490.362 Y467.100
G01 X497.477 Y454.144
G01 X498.028 Y445.984
G01 X490.901 Y437.429
G01 X487.033 Y436.299
G01 X490.360 Y438.872
G01 X501.626 Y439.785
G01 X518.056 Y434.386
G01 X534.576 Y420.777
G01 X546.037 Y400.653
G01 X549.482 Y378.555
G01 X545.440 Y359.877
G01 X537.699 Y348.497
G01 X531.638 Y345.075
G01 X531.869 Y346.760
G01 X540.208 Y348.444
G01 X554.879 Y345.005
G01 X571.289 Y333.555
G01 X584.050 Y314.711
G01 X589.342 Y292.327
G01 X586.591 Y271.798
G01 X578.723 Y257.693
G01 X570.881 Y251.750
G01 X568.163 Y252.108
G01 X573.385 Y254.128
G01 X585.843 Y252.426
G01 X601.619 Y243.243
G01 X615.307 Y226.092
G01 X622.380 Y203.975
G01 X621.183 Y182.068
G01 X613.660 Y165.442
G01 X604.500 Y156.843
G01 X599.077 Y155.479
G01 X601.094 Y157.373
G01 X610.950 Y157.105
G01 X625.569 Y150.194
G01 X639.745 Y135.069
G01 X648.435 Y113.756
G01 X648.967 Y90.992
G01 X642.220 Y72.146
G01 X632.234 Y60.857
G01 X624.439 Y57.439
G01 X623.271 Y58.743
G01 X630.219 Y59.535
G01 X643.175 Y54.801
G01 X657.356 Y41.945
G01 X667.405 Y21.931
G01 X669.122 Y5.000
G01 X5.000 Y5.000
G01 X5.000 Y431.707
G01 X19.137 Y443.563
G01 X41.501 Y450.971
G01 X64.545 Y449.686
G01 X82.733 Y441.185
G01 X92.671 Y430.080
G01 X94.591 Y422.094
G01 X92.255 Y421.547
G01 X91.299 Y429.458
G01 X96.762 Y443.098
G01 X110.867 Y457.186
G01 X132.049 Y466.209
G01 X155.636 Y466.842
G01 X175.904 Y459.412
G01 X188.592 Y447.753
G01 X192.767 Y437.522
G01 X191.241 Y433.716
G01 X189.335 Y438.478
G01 X192.540 Y450.152
G01 X204.105 Y464.011
G01 X223.613 Y474.334
G01 X247.157 Y476.917
G01 X269.062 Y470.919
G01 X284.370 Y459.234
G01 X291.022 Y447.222
G01 X290.764 Y440.351
G01 X288.376 Y441.798
G01 X289.577 Y451.053
G01 X298.510 Y464.142
G01 X315.924 Y475.370
G01 X338.844 Y479.826
G01 X361.872 Y475.535
G01 X379.565 Y464.331
G01 X388.818 Y451.050
G01 X390.234 Y441.406
G01 X387.855 Y439.484
G01 X387.391 Y445.942
G01 X393.710 Y457.724
G01 X408.699 Y469.398
G01 X430.435 Y475.547
G01 X454.029 Y473.142
G01 X473.772 Y462.879
G01 X485.641 Y448.868
G01 X489.068 Y436.836
G01 X487.190 Y431.604
G01 X480.067 Y426.866
G01 X478.434 Y428.761
G01 X485.242 Y432.350
G01 X499.704 Y431.930
G01 X517.641 Y423.544
G01 X533.315 Y406.717
G01 X541.950 Y384.665
G01 X541.830 Y362.887
G01 X535.053 Y346.745
G01 X526.611 Y339.114
G01 X522.195 Y339.116
G01 X525.700 Y342.507
G01 X537.510 Y343.536
G01 X554.329 Y337.479
G01 X570.629 Y322.706
G01 X581.076 Y301.405
G01 X582.875 Y278.615
G01 X576.996 Y260.022
G01 X567.750 Y249.453
G01 X560.895 Y247.201
G01 X561.109 Y249.894
G01 X569.933 Y251.975
G01 X585.093 Y248.142
G01 X601.501 Y235.679
G01 X613.485 Y215.648
G01 X617.283 Y192.427
G01 X612.695 Y171.782
G01 X603.172 Y158.341
G01 X594.299 Y153.558
G01 X591.345 Y155.073
G01 X596.948 Y157.752
G01 X609.952 Y155.936
G01 X625.920 Y145.933
G01 X639.076 Y127.635
G01 X644.846 Y104.570
G01 X641.865 Y82.351
G01 X632.579 Y66.215
G01 X622.169 Y58.718
G01 X616.279 Y58.614
G01 X618.533 Y61.405
G01 X628.948 Y61.309
G01 X643.919 Y53.807
G01 X657.808 Y37.623
G01 X665.415 Y15.291
G01 X664.907 Y5.000
G01 X5.000 Y5.000
G01 X5.000 Y414.625
G01 X7.652 Y418.423
G01 X27.297 Y430.766
G01 X51.163 Y434.906
G01 X73.245 Y429.996
G01 X88.324 Y419.134
G01 X94.266 Y407.996
G01 X92.953 Y402.349
G01 X89.462 Y405.518
G01 X89.834 Y416.919
G01 X98.420 Y432.322
G01 X115.967 Y445.703
G01 X139.294 Y451.892
G01 X162.684 Y448.843
G01 X180.396 Y438.534
G01 X189.186 Y426.099
G01 X189.733 Y417.573
G01 X186.339 Y417.241
G01 X185.043 Y425.758
G01 X190.967 Y439.857
G01 X206.065 Y453.784
G01 X228.266 Y461.828
G01 X252.381 Y460.825
G01 X272.379 Y451.552
G01 X284.041 Y438.383
G01 X286.811 Y427.372
G01 X284.036 Y423.592
G01 X281.506 Y428.907
G01 X284.901 Y441.154
G01 X297.305 Y455.089
G01 X317.842 Y464.691
G01 X342.066 Y465.811
G01 X363.911 Y457.986
G01 X378.353 Y444.652
G01 X383.619 Y431.629
G01 X381.965 Y424.570
G01 X378.687 Y426.474
G01 X379.794 Y436.371
G01 X389.368 Y449.745
G01 X407.772 Y460.520
G01 X431.488 Y463.724
G01 X454.663 Y457.678
G01 X471.676 Y444.729
G01 X479.611 Y430.227
G01 X479.533 Y420.167
G01 X476.027 Y418.565
G01 X469.973 Y417.691
G01 X471.435 Y421.981
G01 X482.000 Y425.550
G01 X499.228 Y422.815
G01 X517.721 Y410.943
G01 X531.493 Y391.099
G01 X536.603 Y367.934
G01 X532.882 Y347.544
G01 X524.010 Y334.792
G01 X515.899 Y331.174
G01 X514.099 Y334.157
G01 X521.357 Y338.296
G01 X536.413 Y337.622
G01 X554.549 Y328.265
G01 X569.662 Y310.155
G01 X576.947 Y287.053
G01 X575.001 Y264.901
G01 X566.449 Y249.210
G01 X556.782 Y242.645
G01 X551.955 Y243.848
G01 X555.763 Y248.037
G01 X568.180 Y249.106
G01 X585.366 Y242.306
G01 X601.353 Y226.332
G01 X610.668 Y203.897
G01 X610.733 Y180.542
G01 X603.004 Y162.201
G01 X592.325 Y152.599
G01 X584.807 Y151.610
G01 X585.141 Y155.318
G01 X594.538 Y157.730
G01 X610.195 Y153.413
G01 X626.528 Y139.879
G01 X637.620 Y118.680
G01 X639.824 Y94.723
G01 X633.364 Y74.123
G01 X622.235 Y61.510
G01 X612.452 Y58.001
G01 X609.408 Y60.705
G01 X615.502 Y63.995
G01 X629.090 Y61.976
G01 X645.199 Y51.079
G01 X657.718 Y31.625
G01 X662.077 Y7.688
G01 X661.498 Y5.000
G01 X5.000 Y5.000
G01 X5.000 Y396.746
