; file trimmed by trimify2x.pl
; Created by Sandify
; 
;   https://sandify.org
; 
;   Sandify Version: 0.1.4
; 
;   Machine Type: Rectangular
;     MinX: 5 MaxX: 710 MinY: 5 MaxY: 1600
;   Content Type: Shapes
;     Starting Size: 576
;     Offset: X: 1 Y: -1000
;     Selected Shape: Reuleaux
;       Reuleaux Sides: 2.2
;     Number of Loops: 163
;     Spin: true
;       Spin Value: -0.2
;       Spin Switchbacks: 4
;     Grow: true
;       Grow Value: 8.2
;     Track: true
;       Track Size: 53
;       Track Length: 880.7
;       Track Grow: true
;           Track Grow Value: -17
;   Path Reversed: false
;  23:49
; filename: 'rolo2'

; BEGIN PRE
G28  Y
G28 X
G01 F30000; END PRE
G01 X34.300 Y5.000
G01 X527.219 Y5.000
G01 X520.388 Y9.400
G01 X500.899 Y5.000
G01 X516.738 Y5.000
G01 X476.905 Y29.077
G01 X427.519 Y16.516
G01 X421.525 Y5.000
G01 X481.157 Y5.000
G01 X477.429 Y19.645
G01 X431.918 Y45.409
G01 X382.685 Y31.449
G01 X369.652 Y5.000
G01 X439.992 Y5.000
G01 X431.846 Y33.866
G01 X385.691 Y58.283
G01 X336.668 Y42.918
G01 X319.031 Y5.000
G01 X397.495 Y5.000
G01 X385.236 Y44.559
G01 X338.493 Y67.610
G01 X289.738 Y50.836
G01 X270.881 Y7.735
G01 X272.421 Y5.000
G01 X352.528 Y5.000
G01 X353.252 Y6.111
G01 X337.874 Y51.653
G01 X290.603 Y73.318
G01 X242.175 Y55.136
G01 X224.196 Y11.279
G01 X227.861 Y5.000
G01 X303.106 Y5.000
G01 X306.422 Y10.284
G01 X290.043 Y55.095
G01 X242.302 Y75.359
G01 X194.261 Y55.773
G01 X177.204 Y11.177
G01 X180.946 Y5.000
G01 X255.858 Y5.000
G01 X259.362 Y10.799
G01 X242.027 Y54.855
G01 X193.876 Y73.707
G01 X146.281 Y52.725
G01 X130.193 Y7.408
G01 X131.707 Y5.000
G01 X210.818 Y5.000
G01 X212.357 Y7.644
G01 X194.114 Y50.926
G01 X145.613 Y68.359
G01 X98.524 Y45.992
G01 X85.094 Y5.000
G01 X163.821 Y5.000
G01 X146.590 Y43.323
G01 X97.800 Y59.333
G01 X51.275 Y35.596
G01 X42.088 Y5.000
G01 X112.683 Y5.000
G01 X99.741 Y32.083
G01 X50.722 Y46.671
G01 X5.000 Y21.679
G01 X5.000 Y5.000
G01 X60.058 Y5.000
G01 X53.849 Y17.266
G01 X5.000 Y30.343
G01 X5.000 Y5.000
G01 X559.118 Y5.000
G01 X515.552 Y20.136
G01 X485.082 Y5.000
G01 X529.247 Y5.000
G01 X518.545 Y25.521
G01 X468.814 Y41.193
G01 X425.309 Y18.141
G01 X422.396 Y5.000
G01 X492.629 Y5.000
G01 X470.655 Y44.420
G01 X420.458 Y58.645
G01 X377.315 Y34.297
G01 X371.425 Y5.000
G01 X442.962 Y5.000
G01 X446.818 Y16.784
G01 X421.369 Y59.615
G01 X370.766 Y72.372
G01 X328.043 Y46.726
G01 X320.531 Y5.000
G01 X390.091 Y5.000
G01 X397.430 Y29.136
G01 X370.977 Y71.003
G01 X320.032 Y82.275
G01 X277.787 Y55.332
G01 X270.826 Y11.456
G01 X277.618 Y5.000
G01 X337.988 Y5.000
G01 X347.183 Y37.630
G01 X319.779 Y78.506
G01 X268.554 Y88.279
G01 X226.846 Y60.044
G01 X220.768 Y15.637
G01 X232.251 Y5.000
G01 X286.693 Y5.000
G01 X296.379 Y42.209
G01 X268.077 Y82.069
G01 X216.637 Y90.333
G01 X175.524 Y60.813
G01 X170.373 Y15.892
G01 X182.447 Y5.000
G01 X236.256 Y5.000
G01 X245.325 Y42.835
G01 X216.180 Y81.658
G01 X164.588 Y88.409
G01 X124.130 Y57.617
G01 X119.948 Y12.199
G01 X128.152 Y5.000
G01 X186.745 Y5.000
G01 X194.330 Y39.498
G01 X164.396 Y77.268
G01 X112.718 Y82.503
G01 X72.974 Y50.453
G01 X69.833 Y5.000
G01 X138.239 Y5.000
G01 X143.703 Y32.211
G01 X113.035 Y68.913
G01 X61.335 Y72.635
G01 X22.363 Y39.348
G01 X20.793 Y5.000
G01 X90.830 Y5.000
G01 X93.753 Y21.010
G01 X62.406 Y56.636
G01 X10.747 Y58.850
G01 X5.000 Y53.651
G01 X5.000 Y5.000
G01 X44.624 Y5.000
G01 X44.782 Y5.957
G01 X12.811 Y40.499
G01 X5.000 Y40.608
G01 X5.000 Y5.000
G01 X576.959 Y5.000
G01 X562.831 Y21.832
G01 X511.821 Y27.020
G01 X485.819 Y5.000
G01 X546.998 Y5.000
G01 X547.210 Y7.628
G01 X513.213 Y45.798
G01 X461.920 Y49.504
G01 X426.819 Y18.249
G01 X427.569 Y5.000
G01 X495.434 Y5.000
G01 X496.765 Y28.901
G01 X461.797 Y65.921
G01 X410.283 Y68.125
G01 X375.704 Y35.732
G01 X377.958 Y5.000
G01 X443.476 Y5.000
G01 X444.768 Y46.231
G01 X408.886 Y82.070
G01 X357.215 Y82.756
G01 X323.214 Y49.224
G01 X326.930 Y8.274
G01 X333.653 Y5.000
G01 X377.724 Y5.000
G01 X391.192 Y14.578
G01 X391.529 Y59.507
G01 X354.791 Y94.134
G01 X303.029 Y93.290
G01 X269.662 Y58.623
G01 X274.155 Y17.347
G01 X300.146 Y5.000
G01 X311.895 Y5.000
G01 X338.071 Y24.160
G01 X337.366 Y68.640
G01 X299.832 Y102.030
G01 X248.045 Y99.647
G01 X215.370 Y63.852
G01 X220.681 Y22.260
G01 X254.057 Y6.809
G01 X284.306 Y29.563
G01 X282.604 Y73.566
G01 X244.335 Y105.698
G01 X192.590 Y101.772
G01 X160.665 Y64.860
G01 X166.834 Y22.965
G01 X200.499 Y7.797
G01 X230.227 Y30.745
G01 X227.572 Y74.247
G01 X188.630 Y105.105
G01 X136.994 Y99.635
G01 X105.877 Y61.621
G01 X112.944 Y19.441
G01 X145.921 Y5.000
G01 X147.482 Y5.000
G01 X176.164 Y27.690
G01 X172.603 Y70.672
G01 X133.049 Y100.241
G01 X81.589 Y93.232
G01 X51.338 Y54.135
G01 X59.343 Y11.690
G01 X75.089 Y5.000
G01 X103.419 Y5.000
G01 X122.448 Y20.410
G01 X118.026 Y62.855
G01 X77.923 Y91.125
G01 X26.707 Y82.584
G01 X5.000 Y52.863
G01 X5.000 Y6.211
G01 X5.255 Y5.000
G01 X64.654 Y5.000
G01 X69.410 Y8.938
G01 X64.174 Y50.834
G01 X23.583 Y77.801
G01 X5.000 Y74.128
G01 X5.000 Y5.000
G01 X15.682 Y5.000
G01 X11.371 Y34.675
G01 X5.000 Y38.661
G01 X5.000 Y5.000
G01 X613.598 Y5.000
G01 X610.339 Y7.563
G01 X584.848 Y5.000
G01 X601.334 Y5.000
G01 X601.125 Y6.316
G01 X559.634 Y36.944
G01 X510.155 Y30.532
G01 X491.910 Y5.000
G01 X554.302 Y5.000
G01 X549.041 Y33.079
G01 X506.700 Y62.391
G01 X457.171 Y54.510
G01 X432.246 Y17.896
G01 X436.936 Y5.000
G01 X501.337 Y5.000
G01 X504.940 Y9.575
G01 X494.977 Y55.775
G01 X451.847 Y83.737
G01 X402.332 Y74.371
G01 X378.026 Y36.812
G01 X390.064 Y5.000
G01 X432.343 Y5.000
G01 X450.355 Y28.737
G01 X439.253 Y74.258
G01 X395.397 Y100.840
G01 X345.962 Y89.978
G01 X322.329 Y51.473
G01 X336.306 Y16.008
G01 X371.181 Y11.890
G01 X394.392 Y43.601
G01 X382.201 Y88.407
G01 X337.684 Y113.584
G01 X288.396 Y101.216
G01 X265.491 Y61.773
G01 X280.115 Y26.169
G01 X314.961 Y22.339
G01 X337.389 Y54.069
G01 X324.161 Y98.129
G01 X279.048 Y121.878
G01 X229.975 Y108.002
G01 X207.854 Y67.627
G01 X223.164 Y31.891
G01 X258.011 Y28.342
G01 X279.692 Y60.068
G01 X265.479 Y103.354
G01 X219.838 Y125.659
G01 X171.048 Y110.275
G01 X149.767 Y68.982
G01 X165.801 Y33.124
G01 X200.680 Y29.853
G01 X221.652 Y61.554
G01 X206.507 Y104.043
G01 X160.406 Y124.891
G01 X111.968 Y108.003
G01 X91.582 Y65.808
G01 X108.380 Y29.843
G01 X143.321 Y26.849
G01 X163.621 Y58.511
G01 X147.599 Y100.183
G01 X101.106 Y119.565
G01 X53.089 Y101.182
G01 X33.653 Y58.107
G01 X51.254 Y22.052
G01 X86.288 Y19.338
G01 X105.954 Y50.949
G01 X89.109 Y91.788
G01 X42.292 Y109.700
G01 X5.000 Y94.114
G01 X5.000 Y9.076
G01 X29.933 Y7.355
G01 X49.002 Y38.906
G01 X31.391 Y78.901
G01 X5.000 Y88.118
G01 X5.000 Y5.000
G01 X635.832 Y5.000
G01 X609.993 Y17.084
G01 X574.820 Y5.000
G01 X613.277 Y5.000
G01 X603.383 Y27.902
G01 X556.208 Y48.211
G01 X511.330 Y31.387
G01 X501.327 Y5.000
G01 X565.756 Y5.000
G01 X568.605 Y11.946
G01 X547.867 Y56.307
G01 X500.051 Y75.157
G01 X455.329 Y56.942
G01 X441.490 Y18.131
G01 X451.744 Y5.000
G01 X499.834 Y5.000
G01 X512.121 Y36.945
G01 X490.242 Y80.385
G01 X441.851 Y97.747
G01 X397.349 Y78.128
G01 X384.159 Y38.582
G01 X405.949 Y11.189
G01 X439.855 Y18.749
G01 X453.812 Y57.501
G01 X430.849 Y99.980
G01 X381.952 Y115.828
G01 X337.736 Y94.797
G01 X325.246 Y54.517
G01 X347.461 Y27.130
G01 X381.045 Y34.932
G01 X394.030 Y73.481
G01 X370.041 Y114.965
G01 X320.707 Y129.277
G01 X276.845 Y106.830
G01 X265.107 Y65.821
G01 X287.786 Y38.437
G01 X321.080 Y46.464
G01 X333.134 Y84.780
G01 X308.179 Y125.238
G01 X258.480 Y137.997
G01 X215.040 Y114.133
G01 X204.107 Y72.404
G01 X227.287 Y45.026
G01 X260.325 Y53.265
G01 X271.493 Y91.322
G01 X245.633 Y130.728
G01 X195.640 Y141.921
G01 X152.690 Y116.645
G01 X142.617 Y74.208
G01 X166.335 Y46.842
G01 X199.152 Y55.284
G01 X209.479 Y93.059
G01 X182.776 Y131.391
G01 X132.561 Y141.010
G01 X90.171 Y114.332
G01 X81.011 Y71.203
G01 X105.307 Y43.860
G01 X137.936 Y52.498
G01 X147.469 Y89.973
G01 X119.984 Y127.213
G01 X69.621 Y135.254
G01 X27.859 Y107.187
G01 X19.665 Y63.388
G01 X44.577 Y36.081
G01 X77.054 Y44.914
G01 X85.837 Y82.074
G01 X57.635 Y118.210
G01 X7.196 Y124.675
G01 X5.000 Y123.101
G01 X5.000 Y29.254
G01 X16.881 Y32.569
G01 X24.960 Y69.404
G01 X5.000 Y93.628
G01 X5.000 Y5.000
G01 X664.667 Y5.000
G01 X659.603 Y12.168
G01 X610.356 Y22.846
G01 X582.188 Y5.000
G01 X633.351 Y5.000
G01 X633.555 Y6.489
G01 X603.313 Y46.579
G01 X553.583 Y55.756
G01 X515.887 Y30.467
G01 X513.631 Y5.000
G01 X572.163 Y5.000
G01 X575.774 Y37.639
G01 X544.438 Y76.599
G01 X494.292 Y84.243
G01 X456.914 Y57.695
G01 X454.173 Y19.918
G01 X477.456 Y5.000
G01 X486.047 Y5.000
G01 X512.014 Y20.909
G01 X515.693 Y64.246
G01 X483.326 Y102.033
G01 X432.833 Y108.118
G01 X395.837 Y80.302
G01 X393.704 Y42.000
G01 X421.352 Y24.498
G01 X451.105 Y43.244
G01 X453.671 Y86.140
G01 X420.336 Y122.718
G01 X369.569 Y127.223
G01 X333.021 Y98.131
G01 X331.545 Y59.303
G01 X359.394 Y41.898
G01 X388.578 Y60.763
G01 X390.081 Y103.182
G01 X355.844 Y138.517
G01 X304.875 Y141.424
G01 X268.841 Y111.056
G01 X268.072 Y71.704
G01 X296.160 Y54.389
G01 X324.814 Y73.350
G01 X325.304 Y115.259
G01 X290.232 Y149.323
G01 X239.136 Y150.619
G01 X203.683 Y118.977
G01 X203.673 Y79.110
G01 X232.038 Y61.881
G01 X260.200 Y80.919
G01 X259.730 Y122.290
G01 X223.891 Y155.060
G01 X172.743 Y154.737
G01 X137.939 Y121.829
G01 X138.740 Y81.457
G01 X167.421 Y64.316
G01 X195.131 Y83.416
G01 X193.753 Y124.225
G01 X157.216 Y155.681
G01 X106.093 Y153.736
G01 X72.006 Y119.574
G01 X73.669 Y78.712
G01 X102.706 Y61.664
G01 X130.003 Y80.816
G01 X127.772 Y121.043
G01 X90.608 Y151.171
G01 X39.585 Y147.606
G01 X6.282 Y112.206
G01 X8.859 Y70.875
G01 X38.291 Y53.929
G01 X65.217 Y73.126
G01 X62.186 Y112.755
G01 X24.465 Y141.546
G01 X5.000 Y139.564
G01 X5.000 Y5.000
G01 X684.324 Y5.000
G01 X661.224 Y25.595
G01 X612.375 Y25.225
G01 X592.944 Y5.000
G01 X643.733 Y5.000
G01 X640.722 Y29.356
G01 X601.809 Y61.857
G01 X552.695 Y59.976
G01 X524.097 Y28.754
G01 X529.113 Y5.000
G01 X576.055 Y5.000
G01 X586.447 Y17.010
G01 X579.513 Y62.319
G01 X539.660 Y93.482
G01 X490.351 Y90.063
G01 X462.178 Y57.754
G01 X469.678 Y24.068
G01 X500.319 Y17.479
G01 X524.002 Y45.852
G01 X515.869 Y90.481
G01 X475.142 Y120.268
G01 X425.710 Y115.287
G01 X398.026 Y81.883
G01 X406.028 Y47.861
G01 X436.584 Y41.413
G01 X459.445 Y69.756
G01 X450.168 Y113.664
G01 X408.638 Y142.040
G01 X359.157 Y135.479
G01 X332.023 Y100.974
G01 X340.575 Y66.612
G01 X371.086 Y60.289
G01 X393.167 Y88.570
G01 X382.802 Y131.718
G01 X340.542 Y158.652
G01 X291.087 Y150.499
G01 X264.569 Y114.893
G01 X273.720 Y80.191
G01 X304.223 Y73.979
G01 X325.569 Y102.170
G01 X314.176 Y144.525
G01 X271.257 Y169.993
G01 X221.905 Y160.238
G01 X196.069 Y123.536
G01 X205.868 Y88.498
G01 X236.405 Y82.389
G01 X257.060 Y110.466
G01 X244.699 Y151.999
G01 X201.199 Y175.980
G01 X152.026 Y164.620
G01 X126.938 Y126.831
G01 X137.435 Y91.465
G01 X168.046 Y85.454
G01 X188.058 Y113.398
G01 X174.791 Y154.085
G01 X130.783 Y176.563
G01 X81.868 Y163.601
G01 X57.595 Y124.738
G01 X68.840 Y89.058
G01 X99.567 Y83.145
G01 X118.982 Y110.941
G01 X104.871 Y150.761
G01 X60.432 Y171.728
G01 X11.852 Y157.169
G01 X5.000 Y145.476
G01 X5.000 Y80.428
G01 X31.388 Y75.463
G01 X50.253 Y103.101
G01 X35.361 Y142.040
G01 X5.000 Y155.223
G01 X5.000 Y5.000
G01 X708.505 Y5.000
G01 X706.485 Y10.788
G01 X662.295 Y35.390
G01 X616.840 Y24.832
G01 X605.678 Y5.000
G01 X661.732 Y5.000
G01 X662.045 Y5.672
G01 X644.858 Y50.358
G01 X599.845 Y73.513
G01 X554.325 Y61.497
G01 X535.954 Y27.248
G01 X549.096 Y5.000
G01 X581.923 Y5.000
G01 X582.859 Y5.140
G01 X598.697 Y41.308
G01 X580.276 Y85.091
G01 X534.510 Y106.758
G01 X488.994 Y93.260
G01 X471.093 Y58.120
G01 X487.204 Y31.177
G01 X517.914 Y35.979
G01 X532.715 Y71.936
G01 X513.120 Y114.769
G01 X466.674 Y134.911
G01 X421.236 Y119.912
G01 X403.864 Y83.870
G01 X420.316 Y56.745
G01 X450.686 Y61.656
G01 X464.497 Y97.360
G01 X443.791 Y139.200
G01 X396.740 Y157.787
G01 X351.454 Y141.272
G01 X334.673 Y104.323
G01 X351.512 Y77.007
G01 X381.583 Y82.004
G01 X394.453 Y117.420
G01 X372.701 Y158.229
G01 X325.123 Y175.233
G01 X280.064 Y157.192
G01 X263.938 Y119.337
G01 X281.211 Y91.826
G01 X311.026 Y96.889
G01 X323.006 Y131.985
G01 X300.275 Y171.730
G01 X252.249 Y187.130
G01 X207.495 Y167.559
G01 X192.086 Y128.801
G01 X209.844 Y101.094
G01 X239.446 Y106.209
G01 X250.587 Y140.959
G01 X226.946 Y179.610
G01 X178.551 Y193.391
G01 X134.181 Y172.290
G01 X119.554 Y132.640
G01 X137.845 Y104.741
G01 X167.279 Y109.899
G01 X177.636 Y144.278
G01 X153.155 Y181.813
G01 X104.472 Y193.964
G01 X60.562 Y171.338
G01 X46.783 Y130.809
G01 X65.657 Y102.729
G01 X94.968 Y107.923
G01 X104.596 Y141.914
G01 X79.344 Y178.316
G01 X30.454 Y188.830
G01 X5.000 Y174.663
G01 X5.000 Y97.072
G01 X22.955 Y100.284
G01 X31.908 Y133.874
G01 X5.957 Y169.129
G01 X5.000 Y169.302
G01 X5.000 Y5.000
G01 X710.000 Y5.000
G01 X710.000 Y27.629
G01 X663.799 Y41.587
G01 X624.337 Y22.456
G01 X620.044 Y5.000
G01 X670.495 Y5.000
G01 X674.269 Y28.200
G01 X646.617 Y68.761
G01 X598.403 Y81.602
G01 X559.038 Y61.122
G01 X551.178 Y26.891
G01 X573.559 Y8.818
G01 X601.953 Y24.485
G01 X607.536 Y65.824
G01 X578.728 Y105.236
G01 X529.968 Y116.501
G01 X490.770 Y94.650
G01 X483.359 Y59.726
G01 X505.830 Y41.593
G01 X533.597 Y57.306
G01 X538.025 Y98.186
G01 X508.128 Y136.401
G01 X458.899 Y146.057
G01 X419.940 Y122.818
G01 X413.035 Y87.190
G01 X435.642 Y68.979
G01 X462.825 Y84.704
G01 X466.151 Y125.080
G01 X435.237 Y162.057
G01 X385.618 Y170.076
G01 X346.972 Y145.437
G01 X340.633 Y109.099
G01 X363.422 Y90.795
G01 X390.067 Y106.503
G01 X392.348 Y146.336
G01 X360.488 Y182.038
G01 X310.560 Y188.398
G01 X272.303 Y162.351
G01 X266.590 Y125.300
G01 X289.610 Y106.895
G01 X315.763 Y122.561
G01 X317.058 Y161.815
G01 X284.328 Y196.211
G01 X234.173 Y200.894
G01 X196.382 Y173.438
G01 X191.357 Y135.678
G01 X214.657 Y117.165
G01 X240.366 Y132.770
G01 X240.736 Y171.417
G01 X207.211 Y204.480
G01 X156.913 Y207.475
G01 X119.665 Y178.612
G01 X115.391 Y140.152
G01 X139.021 Y121.531
G01 X164.336 Y137.059
G01 X163.842 Y175.073
G01 X129.599 Y206.782
G01 X79.243 Y208.083
G01 X42.616 Y177.823
G01 X39.155 Y138.675
G01 X63.165 Y119.951
G01 X88.138 Y135.392
G01 X86.841 Y172.754
G01 X51.958 Y203.094
G01 X5.000 Y202.726
G01 X5.000 Y123.270
G01 X12.235 Y127.770
G01 X10.200 Y164.466
G01 X5.000 Y168.714
G01 X5.000 Y5.000
G01 X710.000 Y5.000
G01 X710.000 Y40.909
G01 X666.652 Y44.483
G01 X635.200 Y19.001
G01 X636.016 Y5.000
G01 X686.624 Y5.000
G01 X687.328 Y5.753
G01 X683.174 Y50.040
G01 X646.812 Y84.048
G01 X598.392 Y86.441
G01 X567.151 Y59.761
G01 X569.254 Y28.497
G01 X595.551 Y20.525
G01 X618.509 Y45.987
G01 X613.084 Y89.602
G01 X575.695 Y122.253
G01 X526.937 Y123.047
G01 X495.976 Y95.148
G01 X498.443 Y63.376
G01 X524.598 Y55.397
G01 X546.708 Y80.757
G01 X540.071 Y123.649
G01 X501.729 Y154.897
G01 X452.712 Y154.062
G01 X422.101 Y124.928
G01 X424.988 Y92.635
G01 X451.046 Y84.624
G01 X472.357 Y109.842
G01 X464.570 Y151.965
G01 X425.352 Y181.771
G01 X376.159 Y179.282
G01 X345.970 Y148.903
G01 X349.335 Y116.079
G01 X375.344 Y108.015
G01 X395.907 Y133.057
G01 X387.034 Y174.370
G01 X347.019 Y202.700
G01 X297.732 Y198.538
G01 X268.041 Y166.907
G01 X271.942 Y133.548
G01 X297.953 Y125.416
G01 X317.820 Y150.252
G01 X307.928 Y190.719
G01 X267.198 Y217.543
G01 X217.901 Y211.696
G01 X188.784 Y178.813
G01 X193.282 Y144.920
G01 X219.345 Y136.709
G01 X238.570 Y161.313
G01 X227.728 Y200.903
G01 X186.364 Y226.199
G01 X137.145 Y218.659
G01 X108.677 Y184.529
G01 X113.833 Y150.107
G01 X140.001 Y141.812
G01 X158.640 Y166.166
G01 X146.917 Y204.853
G01 X105.003 Y228.603
G01 X55.947 Y219.367
G01 X28.206 Y184.001
G01 X34.082 Y149.061
G01 X60.405 Y140.682
G01 X78.515 Y164.771
G01 X65.981 Y202.536
G01 X23.602 Y224.726
G01 X5.000 Y220.562
G01 X5.000 Y5.000
G01 X710.000 Y5.000
G01 X710.000 Y49.529
G01 X671.639 Y44.605
G01 X649.504 Y15.410
G01 X653.854 Y5.000
G01 X693.793 Y5.000
G01 X704.205 Y26.426
G01 X689.114 Y70.313
G01 X646.349 Y95.949
G01 X600.585 Y88.573
G01 X578.717 Y58.358
G01 X589.474 Y32.694
G01 X616.814 Y35.433
G01 X632.078 Y68.815
G01 X615.714 Y111.772
G01 X572.088 Y135.893
G01 X526.179 Y126.955
G01 X504.644 Y95.698
G01 X515.625 Y69.683
G01 X542.578 Y72.404
G01 X556.814 Y105.489
G01 X539.244 Y147.464
G01 X494.838 Y170.028
G01 X448.863 Y159.501
G01 X427.731 Y127.187
G01 X438.990 Y100.802
G01 X465.604 Y103.475
G01 X478.868 Y136.218
G01 X460.161 Y177.163
G01 X415.057 Y198.133
G01 X369.098 Y185.997
G01 X348.440 Y152.613
G01 X360.034 Y125.845
G01 X386.360 Y128.443
G01 X398.709 Y160.806
G01 X378.938 Y200.679
G01 X333.219 Y220.025
G01 X287.361 Y206.262
G01 X267.251 Y171.805
G01 X279.237 Y144.645
G01 X305.328 Y147.147
G01 X316.821 Y179.095
G01 X296.061 Y217.861
G01 X249.814 Y235.556
G01 X204.143 Y220.158
G01 X184.653 Y184.626
G01 X197.093 Y157.072
G01 X223.002 Y159.462
G01 X233.700 Y190.966
G01 X212.027 Y228.595
G01 X165.340 Y244.619
G01 X119.943 Y227.582
G01 X101.149 Y190.981
G01 X114.102 Y163.035
G01 X139.884 Y165.301
G01 X149.850 Y196.338
G01 X127.341 Y232.805
G01 X80.303 Y247.144
G01 X35.268 Y228.470
G01 X17.244 Y190.812
G01 X30.772 Y162.481
G01 X56.482 Y164.618
G01 X65.780 Y195.171
G01 X42.513 Y230.456
G01 X5.000 Y240.486
G01 X5.000 Y5.000
G01 X710.000 Y5.000
G01 X710.000 Y53.471
G01 X679.358 Y42.664
G01 X667.062 Y12.593
G01 X674.551 Y5.000
G01 X704.500 Y5.000
G01 X710.000 Y7.793
G01 X710.000 Y60.302
G01 X692.659 Y88.288
G01 X646.156 Y104.457
G01 X605.565 Y88.722
G01 X593.531 Y57.818
G01 X611.001 Y39.882
G01 X636.512 Y53.133
G01 X642.458 Y92.062
G01 X616.010 Y131.613
G01 X568.836 Y146.169
G01 X528.258 Y128.962
G01 X516.551 Y97.201
G01 X534.060 Y79.028
G01 X558.945 Y92.190
G01 X563.736 Y130.594
G01 X536.146 Y168.923
G01 X488.383 Y181.825
G01 X447.900 Y163.122
G01 X436.586 Y130.488
G01 X454.188 Y112.053
G01 X478.499 Y125.089
G01 X482.196 Y162.919
G01 X453.541 Y199.979
G01 X405.277 Y211.195
G01 X364.970 Y190.977
G01 X354.119 Y157.456
G01 X371.870 Y138.742
G01 X395.663 Y151.620
G01 X398.331 Y188.833
G01 X368.691 Y224.584
G01 X320.013 Y234.084
G01 X279.966 Y212.339
G01 X269.650 Y177.926
G01 X287.609 Y158.919
G01 X310.938 Y171.611
G01 X312.644 Y208.171
G01 X282.101 Y242.577
G01 X233.099 Y250.341
G01 X193.399 Y227.060
G01 X183.690 Y191.753
G01 X201.917 Y172.446
G01 X224.842 Y184.931
G01 X225.654 Y220.806
G01 X194.291 Y253.839
G01 X145.058 Y259.850
G01 X105.791 Y235.033
G01 X96.762 Y198.837
G01 X115.318 Y179.226
G01 X137.897 Y191.489
G01 X137.886 Y226.654
G01 X105.787 Y258.290
G01 X56.416 Y262.538
G01 X17.670 Y236.190
G01 X9.395 Y199.116
G01 X28.341 Y179.206
G01 X50.636 Y191.235
G01 X49.872 Y225.669
G01 X17.123 Y255.891
G01 X5.000 Y256.500
G01 X5.000 Y5.000
G01 X710.000 Y5.000
G01 X710.000 Y51.793
G01 X690.179 Y39.490
G01 X687.453 Y11.356
G01 X703.759 Y5.000
G01 X710.000 Y5.000
G01 X710.000 Y87.386
G01 X694.543 Y103.428
G01 X647.109 Y109.816
G01 X613.684 Y87.725
G01 X611.155 Y58.937
G01 X632.937 Y50.215
G01 X653.970 Y73.018
G01 X649.707 Y114.820
G01 X614.719 Y148.607
G01 X566.807 Y153.342
G01 X533.511 Y129.911
G01 X531.241 Y100.445
G01 X552.847 Y91.546
G01 X573.037 Y114.132
G01 X567.548 Y155.163
G01 X531.532 Y187.522
G01 X483.229 Y190.569
G01 X450.140 Y165.775
G01 X448.196 Y135.609
G01 X469.679 Y126.504
G01 X489.083 Y148.832
G01 X482.438 Y189.040
G01 X445.478 Y219.927
G01 X396.871 Y221.254
G01 X364.073 Y195.080
G01 X362.521 Y164.199
G01 X383.940 Y154.865
G01 X402.618 Y176.896
G01 X394.888 Y216.237
G01 X357.070 Y245.613
G01 X308.250 Y245.196
G01 X275.825 Y217.630
G01 X274.736 Y186.026
G01 X296.152 Y176.443
G01 X314.164 Y198.145
G01 X305.425 Y236.581
G01 X266.836 Y264.412
G01 X217.897 Y262.233
G01 X185.931 Y233.270
G01 X185.375 Y200.938
G01 X206.848 Y191.094
G01 X224.260 Y212.441
G01 X214.586 Y249.938
G01 X175.317 Y276.199
G01 X126.354 Y272.245
G01 X94.932 Y241.885
G01 X94.982 Y208.829
G01 X116.574 Y198.716
G01 X133.450 Y219.687
G01 X122.921 Y256.219
G01 X83.062 Y280.889
G01 X34.169 Y275.154
G01 X5.000 Y245.076
G01 X5.000 Y209.208
G01 X25.883 Y199.250
G01 X42.288 Y219.831
G01 X30.982 Y255.377
G01 X5.000 Y270.226
G01 X5.000 Y5.000
G01 X710.000 Y5.000
G01 X710.000 Y41.702
G01 X704.227 Y35.966
G01 X710.000 Y12.596
G01 X710.000 Y105.557
G01 X695.604 Y115.428
G01 X649.969 Y112.493
G01 X625.048 Y86.467
G01 X630.960 Y62.350
G01 X654.396 Y63.593
G01 X668.712 Y94.330
G01 X654.121 Y136.248
G01 X612.685 Y162.464
G01 X566.753 Y157.896
G01 X542.023 Y130.691
G01 X548.073 Y106.046
G01 X571.102 Y107.116
G01 X584.395 Y137.464
G01 X568.567 Y178.363
G01 X526.254 Y202.993
G01 X480.113 Y196.758
G01 X455.652 Y168.349
G01 X461.905 Y143.154
G01 X484.584 Y144.016
G01 X496.916 Y173.925
G01 X479.927 Y213.755
G01 X436.826 Y236.755
G01 X390.566 Y228.826
G01 X366.455 Y199.197
G01 X372.977 Y173.432
G01 X395.367 Y174.056
G01 X406.803 Y203.485
G01 X388.733 Y242.199
G01 X344.935 Y263.534
G01 X298.649 Y253.888
G01 X274.970 Y223.028
G01 X281.830 Y196.681
G01 X303.992 Y197.042
G01 X314.600 Y225.955
G01 X295.532 Y263.514
G01 X251.130 Y283.153
G01 X204.912 Y271.776
G01 X181.749 Y239.678
G01 X189.017 Y212.742
G01 X211.016 Y212.824
G01 X220.867 Y241.189
G01 X200.883 Y277.560
G01 X155.974 Y295.480
G01 X109.920 Y282.363
G01 X87.358 Y249.030
G01 X95.106 Y221.504
G01 X117.007 Y221.292
G01 X126.171 Y249.086
G01 X105.358 Y284.242
G01 X60.037 Y300.425
G01 X14.244 Y285.567
G01 X5.000 Y270.962
G01 X5.000 Y222.795
G01 X22.537 Y222.384
G01 X31.088 Y249.589
G01 X9.531 Y283.510
G01 X5.000 Y284.943
G01 X5.000 Y5.000
G01 X710.000 Y5.000
G01 X710.000 Y118.525
G01 X696.715 Y124.225
G01 X655.323 Y113.131
G01 X639.517 Y85.812
G01 X652.182 Y68.482
G01 X674.569 Y79.681
G01 X680.499 Y116.230
G01 X656.211 Y155.635
G01 X610.780 Y173.142
G01 X569.247 Y160.486
G01 X553.637 Y132.158
G01 X566.275 Y114.416
G01 X588.026 Y125.390
G01 X592.798 Y161.339
G01 X567.317 Y199.495
G01 X521.183 Y215.310
G01 X479.596 Y201.060
G01 X464.259 Y171.699
G01 X476.934 Y153.517
G01 X498.110 Y164.222
G01 X501.793 Y199.521
G01 X475.202 Y236.375
G01 X428.458 Y250.458
G01 X386.908 Y234.590
G01 X371.923 Y204.176
G01 X384.700 Y185.530
G01 X405.365 Y195.932
G01 X408.031 Y230.535
G01 X380.418 Y266.042
G01 X333.159 Y278.359
G01 X291.739 Y260.853
G01 X277.186 Y229.376
G01 X290.135 Y210.249
G01 X310.355 Y220.317
G01 X312.078 Y254.184
G01 X283.531 Y288.306
G01 X235.855 Y298.830
G01 X194.661 Y279.673
G01 X180.623 Y247.126
G01 X193.814 Y227.506
G01 X213.656 Y237.217
G01 X214.514 Y270.315
G01 X185.125 Y303.019
G01 X137.132 Y311.731
G01 X96.259 Y290.917
G01 X82.819 Y257.300
G01 X96.325 Y237.184
G01 X115.859 Y246.520
G01 X115.930 Y278.822
G01 X85.791 Y310.083
G01 X37.581 Y316.969
G01 X5.000 Y298.872
G01 X5.000 Y242.334
G01 X17.558 Y248.159
G01 X16.923 Y279.644
G01 X5.000 Y291.181
G01 X5.000 Y5.000
G01 X710.000 Y5.000
G01 X710.000 Y127.533
G01 X698.710 Y129.997
G01 X663.552 Y112.497
G01 X656.725 Y86.531
G01 X673.990 Y77.526
G01 X692.785 Y97.949
G01 X689.331 Y137.861
G01 X656.645 Y172.451
G01 X609.836 Y180.836
G01 X574.653 Y161.888
G01 X567.971 Y135.079
G01 X585.010 Y125.731
G01 X602.959 Y145.819
G01 X598.264 Y184.904
G01 X564.479 Y218.042
G01 X517.148 Y224.686
G01 X482.026 Y204.258
G01 X475.564 Y176.581
G01 X492.442 Y166.854
G01 X509.610 Y186.561
G01 X503.751 Y224.765
G01 X468.955 Y256.400
G01 X421.197 Y261.266
G01 X386.227 Y239.335
G01 X380.062 Y210.767
G01 X396.848 Y200.634
G01 X413.302 Y219.918
G01 X406.358 Y257.193
G01 X370.645 Y287.281
G01 X322.559 Y290.338
G01 X287.834 Y266.885
G01 X282.045 Y237.413
G01 X298.808 Y226.851
G01 X314.619 Y245.678
G01 X306.672 Y281.981
G01 X270.137 Y310.486
G01 X221.824 Y311.710
G01 X187.438 Y286.725
G01 X182.108 Y256.340
G01 X198.919 Y245.334
G01 X214.160 Y263.675
G01 X205.295 Y298.971
G01 X168.036 Y325.861
G01 X119.597 Y325.236
G01 X85.647 Y298.714
G01 X80.857 Y267.416
G01 X97.790 Y255.956
G01 X112.536 Y273.788
G01 X102.838 Y308.049
G01 X64.954 Y333.302
G01 X16.494 Y330.818
G01 X5.000 Y321.168
G01 X5.000 Y269.466
G01 X10.365 Y275.948
G01 X5.000 Y293.006
G01 X5.000 Y5.000
G01 X710.000 Y5.000
G01 X710.000 Y132.923
G01 X702.330 Y133.139
G01 X674.805 Y111.416
G01 X676.120 Y89.256
G01 X695.544 Y89.442
G01 X708.558 Y117.714
G01 X695.438 Y158.418
G01 X656.199 Y186.375
G01 X610.584 Y185.957
G01 X583.103 Y162.926
G01 X584.458 Y140.071
G01 X603.442 Y139.929
G01 X615.430 Y167.713
G01 X601.042 Y207.358
G01 X560.834 Y233.702
G01 X514.868 Y231.548
G01 X487.515 Y207.180
G01 X488.986 Y183.599
G01 X507.597 Y183.089
G01 X518.627 Y210.332
G01 X503.056 Y248.862
G01 X461.973 Y273.544
G01 X415.754 Y269.619
G01 X388.620 Y243.890
G01 X390.282 Y219.560
G01 X408.588 Y218.647
G01 X418.735 Y245.304
G01 X402.066 Y282.669
G01 X360.207 Y305.647
G01 X313.836 Y299.924
G01 X287.012 Y272.816
G01 X288.944 Y247.718
G01 X307.018 Y246.375
G01 X316.359 Y272.407
G01 X298.682 Y308.564
G01 X256.148 Y329.803
G01 X209.727 Y322.262
G01 X183.306 Y293.764
G01 X185.588 Y267.887
G01 X203.505 Y266.093
G01 X212.118 Y291.467
G01 X193.524 Y326.380
G01 X150.418 Y345.852
G01 X104.052 Y336.479
G01 X78.129 Y306.589
G01 X80.845 Y279.929
G01 X98.679 Y277.669
G01 X106.645 Y302.359
G01 X87.227 Y335.999
G01 X43.653 Y353.684
G01 X5.000 Y344.305
G01 X5.000 Y5.000
G01 X710.000 Y5.000
G01 X710.000 Y134.511
G01 X708.162 Y134.220
G01 X689.001 Y110.702
G01 X697.011 Y94.428
G01 X710.000 Y100.926
G01 X710.000 Y158.465
G01 X699.258 Y177.207
G01 X655.687 Y197.320
G01 X613.599 Y189.085
G01 X594.497 Y164.416
G01 X602.400 Y147.561
G01 X620.802 Y156.729
G01 X625.180 Y190.292
G01 X601.583 Y228.016
G01 X557.198 Y246.403
G01 X514.908 Y236.488
G01 X495.948 Y210.636
G01 X503.819 Y193.166
G01 X521.634 Y201.922
G01 X524.922 Y234.751
G01 X500.173 Y271.138
G01 X455.072 Y287.752
G01 X412.680 Y276.125
G01 X393.951 Y249.065
G01 X401.865 Y230.951
G01 X419.165 Y239.254
G01 X421.443 Y271.301
G01 X395.636 Y306.301
G01 X349.923 Y321.103
G01 X307.529 Y307.736
G01 X289.122 Y279.451
G01 X297.157 Y260.671
G01 X314.018 Y268.488
G01 X315.369 Y299.710
G01 X288.601 Y333.280
G01 X242.380 Y346.237
G01 X200.087 Y331.114
G01 X182.095 Y301.592
G01 X190.333 Y282.131
G01 X206.832 Y289.437
G01 X207.342 Y319.797
G01 X179.710 Y351.902
G01 X133.089 Y362.990
G01 X91.003 Y346.099
G01 X73.518 Y315.336
G01 X82.042 Y295.187
G01 X98.259 Y301.960
G01 X98.014 Y331.430
G01 X69.619 Y362.042
G01 X22.708 Y371.244
G01 X5.000 Y363.333
G01 X5.000 Y5.000
G01 X710.000 Y5.000
G01 X710.000 Y119.925
G01 X705.840 Y111.100
G01 X710.000 Y108.229
G01 X710.000 Y183.792
G01 X701.386 Y193.693
G01 X655.899 Y205.421
G01 X619.264 Y190.926
G01 X608.521 Y167.093
G01 X621.023 Y157.760
G01 X636.443 Y175.656
G01 X632.181 Y212.754
G01 X600.494 Y246.358
G01 X554.356 Y256.298
G01 X517.634 Y240.219
G01 X506.995 Y215.357
G01 X519.285 Y205.476
G01 X533.917 Y222.864
G01 X528.481 Y259.016
G01 X495.721 Y291.085
G01 X449.037 Y299.195
G01 X412.326 Y281.500
G01 X401.877 Y255.580
G01 X414.031 Y245.119
G01 X427.954 Y261.953
G01 X421.430 Y297.106
G01 X387.697 Y327.593
G01 X340.571 Y333.835
G01 X303.972 Y314.500
G01 X293.804 Y287.503
G01 X305.902 Y276.434
G01 X319.194 Y292.676
G01 X311.672 Y326.786
G01 X277.069 Y355.648
G01 X229.610 Y359.993
G01 X193.227 Y339.000
G01 X183.430 Y310.914
G01 X195.554 Y299.217
G01 X208.298 Y314.837
G01 X199.870 Y347.865
G01 X164.502 Y375.068
G01 X116.820 Y377.495
G01 X80.758 Y354.835
G01 X71.426 Y325.654
G01 X83.660 Y313.317
G01 X95.939 Y328.290
G01 X86.700 Y360.206
G01 X50.674 Y385.724
G01 X5.000 Y386.196
G01 X5.000 Y5.000
G01 X710.000 Y5.000
G01 X710.000 Y201.621
G01 X702.529 Y207.536
G01 X657.538 Y211.020
G01 X627.747 Y192.244
G01 X624.680 Y171.566
G01 X639.542 Y170.659
G01 X649.885 Y196.089
G01 X636.621 Y234.340
G01 X598.489 Y262.057
G01 X553.007 Y263.745
G01 X523.200 Y243.509
G01 X520.148 Y221.937
G01 X534.600 Y220.502
G01 X543.982 Y245.285
G01 X529.510 Y282.370
G01 X490.421 Y308.393
G01 X444.554 Y308.244
G01 X414.828 Y286.516
G01 X411.878 Y264.022
G01 X425.998 Y262.019
G01 X434.502 Y286.104
G01 X418.915 Y321.970
G01 X378.975 Y346.251
G01 X332.831 Y344.230
G01 X303.286 Y320.987
G01 X300.526 Y297.546
G01 X314.397 Y294.945
G01 X322.108 Y318.289
G01 X305.503 Y352.889
G01 X264.819 Y375.389
G01 X218.507 Y371.470
G01 X189.248 Y346.695
G01 X186.768 Y322.292
G01 X200.474 Y319.067
G01 X207.479 Y341.636
G01 X189.956 Y374.930
G01 X148.639 Y395.617
G01 X102.273 Y389.780
G01 X73.403 Y363.465
G01 X71.297 Y338.092
G01 X84.922 Y334.226
G01 X91.312 Y355.991
G01 X72.972 Y387.949
G01 X31.134 Y406.799
G01 X5.000 Y402.417
G01 X5.000 Y5.000
G01 X710.000 Y5.000
G01 X710.000 Y215.084
G01 X703.443 Y218.608
G01 X661.175 Y214.629
G01 X639.001 Y193.802
G01 X642.346 Y178.270
G01 X657.226 Y186.034
G01 X660.847 Y217.316
G01 X638.881 Y254.385
G01 X596.324 Y275.002
G01 X553.707 Y269.267
G01 X531.539 Y247.118
G01 X534.769 Y230.801
G01 X549.038 Y238.007
G01 X551.562 Y268.467
G01 X528.405 Y304.160
G01 X485.032 Y322.967
G01 X442.171 Y315.434
G01 X420.106 Y291.933
G01 X423.306 Y274.797
G01 X437.045 Y281.399
G01 X438.561 Y310.984
G01 X414.312 Y345.245
G01 X370.232 Y362.197
G01 X327.237 Y352.835
G01 X305.374 Y327.957
G01 X308.633 Y309.975
G01 X321.926 Y315.936
G01 X322.526 Y344.599
G01 X297.288 Y377.382
G01 X252.613 Y392.442
G01 X209.596 Y381.226
G01 X188.038 Y354.953
G01 X191.447 Y336.106
G01 X204.382 Y341.396
G01 X204.158 Y369.099
G01 X178.037 Y400.365
G01 X132.883 Y413.502
G01 X89.957 Y400.416
G01 X68.807 Y372.740
G01 X72.460 Y353.016
G01 X85.126 Y357.614
G01 X84.175 Y384.326
G01 X57.280 Y414.044
G01 X11.763 Y425.237
G01 X5.000 Y422.868
G01 X5.000 Y5.000
G01 X710.000 Y5.000
G01 X710.000 Y225.273
G01 X704.868 Y226.994
G01 X667.202 Y216.884
G01 X652.771 Y196.304
G01 X660.809 Y187.444
G01 X673.445 Y203.480
G01 X669.258 Y238.591
G01 X639.503 Y272.372
G01 X594.742 Y285.295
G01 X556.837 Y273.507
G01 X542.386 Y251.746
G01 X550.145 Y242.172
G01 X561.979 Y257.569
G01 X556.603 Y291.664
G01 X525.716 Y323.878
G01 X480.290 Y334.923
G01 X442.253 Y321.417
G01 X427.877 Y298.443
G01 X435.445 Y288.115
G01 X446.561 Y302.824
G01 X440.091 Y335.846
G01 X408.179 Y366.438
G01 X362.201 Y375.563
G01 X324.141 Y360.308
G01 X309.938 Y336.093
G01 X317.404 Y324.981
G01 X327.891 Y338.960
G01 X320.425 Y370.859
G01 X287.597 Y399.784
G01 X241.182 Y406.953
G01 X203.212 Y389.926
G01 X189.284 Y364.452
G01 X196.740 Y352.532
G01 X206.690 Y365.746
G01 X198.327 Y396.482
G01 X164.696 Y423.701
G01 X117.963 Y428.888
G01 X80.197 Y410.074
G01 X66.646 Y383.330
G01 X74.186 Y370.586
G01 X83.693 Y383.009
G01 X74.537 Y412.548
G01 X40.216 Y438.033
G01 X5.000 Y440.423
G01 X5.000 Y5.000
G01 X710.000 Y5.000
G01 X710.000 Y232.567
G01 X707.480 Y232.974
G01 X675.817 Y218.487
G01 X668.631 Y200.342
G01 X679.338 Y199.120
G01 X687.722 Y222.443
G01 X675.252 Y259.198
G01 X639.130 Y287.960
G01 X594.407 Y293.229
G01 X562.578 Y277.171
G01 X555.297 Y257.974
G01 X565.545 Y256.064
G01 X572.957 Y278.627
G01 X559.254 Y314.161
G01 X522.097 Y341.199
G01 X476.857 Y344.571
G01 X444.969 Y326.902
G01 X437.687 Y306.616
G01 X447.563 Y303.975
G01 X454.093 Y325.724
G01 X439.257 Y359.979
G01 X401.177 Y385.238
G01 X355.536 Y386.672
G01 X323.697 Y367.361
G01 X316.513 Y345.958
G01 X326.109 Y342.549
G01 X331.851 Y363.437
G01 X315.986 Y396.362
G01 X277.097 Y419.798
G01 X231.173 Y419.261
G01 X199.495 Y398.286
G01 X192.510 Y375.744
G01 X201.919 Y371.539
G01 X206.970 Y391.527
G01 X190.183 Y423.080
G01 X150.603 Y444.655
G01 X104.517 Y442.124
G01 X73.114 Y419.471
G01 X66.431 Y395.777
G01 X75.750 Y390.755
G01 X80.208 Y409.813
G01 X62.609 Y439.960
G01 X22.458 Y459.648
G01 X5.000 Y457.929
G01 X5.000 Y5.000
G01 X710.000 Y5.000
G01 X710.000 Y235.752
G01 X687.014 Y220.150
G01 X686.016 Y206.352
G01 X697.243 Y213.129
G01 X699.758 Y242.276
G01 X679.153 Y278.500
G01 X638.462 Y301.008
G01 X595.865 Y299.264
G01 X570.911 Y280.970
G01 X569.703 Y266.225
G01 X580.282 Y272.295
G01 X581.689 Y300.527
G01 X559.851 Y335.331
G01 X518.247 Y355.995
G01 X475.267 Y352.380
G01 X450.280 Y332.598
G01 X448.958 Y316.866
G01 X458.979 Y322.179
G01 X459.372 Y349.437
G01 X436.409 Y382.762
G01 X394.008 Y401.531
G01 X350.761 Y396.005
G01 X325.851 Y374.704
G01 X324.512 Y357.951
G01 X334.069 Y362.466
G01 X333.549 Y388.701
G01 X309.571 Y420.494
G01 X266.492 Y437.325
G01 X223.098 Y429.856
G01 X198.375 Y407.013
G01 X197.121 Y389.215
G01 X206.312 Y392.899
G01 X204.980 Y418.068
G01 X180.101 Y448.288
G01 X136.466 Y463.145
G01 X93.047 Y453.713
G01 X68.626 Y429.313
G01 X67.559 Y410.454
G01 X76.483 Y413.282
G01 X74.444 Y437.352
G01 X48.780 Y465.965
G01 X5.000 Y478.739
G01 X5.000 Y5.000
G01 X710.000 Y5.000
G01 X710.000 Y231.605
G01 X700.595 Y222.537
G01 X704.283 Y214.592
G01 X710.000 Y223.214
G01 X710.000 Y258.208
G01 X709.450 Y262.292
G01 X681.432 Y295.989
G01 X638.189 Y311.570
G01 X599.502 Y303.976
G01 X581.621 Y285.566
G01 X584.954 Y276.745
G01 X593.760 Y290.506
G01 X588.085 Y322.580
G01 X558.878 Y354.675
G01 X514.856 Y368.338
G01 X475.892 Y358.935
G01 X457.961 Y339.162
G01 X461.033 Y329.421
G01 X469.104 Y342.356
G01 X462.324 Y373.276
G01 X432.042 Y403.709
G01 X387.360 Y415.403
G01 X348.237 Y404.153
G01 X330.363 Y382.985
G01 X333.274 Y372.286
G01 X340.707 Y384.348
G01 X332.928 Y414.061
G01 X301.686 Y442.781
G01 X256.467 Y452.466
G01 X217.305 Y439.338
G01 X199.600 Y416.751
G01 X202.452 Y405.065
G01 X209.348 Y416.217
G01 X200.678 Y444.678
G01 X168.596 Y471.644
G01 X122.967 Y479.286
G01 X83.889 Y464.260
G01 X66.465 Y440.239
G01 X69.362 Y427.546
G01 X75.824 Y437.759
G01 X66.374 Y464.932
G01 X33.574 Y490.109
G01 X5.000 Y493.580
G01 X5.000 Y5.000
G01 X710.000 Y5.000
G01 X710.000 Y287.757
G01 X682.671 Y311.319
G01 X638.943 Y319.887
G01 X605.520 Y308.010
G01 X594.329 Y291.517
G01 X600.373 Y289.583
G01 X605.521 Y310.199
G01 X592.249 Y344.118
G01 X556.923 Y371.860
G01 X512.551 Y378.480
G01 X478.923 Y364.884
G01 X467.620 Y347.145
G01 X473.239 Y344.317
G01 X477.492 Y363.998
G01 X463.067 Y396.572
G01 X426.749 Y422.499
G01 X381.854 Y427.121
G01 X348.139 Y411.768
G01 X336.831 Y392.748
G01 X342.126 Y388.985
G01 X345.586 Y407.679
G01 X330.120 Y438.854
G01 X292.931 Y462.915
G01 X247.639 Y465.501
G01 X213.957 Y448.362
G01 X202.755 Y428.034
G01 X207.829 Y423.302
G01 X210.603 Y440.968
G01 X194.210 Y470.697
G01 X156.275 Y492.851
G01 X110.715 Y493.370
G01 X77.189 Y474.425
G01 X66.206 Y452.771
G01 X71.166 Y447.047
G01 X73.360 Y463.651
G01 X56.158 Y491.897
G01 X17.606 Y512.112
G01 X5.000 Y511.680
G01 X5.000 Y5.000
G01 X710.000 Y5.000
G01 X710.000 Y307.903
G01 X683.508 Y324.325
G01 X641.250 Y326.357
G01 X613.935 Y312.024
G01 X608.529 Y299.244
G01 X615.317 Y304.602
G01 X615.270 Y330.785
G01 X594.461 Y364.543
G01 X554.628 Y386.735
G01 X511.848 Y386.829
G01 X484.360 Y370.885
G01 X478.742 Y356.955
G01 X484.933 Y361.404
G01 X483.860 Y386.510
G01 X461.893 Y418.736
G01 X421.175 Y438.993
G01 X377.997 Y437.103
G01 X350.453 Y419.509
G01 X344.731 Y404.390
G01 X350.428 Y407.884
G01 X348.438 Y431.858
G01 X325.430 Y462.496
G01 X283.953 Y480.771
G01 X240.504 Y476.859
G01 X213.024 Y457.585
G01 X207.309 Y441.247
G01 X212.618 Y443.747
G01 X209.821 Y466.544
G01 X185.893 Y495.547
G01 X143.788 Y511.799
G01 X100.198 Y505.837
G01 X72.906 Y484.864
G01 X67.310 Y467.286
G01 X72.341 Y468.764
G01 X68.851 Y490.347
G01 X44.127 Y517.678
G01 X5.000 Y530.719
G01 X5.000 Y5.000
G01 X710.000 Y5.000
G01 X710.000 Y324.087
G01 X684.583 Y335.025
G01 X645.492 Y331.492
G01 X624.580 Y316.636
G01 X623.631 Y309.001
G01 X629.220 Y321.501
G01 X622.892 Y351.632
G01 X595.145 Y383.374
G01 X552.631 Y399.331
G01 X513.119 Y393.908
G01 X492.023 Y377.553
G01 X490.733 Y368.834
G01 X495.557 Y380.367
G01 X488.109 Y409.258
G01 X459.237 Y439.296
G01 X415.960 Y453.239
G01 X376.150 Y445.880
G01 X354.988 Y427.986
G01 X353.464 Y418.140
G01 X357.630 Y428.656
G01 X349.175 Y456.249
G01 X319.301 Y484.525
G01 X275.390 Y496.409
G01 X235.412 Y487.077
G01 X214.303 Y467.613
G01 X212.658 Y456.606
G01 X216.275 Y466.063
G01 X206.930 Y492.308
G01 X176.181 Y518.777
G01 X131.770 Y528.563
G01 X91.754 Y517.231
G01 X70.822 Y496.176
G01 X69.169 Y483.984
G01 X72.351 Y492.348
G01 X62.235 Y517.208
G01 X30.742 Y541.832
G01 X5.000 Y546.236
G01 X5.000 Y5.000
G01 X710.000 Y5.000
G01 X710.000 Y337.215
G01 X686.489 Y343.611
G01 X651.887 Y335.878
G01 X637.133 Y322.381
G01 X639.016 Y320.867
G01 X641.637 Y339.841
G01 X628.454 Y372.119
G01 X594.826 Y400.278
G01 X551.522 Y409.853
G01 X516.567 Y400.304
G01 X501.580 Y385.414
G01 X502.972 Y382.847
G01 X504.676 Y400.760
G01 X490.317 Y431.623
G01 X455.630 Y457.928
G01 X411.685 Y465.453
G01 X376.503 Y454.043
G01 X361.398 Y437.717
G01 X362.410 Y434.049
G01 X363.306 Y450.846
G01 X347.891 Y480.235
G01 X312.274 Y504.630
G01 X267.821 Y510.059
G01 X232.540 Y496.750
G01 X217.438 Y478.956
G01 X218.181 Y474.149
G01 X218.386 Y489.784
G01 X202.036 Y517.648
G01 X165.621 Y540.087
G01 X120.795 Y543.384
G01 X85.548 Y528.151
G01 X70.571 Y508.865
G01 X71.163 Y502.890
G01 X70.793 Y517.326
G01 X53.634 Y543.624
G01 X16.556 Y564.071
G01 X5.000 Y564.364
G01 X5.000 Y5.000
G01 X710.000 Y5.000
G01 X710.000 Y347.716
G01 X689.727 Y350.426
G01 X660.476 Y340.118
G01 X651.145 Y329.666
G01 X654.087 Y334.745
G01 X652.270 Y359.094
G01 X632.186 Y391.686
G01 X594.086 Y415.085
G01 X551.793 Y418.655
G01 X522.224 Y406.623
G01 X512.573 Y394.866
G01 X514.865 Y398.884
G01 X512.004 Y422.047
G01 X490.727 Y453.051
G01 X451.659 Y474.478
G01 X408.837 Y475.999
G01 X379.074 Y462.196
G01 X369.220 Y449.090
G01 X370.975 Y451.994
G01 X367.184 Y473.912
G01 X344.839 Y503.266
G01 X304.936 Y522.667
G01 X261.721 Y522.094
G01 X231.893 Y506.485
G01 X221.955 Y491.992
G01 X223.289 Y493.740
G01 X218.688 Y514.364
G01 X195.404 Y542.017
G01 X154.802 Y559.346
G01 X111.331 Y556.644
G01 X81.571 Y539.202
G01 X71.673 Y523.297
G01 X72.704 Y523.856
G01 X67.416 Y543.146
G01 X43.323 Y569.056
G01 X5.000 Y583.230
G01 X5.000 Y5.000
G01 X710.000 Y5.000
G01 X710.000 Y355.783
G01 X694.669 Y355.925
G01 X671.134 Y344.787
G01 X666.087 Y338.750
G01 X668.310 Y350.379
G01 X660.988 Y378.685
G01 X634.454 Y409.873
G01 X593.515 Y427.798
G01 X553.807 Y426.198
G01 X529.949 Y413.435
G01 X524.468 Y406.157
G01 X525.885 Y416.679
G01 X517.422 Y443.652
G01 X489.715 Y473.089
G01 X447.911 Y488.961
G01 X407.768 Y485.345
G01 X383.713 Y470.909
G01 X377.913 Y462.340
G01 X378.640 Y471.698
G01 X369.156 Y497.277
G01 X340.407 Y524.900
G01 X297.875 Y538.665
G01 X257.433 Y532.990
G01 X233.309 Y516.844
G01 X227.313 Y506.944
G01 X227.468 Y515.091
G01 X217.089 Y539.223
G01 X187.430 Y564.982
G01 X144.312 Y576.596
G01 X103.709 Y568.829
G01 X79.649 Y550.944
G01 X73.581 Y539.684
G01 X73.286 Y546.583
G01 X62.140 Y569.225
G01 X31.710 Y593.079
G01 X5.000 Y598.861
G01 X5.000 Y5.000
G01 X710.000 Y5.000
G01 X710.000 Y361.509
G01 X701.537 Y360.632
G01 X683.587 Y350.386
G01 X681.397 Y349.729
G01 X681.262 Y367.390
G01 X667.826 Y398.044
G01 X635.728 Y426.352
G01 X593.658 Y438.582
G01 X557.774 Y433.012
G01 X539.460 Y421.236
G01 X536.701 Y419.369
G01 X535.615 Y435.841
G01 X520.977 Y465.005
G01 X487.757 Y491.420
G01 X444.930 Y501.551
G01 X408.677 Y494.026
G01 X390.123 Y480.669
G01 X386.913 Y477.539
G01 X384.997 Y492.762
G01 X369.283 Y520.370
G01 X335.075 Y544.830
G01 X291.630 Y552.811
G01 X255.145 Y543.287
G01 X236.482 Y528.309
G01 X232.943 Y523.872
G01 X230.319 Y537.795
G01 X213.659 Y563.794
G01 X178.603 Y586.247
G01 X134.685 Y592.036
G01 X98.107 Y580.479
G01 X79.466 Y563.850
G01 X75.725 Y558.074
G01 X72.520 Y570.656
G01 X55.048 Y595.000
G01 X19.287 Y615.407
G01 X5.000 Y616.558
G01 X5.000 Y5.000
G01 X710.000 Y5.000
G01 X710.000 Y364.862
G01 X697.441 Y357.306
G01 X696.524 Y362.539
G01 X692.649 Y385.304
G01 X672.972 Y416.649
G01 X636.533 Y440.948
G01 X594.980 Y447.738
G01 X563.745 Y439.649
G01 X550.354 Y430.407
G01 X548.722 Y434.427
G01 X543.775 Y455.894
G01 X522.870 Y485.589
G01 X485.381 Y507.880
G01 X443.171 Y512.562
G01 X411.602 Y502.594
G01 X397.898 Y491.848
G01 X395.672 Y494.598
G01 X389.775 Y514.703
G01 X367.774 Y542.682
G01 X329.376 Y562.903
G01 X286.651 Y565.426
G01 X254.884 Y553.535
G01 X240.996 Y541.243
G01 X238.302 Y542.675
G01 X231.583 Y561.363
G01 X208.621 Y587.569
G01 X169.458 Y605.671
G01 X126.363 Y605.994
G01 X94.539 Y592.146
G01 X80.600 Y578.276
G01 X77.566 Y578.353
G01 X70.157 Y595.579
G01 X46.374 Y619.968
G01 X6.592 Y635.910
G01 X5.000 Y635.840
G01 X5.000 Y5.000
G01 X710.000 Y5.000
G01 X710.000 Y389.597
G01 X704.747 Y405.597
G01 X679.100 Y435.936
G01 X639.700 Y455.380
G01 X600.065 Y457.284
G01 X573.797 Y448.113
G01 X564.279 Y442.539
G01 X562.113 Y452.320
G01 X552.249 Y477.392
G01 X525.389 Y505.920
G01 X485.036 Y523.262
G01 X444.836 Y523.070
G01 X418.242 Y512.093
G01 X408.318 Y505.060
G01 X405.426 Y513.519
G01 X394.531 Y537.085
G01 X366.596 Y563.734
G01 X325.433 Y578.915
G01 X284.813 Y576.577
G01 X258.031 Y563.748
G01 X247.833 Y555.211
G01 X244.344 Y562.297
G01 X232.551 Y584.300
G01 X203.684 Y609.015
G01 X161.861 Y621.985
G01 X120.969 Y617.461
G01 X94.140 Y602.747
G01 X83.803 Y592.672
G01 X79.850 Y598.344
G01 X67.297 Y618.738
G01 X37.643 Y641.473
G01 X5.000 Y649.742
G01 X5.000 Y5.000
G01 X710.000 Y5.000
G01 X710.000 Y430.943
G01 X684.400 Y454.086
G01 X643.549 Y468.374
G01 X606.980 Y466.393
G01 X585.584 Y457.665
G01 X578.660 Y456.635
G01 X574.456 Y471.722
G01 X559.075 Y498.943
G01 X527.006 Y524.929
G01 X485.307 Y537.060
G01 X448.247 Y533.023
G01 X426.502 Y522.563
G01 X419.067 Y520.096
G01 X414.018 Y533.783
G01 X397.558 Y559.347
G01 X364.469 Y583.316
G01 X322.067 Y593.231
G01 X284.662 Y587.089
G01 X262.708 Y574.852
G01 X254.894 Y570.900
G01 X249.134 Y583.133
G01 X231.735 Y606.982
G01 X197.772 Y628.878
G01 X154.822 Y636.532
G01 X117.220 Y628.245
G01 X95.200 Y614.196
G01 X87.144 Y608.723
G01 X80.810 Y619.457
G01 X62.615 Y641.546
G01 X27.929 Y661.325
G01 X5.000 Y664.159
G01 X5.000 Y5.000
G01 X710.000 Y5.000
G01 X710.000 Y456.069
G01 X689.022 Y470.686
G01 X648.206 Y479.973
G01 X615.502 Y475.367
G01 X598.481 Y468.490
G01 X592.738 Y472.490
G01 X585.234 Y492.076
G01 X564.181 Y519.954
G01 X527.974 Y542.353
G01 X486.408 Y549.459
G01 X453.258 Y542.853
G01 X435.838 Y534.307
G01 X429.467 Y536.861
G01 X421.019 Y554.942
G01 X398.873 Y581.011
G01 X361.720 Y601.277
G01 X319.556 Y606.146
G01 X286.106 Y597.491
G01 X268.428 Y587.229
G01 X261.565 Y588.285
G01 X252.310 Y604.805
G01 X229.216 Y629.007
G01 X191.270 Y647.086
G01 X148.662 Y649.673
G01 X115.063 Y638.931
G01 X97.270 Y626.916
G01 X90.055 Y626.436
G01 X80.136 Y641.348
G01 X56.243 Y663.636
G01 X17.659 Y679.487
G01 X5.000 Y679.567
G01 X5.000 Y5.000
G01 X710.000 Y5.000
G01 X710.000 Y476.881
G01 X693.452 Y485.702
G01 X653.999 Y490.536
G01 X625.551 Y484.687
G01 X612.064 Y480.825
G01 X606.063 Y489.917
G01 X594.313 Y512.915
G01 X567.851 Y540.033
G01 X528.775 Y558.168
G01 X488.660 Y560.826
G01 X459.781 Y553.039
G01 X445.820 Y547.551
G01 X439.076 Y555.158
G01 X426.307 Y576.525
G01 X398.767 Y601.690
G01 X358.835 Y617.605
G01 X318.210 Y618.031
G01 X289.048 Y608.258
G01 X274.755 Y601.095
G01 X267.406 Y607.161
G01 X253.761 Y626.841
G01 X225.295 Y649.993
G01 X184.663 Y663.637
G01 X143.685 Y661.788
G01 X114.391 Y649.991
G01 X99.911 Y641.115
G01 X92.101 Y645.598
G01 X77.727 Y663.543
G01 X48.489 Y684.636
G01 X7.316 Y695.968
G01 X5.000 Y695.734
G01 X5.000 Y5.000
G01 X710.000 Y5.000
G01 X710.000 Y494.513
G01 X698.145 Y499.238
G01 X661.129 Y500.486
G01 X636.921 Y494.772
G01 X625.874 Y494.768
G01 X618.272 Y508.620
G01 X601.701 Y533.768
G01 X570.456 Y558.892
G01 X529.865 Y572.488
G01 X492.253 Y571.586
G01 X467.601 Y563.996
G01 X455.988 Y562.386
G01 X447.536 Y574.682
G01 X429.898 Y598.065
G01 X397.618 Y621.104
G01 X356.265 Y632.423
G01 X318.212 Y629.317
G01 X293.264 Y619.801
G01 X281.228 Y616.531
G01 X272.069 Y627.216
G01 X253.513 Y648.774
G01 X220.355 Y669.671
G01 X178.399 Y678.662
G01 X140.064 Y673.310
G01 X114.971 Y661.830
G01 X102.661 Y656.862
G01 X92.942 Y665.890
G01 X73.620 Y685.575
G01 X39.742 Y704.284
G01 X5.000 Y709.713
G01 X5.000 Y5.000
G01 X710.000 Y5.000
G01 X710.000 Y509.657
G01 X703.496 Y511.516
G01 X669.665 Y510.269
G01 X649.306 Y505.953
G01 X639.462 Y510.286
G01 X629.112 Y528.224
G01 X607.532 Y554.205
G01 X572.417 Y576.370
G01 X531.632 Y585.543
G01 X497.249 Y582.187
G01 X476.405 Y576.048
G01 X465.893 Y578.765
G01 X454.603 Y595.054
G01 X431.938 Y619.132
G01 X395.851 Y639.102
G01 X354.393 Y645.968
G01 X319.614 Y640.451
G01 X298.433 Y632.436
G01 X287.401 Y633.483
G01 X275.317 Y648.065
G01 X251.721 Y670.179
G01 X214.822 Y687.898
G01 X172.855 Y692.409
G01 X137.840 Y684.687
G01 X116.477 Y674.758
G01 X105.074 Y674.093
G01 X92.348 Y686.920
G01 X67.979 Y707.022
G01 X30.433 Y722.446
G01 X5.000 Y723.720
G01 X5.000 Y5.000
G01 X710.000 Y5.000
G01 X710.000 Y522.813
G01 X709.804 Y522.851
G01 X679.547 Y520.314
G01 X662.330 Y518.452
G01 X652.420 Y527.221
G01 X638.455 Y548.312
G01 X612.054 Y573.867
G01 X574.170 Y592.436
G01 X534.369 Y597.654
G01 X503.577 Y593.058
G01 X485.811 Y589.407
G01 X475.133 Y596.524
G01 X460.156 Y615.855
G01 X432.680 Y639.374
G01 X393.899 Y655.663
G01 X353.504 Y658.569
G01 X322.335 Y651.860
G01 X304.172 Y646.367
G01 X292.874 Y651.775
G01 X277.040 Y669.286
G01 X248.646 Y690.707
G01 X209.134 Y704.662
G01 X168.310 Y705.210
G01 X136.924 Y696.345
G01 X118.519 Y688.969
G01 X106.756 Y692.624
G01 X90.220 Y708.267
G01 X61.073 Y727.543
G01 X20.996 Y739.120
G01 X5.000 Y738.402
G01 X5.000 Y5.000
G01 X710.000 Y5.000
G01 X710.000 Y532.905
G01 X690.599 Y531.003
G01 X675.584 Y532.364
G01 X664.419 Y545.313
G01 X646.296 Y568.464
G01 X615.592 Y592.490
G01 X576.122 Y607.185
G01 X538.255 Y609.199
G01 X511.053 Y604.574
G01 X495.411 Y604.160
G01 X483.383 Y615.395
G01 X464.204 Y636.666
G01 X432.456 Y658.534
G01 X392.170 Y670.889
G01 X353.771 Y670.607
G01 X326.184 Y663.916
G01 X310.069 Y661.672
G01 X297.330 Y671.134
G01 X277.253 Y690.461
G01 X244.626 Y710.112
G01 X203.691 Y720.074
G01 X164.929 Y717.450
G01 X137.117 Y708.651
G01 X120.687 Y704.534
G01 X107.396 Y712.177
G01 X86.582 Y729.512
G01 X53.244 Y746.898
G01 X11.832 Y754.426
G01 X5.000 Y753.549
G01 X5.000 Y5.000
G01 X710.000 Y5.000
G01 X710.000 Y543.135
G01 X702.550 Y542.633
G01 X688.667 Y547.665
G01 X675.227 Y564.231
G01 X652.753 Y588.296
G01 X618.521 Y609.926
G01 X578.621 Y620.815
G01 X543.349 Y620.575
G01 X519.400 Y617.027
G01 X504.804 Y620.275
G01 X490.420 Y635.043
G01 X466.870 Y657.102
G01 X431.645 Y676.472
G01 X391.007 Y684.987
G01 X355.244 Y682.479
G01 X330.878 Y676.904
G01 X315.724 Y678.310
G01 X300.553 Y691.220
G01 X276.090 Y711.210
G01 X240.041 Y728.261
G01 X198.835 Y734.349
G01 X162.751 Y729.528
G01 X138.131 Y721.883
G01 X122.581 Y721.401
G01 X106.785 Y732.405
G01 X81.575 Y750.277
G01 X44.874 Y764.962
G01 X5.000 Y768.435
G01 X5.000 Y5.000
G01 X710.000 Y5.000
G01 X710.000 Y558.629
G01 X701.216 Y564.218
G01 X684.728 Y583.606
G01 X658.041 Y607.483
G01 X621.226 Y626.144
G01 X581.932 Y633.610
G01 X549.594 Y632.164
G01 X528.283 Y630.611
G01 X513.630 Y637.606
G01 X496.135 Y655.097
G01 X468.376 Y676.848
G01 X430.630 Y693.166
G01 X390.666 Y698.245
G01 X357.856 Y694.567
G01 X336.078 Y691.010
G01 X320.782 Y696.127
G01 X302.442 Y711.659
G01 X273.779 Y731.221
G01 X235.276 Y745.138
G01 X194.815 Y747.780
G01 X161.702 Y741.823
G01 X139.623 Y736.219
G01 X123.849 Y739.411
G01 X104.831 Y752.935
G01 X75.435 Y770.258
G01 X36.351 Y781.730
G01 X5.000 Y781.858
G01 X5.000 Y5.000
G01 X710.000 Y5.000
G01 X710.000 Y584.916
G01 X692.917 Y603.066
G01 X662.448 Y625.794
G01 X624.069 Y641.223
G01 X586.214 Y645.904
G01 X556.826 Y644.300
G01 X537.340 Y645.403
G01 X521.601 Y655.919
G01 X500.532 Y675.185
G01 X469.016 Y695.676
G01 X429.773 Y708.703
G01 X391.302 Y711.002
G01 X361.437 Y707.198
G01 X341.420 Y706.304
G01 X324.961 Y714.883
G01 X303.010 Y732.081
G01 X270.619 Y750.273
G01 X230.690 Y760.841
G01 X191.777 Y760.708
G01 X161.607 Y754.660
G01 X141.227 Y751.722
G01 X124.216 Y758.316
G01 X101.555 Y773.395
G01 X68.465 Y789.238
G01 X28.029 Y797.306
G01 X5.000 Y795.776
G01 X5.000 Y5.000
G01 X710.000 Y5.000
G01 X710.000 Y612.833
G01 X699.896 Y622.271
G01 X666.305 Y643.096
G01 X627.357 Y655.343
G01 X591.519 Y658.048
G01 X564.802 Y657.240
G01 X546.215 Y661.373
G01 X528.521 Y674.916
G01 X503.721 Y694.969
G01 X469.123 Y713.462
G01 X429.377 Y723.269
G01 X392.957 Y723.608
G01 X365.739 Y720.627
G01 X346.551 Y722.748
G01 X328.070 Y734.277
G01 X302.374 Y752.150
G01 X266.945 Y768.249
G01 X226.581 Y775.561
G01 X189.758 Y773.484
G01 X162.211 Y768.285
G01 X142.592 Y768.345
G01 X123.498 Y777.811
G01 X97.081 Y793.452
G01 X61.003 Y807.111
G01 X20.203 Y811.886
G01 X5.000 Y810.028
G01 X5.000 Y5.000
G01 X710.000 Y5.000
G01 X710.000 Y637.587
G01 X705.859 Y640.939
G01 X669.951 Y659.366
G01 X631.321 Y668.754
G01 X597.792 Y670.377
G01 X573.224 Y671.150
G01 X554.595 Y678.391
G01 X534.296 Y694.270
G01 X505.901 Y714.171
G01 X469.036 Y730.189
G01 X429.666 Y737.119
G01 X395.571 Y736.397
G01 X370.460 Y735.012
G01 X351.159 Y740.204
G01 X330.024 Y753.980
G01 X300.739 Y771.592
G01 X263.098 Y785.141
G01 X223.168 Y789.557
G01 X188.688 Y786.442
G01 X163.210 Y782.851
G01 X143.410 Y785.946
G01 X121.616 Y797.566
G01 X91.621 Y812.840
G01 X53.389 Y823.873
G01 X13.086 Y825.736
G01 X5.000 Y824.443
G01 X5.000 Y5.000
G01 X710.000 Y5.000
G01 X710.000 Y659.318
G01 X673.702 Y674.679
G01 X636.096 Y681.751
G01 X604.886 Y683.182
G01 X581.773 Y686.096
G01 X562.229 Y696.246
G01 X538.936 Y713.654
G01 X507.332 Y732.597
G01 X469.071 Y745.941
G01 X430.768 Y750.550
G01 X398.990 Y749.657
G01 X375.281 Y750.410
G01 X355.000 Y758.457
G01 X330.839 Y773.665
G01 X298.368 Y790.220
G01 X259.390 Y801.038
G01 X220.574 Y803.131
G01 X188.409 Y799.864
G01 X164.283 Y798.408
G01 X143.442 Y804.302
G01 X118.595 Y817.256
G01 X85.442 Y831.374
G01 X45.933 Y839.622
G01 X6.794 Y839.158
G01 X5.000 Y838.843
G01 X5.000 Y5.000
G01 X710.000 Y5.000
G01 X710.000 Y677.974
G01 X677.825 Y689.198
G01 X641.719 Y694.643
G01 X612.582 Y696.683
G01 X590.139 Y702.041
G01 X568.952 Y714.674
G01 X542.545 Y732.776
G01 X508.310 Y750.145
G01 X469.489 Y760.885
G01 X432.716 Y763.872
G01 X402.989 Y763.602
G01 X379.893 Y766.780
G01 X357.914 Y777.240
G01 X330.626 Y793.041
G01 X295.560 Y807.938
G01 X256.078 Y816.114
G01 X218.823 Y816.590
G01 X188.691 Y813.960
G01 X165.122 Y814.907
G01 X142.534 Y823.143
G01 X114.550 Y836.591
G01 X78.843 Y848.966
G01 X38.889 Y854.535
G01 X5.000 Y852.663
G01 X5.000 Y5.000
G01 X710.000 Y5.000
G01 X710.000 Y695.182
G01 X682.511 Y703.149
G01 X648.133 Y707.722
G01 X620.614 Y711.016
G01 X598.052 Y718.862
G01 X574.693 Y733.387
G01 X545.303 Y751.398
G01 X509.130 Y766.810
G01 X470.478 Y775.251
G01 X435.443 Y777.375
G01 X407.302 Y778.362
G01 X384.028 Y783.992
G01 X359.837 Y796.262
G01 X329.571 Y811.877
G01 X292.611 Y824.748
G01 X253.344 Y830.603
G01 X217.843 Y830.224
G01 X189.265 Y828.853
G01 X165.465 Y832.214
G01 X140.627 Y842.178
G01 X109.675 Y855.345
G01 X72.121 Y865.626
G01 X32.434 Y868.852
G01 X5.000 Y866.614
G01 X5.000 Y5.000
G01 X710.000 Y5.000
G01 X710.000 Y711.334
G01 X687.868 Y716.794
G01 X655.197 Y721.233
G01 X628.703 Y726.224
G01 X605.301 Y736.367
G01 X579.472 Y752.099
G01 X547.446 Y769.361
G01 X510.064 Y782.678
G01 X472.137 Y789.304
G01 X438.807 Y791.301
G01 X411.647 Y793.975
G01 X387.482 Y801.848
G01 X360.795 Y815.239
G01 X327.913 Y830.019
G01 X289.789 Y840.741
G01 X251.286 Y844.770
G01 X217.486 Y844.273
G01 X189.849 Y844.576
G01 X165.109 Y850.126
G01 X137.756 Y861.124
G01 X104.210 Y873.369
G01 X65.542 Y881.450
G01 X26.657 Y882.839
G01 X5.000 Y880.913
G01 X5.000 Y1600.000
G01 X710.000 Y1600.000
G01 X710.000 Y726.860
G01 X693.912 Y730.403
G01 X662.710 Y735.358
G01 X636.580 Y742.262
G01 X611.758 Y754.318
G01 X583.394 Y770.561
G01 X549.235 Y786.591
G01 X511.330 Y797.907
G01 X474.480 Y803.313
G01 X442.600 Y805.828
G01 X415.758 Y810.388
G01 X390.130 Y820.109
G01 X360.900 Y833.925
G01 X325.913 Y847.398
G01 X287.311 Y856.081
G01 X249.906 Y858.886
G01 X217.541 Y858.907
G01 X190.179 Y861.069
G01 X163.937 Y868.401
G01 X134.036 Y879.736
G01 X98.419 Y890.601
G01 X59.318 Y896.605
G01 X21.558 Y896.768
G01 X5.000 Y895.494
G01 X5.000 Y1600.000
G01 X710.000 Y1600.000
G01 X710.000 Y742.238
G01 X700.577 Y744.227
G01 X670.434 Y750.199
G01 X644.018 Y759.005
G01 X617.375 Y772.457
G01 X586.630 Y788.579
G01 X550.928 Y803.103
G01 X513.079 Y812.708
G01 X477.432 Y817.528
G01 X446.583 Y821.052
G01 X419.410 Y827.473
G01 X391.932 Y838.517
G01 X360.326 Y852.127
G01 X323.831 Y864.034
G01 X285.320 Y870.981
G01 X249.127 Y873.198
G01 X217.767 Y874.218
G01 X190.032 Y878.201
G01 X161.915 Y886.780
G01 X129.647 Y897.827
G01 X92.560 Y907.065
G01 X53.589 Y911.310
G01 X17.053 Y910.882
G01 X5.000 Y910.302
G01 X5.000 Y1600.000
G01 X710.000 Y1600.000
G01 X710.000 Y757.971
G01 X707.721 Y758.469
G01 X678.120 Y765.774
G01 X650.848 Y776.272
G01 X622.192 Y790.541
G01 X589.398 Y806.029
G01 X552.755 Y818.990
G01 X515.378 Y827.319
G01 X480.850 Y832.149
G01 X450.508 Y836.983
G01 X422.439 Y845.044
G01 X392.932 Y856.828
G01 X359.294 Y869.731
G01 X321.892 Y880.025
G01 X283.879 Y885.681
G01 X248.801 Y887.902
G01 X217.917 Y890.211
G01 X189.250 Y895.779
G01 X159.092 Y905.022
G01 X124.812 Y915.287
G01 X86.858 Y922.866
G01 X48.413 Y925.803
G01 X12.988 Y925.374
G01 X5.000 Y925.309
G01 X5.000 Y1600.000
G01 X710.000 Y1600.000
G01 X710.000 Y774.793
G01 X685.541 Y782.018
G01 X656.976 Y793.842
G01 X626.322 Y808.359
G01 X591.930 Y822.872
G01 X554.893 Y834.408
G01 X518.214 Y841.977
G01 X484.538 Y847.311
G01 X454.148 Y853.556
G01 X424.757 Y862.879
G01 X393.248 Y874.835
G01 X358.036 Y886.698
G01 X320.272 Y895.534
G01 X282.971 Y900.416
G01 X248.730 Y903.131
G01 X217.764 Y906.815
G01 X187.750 Y913.582
G01 X155.590 Y922.921
G01 X119.764 Y932.083
G01 X81.481 Y938.169
G01 X43.765 Y940.321
G01 X9.166 Y940.373
G01 X5.000 Y940.517
G01 X5.000 Y1600.000
G01 X710.000 Y1600.000
G01 X710.000 Y792.939
G01 X692.507 Y798.803
G01 X662.389 Y811.488
G01 X629.934 Y825.760
G01 X594.452 Y839.144
G01 X557.451 Y849.558
G01 X521.498 Y856.890
G01 X488.278 Y863.076
G01 X457.318 Y870.633
G01 X426.355 Y880.750
G01 X393.054 Y892.390
G01 X356.778 Y903.073
G01 X319.074 Y910.761
G01 X282.501 Y915.394
G01 X248.693 Y918.938
G01 X217.128 Y923.889
G01 X185.527 Y931.381
G01 X151.587 Y940.333
G01 X114.727 Y948.265
G01 X76.532 Y953.177
G01 X39.548 Y955.068
G01 X5.363 Y955.928
G01 X5.000 Y955.954
G01 X5.000 Y1600.000
G01 X710.000 Y1600.000
G01 X710.000 Y811.943
G01 X698.892 Y815.945
G01 X667.149 Y828.997
G01 X633.233 Y842.659
G01 X597.154 Y854.954
G01 X560.461 Y864.657
G01 X525.080 Y872.220
G01 X491.849 Y879.425
G01 X459.896 Y888.032
G01 X427.301 Y898.447
G01 X392.555 Y909.414
G01 X355.707 Y918.968
G01 X318.326 Y925.924
G01 X282.315 Y930.772
G01 X248.472 Y935.302
G01 X215.891 Y941.247
G01 X182.655 Y948.969
G01 X147.290 Y957.186
G01 X109.887 Y963.948
G01 X72.032 Y968.109
G01 X35.605 Y970.197
G01 X5.000 Y971.817
G01 X5.000 Y1600.000
G01 X710.000 Y1600.000
G01 X710.000 Y831.264
G01 X704.643 Y833.240
G01 X671.383 Y846.200
G01 X636.432 Y859.051
G01 X600.173 Y870.465
G01 X563.882 Y879.912
G01 X528.769 Y888.061
G01 X495.059 Y896.267
G01 X461.833 Y905.545
G01 X427.725 Y915.802
G01 X391.964 Y925.907
G01 X354.956 Y934.548
G01 X317.981 Y941.230
G01 X282.222 Y946.639
G01 X247.876 Y952.127
G01 X214.009 Y958.681
G01 X179.268 Y966.179
G01 X142.912 Y973.482
G01 X105.372 Y979.301
G01 X67.929 Y983.169
G01 X31.741 Y985.795
G01 X5.000 Y987.892
G01 X5.000 Y1600.000
G01 X710.000 Y1600.000
G01 X710.000 Y850.399
G01 X709.779 Y850.480
G01 X675.267 Y862.983
G01 X639.727 Y875.004
G01 X603.577 Y885.873
G01 X567.601 Y895.499
G01 X532.358 Y904.435
G01 X497.761 Y913.454
G01 X463.153 Y922.966
G01 X427.806 Y932.707
G01 X391.476 Y941.939
G01 X354.590 Y950.012
G01 X317.924 Y956.851
G01 X282.015 Y963.013
G01 X246.763 Y969.261
G01 X211.510 Y975.985
G01 X175.546 Y982.907
G01 X138.645 Y989.298
G01 X101.243 Y994.524
G01 X64.105 Y998.528
G01 X27.749 Y1001.873
G01 X5.000 Y1004.061
G01 X5.000 Y1600.000
G01 X710.000 Y1600.000
G01 X710.000 Y868.948
G01 X678.999 Y879.303
G01 X643.273 Y890.646
G01 X607.362 Y901.381
G01 X571.456 Y911.540
G01 X535.651 Y921.289
G01 X499.874 Y930.798
G01 X463.953 Y940.113
G01 X427.743 Y949.123
G01 X391.244 Y957.645
G01 X354.600 Y965.561
G01 X317.989 Y972.906
G01 X281.497 Y979.838
G01 X245.054 Y986.516
G01 X208.496 Y992.979
G01 X171.691 Y999.121
G01 X134.641 Y1004.770
G01 X97.485 Y1009.817
G01 X60.391 Y1014.301
G01 X23.436 Y1018.370
G01 X5.000 Y1020.271
G01 X5.000 Y1600.000
G01 X710.000 Y1600.000
G01 X710.000 Y886.776
G01 X682.779 Y895.193
G01 X647.170 Y906.154
G01 X611.450 Y917.174
G01 X575.253 Y928.090
G01 X538.483 Y938.507
G01 X501.388 Y948.098
G01 X464.383 Y956.853
G01 X427.735 Y965.087
G01 X391.363 Y973.201
G01 X354.902 Y981.379
G01 X317.981 Y989.445
G01 X280.507 Y996.991
G01 X242.746 Y1003.689
G01 X205.121 Y1009.536
G01 X167.899 Y1014.862
G01 X130.990 Y1020.078
G01 X94.013 Y1025.364
G01 X56.592 Y1030.532
G01 X18.642 Y1035.161
G01 X5.000 Y1036.504
G01 X5.000 Y1600.000
G01 X710.000 Y1600.000
G01 X710.000 Y903.982
G01 X686.781 Y910.754
G01 X651.446 Y921.725
G01 X615.703 Y933.398
G01 X578.791 Y945.130
G01 X540.743 Y955.918
G01 X502.366 Y965.162
G01 X464.634 Y973.117
G01 X427.953 Y980.703
G01 X391.857 Y988.807
G01 X355.358 Y997.610
G01 X317.700 Y1006.445
G01 X278.940 Y1014.302
G01 X239.905 Y1020.589
G01 X201.575 Y1025.588
G01 X164.341 Y1030.237
G01 X127.711 Y1035.421
G01 X90.683 Y1041.304
G01 X52.509 Y1047.194
G01 X13.266 Y1052.073
G01 X5.000 Y1052.762
G01 X5.000 Y1600.000
G01 X710.000 Y1600.000
G01 X710.000 Y920.774
G01 X691.130 Y926.141
G01 X656.056 Y937.557
G01 X619.939 Y950.140
G01 X581.889 Y962.571
G01 X542.389 Y973.325
G01 X502.935 Y981.833
G01 X464.906 Y988.907
G01 X428.521 Y996.131
G01 X392.676 Y1004.659
G01 X355.781 Y1014.335
G01 X316.968 Y1023.813
G01 X276.756 Y1031.570
G01 X236.664 Y1037.064
G01 X198.061 Y1041.144
G01 X161.136 Y1045.409
G01 X124.750 Y1050.995
G01 X87.307 Y1057.714
G01 X47.963 Y1064.190
G01 X7.274 Y1068.905
G01 X5.000 Y1069.042
G01 X5.000 Y1600.000
G01 X710.000 Y1600.000
G01 X710.000 Y937.456
G01 X695.891 Y941.550
G01 X660.887 Y953.820
G01 X623.953 Y967.416
G01 X584.406 Y980.262
G01 X543.451 Y990.525
G01 X503.274 Y998.008
G01 X465.391 Y1004.299
G01 X429.497 Y1011.568
G01 X393.703 Y1020.923
G01 X355.967 Y1031.566
G01 X315.646 Y1041.394
G01 X273.991 Y1048.594
G01 X233.202 Y1053.014
G01 X194.768 Y1056.283
G01 X158.337 Y1060.575
G01 X121.987 Y1066.963
G01 X83.682 Y1074.601
G01 X42.823 Y1081.363
G01 X5.000 Y1085.038
G01 X5.000 Y1600.000
G01 X710.000 Y1600.000
G01 X710.000 Y954.414
G01 X701.051 Y957.189
G01 X665.766 Y970.634
G01 X627.543 Y985.168
G01 X586.263 Y998.010
G01 X544.031 Y1007.334
G01 X503.590 Y1013.654
G01 X466.242 Y1019.433
G01 X430.865 Y1027.221
G01 X394.764 Y1037.717
G01 X355.716 Y1049.239
G01 X313.660 Y1058.993
G01 X270.751 Y1065.192
G01 X229.728 Y1068.411
G01 X191.846 Y1071.150
G01 X155.925 Y1075.945
G01 X119.244 Y1083.439
G01 X79.609 Y1091.898
G01 X37.018 Y1098.515
G01 X5.000 Y1100.753
G01 X5.000 Y1600.000
G01 X710.000 Y1600.000
G01 X710.000 Y972.064
G01 X706.526 Y973.256
G01 X670.487 Y988.056
G01 X630.537 Y1003.266
G01 X587.452 Y1015.598
G01 X544.294 Y1023.613
G01 X504.093 Y1028.812
G01 X467.558 Y1034.502
G01 X432.536 Y1043.286
G01 X395.650 Y1055.092
G01 X354.858 Y1067.222
G01 X311.009 Y1076.393
G01 X267.204 Y1081.229
G01 X226.451 Y1083.301
G01 X189.390 Y1085.939
G01 X153.806 Y1091.710
G01 X116.312 Y1100.469
G01 X74.920 Y1109.467
G01 X30.550 Y1115.429
G01 X5.000 Y1116.361
G01 X5.000 Y1600.000
G01 X710.000 Y1600.000
G01 X710.000 Y990.292
G01 X675.256 Y1005.406
G01 X633.267 Y1020.943
G01 X588.526 Y1032.314
G01 X544.956 Y1038.866
G01 X505.507 Y1043.265
G01 X469.923 Y1049.476
G01 X434.935 Y1059.759
G01 X396.744 Y1072.949
G01 X353.902 Y1085.341
G01 X308.415 Y1093.493
G01 X264.231 Y1096.834
G01 X224.250 Y1098.101
G01 X188.130 Y1101.264
G01 X152.547 Y1108.518
G01 X113.716 Y1118.615
G01 X70.265 Y1127.810
G01 X24.279 Y1132.694
G01 X5.000 Y1132.732
G01 X5.000 Y1600.000
G01 X710.000 Y1600.000
G01 X710.000 Y1008.386
G01 X680.562 Y1021.691
G01 X636.404 Y1037.203
G01 X590.374 Y1047.326
G01 X547.016 Y1052.560
G01 X508.759 Y1056.776
G01 X474.083 Y1064.277
G01 X438.665 Y1076.543
G01 X398.665 Y1091.098
G01 X353.637 Y1103.389
G01 X306.874 Y1110.233
G01 X262.918 Y1112.232
G01 X224.124 Y1113.314
G01 X188.872 Y1117.763
G01 X152.802 Y1126.965
G01 X112.117 Y1138.361
G01 X66.467 Y1147.377
G01 X19.221 Y1150.894
G01 X5.000 Y1150.483
G01 X5.000 Y1600.000
G01 X710.000 Y1600.000
G01 X710.000 Y1027.071
G01 X685.323 Y1038.238
G01 X639.013 Y1053.108
G01 X592.192 Y1061.613
G01 X549.647 Y1065.691
G01 X512.835 Y1070.296
G01 X478.776 Y1079.641
G01 X442.318 Y1094.005
G01 X400.042 Y1109.519
G01 X352.859 Y1121.091
G01 X305.326 Y1126.270
G01 X262.199 Y1127.100
G01 X224.830 Y1128.577
G01 X190.144 Y1134.858
G01 X152.973 Y1146.112
G01 X109.974 Y1158.389
G01 X62.171 Y1166.608
G01 X14.180 Y1168.412
G01 X5.000 Y1167.893
G01 X5.000 Y1600.000
G01 X710.000 Y1600.000
G01 X710.000 Y1045.840
G01 X689.426 Y1054.822
G01 X641.201 Y1068.430
G01 X594.225 Y1075.118
G01 X553.048 Y1078.415
G01 X517.732 Y1084.077
G01 X483.804 Y1095.721
G01 X445.649 Y1112.087
G01 X400.769 Y1127.983
G01 X351.682 Y1138.221
G01 X304.021 Y1141.550
G01 X262.267 Y1141.602
G01 X226.360 Y1144.142
G01 X191.742 Y1152.701
G01 X152.815 Y1165.893
G01 X107.188 Y1178.467
G01 X57.496 Y1185.282
G01 X9.406 Y1185.202
G01 X5.000 Y1184.863
G01 X5.000 Y1600.000
G01 X710.000 Y1600.000
G01 X710.000 Y1064.209
G01 X692.839 Y1071.180
G01 X643.153 Y1082.980
G01 X596.735 Y1087.869
G01 X557.359 Y1090.956
G01 X523.364 Y1098.367
G01 X488.918 Y1112.604
G01 X448.435 Y1130.644
G01 X400.819 Y1146.227
G01 X350.295 Y1154.596
G01 X303.218 Y1156.109
G01 X263.259 Y1155.961
G01 X228.623 Y1160.255
G01 X193.416 Y1171.371
G01 X152.109 Y1186.161
G01 X103.737 Y1198.333
G01 X52.634 Y1203.216
G01 X5.158 Y1201.302
G01 X5.000 Y1201.288
G01 X5.000 Y1600.000
G01 X710.000 Y1600.000
G01 X710.000 Y1081.796
G01 X695.616 Y1087.040
G01 X645.116 Y1096.634
G01 X599.973 Y1099.981
G01 X562.644 Y1103.579
G01 X529.561 Y1113.383
G01 X493.841 Y1130.291
G01 X450.504 Y1149.463
G01 X400.253 Y1163.981
G01 X348.947 Y1170.096
G01 X303.167 Y1170.065
G01 X265.232 Y1170.447
G01 X231.443 Y1177.129
G01 X194.889 Y1190.863
G01 X150.687 Y1206.696
G01 X99.687 Y1217.718
G01 X47.839 Y1220.297
G01 X5.000 Y1217.087
G01 X5.000 Y1600.000
G01 X710.000 Y1600.000
G01 X710.000 Y1098.342
G01 X697.903 Y1102.154
G01 X647.373 Y1109.348
G01 X604.149 Y1111.651
G01 X568.879 Y1116.573
G01 X536.082 Y1129.284
G01 X498.299 Y1148.692
G01 X451.756 Y1168.271
G01 X399.222 Y1180.999
G01 X347.925 Y1184.683
G01 X304.073 Y1183.622
G01 X268.157 Y1185.347
G01 X234.577 Y1194.918
G01 X195.890 Y1211.083
G01 X148.454 Y1227.225
G01 X95.196 Y1236.376
G01 X43.397 Y1236.495
G01 X5.000 Y1232.607
G01 X5.000 Y1600.000
G01 X710.000 Y1600.000
G01 X710.000 Y1113.689
G01 X699.923 Y1116.318
G01 X650.225 Y1121.173
G01 X609.408 Y1123.143
G01 X575.947 Y1130.215
G01 X542.635 Y1146.150
G01 X502.048 Y1167.628
G01 X452.177 Y1186.765
G01 X397.954 Y1197.082
G01 X347.525 Y1198.416
G01 X306.076 Y1197.047
G01 X271.909 Y1200.937
G01 X237.730 Y1213.695
G01 X196.177 Y1231.843
G01 X145.407 Y1247.444
G01 X90.497 Y1254.116
G01 X39.605 Y1251.873
G01 X5.000 Y1247.933
G01 X5.000 Y1600.000
G01 X710.000 Y1600.000
G01 X710.000 Y1127.759
G01 X701.967 Y1129.404
G01 X653.949 Y1132.256
G01 X615.807 Y1134.769
G01 X583.638 Y1144.745
G01 X548.904 Y1163.966
G01 X504.903 Y1186.841
G01 X451.855 Y1204.640
G01 X396.743 Y1212.108
G01 X348.025 Y1211.447
G01 X309.227 Y1210.652
G01 X276.276 Y1217.449
G01 X240.587 Y1233.439
G01 X195.572 Y1252.884
G01 X141.638 Y1267.049
G01 X85.886 Y1270.822
G01 X36.736 Y1266.591
G01 X5.000 Y1263.224
G01 X5.000 Y1600.000
G01 X710.000 Y1600.000
G01 X710.000 Y1140.535
G01 X704.362 Y1141.376
G01 X658.778 Y1142.833
G01 X623.306 Y1146.856
G01 X591.671 Y1160.332
G01 X554.579 Y1182.616
G01 X506.760 Y1206.016
G01 X450.973 Y1221.620
G01 X395.918 Y1226.049
G01 X349.650 Y1224.017
G01 X313.477 Y1224.764
G01 X280.970 Y1235.049
G01 X242.839 Y1254.027
G01 X193.978 Y1273.887
G01 X137.335 Y1285.767
G01 X81.694 Y1286.473
G01 X35.013 Y1280.895
G01 X5.000 Y1278.776
G01 X5.000 Y1600.000
G01 X710.000 Y1600.000
G01 X710.000 Y1152.056
G01 X707.449 Y1152.304
G01 X664.868 Y1153.212
G01 X631.759 Y1159.717
G01 X599.709 Y1177.058
G01 X559.386 Y1201.886
G01 X507.618 Y1224.806
G01 X449.801 Y1237.487
G01 X395.817 Y1238.981
G01 X352.552 Y1236.439
G01 X318.674 Y1239.695
G01 X285.652 Y1253.811
G01 X244.219 Y1275.239
G01 X191.400 Y1294.505
G01 X132.776 Y1303.388
G01 X78.256 Y1301.151
G01 X34.577 Y1295.100
G01 X5.000 Y1295.054
G01 X5.000 Y1600.000
G01 X710.000 Y1600.000
G01 X710.000 Y1162.415
G01 X672.278 Y1163.748
G01 X640.924 Y1173.620
G01 X607.391 Y1194.897
G01 X563.121 Y1221.480
G01 X507.582 Y1242.866
G01 X448.674 Y1252.110
G01 X396.752 Y1251.086
G01 X356.779 Y1249.068
G01 X324.570 Y1255.704
G01 X289.964 Y1273.701
G01 X244.528 Y1296.771
G01 X187.954 Y1314.394
G01 X128.297 Y1319.786
G01 X75.881 Y1315.047
G01 X35.473 Y1309.563
G01 X5.000 Y1312.666
G01 X5.000 Y1600.000
G01 X710.000 Y1600.000
G01 X710.000 Y1172.395
G01 X680.954 Y1174.815
G01 X650.476 Y1188.755
G01 X614.365 Y1213.715
G01 X565.672 Y1241.035
G01 X506.865 Y1259.883
G01 X447.970 Y1265.460
G01 X398.977 Y1262.641
G01 X362.274 Y1262.277
G01 X330.836 Y1272.976
G01 X293.556 Y1294.576
G01 X243.662 Y1318.262
G01 X183.857 Y1333.247
G01 X124.278 Y1334.943
G01 X74.817 Y1328.443
G01 X37.632 Y1324.657
G01 X5.509 Y1332.050
G01 X5.000 Y1332.292
G01 X5.000 Y1600.000
G01 X710.000 Y1600.000
G01 X710.000 Y1183.415
G01 X690.731 Y1186.767
G01 X660.031 Y1205.211
G01 X620.325 Y1233.265
G01 X567.038 Y1260.158
G01 X505.774 Y1275.613
G01 X448.069 Y1277.628
G01 X402.659 Y1274.002
G01 X368.859 Y1276.417
G01 X337.087 Y1291.593
G01 X296.126 Y1316.184
G01 X241.630 Y1339.317
G01 X179.424 Y1350.826
G01 X121.098 Y1348.956
G01 X75.225 Y1341.697
G01 X40.871 Y1340.728
G01 X8.303 Y1352.565
G01 X5.000 Y1354.223
G01 X5.000 Y1600.000
G01 X710.000 Y1600.000
G01 X710.000 Y1197.219
G01 X701.334 Y1199.905
G01 X669.184 Y1222.961
G01 X625.037 Y1253.211
G01 X567.340 Y1278.460
G01 X504.691 Y1289.907
G01 X449.326 Y1288.819
G01 X407.856 Y1285.571
G01 X376.255 Y1291.784
G01 X342.917 Y1311.516
G01 X297.449 Y1338.183
G01 X238.560 Y1359.548
G01 X175.039 Y1366.989
G01 X119.106 Y1362.037
G01 X77.152 Y1355.215
G01 X44.903 Y1358.066
G01 X10.654 Y1374.400
G01 X5.000 Y1377.198
G01 X5.000 Y1600.000
G01 X710.000 Y1600.000
G01 X710.000 Y1216.332
G01 X677.535 Y1241.852
G01 X628.373 Y1273.148
G01 X566.815 Y1295.586
G01 X504.038 Y1302.731
G01 X452.028 Y1299.343
G01 X414.503 Y1297.770
G01 X384.092 Y1308.587
G01 X347.930 Y1332.585
G01 X297.406 Y1360.164
G01 X234.697 Y1378.606
G01 X171.125 Y1381.714
G01 X118.584 Y1374.506
G01 X80.526 Y1369.416
G01 X49.353 Y1376.872
G01 X12.173 Y1397.387
G01 X5.000 Y1400.694
G01 X5.000 Y1600.000
G01 X710.000 Y1600.000
G01 X710.000 Y1241.332
G01 X684.737 Y1261.615
G01 X630.329 Y1292.634
G01 X565.805 Y1311.258
G01 X504.247 Y1314.181
G01 X456.369 Y1309.598
G01 X422.407 Y1310.993
G01 X391.938 Y1326.922
G01 X351.784 Y1354.523
G01 X296.000 Y1381.686
G01 X230.390 Y1396.222
G01 X168.113 Y1395.104
G01 X119.716 Y1386.762
G01 X85.145 Y1384.692
G01 X53.789 Y1397.233
G01 X12.522 Y1421.240
G01 X5.000 Y1424.313
G01 X5.000 Y1600.000
G01 X710.000 Y1600.000
G01 X710.000 Y1266.772
G01 X690.522 Y1281.876
G01 X631.030 Y1311.229
G01 X564.735 Y1325.302
G01 X505.716 Y1324.481
G01 X462.419 Y1320.035
G01 X431.259 Y1325.580
G01 X399.337 Y1346.755
G01 X354.220 Y1376.951
G01 X293.369 Y1402.310
G01 X226.067 Y1412.228
G01 X166.396 Y1407.392
G01 X122.564 Y1399.259
G01 X90.692 Y1401.374
G01 X57.754 Y1419.106
G01 X11.452 Y1445.574
G01 X5.000 Y1447.793
G01 X5.000 Y1600.000
G01 X710.000 Y1600.000
G01 X710.000 Y1291.245
G01 X694.739 Y1302.186
G01 X630.735 Y1328.532
G01 X564.075 Y1337.672
G01 X508.775 Y1333.972
G01 X470.117 Y1331.125
G01 X440.652 Y1341.771
G01 X405.846 Y1367.918
G01 X355.097 Y1399.414
G01 X289.778 Y1421.642
G01 X222.202 Y1426.590
G01 X166.297 Y1418.926
G01 X127.055 Y1412.465
G01 X96.754 Y1419.694
G01 X60.808 Y1442.310
G01 X8.828 Y1469.932
G01 X5.000 Y1470.973
G01 X5.000 Y1600.000
G01 X710.000 Y1600.000
G01 X710.000 Y1313.973
G01 X697.370 Y1322.052
G01 X629.816 Y1344.225
G01 X564.308 Y1348.461
G01 X513.648 Y1343.090
G01 X479.258 Y1343.313
G01 X450.107 Y1359.685
G01 X411.073 Y1390.108
G01 X354.406 Y1421.422
G01 X285.609 Y1439.371
G01 X219.275 Y1439.411
G01 X168.031 Y1430.148
G01 X132.977 Y1426.824
G01 X102.851 Y1439.761
G01 X62.567 Y1466.538
G01 X5.000 Y1493.659
G01 X5.000 Y1600.000
G01 X710.000 Y1600.000
G01 X710.000 Y1334.648
G01 X698.540 Y1340.982
G01 X628.738 Y1358.101
G01 X565.885 Y1357.905
G01 X520.431 Y1352.333
G01 X489.511 Y1356.985
G01 X459.118 Y1379.299
G01 X414.722 Y1412.914
G01 X352.285 Y1442.482
G01 X281.331 Y1455.301
G01 X217.730 Y1450.937
G01 X171.683 Y1441.559
G01 X139.988 Y1442.713
G01 X108.476 Y1461.541
G01 X62.744 Y1491.369
G01 X5.000 Y1514.395
G01 X5.000 Y1600.000
G01 X710.000 Y1600.000
G01 X710.000 Y1353.224
G01 X698.522 Y1358.526
G01 X628.023 Y1370.093
G01 X569.181 Y1366.372
G01 X529.069 Y1362.225
G01 X500.431 Y1372.421
G01 X467.186 Y1400.442
G01 X416.618 Y1435.839
G01 X349.017 Y1462.151
G01 X277.466 Y1469.374
G01 X217.937 Y1461.544
G01 X177.186 Y1453.680
G01 X147.639 Y1460.403
G01 X113.135 Y1484.851
G01 X61.174 Y1516.303
G01 X5.000 Y1534.265
G01 X5.000 Y1600.000
G01 X710.000 Y1600.000
G01 X710.000 Y1369.761
G01 X697.716 Y1374.317
G01 X628.206 Y1380.286
G01 X574.462 Y1374.334
G01 X539.355 Y1373.267
G01 X511.496 Y1389.772
G01 X473.871 Y1422.795
G01 X416.735 Y1458.340
G01 X345.007 Y1480.070
G01 X274.549 Y1481.689
G01 X220.150 Y1471.710
G01 X184.323 Y1467.008
G01 X155.404 Y1480.032
G01 X116.394 Y1509.365
G01 X57.843 Y1540.796
G01 X5.000 Y1553.344
G01 X5.000 Y1600.000
G01 X710.000 Y1600.000
G01 X710.000 Y1384.345
G01 X696.625 Y1388.108
G01 X629.792 Y1388.922
G01 X581.850 Y1382.335
G01 X550.938 Y1385.894
G01 X522.148 Y1409.032
G01 X478.828 Y1445.917
G01 X415.205 Y1479.872
G01 X340.767 Y1496.005
G01 X273.080 Y1492.497
G01 X224.481 Y1481.982
G01 X192.734 Y1481.972
G01 X162.724 Y1501.584
G01 X117.917 Y1534.632
G01 X52.895 Y1564.306
G01 X5.000 Y1571.676
G01 X5.000 Y1600.000
G01 X710.000 Y1600.000
G01 X710.000 Y1397.048
G01 X695.817 Y1399.804
G01 X633.209 Y1396.386
G01 X591.309 Y1390.953
G01 X563.343 Y1400.435
G01 X531.832 Y1430.033
G01 X481.845 Y1469.271
G01 X412.317 Y1499.935
G01 X336.867 Y1509.870
G01 X273.478 Y1502.195
G01 X230.882 Y1492.937
G01 X201.937 Y1498.889
G01 X169.049 Y1524.879
G01 X117.505 Y1560.110
G01 X46.630 Y1586.339
G01 X5.000 Y1589.261
G01 X5.000 Y1600.000
G01 X710.000 Y1600.000
G01 X710.000 Y1407.912
G01 X695.884 Y1409.474
G01 X638.769 Y1403.186
G01 X602.636 Y1400.746
G01 X576.006 Y1417.077
G01 X540.051 Y1452.449
G01 X482.867 Y1492.263
G01 X408.502 Y1518.118
G01 X333.895 Y1521.749
G01 X276.045 Y1511.294
G01 X239.136 Y1505.128
G01 X211.363 Y1517.934
G01 X173.889 Y1549.578
G01 X115.116 Y1585.205
G01 X62.554 Y1600.000
G01 X710.000 Y1600.000
G01 X710.000 Y1416.962
G01 X697.387 Y1417.358
G01 X646.632 Y1409.911
G01 X615.468 Y1412.205
G01 X588.316 Y1435.841
G01 X546.408 Y1475.813
G01 X482.014 Y1514.292
G01 X404.305 Y1534.140
G01 X332.410 Y1531.893
G01 X280.930 Y1520.389
G01 X248.870 Y1519.039
G01 X220.401 Y1539.116
G01 X176.856 Y1575.208
G01 X128.904 Y1600.000
G01 X710.000 Y1600.000
G01 X710.000 Y1424.236
G01 X700.813 Y1423.856
G01 X656.788 Y1417.189
G01 X629.303 Y1425.712
G01 X599.661 Y1456.572
G01 X550.646 Y1499.550
G01 X479.576 Y1534.798
G01 X400.343 Y1547.881
G01 X332.890 Y1540.713
G01 X288.106 Y1530.109
G01 X259.575 Y1535.043
G01 X228.442 Y1562.265
G01 X179.251 Y1600.000
G01 X710.000 Y1600.000
G01 X710.000 Y1429.864
G01 X706.526 Y1429.501
G01 X669.043 Y1425.639
G01 X643.538 Y1441.500
G01 X609.483 Y1478.940
G01 X552.675 Y1523.018
G01 X476.001 Y1553.314
G01 X397.262 Y1559.401
G01 X335.687 Y1548.750
G01 X297.368 Y1541.066
G01 X270.641 Y1553.357
G01 X234.935 Y1587.041
G01 X215.877 Y1600.000
G01 X710.000 Y1600.000
G01 X710.000 Y1435.058
G01 X683.029 Y1435.813
G01 X657.509 Y1459.623
G01 X617.328 Y1502.460
G01 X552.592 Y1545.559
G01 X471.863 Y1569.505
G01 X395.679 Y1568.944
G01 X340.995 Y1556.641
G01 X308.336 Y1553.806
G01 X281.406 Y1574.023
G01 X253.397 Y1600.000
G01 X710.000 Y1600.000
G01 X710.000 Y1444.978
G01 X698.225 Y1448.152
G01 X670.548 Y1479.948
G01 X622.885 Y1526.523
G01 X550.681 Y1566.551
G01 X467.827 Y1583.209
G01 X396.135 Y1576.928
G01 X348.819 Y1565.067
G01 X320.479 Y1568.759
G01 X291.202 Y1596.891
G01 X287.575 Y1600.000
G01 X710.000 Y1600.000
G01 X710.000 Y1467.838
G01 X682.034 Y1502.147
G01 X626.022 Y1550.441
G01 X547.400 Y1585.464
G01 X464.591 Y1594.454
G01 X399.041 Y1583.920
G01 X358.971 Y1574.704
G01 X333.152 Y1586.194
G01 X320.005 Y1600.000
G01 X710.000 Y1600.000
G01 X710.000 Y1503.635
G01 X691.448 Y1525.726
G01 X626.807 Y1573.498
G01 X548.946 Y1600.000
G01 X447.159 Y1600.000
G01 X404.640 Y1590.593
G01 X371.073 Y1586.162
G01 X353.505 Y1600.000
G01 X710.000 Y1600.000
G01 X710.000 Y1535.066
G01 X694.724 Y1551.557
G01 X621.703 Y1596.251
G01 X605.812 Y1600.000
G01 X416.060 Y1600.000
G01 X408.857 Y1598.100
G01 X381.324 Y1600.000
G01 X710.000 Y1600.000
G01 X710.000 Y1562.727
G01 X693.701 Y1578.051
G01 X648.832 Y1600.000
G01 X710.000 Y1600.000
G01 X710.000 Y1587.789
G01 X694.677 Y1600.000
G01 X710.000 Y1600.000

; BEGIN POST
; file: rolo2
; 23:49
; END POST
; file trimmed by trimify2x.pl
; QQQQQQQ

