; file trimmed by trimify2x.pl
; Created by Sandify
; 
;   https://jeffeb3.github.io/sandify/
; 
;   Sandify Version: 0.1.3
; 
;   Machine Type: Rectangular
;     MinX: 5 MaxX: 710 MinY: 5 MaxY: 1570
;   Content Type: Shapes
;     Starting Size: 300
;     Offset: X: 634 Y: -308
;     Selected Shape: Star
;       Star Points: 5
;       Star Ratio: 1
;     Number of Loops: 146
;     Spin: true
;       Spin Value: -0.6
;       Spin Switchbacks: 0
;     Grow: true
;       Grow Value: 3
;     Track: true
;       Track Count: 90
;       Track Size: 63.1
;       Track Grow: false
;   Path Reversed: false
; 
; filename: 'waves2.gcode'

; BEGIN PRE
G28 Y
G28 X
G01 F30000; END PRE
G01 X710.000 Y479.500
G01 X710.000 Y652.632
G01 X665.797 Y614.212
G01 X710.000 Y552.003
G01 X710.000 Y394.748
G01 X681.309 Y364.609
G01 X710.000 Y328.913
G01 X710.000 Y683.391
G01 X647.540 Y645.687
G01 X710.000 Y514.574
G01 X710.000 Y386.863
G01 X695.704 Y372.089
G01 X710.000 Y346.654
G01 X710.000 Y706.285
G01 X640.380 Y678.808
G01 X710.000 Y430.186
G01 X710.000 Y724.041
G01 X644.152 Y709.666
G01 X677.997 Y383.590
G01 X710.000 Y367.312
G01 X710.000 Y737.932
G01 X657.346 Y734.651
G01 X634.398 Y376.034
G01 X710.000 Y346.516
G01 X710.000 Y748.336
G01 X677.300 Y750.900
G01 X590.996 Y379.824
G01 X710.000 Y321.596
G01 X710.000 Y754.745
G01 X700.523 Y756.650
G01 X551.631 Y394.199
G01 X710.000 Y289.985
G01 X710.000 Y729.880
G01 X519.640 Y417.114
G01 X710.000 Y248.445
G01 X710.000 Y698.893
G01 X497.450 Y445.498
G01 X710.000 Y191.059
G01 X710.000 Y675.740
G01 X486.272 Y475.630
G01 X680.936 Y153.480
G01 X710.000 Y153.225
G01 X710.000 Y656.493
G01 X485.956 Y503.601
G01 X639.638 Y130.703
G01 X710.000 Y132.380
G01 X710.000 Y639.844
G01 X495.008 Y525.798
G01 X594.533 Y118.651
G01 X710.000 Y113.075
G01 X710.000 Y626.430
G01 X510.777 Y539.348
G01 X549.485 Y117.951
G01 X710.000 Y92.129
G01 X710.000 Y657.776
G01 X691.010 Y612.200
G01 X529.781 Y542.475
G01 X508.337 Y127.857
G01 X710.000 Y68.054
G01 X710.000 Y704.907
G01 X654.742 Y602.438
G01 X548.138 Y534.719
G01 X474.435 Y146.340
G01 X710.000 Y39.591
G01 X710.000 Y736.692
G01 X615.809 Y603.597
G01 X562.047 Y516.993
G01 X450.217 Y170.340
G01 X710.000 Y5.149
G01 X710.000 Y758.178
G01 X578.115 Y615.967
G01 X568.261 Y491.470
G01 X436.909 Y196.141
G01 X660.164 Y5.000
G01 X710.000 Y5.000
G01 X710.000 Y773.255
G01 X545.422 Y638.468
G01 X564.483 Y461.314
G01 X434.376 Y219.838
G01 X623.783 Y5.000
G01 X710.000 Y5.000
G01 X710.000 Y784.159
G01 X520.888 Y668.789
G01 X549.654 Y430.290
G01 X441.139 Y237.811
G01 X595.716 Y5.000
G01 X710.000 Y5.000
G01 X710.000 Y792.112
G01 X506.676 Y703.666
G01 X524.084 Y402.297
G01 X454.557 Y247.178
G01 X573.360 Y5.000
G01 X710.000 Y5.000
G01 X710.000 Y797.758
G01 X503.685 Y739.290
G01 X489.416 Y380.886
G01 X471.155 Y246.153
G01 X555.411 Y5.000
G01 X710.000 Y5.000
G01 X710.000 Y801.383
G01 X511.443 Y771.776
G01 X448.417 Y368.823
G01 X487.055 Y234.261
G01 X541.273 Y5.000
G01 X710.000 Y5.000
G01 X710.000 Y803.031
G01 X528.163 Y797.644
G01 X404.644 Y367.745
G01 X498.453 Y212.401
G01 X530.772 Y5.000
G01 X710.000 Y5.000
G01 X710.000 Y802.560
G01 X550.963 Y814.248
G01 X361.999 Y377.959
G01 X502.090 Y182.736
G01 X523.932 Y5.000
G01 X710.000 Y5.000
G01 X710.000 Y799.708
G01 X576.226 Y820.104
G01 X324.251 Y398.402
G01 X495.659 Y148.422
G01 X520.508 Y5.000
G01 X710.000 Y5.000
G01 X710.000 Y794.296
G01 X600.044 Y815.071
G01 X294.566 Y426.774
G01 X478.087 Y113.220
G01 X518.629 Y5.000
G01 X710.000 Y5.000
G01 X710.000 Y786.807
G01 X618.705 Y800.371
G01 X275.123 Y459.822
G01 X449.669 Y81.034
G01 X511.677 Y5.000
G01 X710.000 Y5.000
G01 X710.000 Y779.710
G01 X629.147 Y778.434
G01 X266.837 Y493.742
G01 X412.031 Y55.421
G01 X486.518 Y5.000
G01 X710.000 Y5.000
G01 X710.000 Y778.678
G01 X629.342 Y752.603
G01 X269.251 Y524.648
G01 X367.934 Y39.161
G01 X437.403 Y5.000
G01 X710.000 Y5.000
G01 X710.000 Y789.539
G01 X618.543 Y726.714
G01 X280.593 Y549.054
G01 X320.926 Y33.906
G01 X383.062 Y5.000
G01 X710.000 Y5.000
G01 X710.000 Y810.549
G01 X597.380 Y704.627
G01 X297.993 Y564.303
G01 X274.908 Y39.979
G01 X342.295 Y5.000
G01 X710.000 Y5.000
G01 X710.000 Y833.268
G01 X567.778 Y689.745
G01 X317.842 Y568.899
G01 X233.655 Y56.334
G01 X315.985 Y5.000
G01 X710.000 Y5.000
G01 X710.000 Y851.781
G01 X532.725 Y684.593
G01 X336.233 Y562.686
G01 X200.342 Y80.685
G01 X298.672 Y5.000
G01 X710.000 Y5.000
G01 X710.000 Y865.054
G01 X495.896 Y690.510
G01 X349.449 Y546.873
G01 X177.159 Y109.789
G01 X286.228 Y5.000
G01 X710.000 Y5.000
G01 X710.000 Y874.126
G01 X461.206 Y707.478
G01 X354.422 Y523.879
G01 X165.039 Y139.846
G01 X276.462 Y5.000
G01 X710.000 Y5.000
G01 X710.000 Y880.197
G01 X432.320 Y734.126
G01 X349.111 Y497.039
G01 X163.540 Y166.972
G01 X268.326 Y5.000
G01 X710.000 Y5.000
G01 X710.000 Y884.113
G01 X412.205 Y767.900
G01 X332.755 Y470.188
G01 X170.903 Y187.673
G01 X261.342 Y5.000
G01 X710.000 Y5.000
G01 X710.000 Y886.371
G01 X402.759 Y805.377
G01 X305.971 Y447.189
G01 X184.271 Y199.285
G01 X255.294 Y5.000
G01 X710.000 Y5.000
G01 X710.000 Y887.217
G01 X404.582 Y842.688
G01 X270.672 Y431.453
G01 X200.039 Y200.297
G01 X250.046 Y5.000
G01 X710.000 Y5.000
G01 X710.000 Y886.727
G01 X416.896 Y875.999
G01 X229.835 Y425.519
G01 X214.303 Y190.540
G01 X245.403 Y5.000
G01 X710.000 Y5.000
G01 X710.000 Y884.873
G01 X437.647 Y901.979
G01 X187.134 Y430.741
G01 X223.340 Y171.210
G01 X240.915 Y5.000
G01 X710.000 Y5.000
G01 X710.000 Y881.596
G01 X463.753 Y918.216
G01 X146.484 Y447.115
G01 X224.075 Y144.715
G01 X235.550 Y5.000
G01 X710.000 Y5.000
G01 X710.000 Y876.946
G01 X491.493 Y923.514
G01 X111.556 Y473.288
G01 X214.453 Y114.384
G01 X227.178 Y5.000
G01 X710.000 Y5.000
G01 X710.000 Y871.356
G01 X516.958 Y918.039
G01 X85.330 Y506.717
G01 X193.700 Y84.050
G01 X212.093 Y5.000
G01 X710.000 Y5.000
G01 X710.000 Y866.115
G01 X536.543 Y903.300
G01 X69.718 Y543.988
G01 X162.416 Y57.580
G01 X185.700 Y5.000
G01 X710.000 Y5.000
G01 X710.000 Y863.810
G01 X547.387 Y881.961
G01 X65.336 Y581.236
G01 X122.503 Y38.393
G01 X146.253 Y5.000
G01 X710.000 Y5.000
G01 X710.000 Y867.791
G01 X547.728 Y857.511
G01 X71.424 Y614.623
G01 X76.930 Y29.043
G01 X99.654 Y5.000
G01 X710.000 Y5.000
G01 X710.000 Y879.752
G01 X537.124 Y833.835
G01 X85.940 Y640.812
G01 X29.363 Y30.898
G01 X56.850 Y5.000
G01 X710.000 Y5.000
G01 X710.000 Y897.476
G01 X516.504 Y814.730
G01 X105.816 Y657.379
G01 X5.000 Y150.883
G01 X5.000 Y23.738
G01 X24.707 Y5.000
G01 X710.000 Y5.000
G01 X710.000 Y916.393
G01 X488.054 Y803.437
G01 X127.334 Y663.114
G01 X5.000 Y265.992
G01 X5.000 Y5.000
G01 X710.000 Y5.000
G01 X710.000 Y933.044
G01 X454.951 Y802.240
G01 X146.589 Y658.169
G01 X5.000 Y319.285
G01 X5.000 Y5.000
G01 X710.000 Y5.000
G01 X710.000 Y946.246
G01 X420.963 Y812.183
G01 X159.969 Y644.040
G01 X5.000 Y348.408
G01 X5.000 Y5.000
G01 X710.000 Y5.000
G01 X710.000 Y956.215
G01 X389.991 Y832.943
G01 X164.604 Y623.379
G01 X5.000 Y365.421
G01 X5.000 Y5.000
G01 X710.000 Y5.000
G01 X710.000 Y963.585
G01 X365.580 Y862.864
G01 X158.723 Y599.669
G01 X5.000 Y375.553
G01 X5.000 Y5.000
G01 X710.000 Y5.000
G01 X710.000 Y968.939
G01 X350.488 Y899.168
G01 X141.866 Y576.795
G01 X5.000 Y381.985
G01 X5.000 Y5.000
G01 X710.000 Y5.000
G01 X710.000 Y972.680
G01 X346.338 Y938.292
G01 X114.952 Y558.557
G01 X5.000 Y388.153
G01 X5.000 Y5.000
G01 X710.000 Y5.000
G01 X710.000 Y975.024
G01 X353.424 Y976.333
G01 X80.154 Y548.205
G01 X5.000 Y400.940
G01 X5.000 Y5.000
G01 X710.000 Y5.000
G01 X710.000 Y976.039
G01 X370.669 Y1009.529
G01 X40.641 Y548.038
G01 X5.000 Y440.629
G01 X5.000 Y5.000
G01 X710.000 Y5.000
G01 X710.000 Y975.675
G01 X395.763 Y1034.720
G01 X5.000 Y564.909
G01 X5.000 Y5.000
G01 X710.000 Y5.000
G01 X710.000 Y973.832
G01 X425.446 Y1049.744
G01 X5.000 Y623.987
G01 X5.000 Y1570.000 
G01 X710.000 Y1570.000 
G01 X710.000 Y970.462
G01 X455.911 Y1053.700
G01 X5.000 Y674.151
G01 X5.000 Y1570.000 
G01 X710.000 Y1570.000 
G01 X710.000 Y965.794
G01 X483.276 Y1047.059
G01 X5.000 Y716.045
G01 X5.000 Y1570.000 
G01 X710.000 Y1570.000 
G01 X710.000 Y960.680
G01 X504.064 Y1031.610
G01 X5.000 Y750.658
G01 X5.000 Y1570.000 
G01 X710.000 Y1570.000 
G01 X710.000 Y956.910
G01 X515.631 Y1010.231
G01 X5.000 Y778.739
G01 X5.000 Y1570.000 
G01 X710.000 Y1570.000 
G01 X710.000 Y956.926
G01 X516.496 Y986.540
G01 X5.000 Y800.599
G01 X5.000 Y1570.000 
G01 X710.000 Y1570.000 
G01 X710.000 Y962.505
G01 X506.520 Y964.444
G01 X5.000 Y816.040
G01 X5.000 Y1570.000 
G01 X710.000 Y1570.000 
G01 X710.000 Y973.374
G01 X486.927 Y947.655
G01 X5.000 Y824.352
G01 X5.000 Y1570.000 
G01 X710.000 Y1570.000 
G01 X710.000 Y987.440
G01 X460.152 Y939.232
G01 X5.000 Y824.452
G01 X5.000 Y1570.000 
G01 X710.000 Y1570.000 
G01 X710.000 Y1002.345
G01 X429.538 Y941.203
G01 X5.000 Y815.399
G01 X5.000 Y1570.000 
G01 X710.000 Y1570.000 
G01 X710.000 Y1016.552
G01 X398.926 Y954.314
G01 X10.764 Y799.973
G01 X5.000 Y791.794
G01 X5.000 Y1570.000 
G01 X710.000 Y1570.000 
G01 X710.000 Y1029.423
G01 X372.176 Y977.936
G01 X15.862 Y781.222
G01 X5.000 Y767.759
G01 X5.000 Y1570.000 
G01 X710.000 Y1570.000 
G01 X710.000 Y1040.853
G01 X352.694 Y1010.139
G01 X10.267 Y760.229
G01 X5.000 Y754.270
G01 X5.000 Y1570.000 
G01 X710.000 Y1570.000 
G01 X710.000 Y1050.947
G01 X343.010 Y1047.937
G01 X5.000 Y750.724
G01 X5.000 Y1570.000 
G01 X710.000 Y1570.000 
G01 X710.000 Y1059.823
G01 X344.463 Y1087.653
G01 X5.000 Y762.615
G01 X5.000 Y1570.000 
G01 X710.000 Y1570.000 
G01 X710.000 Y1067.528
G01 X357.038 Y1125.371
G01 X5.000 Y788.871
G01 X5.000 Y1570.000 
G01 X710.000 Y1570.000 
G01 X710.000 Y1073.985
G01 X379.366 Y1157.425
G01 X5.000 Y822.725
G01 X5.000 Y1570.000 
G01 X710.000 Y1570.000 
G01 X710.000 Y1078.964
G01 X408.896 Y1180.846
G01 X5.000 Y858.369
G01 X5.000 Y1570.000 
G01 X710.000 Y1570.000 
G01 X710.000 Y1082.072
G01 X442.208 Y1193.735
G01 X5.000 Y892.420
G01 X5.000 Y1570.000 
G01 X710.000 Y1570.000 
G01 X710.000 Y1082.790
G01 X475.436 Y1195.491
G01 X5.000 Y923.390
G01 X5.000 Y1570.000 
G01 X710.000 Y1570.000 
G01 X710.000 Y1080.635
G01 X504.746 Y1186.891
G01 X5.000 Y950.803
G01 X5.000 Y1570.000 
G01 X710.000 Y1570.000 
G01 X710.000 Y1075.548
G01 X526.810 Y1169.987
G01 X5.000 Y974.569
G01 X5.000 Y1570.000 
G01 X710.000 Y1570.000 
G01 X710.000 Y1068.478
G01 X539.220 Y1147.859
G01 X5.000 Y994.644
G01 X5.000 Y1570.000 
G01 X710.000 Y1570.000 
G01 X710.000 Y1061.690
G01 X540.781 Y1124.229
G01 X5.000 Y1010.855
G01 X5.000 Y1570.000 
G01 X710.000 Y1570.000 
G01 X710.000 Y1058.099
G01 X531.662 Y1103.002
G01 X5.000 Y1022.824
G01 X5.000 Y1570.000 
G01 X710.000 Y1570.000 
G01 X710.000 Y1059.755
G01 X513.374 Y1087.782
G01 X5.000 Y1029.979
G01 X5.000 Y1570.000 
G01 X710.000 Y1570.000 
G01 X710.000 Y1066.877
G01 X488.582 Y1081.430
G01 X5.000 Y1031.708
G01 X5.000 Y1570.000 
G01 X710.000 Y1570.000 
G01 X710.000 Y1078.293
G01 X460.780 Y1085.704
G01 X5.000 Y1027.784
G01 X5.000 Y1570.000 
G01 X710.000 Y1570.000 
G01 X710.000 Y1092.468
G01 X433.853 Y1101.047
G01 X5.000 Y1019.128
G01 X5.000 Y1570.000 
G01 X710.000 Y1570.000 
G01 X710.000 Y1108.164
G01 X411.600 Y1126.526
G01 X5.000 Y1008.632
G01 X5.000 Y1570.000 
G01 X710.000 Y1570.000 
G01 X710.000 Y1124.589
G01 X397.265 Y1159.955
G01 X5.000 Y1001.083
G01 X5.000 Y1570.000 
G01 X710.000 Y1570.000 
G01 X710.000 Y1141.286
G01 X393.135 Y1198.155
G01 X5.000 Y1001.295
G01 X5.000 Y1570.000 
G01 X710.000 Y1570.000 
G01 X710.000 Y1157.972
G01 X400.255 Y1237.355
G01 X5.000 Y1011.489
G01 X5.000 Y1570.000 
G01 X710.000 Y1570.000 
G01 X710.000 Y1174.394
G01 X418.304 Y1273.655
G01 X5.000 Y1030.459
G01 X5.000 Y1570.000 
G01 X710.000 Y1570.000 
G01 X710.000 Y1190.194
G01 X445.629 Y1303.504
G01 X5.000 Y1055.071
G01 X5.000 Y1570.000 
G01 X710.000 Y1570.000 
G01 X710.000 Y1204.784
G01 X479.453 Y1324.147
G01 X5.000 Y1082.170
G01 X5.000 Y1570.000 
G01 X710.000 Y1570.000 
G01 X710.000 Y1217.210
G01 X516.216 Y1333.955
G01 X5.000 Y1109.505
G01 X5.000 Y1570.000 
G01 X710.000 Y1570.000 
G01 X710.000 Y1226.062
G01 X552.016 Y1332.635
G01 X5.000 Y1135.751
G01 X5.000 Y1570.000 
G01 X710.000 Y1570.000 
G01 X710.000 Y1229.572
G01 X583.093 Y1321.260
G01 X5.000 Y1160.192
G01 X5.000 Y1570.000 
G01 X710.000 Y1570.000 
G01 X710.000 Y1226.163
G01 X606.291 Y1302.140
G01 X5.000 Y1182.407
G01 X5.000 Y1570.000 
G01 X710.000 Y1570.000 
G01 X710.000 Y1215.587
G01 X619.447 Y1278.532
G01 X5.000 Y1202.043
G01 X5.000 Y1570.000 
G01 X710.000 Y1570.000 
G01 X710.000 Y1200.122
G01 X621.663 Y1254.241
G01 X5.000 Y1218.664
G01 X5.000 Y1570.000 
G01 X710.000 Y1570.000 
G01 X710.000 Y1184.450
G01 X613.414 Y1233.147
G01 X5.000 Y1231.678
G01 X5.000 Y1570.000 
G01 X710.000 Y1570.000 
G01 X710.000 Y1173.582
G01 X596.487 Y1218.725
G01 X5.000 Y1240.337
G01 X5.000 Y1570.000 
G01 X710.000 Y1570.000 
G01 X710.000 Y1170.536
G01 X573.765 Y1213.616
G01 X5.000 Y1243.888
G01 X5.000 Y1570.000 
G01 X710.000 Y1570.000 
G01 X710.000 Y1175.759
G01 X548.866 Y1219.301
G01 X5.000 Y1241.958
G01 X5.000 Y1570.000 
G01 X710.000 Y1570.000 
G01 X710.000 Y1188.093
G01 X525.699 Y1235.916
G01 X5.000 Y1235.206
G01 X5.000 Y1570.000 
G01 X710.000 Y1570.000 
G01 X710.000 Y1205.948
G01 X507.978 Y1262.233
G01 X5.000 Y1225.973
G01 X5.000 Y1570.000 
G01 X710.000 Y1570.000 
G01 X710.000 Y1227.941
G01 X498.764 Y1295.817
G01 X5.000 Y1218.189
G01 X5.000 Y1570.000 
G01 X710.000 Y1570.000 
G01 X710.000 Y1253.067
G01 X500.086 Y1333.322
G01 X5.000 Y1216.037
G01 X5.000 Y1570.000 
G01 X710.000 Y1570.000 
G01 X710.000 Y1280.614
G01 X512.693 Y1370.906
G01 X5.000 Y1222.062
G01 X5.000 Y1570.000 
G01 X710.000 Y1570.000 
G01 X710.000 Y1309.993
G01 X535.955 Y1404.704
G01 X5.000 Y1236.316
G01 X5.000 Y1570.000 
G01 X710.000 Y1570.000 
G01 X710.000 Y1340.509
G01 X567.946 Y1431.310
G01 X5.000 Y1257.040
G01 X5.000 Y1570.000 
G01 X710.000 Y1570.000 
G01 X710.000 Y1371.086
G01 X605.681 Y1448.191
G01 X5.000 Y1281.921
G01 X5.000 Y1570.000 
G01 X710.000 Y1570.000 
G01 X710.000 Y1399.917
G01 X645.483 Y1454.005
G01 X5.000 Y1308.932
G01 X5.000 Y1570.000 
G01 X710.000 Y1570.000 
G01 X710.000 Y1424.124
G01 X683.439 Y1448.766
G01 X5.000 Y1336.592
G01 X5.000 Y1570.000 
G01 X710.000 Y1570.000 
G01 X710.000 Y1433.260
G01 X5.000 Y1363.879
G01 X5.000 Y1570.000 
G01 X710.000 Y1570.000 
G01 X710.000 Y1410.891
G01 X5.000 Y1390.032
G01 X5.000 Y1570.000 
G01 X710.000 Y1570.000 
G01 X710.000 Y1387.634
G01 X5.000 Y1414.351
G01 X5.000 Y1570.000 
G01 X710.000 Y1570.000 
G01 X710.000 Y1364.987
G01 X5.000 Y1436.045
G01 X5.000 Y1570.000 
G01 X710.000 Y1570.000 
G01 X710.000 Y1344.650
G01 X5.000 Y1454.110
G01 X5.000 Y1570.000 
G01 X710.000 Y1570.000 
G01 X710.000 Y1328.775
G01 X5.000 Y1467.310
G01 X5.000 Y1570.000 
G01 X710.000 Y1570.000 
G01 X710.000 Y1320.069
G01 X5.000 Y1474.317
G01 X5.000 Y1570.000 
G01 X710.000 Y1570.000 
G01 X710.000 Y1315.093
G01 X689.824 Y1325.874
G01 X5.000 Y1474.157
G01 X5.000 Y1570.000 
G01 X710.000 Y1570.000 
G01 X710.000 Y1322.518
G01 X670.260 Y1342.833
G01 X5.000 Y1466.983
G01 X5.000 Y1570.000 
G01 X710.000 Y1570.000 
G01 X710.000 Y1341.323
G01 X656.868 Y1369.005
G01 X5.000 Y1454.897
G01 X5.000 Y1570.000 
G01 X710.000 Y1570.000 
G01 X710.000 Y1369.612
G01 X652.508 Y1401.721
G01 X5.000 Y1442.049
G01 X5.000 Y1570.000 
G01 X710.000 Y1570.000 
G01 X710.000 Y1405.881
G01 X658.942 Y1437.486
G01 X5.000 Y1433.413
G01 X5.000 Y1570.000 
G01 X710.000 Y1570.000 
G01 X710.000 Y1449.072
G01 X676.611 Y1472.412
G01 X5.000 Y1432.818
G01 X5.000 Y1570.000 
G01 X710.000 Y1570.000 
G01 X710.000 Y1498.386
G01 X704.586 Y1502.696
G01 X5.000 Y1441.705
G01 X5.000 Y1570.000 
G01 X710.000 Y1570.000 
G01 X710.000 Y1522.351
G01 X5.000 Y1459.338
G01 X5.000 Y1570.000 
G01 X710.000 Y1570.000 
G01 X710.000 Y1532.376
G01 X5.000 Y1483.847
G01 X5.000 Y1570.000 
G01 X710.000 Y1570.000 
G01 X710.000 Y1534.809
G01 X5.000 Y1513.171
G01 X5.000 Y1570.000 
G01 X710.000 Y1570.000 
G01 X710.000 Y1531.454
G01 X5.000 Y1545.521
G01 X5.000 Y1570.000 
G01 X710.000 Y1570.000 
G01 X710.000 Y1523.925
G01 X125.150 Y1570.000
G01 X710.000 Y1570.000 
G01 X710.000 Y1513.547
G01 X313.037 Y1570.000
G01 X710.000 Y1570.000 
G01 X710.000 Y1501.429
G01 X378.789 Y1570.000
G01 X710.000 Y1570.000 
G01 X710.000 Y1488.612
G01 X408.433 Y1570.000
G01 X710.000 Y1570.000 
G01 X710.000 Y1476.250
G01 X423.096 Y1570.000
G01 X710.000 Y1570.000 
G01 X710.000 Y1465.786
G01 X430.343 Y1570.000
G01 X710.000 Y1570.000 
G01 X710.000 Y1459.048
G01 X433.698 Y1570.000
G01 X710.000 Y1570.000 
G01 X710.000 Y1458.126
G01 X435.500 Y1570.000
G01 X710.000 Y1570.000 
G01 X710.000 Y1464.860
G01 X438.326 Y1570.000
G01 X710.000 Y1570.000 
G01 X710.000 Y1479.971
G01 X446.437 Y1570.000
G01 X710.000 Y1570.000 
G01 X710.000 Y1502.276
G01 X468.100 Y1570.000
G01 X710.000 Y1570.000 
G01 X710.000 Y1528.768
G01 X519.006 Y1570.000
G01 X710.000 Y1570.000 
G01 X710.000 Y1555.733
G01 X622.475 Y1570.000
G01 X5.000 Y1570.000
G01 X5.000 Y5.000

; BEGIN POST

; waves2.gcode; END POST
; file trimmed by trimify2x.pl
; QQQQQQQ

