; file trimmed by trimify2x.pl
; Created by Sandify
; 
;   https://sandify.org
; 
;   Sandify Version: 0.1.4
; 
;   Machine Type: Rectangular
;     MinX: 5 MaxX: 710 MinY: 5 MaxY: 1600
;   Content Type: Shapes
;     Starting Size: 340
;     Offset: X: 74 Y: 78
;     Selected Shape: Circle
;       Circle Lobes: 1
;     Number of Loops: 78
;     Spin: true
;       Spin Value: 7.8
;       Spin Switchbacks: 0
;     Grow: true
;       Grow Value: -5
;     Track: true
;       Track Count: 20
;       Track Size: 900
;       Track Grow: false
;   Path Reversed: false
; 
; filename: 'yikes'

; BEGIN PRE
G28  Y
G28 X
G01 F30000; END PRE
G01 X710.000 Y880.500
G01 X710.000 Y1084.847
G01 X706.516 Y1092.806
G01 X694.685 Y1067.303
G01 X700.010 Y1116.327
G01 X660.276 Y1101.723
G01 X684.591 Y1128.594
G01 X632.668 Y1139.796
G01 X656.032 Y1136.230
G01 X613.709 Y1173.259
G01 X616.094 Y1147.070
G01 X599.290 Y1194.986
G01 X571.696 Y1165.721
G01 X581.754 Y1202.811
G01 X531.255 Y1190.920
G01 X554.283 Y1200.626
G01 X500.203 Y1216.142
G01 X514.817 Y1196.154
G01 X478.163 Y1233.127
G01 X467.369 Y1196.632
G01 X459.330 Y1236.383
G01 X419.987 Y1204.769
G01 X435.856 Y1226.182
G01 X380.498 Y1217.232
G01 X402.359 Y1208.388
G01 X352.375 Y1226.473
G01 X359.076 Y1191.229
G01 X333.004 Y1224.902
G01 X311.911 Y1180.775
G01 X315.306 Y1209.104
G01 X269.363 Y1177.633
G01 X291.819 Y1181.767
G01 X238.009 Y1176.661
G01 X258.986 Y1150.264
G01 X219.047 Y1169.883
G01 X219.276 Y1122.668
G01 X207.792 Y1150.973
G01 X179.981 Y1103.398
G01 X196.413 Y1118.849
G01 X149.338 Y1090.890
G01 X178.388 Y1078.389
G01 X132.117 Y1078.589
G01 X152.226 Y1037.872
G01 X127.110 Y1058.699
G01 X122.402 Y1004.556
G01 X127.902 Y1026.634
G01 X96.987 Y980.830
G01 X126.497 Y983.703
G01 X83.275 Y963.059
G01 X117.800 Y936.560
G01 X83.825 Y943.757
G01 X102.483 Y893.699
G01 X95.097 Y915.893
G01 X86.652 Y860.956
G01 X109.433 Y876.948
G01 X78.499 Y838.463
G01 X119.291 Y830.482
G01 X83.784 Y820.761
G01 X121.394 Y784.356
G01 X102.646 Y799.989
G01 X118.518 Y746.571
G01 X129.487 Y770.397
G01 X117.912 Y721.035
G01 X156.010 Y731.691
G01 X127.241 Y705.575
G01 X175.725 Y689.360
G01 X150.284 Y693.298
G01 X187.444 Y651.810
G01 X184.752 Y676.552
G01 X195.834 Y625.876
G01 X223.447 Y651.283
G01 X208.727 Y613.191
G01 X258.107 Y619.408
G01 X232.677 Y609.413
G01 X283.828 Y587.876
G01 X269.199 Y606.729
G01 X301.625 Y564.941
G01 X313.787 Y598.266
G01 X317.716 Y555.700
G01 X358.239 Y581.960
G01 X339.928 Y559.356
G01 X395.013 Y561.762
G01 X373.211 Y569.715
G01 X421.212 Y545.508
G01 X416.737 Y578.641
G01 X440.010 Y540.627
G01 X464.173 Y580.568
G01 X458.719 Y550.058
G01 X506.999 Y575.571
G01 X484.579 Y570.626
G01 X539.029 Y569.313
G01 X520.590 Y594.768
G01 X559.643 Y569.889
G01 X563.678 Y614.665
G01 X573.961 Y583.316
G01 X606.229 Y626.497
G01 X589.853 Y610.143
G01 X640.120 Y632.478
G01 X613.439 Y645.074
G01 X661.046 Y639.542
G01 X645.564 Y679.786
G01 X670.754 Y655.415
G01 X681.198 Y707.408
G01 X675.941 Y684.239
G01 X710.000 Y723.780
G01 X710.000 Y726.038
G01 X684.447 Y724.152
G01 X710.000 Y733.002
G01 X710.000 Y759.747
G01 X700.818 Y768.177
G01 X710.000 Y765.420
G01 X710.000 Y1013.377
G01 X699.363 Y1018.281
G01 X710.000 Y1016.435
G01 X710.000 Y1037.384
G01 X694.965 Y1058.815
G01 X698.012 Y1035.234
G01 X692.810 Y1087.995
G01 X665.456 Y1066.209
G01 X684.919 Y1104.744
G01 X637.119 Y1103.913
G01 X665.036 Y1113.846
G01 X617.339 Y1141.021
G01 X632.180 Y1123.169
G01 X604.456 Y1169.342
G01 X591.316 Y1139.199
G01 X591.862 Y1184.212
G01 X550.742 Y1163.350
G01 X571.778 Y1186.957
G01 X517.662 Y1191.083
G01 X539.696 Y1184.075
G01 X494.362 Y1214.324
G01 X497.019 Y1183.570
G01 X477.113 Y1225.848
G01 X450.456 Y1190.478
G01 X458.391 Y1223.212
G01 X408.486 Y1204.046
G01 X431.201 Y1210.064
G01 X376.857 Y1218.120
G01 X393.104 Y1194.116
G01 X355.588 Y1224.529
G01 X347.741 Y1182.886
G01 X339.135 Y1217.598
G01 X302.993 Y1179.570
G01 X319.619 Y1197.305
G01 X266.812 Y1181.316
G01 X291.339 Y1169.333
G01 X242.995 Y1180.841
G01 X254.084 Y1141.997
G01 X229.254 Y1170.520
G01 X213.401 Y1121.731
G01 X218.630 Y1146.671
G01 X177.687 Y1109.630
G01 X203.475 Y1111.685
G01 X153.696 Y1100.953
G01 X179.800 Y1072.816
G01 X142.939 Y1087.850
G01 X149.600 Y1038.307
G01 X140.971 Y1063.828
G01 X119.859 Y1012.976
G01 X139.936 Y1027.465
G01 X98.791 Y995.707
G01 X132.991 Y983.350
G01 X91.394 Y980.217
G01 X118.150 Y939.706
G01 X96.749 Y958.683
G01 X99.432 Y904.019
G01 X108.580 Y926.223
G01 X84.685 Y879.079
G01 X118.739 Y883.755
G01 X81.277 Y861.610
G01 X121.718 Y837.667
G01 X92.037 Y844.251
G01 X117.675 Y796.462
G01 X113.682 Y819.786
G01 X112.331 Y766.242
G01 X138.594 Y785.291
G01 X113.772 Y747.506
G01 X158.978 Y743.915
G01 X127.936 Y735.042
G01 X171.096 Y703.299
G01 X155.266 Y720.953
G01 X177.248 Y671.517
G01 X190.377 Y699.163
G01 X184.410 Y652.765
G01 X224.931 Y668.903
G01 X200.283 Y645.177
G01 X252.114 Y635.266
G01 X228.919 Y641.982
G01 X270.273 Y606.511
G01 X268.360 Y635.340
G01 X283.688 Y589.611
G01 X311.574 Y620.765
G01 X300.068 Y586.492
G01 X350.182 Y599.678
G01 X326.141 Y593.049
G01 X378.922 Y578.686
G01 X363.786 Y601.461
G01 X398.390 Y565.990
G01 X408.833 Y604.547
G01 X414.541 Y566.891
G01 X453.188 Y599.749
G01 X435.237 Y580.882
G01 X489.136 Y590.549
G01 X465.741 Y601.927
G01 X513.418 Y584.539
G01 X505.648 Y621.768
G01 X528.868 Y589.205
G01 X548.940 Y634.447
G01 X542.681 Y607.756
G01 X587.144 Y639.535
G01 X562.293 Y637.292
G01 X613.854 Y642.306
G01 X591.121 Y670.329
G01 X628.110 Y650.740
G01 X626.543 Y698.836
G01 X634.797 Y671.029
G01 X661.208 Y718.560
G01 X641.818 Y704.049
G01 X686.967 Y731.254
G01 X655.622 Y744.753
G01 X699.261 Y743.583
G01 X677.545 Y784.826
G01 X699.539 Y763.310
G01 X702.984 Y817.121
G01 X694.375 Y794.864
G01 X710.000 Y818.494
G01 X710.000 Y838.286
G01 X691.779 Y836.749
G01 X710.000 Y845.101
G01 X710.000 Y872.495
G01 X696.729 Y882.204
G01 X710.000 Y878.432
G01 X710.000 Y918.733
G01 X708.390 Y922.768
G01 X710.000 Y914.504
G01 X710.000 Y945.793
G01 X695.263 Y936.038
G01 X710.000 Y953.979
G01 X710.000 Y974.990
G01 X682.526 Y979.816
G01 X710.000 Y985.706
G01 X710.000 Y992.972
G01 X677.870 Y1022.716
G01 X694.524 Y1004.875
G01 X678.360 Y1056.841
G01 X665.302 Y1031.397
G01 X676.681 Y1078.503
G01 X637.036 Y1066.770
G01 X665.248 Y1090.104
G01 X616.101 Y1105.388
G01 X640.475 Y1098.670
G01 X603.498 Y1138.866
G01 X604.854 Y1111.843
G01 X594.409 Y1160.531
G01 X565.691 Y1133.546
G01 X580.971 Y1168.990
G01 X531.205 Y1161.707
G01 X556.745 Y1168.795
G01 X506.131 Y1189.308
G01 X520.406 Y1167.841
G01 X489.247 Y1208.171
G01 X476.622 Y1172.938
G01 X474.206 Y1213.401
G01 X433.633 Y1185.995
G01 X453.190 Y1206.035
G01 X398.869 Y1202.923
G01 X421.383 Y1192.431
G01 X375.010 Y1215.862
G01 X379.792 Y1180.746
G01 X358.680 Y1217.505
G01 X334.859 Y1176.429
G01 X342.467 Y1205.134
G01 X295.069 Y1179.234
G01 X319.180 Y1182.136
G01 X266.434 Y1183.385
G01 X285.972 Y1156.180
G01 X249.338 Y1180.803
G01 X246.065 Y1135.035
G01 X238.474 Y1165.628
G01 X207.127 Y1122.359
G01 X225.919 Y1137.525
G01 X177.181 Y1115.761
G01 X205.642 Y1101.959
G01 X160.312 Y1108.219
G01 X176.953 Y1067.287
G01 X154.539 Y1092.065
G01 X145.004 Y1040.260
G01 X153.016 Y1063.330
G01 X118.051 Y1022.433
G01 X147.906 Y1024.069
G01 X102.989 Y1009.439
G01 X134.785 Y981.366
G01 X101.627 Y993.543
G01 X115.152 Y943.578
G01 X109.754 Y968.061
G01 X95.657 Y915.876
G01 X119.503 Y931.202
G01 X84.470 Y897.558
G01 X123.725 Y887.216
G01 X86.798 Y882.591
G01 X119.941 Y844.212
G01 X102.019 Y863.107
G01 X111.708 Y809.850
G01 X124.014 Y833.901
G01 X106.641 Y787.278
G01 X144.514 Y795.464
G01 X112.173 Y773.553
G01 X157.620 Y753.867
G01 X131.413 Y761.422
G01 X162.996 Y717.568
G01 X161.356 Y743.465
G01 X165.981 Y692.887
G01 X194.469 Y716.334
G01 X174.560 Y680.663
G01 X222.745 Y682.728
G01 X194.857 Y675.914
G01 X242.018 Y650.027
G01 X227.646 Y670.703
G01 X254.137 Y626.334
G01 X267.803 Y658.619
G01 X265.822 Y616.102
G01 X306.994 Y638.405
G01 X284.819 Y617.763
G01 X338.136 Y614.729
G01 X315.483 Y624.667
G01 X359.149 Y595.671
G01 X356.223 Y628.799
G01 X373.953 Y588.316
G01 X400.228 Y625.243
G01 X390.147 Y594.879
G01 X439.060 Y614.919
G01 X414.659 Y611.498
G01 X467.148 Y604.078
G01 X449.762 Y630.365
G01 X484.701 Y600.852
G01 X491.666 Y644.017
G01 X497.435 Y610.742
G01 X532.443 Y649.417
G01 X513.263 Y633.547
G01 X564.256 Y649.586
G01 X537.781 Y663.416
G01 X583.525 Y651.869
G01 X571.039 Y692.009
G01 X592.766 Y663.812
G01 X607.377 Y713.011
G01 X599.071 Y688.907
G01 X638.418 Y725.517
G01 X610.074 Y724.564
G01 X657.574 Y734.424
G01 X629.631 Y763.426
G01 X663.573 Y747.608
G01 X655.593 Y797.299
G01 X661.066 Y771.454
G01 X680.907 Y821.537
G01 X657.988 Y807.192
G01 X697.434 Y837.465
G01 X661.114 Y850.076
G01 X700.380 Y851.497
G01 X672.274 Y891.851
G01 X690.899 Y871.447
G01 X687.309 Y925.148
G01 X675.429 Y902.062
G01 X698.348 Y947.393
G01 X662.132 Y942.247
G01 X698.144 Y962.068
G01 X656.398 Y985.510
G01 X684.086 Y976.631
G01 X657.893 Y1023.387
G01 X659.667 Y998.250
G01 X660.780 Y1049.952
G01 X632.604 Y1029.695
G01 X656.991 Y1064.942
G01 X610.637 Y1067.669
G01 X640.742 Y1073.755
G01 X597.338 Y1104.481
G01 X611.804 Y1084.339
G01 X590.228 Y1132.161
G01 X575.723 Y1102.681
G01 X582.241 Y1146.731
G01 X540.867 Y1129.389
G01 X565.735 Y1150.290
G01 X513.925 Y1159.252
G01 X536.827 Y1149.754
G01 X496.351 Y1184.021
G01 X497.666 Y1152.960
G01 X483.690 Y1196.877
G01 X455.388 Y1164.266
G01 X468.182 Y1196.127
G01 X418.321 Y1182.092
G01 X443.188 Y1186.087
G01 X391.550 Y1199.747
G01 X407.003 Y1174.666
G01 X374.260 Y1209.092
G01 X363.952 Y1168.981
G01 X360.342 Y1205.013
G01 X322.164 Y1171.431
G01 X341.923 Y1188.246
G01 X289.237 Y1178.380
G01 X313.857 Y1164.992
G01 X268.208 Y1182.193
G01 X276.718 Y1143.526
G01 X256.026 Y1175.485
G01 X236.631 Y1129.686
G01 X245.380 Y1155.252
G01 X202.037 Y1123.715
G01 X228.867 Y1124.596
G01 X179.169 Y1120.206
G01 X203.211 Y1091.101
G01 X168.745 Y1111.171
G01 X171.185 Y1062.744
G01 X165.687 Y1090.551
G01 X140.199 Y1043.605
G01 X162.024 Y1057.673
G01 X118.307 Y1031.736
G01 X151.389 Y1017.739
G01 X109.858 Y1020.361
G01 X132.602 Y979.094
G01 X113.167 Y1001.752
G01 X110.396 Y948.761
G01 X121.507 Y971.628
G01 X92.853 Y928.711
G01 X126.864 Y931.671
G01 X86.990 Y914.930
G01 X124.385 Y888.742
G01 X94.907 Y899.781
G01 X115.072 Y851.256
G01 X112.640 Y876.371
G01 X105.228 Y824.691
G01 X132.336 Y842.506
G01 X102.964 Y808.722
G01 X146.563 Y802.054
G01 X113.697 Y797.551
G01 X152.368 Y762.959
G01 X137.114 Y783.248
G01 X152.855 Y733.003
G01 X167.286 Y760.270
G01 X155.403 Y715.654
G01 X195.864 Y728.647
G01 X167.518 Y708.282
G01 X216.596 Y694.095
G01 X192.601 Y703.731
G01 X228.674 Y664.979
G01 X227.963 Y694.377
G01 X237.075 Y647.805
G01 X266.199 Y676.433
G01 X249.690 Y643.725
G01 X299.143 Y652.124
G01 X272.847 Y647.987
G01 X322.241 Y628.537
G01 X307.684 Y652.619
G01 X336.921 Y613.773
G01 X349.378 Y650.883
G01 X349.665 Y612.526
G01 X389.661 Y641.030
G01 X368.282 Y623.524
G01 X421.228 Y627.290
G01 X397.450 Y640.254
G01 X441.614 Y617.546
G01 X435.989 Y654.549
G01 X454.403 Y618.984
G01 X477.356 Y661.083
G01 X467.102 Y634.107
G01 X513.108 Y660.279
G01 X486.853 Y659.320
G01 X537.411 Y658.032
G01 X516.351 Y686.863
G01 X550.121 Y662.403
G01 X552.222 Y709.025
G01 X556.726 Y679.099
G01 X586.755 Y722.320
G01 X565.198 Y708.245
G01 X612.032 Y729.320
G01 X581.477 Y744.218
G01 X624.185 Y737.136
G01 X606.092 Y778.640
G01 X625.427 Y753.381
G01 X633.772 Y804.884
G01 X622.747 Y781.853
G01 X656.272 Y821.603
G01 X623.974 Y820.312
G01 X666.852 Y833.337
G01 X633.402 Y861.575
G01 X663.935 Y847.874
G01 X649.369 Y897.338
G01 X651.940 Y871.808
G01 X665.143 Y922.610
G01 X638.815 Y906.757
G01 X672.614 Y938.320
G01 X631.642 Y948.320
G01 X666.762 Y950.648
G01 X632.738 Y988.356
G01 X648.437 Y967.475
G01 X638.389 Y1019.327
G01 X623.915 Y993.888
G01 X640.938 Y1038.307
G01 X601.479 Y1029.228
G01 X633.050 Y1048.456
G01 X586.902 Y1067.318
G01 X611.821 Y1057.143
G01 X580.332 Y1099.737
G01 X580.452 Y1071.750
G01 X576.293 Y1120.338
G01 X546.572 Y1095.485
G01 X566.794 Y1128.524
G01 X518.127 Y1125.496
G01 X545.842 Y1129.469
G01 X499.110 Y1154.348
G01 X512.861 Y1131.172
G01 X487.470 Y1174.032
G01 X473.131 Y1139.962
G01 X476.378 Y1180.306
G01 X435.005 Y1156.934
G01 X458.121 Y1174.971
G01 X405.441 Y1177.294
G01 X428.495 Y1164.826
G01 X386.305 Y1192.954
G01 X389.268 Y1157.886
G01 X373.485 Y1196.969
G01 X347.352 Y1158.937
G01 X359.307 Y1187.350
G01 X311.134 Y1166.892
G01 X336.912 Y1168.163
G01 X286.000 Y1175.398
G01 X304.189 Y1147.304
G01 X271.509 Y1176.363
G01 X265.078 Y1132.169
G01 X261.779 Y1164.455
G01 X227.541 Y1125.626
G01 X248.866 Y1140.096
G01 X199.302 Y1124.488
G01 X227.279 Y1109.290
G01 X183.717 Y1121.340
G01 X197.130 Y1080.395
G01 X178.043 Y1108.716
G01 X164.191 Y1059.597
G01 X175.062 Y1083.307
G01 X136.813 Y1047.602
G01 X167.160 Y1047.897
G01 X121.418 Y1039.356
G01 X150.619 Y1009.937
G01 X119.040 Y1026.953
G01 X127.744 Y977.561
G01 X124.828 Y1004.119
G01 X105.655 Y955.233
G01 X130.775 Y969.810
G01 X92.414 Y941.417
G01 X130.183 Y928.920
G01 X92.613 Y929.565
G01 X121.385 Y889.730
G01 X104.870 Y911.875
G01 X108.679 Y859.481
G01 X122.592 Y883.734
G01 X99.964 Y840.527
G01 X137.614 Y846.410
G01 X102.364 Y829.180
G01 X144.674 Y806.492
G01 X118.277 Y817.886
G01 X144.287 Y772.402
G01 X144.008 Y799.531
G01 X142.407 Y749.880
G01 X171.752 Y771.494
G01 X147.086 Y738.954
G01 X193.834 Y737.224
G01 X163.957 Y734.044
G01 X206.856 Y704.454
G01 X193.042 Y727.157
G01 X213.482 Y681.047
G01 X228.641 Y712.400
G01 X220.869 Y670.764
G01 X262.371 Y689.325
G01 X236.602 Y671.273
G01 X287.671 Y663.262
G01 X264.396 Y675.522
G01 X303.298 Y642.450
G01 X301.919 Y675.684
G01 X313.881 Y633.554
G01 X341.942 Y667.537
G01 X327.234 Y638.031
G01 X376.192 Y652.821
G01 X349.906 Y651.366
G01 X399.772 Y638.312
G01 X383.429 Y665.571
G01 X413.720 Y632.090
G01 X423.329 Y673.601
G01 X424.296 Y639.082
G01 X461.454 Y673.226
G01 X439.383 Y658.327
G01 X490.325 Y668.236
G01 X464.008 Y683.472
G01 X507.130 Y666.311
G01 X497.429 Y706.234
G01 X515.139 Y674.737
G01 X533.419 Y720.906
G01 X521.775 Y696.319
G01 X563.575 Y727.435
G01 X534.401 Y727.758
G01 X581.840 Y731.367
G01 X556.152 Y761.384
G01 X587.735 Y740.696
G01 X584.100 Y789.281
G01 X586.530 Y761.351
G01 X610.784 Y807.552
G01 X586.252 Y793.810
G01 X628.242 Y818.345
G01 X593.185 Y832.721
G01 X632.338 Y828.546
G01 X608.344 Y869.721
G01 X624.986 Y845.853
G01 X626.868 Y897.920
G01 X613.058 Y874.393
G01 X640.669 Y915.561
G01 X604.565 Y912.310
G01 X642.869 Y926.852
G01 X604.225 Y952.648
G01 X631.591 Y939.505
G01 X610.865 Y987.047
G01 X611.001 Y960.342
G01 X618.082 Y1010.215
G01 X589.033 Y991.394
G01 X617.802 Y1022.708
G01 X573.048 Y1028.648
G01 X604.778 Y1030.493
G01 X565.826 Y1064.126
G01 X579.537 Y1041.527
G01 X564.094 Y1090.164
G01 X548.161 Y1061.247
G01 X560.403 Y1103.517
G01 X519.008 Y1089.458
G01 X547.325 Y1107.040
G01 X498.198 Y1120.335
G01 X521.644 Y1108.014
G01 X486.335 Y1145.540
G01 X486.235 Y1114.039
G01 X478.286 Y1158.736
G01 X448.593 Y1128.761
G01 X466.130 Y1159.004
G01 X416.820 Y1149.799
G01 X443.648 Y1151.297
G01 X395.285 Y1169.997
G01 X409.885 Y1143.651
G01 X382.344 Y1181.334
G01 X369.810 Y1142.724
G01 X371.386 Y1179.315
G01 X331.713 Y1150.099
G01 X354.611 Y1165.439
G01 X302.766 Y1161.406
G01 X327.476 Y1146.367
G01 X285.214 Y1168.735
G01 X291.331 Y1130.267
G01 X275.264 Y1165.020
G01 X252.816 Y1122.330
G01 X265.318 Y1147.970
G01 X220.326 Y1121.951
G01 X248.287 Y1121.376
G01 X199.509 Y1123.114
G01 X221.628 Y1093.084
G01 X190.274 Y1117.776
G01 X188.864 Y1070.733
G01 X186.953 Y1100.378
G01 X157.747 Y1057.630
G01 X181.530 Y1071.000
G01 X136.087 Y1051.016
G01 X168.163 Y1035.415
G01 X127.533 Y1043.692
G01 X146.485 Y1002.010
G01 X129.644 Y1028.097
G01 X121.886 Y977.278
G01 X135.296 Y1000.600
G01 X102.599 Y962.355
G01 X136.677 Y963.623
G01 X95.210 Y952.523
G01 X129.629 Y924.439
G01 X101.063 Y939.944
G01 X115.978 Y891.288
G01 X115.542 Y918.111
G01 X102.542 Y868.972
G01 X130.628 Y885.580
G01 X97.369 Y856.340
G01 X139.313 Y846.896
G01 X105.297 Y847.059
G01 X139.453 Y810.222
G01 X125.252 Y833.240
G01 X134.917 Y782.972
G01 X150.812 Y809.917
G01 X133.411 Y767.846
G01 X173.690 Y777.915
G01 X142.168 Y761.466
G01 X188.250 Y743.511
G01 X163.898 Y756.356
G01 X194.537 Y715.087
G01 X195.206 Y745.171
G01 X198.167 Y698.613
G01 X228.380 Y724.853
G01 X207.138 Y694.446
G01 X255.543 Y698.402
G01 X227.313 Y697.225
G01 X272.889 Y673.308
G01 X259.075 Y698.896
G01 X282.668 Y657.484
G01 X297.000 Y693.221
G01 X291.823 Y654.962
G01 X332.720 Y679.267
G01 X308.034 Y663.714
G01 X359.414 Y661.961
G01 X335.355 Y676.799
G01 X375.435 Y649.394
G01 X371.842 Y686.212
G01 X385.088 Y648.374
G01 X410.495 Y687.304
G01 X396.120 Y660.669
G01 X442.983 Y681.336
G01 X415.318 Y682.014
G01 X464.111 Y674.764
G01 X444.632 Y704.440
G01 X474.550 Y675.640
G01 X479.976 Y720.623
G01 X480.351 Y689.130
G01 X513.360 Y727.873
G01 X489.481 Y714.600
G01 X537.178 Y729.553
G01 X507.323 Y745.896
G01 X548.297 Y733.142
G01 X533.601 Y774.661
G01 X549.686 Y746.033
G01 X562.435 Y794.844
G01 X548.683 Y771.349
G01 X585.501 Y805.943
G01 X552.873 Y806.126
G01 X596.545 Y813.172
G01 X565.832 Y842.827
G01 X594.769 Y824.467
G01 X585.099 Y873.385
G01 X585.218 Y845.993
G01 X603.484 Y893.528
G01 X575.960 Y878.613
G01 X613.005 Y905.006
G01 X573.609 Y917.288
G01 X609.267 Y914.498
G01 X579.663 Y953.722
G01 X593.879 Y929.796
G01 X589.679 Y980.810
G01 X573.575 Y955.377
G01 X595.736 Y996.420
G01 X556.515 Y989.805
G01 X590.826 Y1004.447
G01 X547.823 Y1026.396
G01 X572.762 Y1012.536
G01 X546.799 Y1056.780
G01 X545.432 Y1027.746
G01 X547.367 Y1075.402
G01 X516.717 Y1052.543
G01 X541.492 Y1082.472
G01 X494.219 Y1083.333
G01 X523.687 Y1083.748
G01 X481.153 Y1112.341
G01 X494.134 Y1087.261
G01 X474.664 Y1131.814
G01 X458.677 Y1098.805
G01 X467.507 Y1138.211
G01 X425.703 Y1118.664
G01 X452.150 Y1134.088
G01 X401.635 Y1141.388
G01 X425.043 Y1126.631
G01 X387.502 Y1158.752
G01 X388.698 Y1123.641
G01 X378.497 Y1164.246
G01 X350.426 Y1129.205
G01 X366.755 Y1156.640
G01 X318.436 Y1141.414
G01 X345.817 Y1140.645
G01 X297.432 Y1153.408
G01 X314.320 Y1124.317
G01 X286.150 Y1157.166
G01 X276.883 Y1114.617
G01 X278.184 Y1147.945
G01 X241.677 Y1113.603
G01 X265.639 Y1126.924
G01 X216.051 Y1117.326
G01 X243.613 Y1100.598
G01 X202.591 Y1118.057
G01 X213.012 Y1077.248
G01 X197.813 Y1108.609
G01 X180.163 Y1062.441
G01 X194.186 Y1086.374
G01 X153.428 Y1056.034
G01 X184.389 Y1054.836
G01 X138.685 Y1052.337
G01 X165.437 Y1021.746
G01 X136.174 Y1043.351
G01 X140.408 Y994.943
G01 X140.441 Y1023.276
G01 X116.817 Y978.136
G01 X143.409 Y991.823
G01 X102.529 Y968.975
G01 X138.887 Y954.487
G01 X101.472 Y960.460
G01 X126.026 Y919.639
G01 X111.504 Y944.927
G01 X109.819 Y894.028
G01 X125.619 Y918.398
G01 X98.360 Y879.191
G01 X135.821 Y882.902
G01 X98.389 Y870.726
G01 X137.531 Y845.481
G01 X111.562 Y860.850
G01 X132.100 Y814.434
G01 X133.522 Y842.814
G01 X126.035 Y794.862
G01 X156.264 Y814.747
G01 X127.370 Y785.976
G01 X172.506 Y780.807
G01 X141.187 Y781.644
G01 X179.650 Y748.999
G01 X166.749 Y773.888
G01 X181.145 Y726.867
G01 X197.834 Y757.380
G01 X184.508 Y717.429
G01 X226.083 Y732.480
G01 X197.090 Y717.610
G01 X245.521 Y705.121
G01 X221.928 Y720.011
G01 X255.749 Y683.612
G01 X255.966 Y717.064
G01 X262.061 Y674.124
G01 X291.629 Y705.268
G01 X272.408 Y677.337
G01 X320.889 Y687.163
G01 X292.901 Y688.113
G01 X339.570 Y669.972
G01 X324.313 Y698.356
G01 X349.531 Y661.639
G01 X361.537 Y701.498
G01 X357.516 Y666.460
G01 X396.271 Y696.127
G01 X371.310 Y682.715
G01 X421.479 Y686.760
G01 X395.324 Y703.605
G01 X435.144 Y681.330
G01 X428.037 Y720.974
G01 X441.262 Y686.787
G01 X462.720 Y729.772
G01 X447.522 Y705.213
G01 X491.032 Y730.792
G01 X460.955 Y732.629
G01 X507.510 Y730.173
G01 X483.948 Y761.118
G01 X512.484 Y735.943
G01 X512.834 Y783.118
G01 X511.796 Y753.514
G01 X539.821 Y795.512
G01 X513.498 Y782.607
G01 X557.208 Y801.247
G01 X523.329 Y817.308
G01 X561.566 Y807.616
G01 X541.490 Y849.230
G01 X555.562 Y822.123
G01 X562.473 Y872.025
G01 X546.442 Y848.236
G01 X578.058 Y884.772
G01 X541.996 Y883.357
G01 X581.812 Y892.367
G01 X546.237 Y920.135
G01 X572.619 Y902.700
G01 X557.171 Y950.397
G01 X555.285 Y922.186
G01 X567.896 Y969.536
G01 X537.893 Y952.101
G01 X570.420 Y978.931
G01 X527.363 Y987.759
G01 X560.090 Y985.062
G01 X525.661 Y1020.978
G01 X538.193 Y995.824
G01 X528.757 Y1044.478
G01 X511.291 Y1016.059
G01 X528.899 Y1055.786
G01 X487.660 Y1044.778
G01 X518.949 Y1058.493
G01 X472.793 Y1075.604
G01 X496.393 Y1060.181
G01 X466.446 Y1100.199
G01 X464.808 Y1068.147
G01 X462.859 Y1112.774
G01 X431.980 Y1085.300
G01 X454.028 Y1113.206
G01 X405.705 Y1108.488
G01 X434.217 Y1107.042
G01 X389.599 Y1130.168
G01 X403.231 Y1102.378
G01 X381.205 Y1142.524
G01 X366.634 Y1105.357
G01 X373.469 Y1141.731
G01 X332.794 Y1116.741
G01 X358.744 Y1130.043
G01 X308.392 Y1131.474
G01 X333.126 Y1114.530
G01 X294.850 Y1141.456
G01 X298.728 Y1103.177
G01 X287.671 Y1140.018
G01 X262.635 Y1100.489
G01 X279.036 Y1125.609
G01 X233.111 Y1105.026
G01 X262.234 Y1102.682
G01 X215.161 Y1110.228
G01 X235.475 Y1079.272
G01 X207.878 Y1108.079
G01 X202.988 Y1062.617
G01 X205.052 Y1093.579
G01 X172.790 Y1055.222
G01 X198.694 Y1067.568
G01 X152.362 Y1053.549
G01 X183.533 Y1036.335
G01 X144.613 Y1050.047
G01 X160.013 Y1008.234
G01 X146.355 Y1037.401
G01 X134.120 Y989.167
G01 X150.135 Y1012.663
G01 X114.147 Y979.426
G01 X148.403 Y978.979
G01 X106.182 Y973.637
G01 X137.733 Y943.958
G01 X110.789 Y963.833
G01 X120.745 Y915.590
G01 X122.738 Y943.959
G01 X104.697 Y897.950
G01 X133.907 Y913.329
G01 X97.493 Y889.072
G01 X137.777 Y877.120
G01 X103.331 Y882.146
G01 X133.024 Y843.635
G01 X120.384 Y869.393
G01 X124.238 Y819.840
G01 X141.787 Y846.473
G01 X119.367 Y807.639
G01 X159.392 Y814.989
G01 X125.299 Y802.933
G01 X168.226 Y781.713
G01 X144.018 Y797.989
G01 X169.177 Y754.958
G01 X171.451 Y785.809
G01 X168.446 Y740.092
G01 X199.650 Y764.082
G01 X174.053 Y736.668
G01 X221.097 Y736.550
G01 X191.338 Y738.758
G01 X232.770 Y711.022
G01 X219.924 Y738.295
G01 X237.714 Y695.143
G01 X253.832 Y729.594
G01 X243.267 Y692.234
G01 X284.676 Y712.537
G01 X256.906 Y699.519
G01 X306.185 Y692.693
G01 X282.018 Y709.689
G01 X317.547 Y678.276
G01 X315.919 Y714.972
G01 X323.746 Y675.639
G01 X351.219 Y711.430
G01 X332.699 Y685.790
G01 X379.785 Y701.142
G01 X350.774 Y703.828
G01 X397.110 Y691.053
G01 X379.162 Y721.644
G01 X404.684 Y689.126
G01 X413.109 Y732.365
G01 X409.061 Y699.924
G01 X444.428 Y734.116
G01 X418.137 Y722.055
G01 X465.905 Y731.009
G01 X436.692 Y748.892
G01 X475.180 Y730.820
G01 X463.652 Y772.166
G01 X475.952 Y740.639
G01 X492.595 Y786.462
G01 X475.851 Y762.885
G01 X515.204 Y792.124
G01 X482.150 Y793.892
G01 X525.781 Y794.984
G01 X497.682 Y825.842
G01 X524.320 Y803.050
G01 X519.215 Y850.979
G01 X516.455 Y821.995
G01 X539.183 Y865.791
G01 X510.305 Y851.921
G01 X549.818 Y872.833
G01 X511.959 Y887.199
G01 X547.399 Y879.218
G01 X522.092 Y919.460
G01 X534.288 Y892.576
G01 X535.582 Y942.099
G01 X517.617 Y916.735
G01 X544.327 Y953.807
G01 X505.358 Y949.499
G01 X541.725 Y959.176
G01 X501.940 Y983.744
G01 X526.332 Y966.060
G01 X505.831 Y1011.238
G01 X502.692 Y981.132
G01 X510.420 Y1027.077
G01 X478.869 Y1006.099
G01 X507.708 Y1032.283
G01 X462.053 Y1036.663
G01 X492.777 Y1033.145
G01 X454.656 Y1064.796
G01 X466.567 Y1037.661
G01 X453.050 Y1083.079
G01 X435.433 Y1051.042
G01 X449.648 Y1088.716
G01 X407.722 Y1072.762
G01 X437.172 Y1085.002
G01 X389.257 Y1096.781
G01 X412.764 Y1079.445
G01 X380.225 Y1114.820
G01 X379.655 Y1079.573
G01 X375.171 Y1120.879
G01 X345.489 Y1088.738
G01 X366.113 Y1114.504
G01 X318.212 Y1104.236
G01 X347.051 Y1101.019
G01 X301.801 Y1118.777
G01 X317.387 Y1088.566
G01 X294.179 Y1124.495
G01 X282.365 Y1083.615
G01 X288.473 Y1117.289
G01 X250.288 Y1087.400
G01 X276.912 Y1099.093
G01 X228.051 Y1095.258
G01 X255.223 Y1076.835
G01 X217.442 Y1099.225
G01 X225.092 Y1058.650
G01 X214.262 Y1092.472
G01 X193.335 Y1049.436
G01 X210.736 Y1073.116
G01 X168.235 Y1048.207
G01 X199.897 Y1045.320
G01 X155.065 Y1048.699
G01 X179.515 Y1017.061
G01 X153.260 Y1042.898
G01 X153.403 Y995.810
G01 X156.809 Y1025.538
G01 X129.390 Y984.493
G01 X157.631 Y997.092
G01 X115.062 Y979.965
G01 X150.096 Y963.603
G01 X113.635 Y974.845
G01 X134.174 Y933.451
G01 X122.221 Y961.681
G01 X115.491 Y912.831
G01 X133.456 Y937.168
G01 X102.254 Y902.444
G01 X139.584 Y904.074
G01 X100.743 Y897.217
G01 X136.745 Y869.825
G01 X111.851 Y889.208
G01 X127.105 Y842.514
G01 X130.590 Y872.096
G01 X117.651 Y826.549
G01 X148.824 Y844.773
G01 X116.318 Y820.325
G01 X159.732 Y812.062
G01 X127.580 Y817.217
G01 X161.530 Y782.156
G01 X149.942 Y809.328
G01 X158.414 Y762.199
G01 X176.713 Y791.943
G01 X158.184 Y754.437
G01 X199.635 Y766.217
G01 X167.881 Y755.066
G01 X213.372 Y738.621
G01 X189.832 Y756.408
G01 X218.370 Y717.448
G01 X220.283 Y751.218
G01 X220.533 Y708.306
G01 X251.384 Y736.741
G01 X227.874 Y711.085
G01 X275.427 Y716.285
G01 X246.002 Y720.063
G01 X288.998 Y697.441
G01 X274.927 Y727.105
G01 X294.758 Y687.930
G01 X308.956 Y726.175
G01 X299.875 Y691.370
G01 X339.724 Y716.685
G01 X311.960 Y705.291
G01 X360.701 Y703.825
G01 X334.769 Y722.501
G01 X370.692 Y695.702
G01 X366.020 Y735.046
G01 X374.385 Y698.848
G01 X398.553 Y738.572
G01 X379.667 Y714.602
G01 X424.171 Y734.706
G01 X393.170 Y738.331
G01 X438.069 Y730.111
G01 X416.522 Y761.945
G01 X441.385 Y732.769
G01 X445.354 Y778.303
G01 X440.486 Y747.515
G01 X471.628 Y785.090
G01 X443.376 Y773.312
G01 X487.987 Y786.025
G01 X455.206 Y803.742
G01 X491.748 Y788.731
G01 X475.365 Y830.468
G01 X486.312 Y800.445
G01 X497.763 Y847.744
G01 X479.241 Y823.941
G01 X514.134 Y855.492
G01 X478.039 Y855.902
G01 X518.561 Y859.248
G01 X485.979 Y888.653
G01 X510.708 Y867.008
G01 X500.275 Y914.290
G01 X495.982 Y884.717
G01 X513.605 Y928.939
G01 X482.549 Y912.887
G01 X518.140 Y934.786
G01 X476.825 Y946.209
G01 X509.875 Y938.769
G01 X479.952 Y976.377
G01 X490.851 Y948.649
G01 X487.192 Y996.573
G01 X468.055 Y968.631
G01 X490.568 Y1005.121
G01 X449.608 Y996.945
G01 X483.309 Y1006.323
G01 X440.328 Y1026.733
G01 X463.631 Y1007.994
G01 X439.129 Y1049.744
G01 X435.784 Y1017.066
G01 X439.688 Y1060.800
G01 X407.773 Y1035.691
G01 X433.995 Y1060.582
G01 X387.020 Y1059.981
G01 X416.858 Y1055.185
G01 X376.350 Y1082.091
G01 X388.842 Y1052.699
G01 X372.522 Y1094.491
G01 X356.055 Y1058.697
G01 X368.108 Y1094.074
G01 X326.868 Y1073.124
G01 X355.684 Y1083.834
G01 X307.398 Y1090.294
G01 X332.025 Y1071.190
G01 X298.233 Y1102.005
G01 X299.984 Y1063.878
G01 X294.213 Y1102.054
G01 X267.019 Y1065.680
G01 X287.370 Y1089.659
G01 X241.183 Y1074.340
G01 X271.432 Y1069.893
G01 X226.781 Y1082.830
G01 X245.375 Y1050.917
G01 X222.098 Y1083.243
G01 X214.087 Y1039.499
G01 X220.434 Y1071.192
G01 X185.767 Y1037.326
G01 X213.895 Y1048.275
G01 X167.488 Y1040.122
G01 X197.831 Y1021.244
G01 X161.384 Y1040.061
G01 X173.481 Y998.341
G01 X163.545 Y1030.148
G01 X147.362 Y984.825
G01 X166.248 Y1008.152
G01 X127.743 Y980.144
G01 X162.277 Y977.910
G01 X120.142 Y978.322
G01 X148.955 Y947.301
G01 X124.331 Y971.342
G01 X129.669 Y923.986
G01 X134.507 Y953.659
G01 X112.034 Y911.277
G01 X142.518 Y925.351
G01 X103.725 Y906.406
G01 X142.384 Y892.177
G01 X108.255 Y902.154
G01 X133.607 Y862.497
G01 X123.050 Y890.925
G01 X121.445 Y842.760
G01 X140.860 Y869.040
G01 X114.005 Y834.050
G01 X153.749 Y838.861
G01 X117.757 Y831.582
G01 X157.446 Y807.588
G01 X133.931 Y827.439
G01 X153.668 Y783.377
G01 X157.810 Y815.027
G01 X149.134 Y770.936
G01 X181.280 Y792.801
G01 X151.806 Y769.013
G01 X197.250 Y765.200
G01 X166.443 Y771.161
G01 X203.506 Y740.272
G01 X191.906 Y769.373
G01 X203.857 Y725.308
G01 X221.718 Y758.560
G01 X205.960 Y722.883
G01 X247.554 Y739.416
G01 X217.016 Y729.487
G01 X263.749 Y718.087
G01 X239.713 Y737.509
G01 X270.334 Y702.820
G01 X270.651 Y739.472
G01 X272.926 Y699.450
G01 X302.122 Y732.180
G01 X279.535 Y708.201
G01 X326.271 Y718.503
G01 X296.052 Y723.577
G01 X339.325 Y705.799
G01 X322.900 Y737.399
G01 X343.580 Y701.855
G01 X354.706 Y743.303
G01 X346.038 Y710.583
G01 X383.168 Y740.239
G01 X354.449 Y729.838
G01 X401.540 Y733.024
G01 X372.948 Y752.575
G01 X408.263 Y729.646
G01 X399.685 Y770.690
G01 X407.738 Y736.820
G01 X427.759 Y779.448
G01 X407.818 Y756.232
G01 X448.950 Y780.031
G01 X415.402 Y783.545
G01 X458.177 Y778.830
G01 X432.561 Y810.731
G01 X456.237 Y783.844
G01 X455.332 Y830.419
G01 X449.304 Y800.197
G01 X475.855 Y839.884
G01 X445.478 Y827.227
G01 X486.654 Y842.467
G01 X450.273 Y858.768
G01 X484.732 Y845.641
G01 X463.547 Y886.458
G01 X473.187 Y856.801
G01 X479.552 Y904.260
G01 X459.492 Y879.094
G01 X490.095 Y911.699
G01 X451.359 Y909.583
G01 X489.047 Y914.025
G01 X452.489 Y940.777
G01 X475.734 Y919.226
G01 X460.540 Y964.669
G01 X455.318 Y933.529
G01 X468.437 Y977.052
G01 X435.975 Y957.872
G01 X468.303 Y979.758
G01 X424.421 Y987.302
G01 X455.838 Y979.555
G01 X422.247 Y1013.616
G01 X432.741 Y984.333
G01 X425.091 Y1029.812
G01 X405.820 Y998.678
G01 X425.103 Y1033.870
G01 X383.303 Y1021.268
G01 X415.337 Y1029.802
G01 X370.366 Y1045.538
G01 X393.651 Y1025.376
G01 X366.351 Y1063.244
G01 X363.968 Y1027.777
G01 X365.211 Y1068.959
G01 X334.193 Y1039.602
G01 X358.925 Y1063.024
G01 X311.935 Y1057.385
G01 X342.009 Y1051.326
G01 X300.404 Y1073.486
G01 X314.635 Y1042.028
G01 X296.730 Y1080.278
G01 X282.619 Y1041.054
G01 X293.634 Y1074.350
G01 X254.316 Y1048.811
G01 X283.543 Y1058.380
G01 X236.096 Y1059.972
G01 X262.851 Y1039.671
G01 X228.928 Y1066.427
G01 X234.003 Y1026.140
G01 X227.934 Y1061.773
G01 X204.234 Y1021.976
G01 X225.163 Y1044.881
G01 X181.662 Y1025.365
G01 X214.065 Y1020.555
G01 X170.895 Y1029.535
G01 X193.177 Y996.930
G01 X170.566 Y1026.543
G01 X167.007 Y981.041
G01 X174.153 Y1011.709
G01 X143.612 Y975.004
G01 X173.646 Y986.266
G01 X130.220 Y974.918
G01 X164.019 Y956.752
G01 X129.293 Y973.089
G01 X146.052 Y931.477
G01 X137.218 Y962.354
G01 X125.944 Y916.022
G01 X146.336 Y940.111
G01 X111.926 Y910.247
G01 X149.197 Y909.844
G01 X109.749 Y908.455
G01 X142.688 Y879.285
G01 X119.526 Y902.621
G01 X129.760 Y856.245
G01 X135.678 Y886.910
G01 X117.808 Y844.393
G01 X150.008 Y860.986
G01 X114.579 Y841.321
G01 X156.213 Y830.284
G01 X123.890 Y839.967
G01 X153.337 Y803.104
G01 X143.496 Y832.589
G01 X146.270 Y786.115
G01 X166.295 Y815.125
G01 X143.018 Y780.762
G01 X184.205 Y789.508
G01 X150.237 Y782.545
G01 X192.572 Y762.677
G01 X169.517 Y783.573
G01 X192.681 Y742.820
G01 X196.437 Y776.984
G01 X190.985 Y734.924
G01 X222.946 Y760.790
G01 X195.476 Y738.076
G01 X241.727 Y739.025
G01 X211.209 Y746.023
G01 X250.158 Y719.568
G01 X237.427 Y750.658
G01 X251.678 Y709.835
G01 X267.907 Y746.528
G01 X253.807 Y712.721
G01 X294.298 Y733.865
G01 X263.912 Y725.021
G01 X310.646 Y718.475
G01 X285.057 Y739.212
G01 X316.588 Y708.547
G01 X314.226 Y747.607
G01 X317.462 Y710.133
G01 X343.898 Y746.589
G01 X321.280 Y723.801
G01 X366.107 Y738.589
G01 X334.220 Y744.305
G01 X376.752 Y730.726
G01 X357.135 Y763.452
G01 X377.776 Y730.849
G01 X385.005 Y774.583
G01 X376.016 Y743.171
G01 X409.628 Y776.206
G01 X379.359 Y765.895
G01 X424.071 Y772.766
G01 X392.322 Y792.157
G01 X426.428 Y772.140
G01 X413.501 Y813.747
G01 X420.813 Y781.226
G01 X436.283 Y825.575
G01 X415.035 Y802.074
G01 X452.450 Y828.402
G01 X416.248 Y830.679
G01 X456.665 Y828.352
G01 X426.965 Y859.114
G01 X449.381 Y833.446
G01 X443.644 Y879.819
G01 X436.568 Y849.106
G01 X458.617 Y889.691
G01 X426.399 Y875.073
G01 X464.308 Y891.705
G01 X424.735 Y905.467
G01 X457.403 Y893.191
G01 X431.894 Y931.944
G01 X440.685 Y901.706
G01 X442.480 Y948.215
G01 X421.509 Y920.779
G01 X448.376 Y953.424
G01 X407.767 Y947.884
G01 X443.249 Y952.545
G01 X403.564 Y975.752
G01 X426.071 Y953.557
G01 X406.991 Y996.303
G01 X401.727 Y962.967
G01 X411.222 Y1005.029
G01 X378.373 Y982.156
G01 X408.330 Y1003.413
G01 X362.985 Y1006.547
G01 X393.714 Y998.050
G01 X357.579 Y1028.073
G01 X368.704 Y996.949
G01 X358.160 Y1039.571
G01 X339.891 Y1005.074
G01 X357.001 Y1038.691
G01 X315.570 Y1021.557
G01 X346.973 Y1029.147
G01 X301.238 Y1040.147
G01 X325.564 Y1018.644
G01 X296.644 Y1052.628
G01 X296.335 Y1014.603
G01 X296.010 Y1053.333
G01 X267.046 Y1020.054
G01 X291.298 Y1042.259
G01 X245.459 Y1031.959
G01 X276.729 Y1025.065
G01 X235.136 Y1042.892
G01 X252.053 Y1009.962
G01 X233.562 Y1045.141
G01 X222.768 Y1003.194
G01 X233.612 Y1034.984
G01 X197.168 Y1005.620
G01 X227.558 Y1014.767
G01 X181.846 Y1012.273
G01 X211.407 Y991.643
G01 X178.133 Y1015.132
G01 X187.174 Y973.673
G01 X181.429 Y1007.597
G01 X161.841 Y965.425
G01 X183.810 Y988.178
G01 X143.561 Y965.512
G01 X178.451 Y961.374
G01 X137.224 Y967.418
G01 X163.446 Y935.256
G01 X141.805 Y963.155
G01 X142.903 Y917.087
G01 X150.973 Y947.744
G01 X124.719 Y909.384
G01 X156.617 Y922.028
G01 X116.253 Y908.608
G01 X153.347 Y892.291
G01 X120.292 Y907.195
G01 X141.484 Y866.868
G01 X133.530 Y897.807
G01 X126.896 Y851.629
G01 X148.396 Y877.458
G01 X117.765 Y846.825
G01 X157.233 Y849.247
G01 X120.067 Y847.029
G01 X156.504 Y820.723
G01 X134.266 Y844.208
G01 X148.734 Y799.806
G01 X155.034 Y832.235
G01 X141.086 Y790.495
G01 X174.163 Y810.339
G01 X141.382 Y790.734
G01 X185.055 Y783.607
G01 X153.746 Y793.619
G01 X186.316 Y760.241
G01 X176.287 Y791.268
G01 X182.478 Y747.103
G01 X202.087 Y779.232
G01 X181.442 Y745.986
G01 X222.956 Y759.001
G01 X190.059 Y752.675
G01 X233.890 Y737.233
G01 X210.289 Y759.321
G01 X235.759 Y722.121
G01 X238.046 Y758.806
G01 X234.757 Y718.912
G01 X265.382 Y748.698
G01 X238.912 Y727.040
G01 X284.791 Y732.621
G01 X253.579 Y740.459
G01 X293.274 Y718.267
G01 X278.412 Y750.985
G01 X293.912 Y713.165
G01 X307.472 Y752.821
G01 X294.090 Y720.528
G01 X332.428 Y745.743
G01 X301.342 Y737.472
G01 X347.069 Y735.217
G01 X319.123 Y756.594
G01 X350.655 Y729.361
G01 X344.825 Y770.027
G01 X348.254 Y734.444
G01 X371.146 Y773.754
G01 X347.872 Y751.394
G01 X390.045 Y769.779
G01 X355.974 Y775.242
G01 X397.116 Y764.983
G01 X373.854 Y797.821
G01 X393.956 Y767.277
G01 X396.868 Y812.211
G01 X387.229 Y781.182
G01 X416.940 Y816.501
G01 X384.946 Y805.276
G01 X426.974 Y814.776
G01 X392.002 Y832.912
G01 X424.727 Y814.801
G01 X407.445 Y855.816
G01 X414.015 Y823.665
G01 X424.967 Y868.575
G01 X402.587 Y843.798
G01 X436.371 Y871.553
G01 X397.830 Y871.557
G01 X436.071 Y870.608
G01 X402.691 Y899.156
G01 X424.173 Y873.790
G01 X414.048 Y918.888
G01 X406.418 Y886.822
G01 X424.437 Y927.295
G01 X391.023 Y909.868
G01 X426.185 Y926.999
G01 X384.172 Y937.369
G01 X415.664 Y925.188
G01 X386.627 Y961.036
G01 X395.317 Y929.576
G01 X393.341 Y974.353
G01 X372.347 Y944.084
G01 X396.281 Y976.105
G01 X354.792 Y966.614
G01 X388.902 Y970.988
G01 X347.130 Y990.146
G01 X369.809 Y966.961
G01 X347.874 Y1006.558
G01 X343.581 Y970.807
G01 X350.441 Y1011.058
G01 X318.308 Y984.350
G01 X346.853 Y1004.783
G01 X301.192 Y1003.406
G01 X332.198 Y994.139
G01 X294.647 Y1020.064
G01 X307.413 Y987.240
G01 X295.034 Y1027.020
G01 X278.835 Y989.411
G01 X294.744 Y1021.592
G01 X254.784 Y1000.240
G01 X286.468 Y1007.188
G01 X241.046 Y1013.796
G01 X267.301 Y991.422
G01 X237.756 Y1021.905
G01 X240.420 Y981.924
G01 X239.401 Y1018.665
G01 X213.404 Y982.142
G01 X237.928 Y1003.717
G01 X194.127 Y989.460
G01 X227.259 Y982.466
G01 X186.481 Y996.670
G01 X206.709 Y963.134
G01 X188.301 Y995.978
G01 X181.430 Y952.257
G01 X192.614 Y983.344
G01 X159.624 Y951.127
G01 X191.549 Y960.756
G01 X148.081 Y955.127
G01 X180.724 Y935.184
G01 X148.480 Y956.330
G01 X161.716 Y914.792
G01 X156.509 Y947.931
G01 X141.228 Y904.497
G01 X164.281 Y928.062
G01 X127.427 Y903.322
G01 X164.713 Y900.887
G01 X125.471 Y904.999
G01 X155.461 Y874.373
G01 X134.683 Y901.498
G01 X140.225 Y855.971
G01 X148.940 Y887.527
G01 X126.726 Y848.573
G01 X160.054 Y863.521
G01 X122.443 Y848.993
G01 X162.291 Y835.474
G01 X130.490 Y849.795
G01 X155.524 Y811.708
G01 X147.887 Y843.464
G01 X145.286 Y798.350
G01 X167.181 Y826.622
G01 X139.701 Y796.024
G01 X180.536 Y801.958
G01 X144.974 Y799.571
G01 X184.021 Y776.806
G01 X161.930 Y800.959
G01 X179.740 Y759.167
G01 X185.525 Y793.768
G01 X174.628 Y753.347
G01 X207.576 Y776.788
G01 X176.578 Y757.635
G01 X221.226 Y754.732
G01 X190.034 Y765.297
G01 X224.666 Y735.684
G01 X213.481 Y768.326
G01 X222.078 Y726.676
G01 X240.222 Y761.893
G01 X221.259 Y729.842
G01 X262.000 Y747.042
G01 X229.261 Y741.264
G01 X273.495 Y730.131
G01 X248.430 Y753.154
G01 X275.178 Y719.342
G01 X275.043 Y758.159
G01 X272.991 Y720.179
G01 X301.293 Y753.419
G01 X274.993 Y732.428
G01 X319.524 Y742.143
G01 X286.851 Y750.272
G01 X326.383 Y731.828
G01 X308.642 Y765.486
G01 X324.605 Y730.110
G01 X334.748 Y771.950
G01 X321.434 Y740.527
G01 X356.885 Y769.001
G01 X324.571 Y760.538
G01 X368.618 Y761.765
G01 X337.862 Y782.890
G01 X368.844 Y758.289
G01 X359.127 Y799.577
G01 X362.355 Y765.063
G01 X381.308 Y806.206
G01 X357.143 Y783.386
G01 X396.317 Y804.371
G01 X359.949 Y808.603
G01 X399.457 Y800.716
G01 X372.510 Y832.608
G01 X391.976 Y803.215
G01 X390.569 Y848.258
G01 X380.355 Y816.707
G01 X406.198 Y853.248
G01 X372.706 Y840.168
G01 X412.150 Y851.314
G01 X374.288 Y867.204
G01 X405.849 Y850.111
G01 X384.597 Y889.516
G01 X390.798 Y856.917
G01 X397.640 Y901.403
G01 X374.658 Y874.557
G01 X405.249 Y902.843
G01 X365.023 Y899.775
G01 X401.595 Y899.438
G01 X365.253 Y924.966
G01 X386.424 Y899.258
G01 X372.642 Y942.303
G01 X365.218 Y908.329
G01 X379.934 Y947.998
G01 X346.206 Y927.252
G01 X379.363 Y944.328
G01 X335.861 Y950.811
G01 X366.975 Y938.329
G01 X335.372 Y970.804
G01 X344.851 Y937.865
G01 X340.036 Y980.513
G01 X320.009 Y947.244
G01 X341.901 Y978.370
G01 X300.589 Y964.806
G01 X334.209 Y968.786
G01 X291.418 Y983.801
G01 X315.181 Y959.684
G01 X291.408 Y996.088
G01 X289.057 Y958.108
G01 X294.221 Y996.597
G01 X263.825 Y966.314
G01 X291.824 Y986.116
G01 X246.876 Y980.522
G01 X278.988 Y970.842
G01 X240.995 Y992.987
G01 X256.236 Y958.966
G01 X242.891 Y996.275
G01 X229.618 Y956.154
G01 X245.076 Y987.371
G01 X207.443 Y962.438
G01 X240.059 Y969.353
G01 X195.755 Y972.213
G01 X224.537 Y949.717
G01 X195.062 Y977.352
G01 X201.280 Y936.268
G01 X200.116 Y971.716
G01 X177.656 Y932.848
G01 X202.856 Y954.576
G01 X161.621 Y937.253
G01 X196.913 Y931.053
G01 X157.382 Y942.493
G01 X181.159 Y909.342
G01 X163.117 Y940.692
G01 X160.380 Y896.237
G01 X172.023 Y927.484
G01 X142.665 Y893.439
G01 X176.098 Y904.475
G01 X134.981 Y896.674
G01 X170.584 Y878.413
G01 X139.353 Y898.109
G01 X156.612 Y857.529
G01 X151.767 Y890.732
G01 X140.595 Y847.058
G01 X164.396 Y872.281
G01 X130.700 Y846.413
G01 X169.924 Y846.556
G01 X132.348 Y849.575
G01 X165.579 Y821.385
G01 X145.218 Y848.472
G01 X154.656 Y804.371
G01 X163.421 Y837.497
G01 X144.690 Y798.758
G01 X178.724 Y816.657
G01 X143.278 Y801.706
G01 X185.075 Y791.631
G01 X153.866 Y805.911
G01 X181.913 Y770.694
G01 X173.819 Y803.689
G01 X174.441 Y760.205
G01 X195.840 Y791.267
G01 X170.722 Y761.149
G01 X211.950 Y770.909
G01 X177.187 Y768.643
G01 X217.849 Y749.711
G01 X195.047 Y774.664
G01 X215.235 Y735.727
G01 X219.567 Y772.514
G01 X210.817 Y733.559
G01 X242.629 Y760.544
G01 X212.561 Y741.847
G01 X257.152 Y743.084
G01 X225.235 Y754.040
G01 X260.938 Y728.080
G01 X247.727 Y762.029
G01 X257.824 Y722.720
G01 X273.591 Y760.623
G01 X255.506 Y729.480
G01 X294.547 Y750.420
G01 X261.235 Y744.758
G01 X304.981 Y737.475
G01 X277.754 Y760.854
G01 X304.987 Y729.950
G01 X301.728 Y770.207
G01 X300.250 Y733.601
G01 X325.526 Y769.549
G01 X298.860 Y748.580
G01 X341.371 Y761.680
G01 X306.790 Y769.330
G01 X345.578 Y753.900
G01 X324.554 Y787.616
G01 X340.536 Y753.949
G01 X346.874 Y797.030
G01 X333.343 Y765.696
G01 X365.546 Y796.488
G01 X331.850 Y786.969
G01 X373.927 Y790.781
G01 X340.296 Y810.701
G01 X370.560 Y787.884
G01 X356.932 Y828.782
G01 X359.951 Y794.508
G01 X374.964 Y836.476
G01 X350.057 Y812.346
G01 X386.275 Y834.980
G01 X347.880 Y837.079
G01 X385.886 Y830.704
G01 X355.590 Y860.706
G01 X374.690 Y831.683
G01 X369.324 Y875.893
G01 X358.959 Y843.081
G01 X381.311 Y879.963
G01 X346.882 Y864.290
G01 X384.165 Y876.313
G01 X344.058 Y889.202
G01 X374.968 Y872.480
G01 X350.420 Y909.526
G01 X356.893 Y875.934
G01 X360.293 Y919.301
G01 X337.478 Y889.898
G01 X365.544 Y918.132
G01 X324.495 Y911.523
G01 X360.100 Y911.360
G01 X321.692 Y933.409
G01 X343.328 Y907.066
G01 X326.767 Y947.642
G01 X320.425 Y911.573
G01 X332.674 Y950.117
G01 X299.593 Y925.921
G01 X331.554 Y942.766
G01 X287.561 Y945.256
G01 X319.119 Y932.458
G01 X285.923 Y961.481
G01 X297.064 Y927.187
G01 X290.313 Y967.694
G01 X272.186 Y931.641
G01 X292.861 Y961.977
G01 X252.692 Y944.597
G01 X286.594 Y948.442
G01 X243.724 Y959.588
G01 X269.336 Y934.949
G01 X244.584 Y968.464
G01 X244.961 Y928.778
G01 X249.172 Y965.886
G01 X221.320 Y932.609
G01 X249.409 Y952.277
G01 X205.958 Y943.059
G01 X239.744 Y933.602
G01 X202.014 Y952.557
G01 X220.273 Y918.094
G01 X206.539 Y953.545
G01 X196.732 Y911.735
G01 X212.172 Y942.665
G01 X177.388 Y914.987
G01 X211.248 Y922.647
G01 X168.520 Y922.566
G01 X200.068 Y900.831
G01 X171.000 Y926.395
G01 X180.980 Y885.163
G01 X179.852 Y920.097
G01 X161.118 Y879.850
G01 X187.026 Y902.555
G01 X148.502 Y883.089
G01 X185.870 Y878.578
G01 X147.638 Y888.106
G01 X174.820 Y856.295
G01 X157.058 Y886.945
G01 X158.285 Y842.723
G01 X170.141 Y874.906
G01 X144.224 Y839.951
G01 X178.783 Y853.191
G01 X139.771 Y844.043
G01 X177.864 Y828.295
G01 X147.299 Y847.260
G01 X168.078 Y808.478
G01 X163.110 Y842.383
G01 X155.541 Y799.265
G01 X179.467 Y826.749
G01 X148.411 Y800.449
G01 X188.848 Y803.771
G01 X152.369 Y806.258
G01 X188.074 Y781.105
G01 X167.468 Y808.587
G01 X180.042 Y766.478
G01 X188.078 Y801.517
G01 X172.098 Y763.471
G01 X205.959 Y784.621
G01 X171.953 Y769.586
G01 X214.773 Y763.240
G01 X183.393 Y777.662
G01 X213.541 Y745.576
G01 X204.156 Y779.862
G01 X207.140 Y738.200
G01 X227.130 Y772.022
G01 X203.572 Y742.458
G01 X244.235 Y755.977
G01 X209.500 Y753.750
G01 X250.828 Y738.568
G01 X226.528 Y764.088
G01 X248.215 Y727.885
G01 X250.263 Y766.514
G01 X242.879 Y728.821
G01 X272.689 Y758.946
G01 X242.855 Y740.372
G01 X286.534 Y745.331
G01 X253.245 Y756.200
G01 X289.230 Y733.465
G01 X273.351 Y768.117
G01 X284.277 Y730.687
G01 X297.013 Y770.595
G01 X279.262 Y739.819
G01 X315.954 Y763.800
G01 X281.630 Y757.594
G01 X324.299 Y753.480
G01 X294.527 Y776.435
G01 X321.768 Y747.771
G01 X315.022 Y788.607
G01 X313.790 Y752.682
G01 X335.686 Y790.455
G01 X308.468 Y768.750
G01 X348.646 Y784.382
G01 X312.074 Y790.705
G01 X349.898 Y777.490
G01 X325.561 Y810.340
G01 X341.483 Y777.619
G01 X344.005 Y820.993
G01 X330.335 Y788.981
G01 X359.303 Y821.178
G01 X324.439 Y809.792
G01 X364.617 Y815.355
G01 X328.408 Y833.209
G01 X358.137 Y811.428
G01 X340.929 Y851.051
G01 X344.067 Y816.330
G01 X355.480 Y858.269
G01 X330.302 Y832.155
G01 X363.926 Y855.673
G01 X324.080 Y854.949
G01 X361.010 Y849.441
G01 X327.989 Y876.848
G01 X347.258 Y847.661
G01 X338.557 Y890.359
G01 X328.706 Y855.825
G01 X348.178 Y892.452
G01 X313.585 Y873.751
G01 X349.329 Y886.185
G01 X307.807 Y895.644
G01 X338.744 Y878.971
G01 X311.730 Y913.246
G01 X319.243 Y878.457
G01 X319.991 Y920.358
G01 X298.207 Y888.266
G01 X324.497 Y916.220
G01 X283.548 Y905.966
G01 X318.927 Y905.901
G01 X279.378 Y924.383
G01 X302.257 Y897.475
G01 X283.787 Y935.534
G01 X279.368 Y897.548
G01 X289.939 Y935.008
G01 X258.396 Y907.593
G01 X289.885 Y924.381
G01 X246.295 Y923.128
G01 X278.996 Y910.338
G01 X245.045 Y936.173
G01 X258.560 Y900.978
G01 X250.608 Y939.655
G01 X235.123 Y901.347
G01 X255.204 Y931.299
G01 X216.923 Y910.655
G01 X251.647 Y914.898
G01 X209.394 Y922.723
G01 X237.354 Y898.224
G01 X212.214 Y929.399
G01 X215.817 Y888.759
G01 X219.529 Y925.074
G01 X194.715 Y889.586
G01 X223.220 Y909.795
G01 X181.726 Y897.715
G01 X217.421 Y889.262
G01 X180.323 Y905.753
G01 X201.793 Y871.715
G01 X187.902 Y906.017
G01 X181.742 Y863.424
G01 X197.243 Y894.802
G01 X165.466 Y865.259
G01 X200.523 Y874.462
G01 X159.465 Y872.257
G01 X193.655 Y852.149
G01 X164.974 Y876.391
G01 X178.560 Y835.914
G01 X177.301 Y871.046
G01 X162.127 Y830.303
G01 X188.429 Y854.705
G01 X152.419 Y833.901
G01 X191.446 Y831.834
G01 X154.241 Y840.152
G01 X184.361 Y810.462
G01 X166.485 Y841.022
G01 X171.205 Y797.799
G01 X182.744 Y831.476
G01 X159.798 Y796.304
G01 X194.836 Y812.295
G01 X157.434 Y802.373
G01 X197.307 Y789.695
G01 X166.839 Y808.369
G01 X190.421 Y771.933
G01 X184.655 Y806.876
G01 X180.000 Y764.802
G01 X203.267 Y794.825
G01 X174.184 Y768.465
G01 X214.980 Y775.228
G01 X178.918 Y777.409
G01 X216.233 Y755.546
G01 X194.644 Y783.508
G01 X209.533 Y743.606
G01 X216.023 Y780.544
G01 X202.034 Y743.312
G01 X234.841 Y767.652
G01 X201.561 Y752.517
G01 X244.508 Y749.825
G01 X212.248 Y764.223
G01 X243.645 Y735.174
G01 X232.225 Y770.459
G01 X236.809 Y730.472
G01 X254.601 Y766.686
G01 X231.934 Y737.423
G01 X271.227 Y754.309
G01 X235.916 Y751.731
G01 X277.144 Y739.905
G01 X250.762 Y765.469
G01 X273.277 Y731.593
G01 X272.445 Y771.445
G01 X265.881 Y734.551
G01 X293.083 Y767.163
G01 X263.052 Y748.149
G01 X305.241 Y756.187
G01 X270.220 Y766.286
G01 X305.997 Y746.156
G01 X287.117 Y780.732
G01 X298.513 Y744.558
G01 X307.890 Y785.648
G01 X290.259 Y754.570
G01 X324.293 Y780.781
G01 X288.858 Y773.282
G01 X330.204 Y771.575
G01 X297.856 Y793.274
G01 X324.977 Y766.137
G01 X314.737 Y806.672
G01 X313.770 Y770.732
G01 X332.290 Y809.459
G01 X304.680 Y786.294
G01 X342.565 Y803.652
G01 X304.264 Y807.871
G01 X341.247 Y796.151
G01 X313.905 Y827.319
G01 X330.017 Y794.897
G01 X329.042 Y837.751
G01 X315.626 Y804.447
G01 X341.682 Y837.299
G01 X306.162 Y823.426
G01 X344.805 Y830.099
G01 X306.595 Y845.240
G01 X336.239 Y823.972
G01 X316.040 Y861.676
G01 X319.866 Y826.071
G01 X328.252 Y867.390
G01 X303.491 Y838.896
G01 X335.087 Y862.817
G01 X294.555 Y858.880
G01 X331.006 Y853.894
G01 X296.044 Y878.319
G01 X316.155 Y848.754
G01 X304.871 Y889.588
G01 X296.301 Y853.205
G01 X313.599 Y889.316
G01 X279.686 Y867.498
G01 X314.571 Y880.217
G01 X272.503 Y886.166
G01 X304.164 Y869.567
G01 X275.518 Y901.010
G01 X284.821 Y865.172
G01 X283.678 Y905.605
G01 X263.735 Y871.041
G01 X288.934 Y898.824
G01 X248.921 Y885.164
G01 X284.716 Y885.449
G01 X244.832 Y900.608
G01 X269.596 Y873.524
G01 X249.939 Y909.333
G01 X248.112 Y869.914
G01 X257.618 Y906.624
G01 X228.304 Y876.514
G01 X259.835 Y893.691
G01 X217.318 Y889.213
G01 X251.619 Y877.007
G01 X217.504 Y900.163
G01 X233.840 Y864.746
G01 X225.155 Y902.117
G01 X212.765 Y862.287
G01 X232.586 Y892.442
G01 X196.634 Y869.262
G01 X232.409 Y874.588
G01 X191.152 Y879.780
G01 X221.636 Y856.202
G01 X196.372 Y885.695
G01 X203.358 Y844.939
G01 X206.691 Y881.124
G01 X185.066 Y844.263
G01 X213.969 Y865.721
G01 X174.545 Y851.566
G01 X212.039 Y844.894
G01 X175.599 Y859.636
G01 X200.128 Y826.856
G01 X185.973 Y860.668
G01 X183.297 Y818.129
G01 X198.608 Y850.604
G01 X169.666 Y819.980
G01 X205.549 Y831.401
G01 X165.940 Y827.759
G01 X202.335 Y809.992
G01 X173.722 Y833.499
G01 X190.463 Y794.498
G01 X188.624 Y830.345
G01 X176.566 Y789.782
G01 X202.691 Y816.373
G01 X168.747 Y794.807
G01 X208.777 Y795.685
G01 X172.103 Y803.241
G01 X204.482 Y776.180
G01 X185.907 Y806.982
G01 X193.459 Y765.234
G01 X203.988 Y800.661
G01 X183.387 Y765.661
G01 X218.124 Y784.634
G01 X181.713 Y774.193
G01 X222.551 Y764.812
G01 X191.528 Y783.310
G01 X217.123 Y749.429
G01 X209.833 Y785.410
G01 X207.363 Y744.527
G01 X229.172 Y777.027
G01 X201.392 Y750.642
G01 X241.711 Y760.763
G01 X205.421 Y762.527
G01 X243.530 Y743.865
G01 X220.293 Y772.063
G01 X236.752 Y734.248
G01 X240.987 Y772.747
G01 X228.342 Y736.135
G01 X259.353 Y763.287
G01 X226.230 Y747.738
G01 X268.573 Y748.320
G01 X234.903 Y762.245
G01 X266.890 Y735.857
G01 X252.900 Y771.581
G01 X258.539 Y732.862
G01 X273.580 Y770.852
G01 X251.380 Y741.407
G01 X288.755 Y761.042
G01 X252.531 Y757.521
G01 X293.171 Y748.461
G01 X264.412 Y773.368
G01 X287.377 Y741.246
G01 X283.378 Y781.554
G01 X277.393 Y744.865
G01 X301.703 Y779.189
G01 X271.362 Y759.076
G01 X311.812 Y769.458
G01 X275.032 Y778.045
G01 X310.441 Y759.844
G01 X288.570 Y793.533
G01 X300.408 Y757.976
G01 X306.441 Y799.422
G01 X289.045 Y767.395
G01 X320.450 Y795.056
G01 X284.138 Y785.572
G01 X324.245 Y785.574
G01 X289.618 Y805.274
G01 X316.807 Y779.050
G01 X303.385 Y818.523
G01 X303.007 Y782.006
G01 X318.460 Y820.963
G01 X290.912 Y795.781
G01 X326.828 Y814.233
G01 X287.335 Y815.768
G01 X323.861 Y805.028
G01 X294.081 Y833.917
G01 X310.871 Y801.380
G01 X306.951 Y843.146
G01 X294.394 Y808.193
G01 X318.070 Y841.215
G01 X282.594 Y824.511
G01 X320.241 Y831.935
G01 X280.772 Y844.016
G01 X310.922 Y823.035
G01 X288.458 Y858.486
G01 X293.650 Y821.874
G01 X299.687 Y862.301
G01 X276.107 Y831.360
G01 X306.308 Y855.524
G01 X265.902 Y848.319
G01 X302.504 Y843.841
G01 X266.401 Y865.233
G01 X288.019 Y835.406
G01 X274.893 Y874.359
G01 X268.330 Y836.331
G01 X284.111 Y871.994
G01 X251.648 Y847.301
G01 X286.269 Y860.498
G01 X244.423 Y863.180
G01 X277.384 Y846.986
G01 X247.812 Y875.845
G01 X259.501 Y839.398
G01 X257.069 Y878.652
G01 X239.593 Y842.115
G01 X264.197 Y870.106
G01 X225.750 Y853.546
G01 X262.382 Y854.679
G01 X222.740 Y867.002
G01 X249.784 Y840.354
G01 X229.413 Y874.396
G01 X230.578 Y834.228
G01 X239.361 Y870.710
G01 X212.680 Y838.603
G01 X244.478 Y856.770
G01 X203.405 Y849.735
G01 X239.458 Y838.811
G01 X205.461 Y859.910
G01 X224.744 Y825.045
G01 X215.475 Y861.716
G01 X206.303 Y821.160
G01 X225.875 Y852.150
G01 X192.360 Y827.196
G01 X229.087 Y834.297
G01 X188.877 Y837.548
G01 X221.724 Y815.648
G01 X196.276 Y844.081
G01 X206.473 Y803.996
G01 X209.228 Y840.639
G01 X190.620 Y803.162
G01 X219.594 Y826.470
G01 X182.044 Y810.914
G01 X220.923 Y806.662
G01 X184.875 Y820.225
G01 X212.019 Y789.368
G01 X197.221 Y823.176
G01 X197.595 Y781.337
G01 X212.212 Y815.351
G01 X185.680 Y784.215
G01 X221.786 Y798.296
G01 X183.181 Y793.667
G01 X221.130 Y778.698
G01 X192.072 Y801.796
G01 X211.327 Y764.720
G01 X208.296 Y801.519
G01 X198.751 Y761.523
G01 X223.989 Y790.498
G01 X191.534 Y768.445
G01 X231.804 Y772.456
G01 X195.073 Y779.387
G01 X228.949 Y755.142
G01 X209.031 Y786.197
G01 X218.708 Y746.075
G01 X227.509 Y783.184
G01 X208.611 Y748.419
G01 X242.274 Y770.273
G01 X206.257 Y759.249
G01 X247.284 Y753.061
G01 X215.108 Y771.179
G01 X241.993 Y739.742
G01 X232.547 Y776.447
G01 X231.629 Y736.595
G01 X251.306 Y771.201
G01 X224.288 Y744.531
G01 X263.444 Y757.632
G01 X226.443 Y758.593
G01 X264.704 Y742.766
G01 X239.348 Y770.693
G01 X256.834 Y734.592
G01 X258.324 Y774.070
G01 X246.600 Y737.653
G01 X275.313 Y767.017
G01 X242.030 Y750.534
G01 X283.299 Y753.815
G01 X247.962 Y766.640
G01 X280.154 Y742.367
G01 X263.352 Y777.819
G01 X269.787 Y739.826
G01 X281.833 Y778.851
G01 X259.974 Y748.638
G01 X295.200 Y770.310
G01 X258.042 Y765.182
G01 X297.922 Y758.234
G01 X266.817 Y781.746
G01 X290.172 Y750.776
G01 X283.045 Y790.766
G01 X277.719 Y753.694
G01 X299.176 Y788.977
G01 X268.732 Y767.149
G01 X307.514 Y779.194
G01 X269.265 Y785.600
G01 X304.453 Y768.738
G01 X279.909 Y800.837
G01 X292.457 Y765.375
G01 X295.460 Y806.486
G01 X278.698 Y773.013
G01 X307.785 Y801.502
G01 X271.095 Y789.522
G01 X310.307 Y790.723
G01 X273.950 Y807.888
G01 X301.632 Y782.178
G01 X285.573 Y820.055
G01 X286.319 Y782.638
G01 X299.222 Y821.349
G01 X272.374 Y793.858
G01 X306.826 Y813.035
G01 X266.842 Y811.591
G01 X303.442 Y801.594
G01 X271.927 Y827.906
G01 X289.997 Y795.135
G01 X283.793 Y835.548
G01 X272.785 Y798.900
G01 X294.689 Y831.917
G01 X260.010 Y812.360
G01 X297.240 Y820.490
G01 X257.277 Y829.488
G01 X288.530 Y808.885
G01 X264.521 Y842.072
G01 X271.728 Y804.651
G01 X276.054 Y844.231
G01 X254.358 Y811.091
G01 X283.729 Y835.650
G01 X244.170 Y825.434
G01 X281.445 Y821.745
G01 X244.884 Y840.355
G01 X268.537 Y810.670
G01 X254.161 Y848.011
G01 X250.163 Y808.820
G01 X264.911 Y844.363
G01 X234.477 Y817.296
G01 X269.227 Y831.407
G01 X228.155 Y831.307
G01 X262.762 Y816.068
G01 X232.733 Y842.807
G01 X247.151 Y806.392
G01 X243.779 Y844.945
G01 X229.125 Y807.110
G01 X253.356 Y835.842
G01 X216.818 Y817.038
G01 X254.418 Y819.643
G01 X215.301 Y829.738
G01 X244.713 Y804.237
G01 X223.798 Y837.081
G01 X228.040 Y796.919
G01 X236.132 Y833.745
G01 X212.168 Y800.381
G01 X244.143 Y820.157
G01 X204.565 Y811.242
G01 X242.202 Y802.282
G01 X208.290 Y821.925
G01 X230.325 Y788.341
G01 X220.316 Y824.859
G01 X214.172 Y784.301
G01 X233.204 Y816.664
G01 X201.933 Y790.596
G01 X239.218 Y800.039
G01 X199.817 Y801.910
G01 X234.587 Y782.289
G01 X208.628 Y810.125
G01 X221.594 Y771.316
G01 X223.324 Y808.818
G01 X207.312 Y771.277
G01 X235.799 Y796.820
G01 X199.705 Y780.314
G01 X239.347 Y778.879
G01 X203.228 Y791.591
G01 X232.357 Y763.062
G01 X216.371 Y797.085
G01 X219.199 Y756.317
G01 X232.477 Y792.028
G01 X207.800 Y760.663
G01 X243.412 Y777.547
G01 X205.268 Y772.087
G01 X244.037 Y760.062
G01 X213.958 Y782.775
G01 X235.030 Y747.757
G01 X230.163 Y785.430
G01 X222.503 Y746.077
G01 X246.145 Y777.310
G01 X214.615 Y754.736
G01 X254.388 Y761.750
G01 X217.058 Y767.886
G01 X251.728 Y746.330
G01 X229.905 Y777.346
G01 X241.084 Y738.700
G01 X247.550 Y777.122
G01 X229.831 Y742.370
G01 X261.786 Y766.716
G01 X225.716 Y754.772
G01 X266.318 Y751.403
G01 X232.571 Y768.681
G01 X260.210 Y739.323
G01 X248.182 Y776.201
G01 X248.396 Y736.988
G01 X265.494 Y773.112
G01 X238.932 Y745.694
G01 X276.487 Y761.200
G01 X238.548 Y760.795
G01 X276.583 Y747.265
G01 X248.913 Y774.264
G01 X267.159 Y739.363
G01 X265.707 Y779.112
G01 X254.771 Y742.356
G01 X280.987 Y773.233
G01 X247.527 Y755.223
G01 X287.557 Y760.557
G01 X250.605 Y771.611
G01 X282.925 Y748.872
G01 X263.386 Y783.329
G01 X270.669 Y745.515
G01 X279.788 Y784.852
G01 X258.456 Y753.317
G01 X291.610 Y776.356
G01 X253.803 Y769.025
G01 X293.051 Y763.607
G01 X259.931 Y785.084
G01 X283.905 Y754.770
G01 X273.981 Y793.790
G01 X269.669 Y755.886
G01 X288.591 Y791.524
G01 X258.513 Y767.533
G01 X295.953 Y780.734
G01 X256.771 Y784.487
G01 X292.120 Y768.571
G01 X265.450 Y798.595
G01 X279.188 Y762.930
G01 X279.679 Y803.252
G01 X264.137 Y768.085
G01 X291.396 Y797.035
G01 X254.993 Y782.318
G01 X293.803 Y784.473
G01 X256.402 Y798.852
G01 X285.119 Y773.539
G01 X267.080 Y809.581
G01 X269.571 Y771.239
G01 X280.523 Y809.527
G01 X255.072 Y779.742
G01 X288.609 Y799.578
G01 X248.865 Y795.172
G01 X286.084 Y785.989
G01 X253.539 Y809.739
G01 X273.469 Y776.924
G01 X265.613 Y816.029
G01 X256.789 Y777.949
G01 X277.467 Y811.085
G01 X244.256 Y788.957
G01 X281.555 Y798.037
G01 X241.755 Y804.225
G01 X274.579 Y784.371
G01 X249.610 Y815.563
G01 X259.323 Y777.799
G01 X262.418 Y816.837
G01 X243.124 Y782.005
G01 X272.039 Y807.347
G01 X233.843 Y794.616
G01 X272.098 Y792.216
G01 X235.538 Y808.511
G01 X261.514 Y779.569
G01 X246.239 Y815.752
G01 X245.104 Y776.052
G01 X259.043 Y811.967
G01 X230.940 Y783.178
G01 X265.933 Y798.765
G01 X225.903 Y796.490
G01 X262.209 Y782.859
G01 X231.901 Y808.035
G01 X249.086 Y772.364
G01 X244.822 Y810.750
G01 X233.034 Y772.338
G01 X256.811 Y802.370
G01 X222.216 Y781.993
G01 X260.606 Y786.686
G01 X221.990 Y795.145
G01 X253.549 Y771.461
G01 X231.960 Y803.631
G01 X239.057 Y764.161
G01 X246.198 Y801.821
G01 X224.739 Y767.847
G01 X256.515 Y789.735
G01 X218.201 Y779.495
G01 X256.979 Y773.038
G01 X222.855 Y791.677
G01 X247.185 Y759.932
G01 X236.032 Y796.665
G01 X232.481 Y756.636
G01 X250.457 Y790.704
G01 X221.013 Y763.970
G01 X258.256 Y776.092
G01 X219.232 Y776.911
G01 X255.298 Y759.922
G01 X228.331 Y787.371
G01 X243.465 Y750.179
G01 X243.582 Y788.667
G01 X229.612 Y751.342
G01 X256.941 Y779.214
G01 X221.781 Y761.924
G01 X261.475 Y763.406
G01 X224.756 Y775.297
G01 X255.180 Y749.197
G01 X237.423 Y783.353
G01 X242.078 Y743.722
G01 X253.370 Y780.979
G01 X229.995 Y749.366
G01 X264.422 Y768.885
G01 X226.230 Y762.451
G01 X265.137 Y753.211
G01 X233.530 Y775.266
G01 X255.802 Y742.144
G01 X248.558 Y780.325
G01 X242.264 Y741.405
G01 X263.733 Y774.491
G01 X232.699 Y751.094
G01 X271.396 Y760.712
G01 X233.093 Y765.632
G01 X268.031 Y746.388
G01 X243.936 Y776.840
G01 X256.195 Y739.291
G01 X259.940 Y778.442
G01 X243.098 Y743.277
G01 X272.952 Y769.530
G01 X236.624 Y756.153
G01 X276.441 Y755.055
G01 X240.973 Y770.884
G01 X269.096 Y743.096
G01 X254.342 Y779.469
G01 X255.543 Y740.395
G01 X269.911 Y777.345
G01 X243.788 Y748.639
G01 X279.602 Y765.902
G01 X240.799 Y763.519
G01 X278.532 Y751.707
G01 X248.659 Y777.102
G01 X267.698 Y742.877
G01 X263.415 Y782.200
G01 X253.431 Y744.598
G01 X277.256 Y776.326
G01 X243.898 Y756.254
G01 X282.821 Y763.062
G01 X244.601 Y771.764
G01 X277.257 Y750.074
G01 X255.341 Y782.927
G01 X263.793 Y744.877
G01 X270.328 Y783.940
G01 X249.963 Y750.690
G01 X281.379 Y774.590
G01 X243.448 Y764.647
G01 X282.428 Y760.370
G01 X247.848 Y779.378
G01 X272.880 Y749.438
G01 X260.696 Y787.065
G01 X257.938 Y748.119
G01 X274.824 Y783.751
G01 X245.741 Y757.408
G01 X282.318 Y771.517
G01 X242.877 Y772.421
G01 X278.891 Y757.331
G01 X250.755 Y785.080
G01 X266.249 Y749.202
G01 X264.834 Y788.572
G01 X251.156 Y751.763
G01 X277.131 Y781.100
G01 X241.709 Y763.709
G01 X280.630 Y766.873
G01 X242.879 Y778.521
G01 X273.158 Y753.787
G01 X253.771 Y788.059
G01 X258.583 Y749.066
G01 X268.128 Y787.050
G01 X244.694 Y755.283
G01 X277.782 Y776.000
G01 X238.904 Y768.938
G01 X277.167 Y760.913
G01 X244.169 Y782.394
G01 X266.391 Y749.987
G01 X257.361 Y788.088
G01 X251.181 Y749.088
G01 X271.000 Y782.706
G01 X239.731 Y758.525
G01 X277.377 Y769.016
G01 X238.180 Y772.879
G01 X272.815 Y754.341
G01 X247.237 Y783.997
G01 X259.694 Y746.528
G01 X261.785 Y785.491
G01 X245.146 Y749.622
G01 X273.710 Y776.268
G01 X237.116 Y761.641
G01 X276.374 Y761.133
G01 X239.989 Y775.673
G01 X268.278 Y748.148
G01 X252.164 Y783.693
G01 X253.887 Y744.188
G01 X266.943 Y780.992
G01 X241.169 Y751.153
G01 X276.221 Y768.779
G01 X237.197 Y764.926
G01 X274.954 Y753.519
G01 X244.249 Y777.646
G01 X263.940 Y743.371
G01 X258.547 Y782.049
G01 X249.377 Y743.691
G01 X272.339 Y775.476
G01 X239.440 Y754.081
G01 X278.172 Y761.342
G01 X239.770 Y768.615
G01 X272.997 Y747.257
G01 X250.360 Y779.103
G01 X259.848 Y740.829
G01 X265.553 Y779.615
G01 X246.165 Y745.471
G01 X277.162 Y769.751
G01 X239.685 Y758.519
G01 X278.974 Y754.862
G01 X244.172 Y772.702
G01 X270.179 Y743.097
G01 X257.338 Y780.151
G01 X255.809 Y740.913
G01 X272.097 Y776.739
G01 X243.959 Y749.508
G01 X280.473 Y764.355
G01 X241.319 Y764.162
G01 X277.992 Y749.860
G01 X249.480 Y776.837
G01 X266.145 Y741.303
G01 X264.054 Y780.605
G01 X251.568 Y743.475
G01 X277.090 Y773.469
G01 X242.372 Y755.267
G01 X281.457 Y759.461
G01 X243.670 Y770.276
G01 X274.772 Y746.410
G01 X254.759 Y780.333
G01 X260.717 Y741.625
G01 X269.499 Y780.003
G01 X247.003 Y747.856
G01 X279.703 Y769.579
G01 X241.119 Y761.776
G01 X279.653 Y754.914
G01 X246.199 Y775.807
G01 X269.247 Y744.191
G01 X259.299 Y782.298
G01 X254.066 Y743.401
G01 X273.016 Y777.739
G01 X242.287 Y753.039
G01 X279.577 Y764.689
G01 X240.184 Y767.822
G01 X275.126 Y750.365
G01 X248.666 Y779.602
G01 X261.855 Y742.656
G01 X262.780 Y781.852
G01 X246.796 Y745.764
G01 X274.446 Y773.266
G01 X237.951 Y757.890
G01 X276.918 Y758.471
G01 X239.879 Y772.219
G01 X268.511 Y745.478
G01 X251.190 Y780.676
G01 X253.529 Y741.258
G01 X265.314 Y778.378
G01 X239.906 Y747.895
G01 X274.133 Y766.328
G01 X234.828 Y761.441
G01 X272.462 Y750.857
G01 X240.780 Y774.085
G01 X260.913 Y740.135
G01 X254.180 Y778.470
G01 X245.567 Y739.667
G01 X267.361 Y771.745
G01 X234.625 Y749.256
G01 X272.805 Y757.141
G01 X233.887 Y763.114
G01 X267.295 Y742.193
G01 X243.567 Y773.059
G01 X253.695 Y734.586
G01 X258.171 Y773.030
G01 X239.374 Y737.922
G01 X269.539 Y762.432
G01 X232.149 Y749.736
G01 X271.346 Y746.474
G01 X235.978 Y762.863
G01 X262.597 Y733.294
G01 X248.778 Y769.394
G01 X248.176 Y729.485
G01 X263.581 Y765.042
G01 X236.158 Y736.459
G01 X272.375 Y751.519
G01 X233.356 Y749.680
G01 X270.529 Y735.591
G01 X241.566 Y761.167
G01 X259.343 Y725.359
G01 X256.576 Y763.908
G01 X245.337 Y725.799
G01 X270.490 Y755.734
G01 X236.647 Y736.019
G01 X276.080 Y740.519
G01 X238.545 Y749.767
G01 X270.771 Y726.054
G01 X250.521 Y758.879
G01 X258.058 Y719.757
G01 X266.566 Y757.794
G01 X245.577 Y724.590
G01 X278.482 Y746.624
G01 X240.885 Y737.428
G01 X280.394 Y731.101
G01 X247.290 Y750.793
G01 X271.990 Y719.420
G01 X262.020 Y756.984
G01 X258.682 Y717.727
G01 X277.746 Y752.325
G01 X248.617 Y726.732
G01 X286.614 Y739.200
G01 X248.177 Y741.324
G01 X284.571 Y724.742
G01 X258.447 Y753.388
G01 X273.591 Y716.901
G01 X274.612 Y756.290
G01 X260.578 Y720.061
G01 X288.604 Y748.532
G01 X253.550 Y732.623
G01 X293.538 Y734.578
G01 X257.205 Y747.890
G01 X287.504 Y722.397
G01 X270.325 Y757.754
G01 X274.611 Y719.060
G01 X286.436 Y757.171
G01 X262.709 Y726.843
G01 X297.368 Y746.935
G01 X259.053 Y741.965
G01 X297.756 Y733.241
G01 X266.293 Y756.671
G01 X287.987 Y724.259
G01 X281.002 Y763.500
G01 X273.980 Y725.624
G01 X295.562 Y759.398
G01 X263.914 Y737.323
G01 X302.357 Y747.391
G01 X263.710 Y753.691
G01 X297.963 Y734.911
G01 X273.761 Y766.530
G01 X285.038 Y729.686
G01 X288.708 Y769.619
G01 X270.846 Y735.469
G01 X300.395 Y762.136
G01 X263.249 Y749.960
G01 X302.359 Y749.101
G01 X266.369 Y766.062
G01 X293.398 Y738.597
G01 X278.312 Y775.784
G01 X278.227 Y737.300
G01 X292.214 Y774.639
G01 X264.884 Y746.788
G01 X300.027 Y764.105
G01 X260.295 Y762.656
G01 X296.956 Y750.801
G01 X266.455 Y776.941
G01 X284.114 Y742.824
G01 X279.338 Y782.494
G01 X267.904 Y745.273
G01 X291.116 Y776.919
G01 X256.502 Y757.427
G01 X294.485 Y763.882
G01 X255.347 Y773.133
G01 X286.701 Y751.079
G01 X264.154 Y784.189
G01 X271.101 Y745.983
G01 X277.078 Y784.861
G01 X255.272 Y751.716
G01 X285.949 Y775.036
G01 X246.876 Y765.320
G01 X284.785 Y760.280
G01 X249.437 Y779.380
G01 X273.107 Y748.759
G01 X260.409 Y786.112
G01 X256.211 Y746.737
G01 X272.589 Y781.649
G01 X242.263 Y755.112
G01 X278.109 Y768.174
G01 X237.805 Y768.924
G01 X272.780 Y752.715
G01 X244.164 Y780.088
G01 X258.423 Y743.265
G01 X256.729 Y781.853
G01 X241.873 Y744.382
G01 X267.512 Y772.530
G01 X231.223 Y754.673
G01 X269.561 Y756.425
G01 X231.376 Y767.569
G01 X260.812 Y741.470
G01 X241.352 Y774.955
G01 X245.235 Y734.857
G01 X254.840 Y771.648
G01 X230.660 Y739.076
G01 X263.690 Y758.270
G01 X224.467 Y750.552
G01 X262.417 Y740.909
G01 X229.525 Y761.629
G01 X251.240 Y727.776
G01 X242.623 Y764.800
G01 X235.962 Y724.687
G01 X256.243 Y756.862
G01 X224.784 Y731.867
G01 X262.716 Y740.695
G01 X223.784 Y743.841
G01 X258.458 Y723.686
G01 X233.570 Y752.468
G01 X245.946 Y713.673
G01 X248.948 Y751.444
G01 X232.358 Y714.632
G01 X261.789 Y739.793
G01 X225.614 Y724.504
G01 X265.510 Y722.424
G01 X230.005 Y736.344
G01 X258.705 Y707.435
G01 X243.828 Y742.166
G01 X245.916 Y701.666
G01 X260.319 Y737.364
G01 X235.124 Y706.937
G01 X271.377 Y723.264
G01 X233.340 Y719.063
G01 X272.027 Y706.410
G01 X242.732 Y730.174
G01 X263.151 Y694.968
G01 X259.419 Y733.068
G01 X250.999 Y694.233
G01 X275.600 Y725.196
G01 X243.721 Y703.723
G01 X283.847 Y710.079
G01 X246.868 Y717.452
G01 X281.184 Y695.375
G01 X260.312 Y727.245
G01 X270.720 Y688.666
G01 X278.303 Y727.251
G01 X259.911 Y693.281
G01 X292.626 Y717.177
G01 X256.442 Y706.468
G01 X297.113 Y702.456
G01 X263.962 Y720.915
G01 X291.030 Y691.251
G01 X280.063 Y728.784
G01 X279.462 Y689.956
G01 X297.584 Y726.034
G01 X270.494 Y699.671
G01 X308.548 Y714.652
G01 X270.733 Y715.588
G01 X308.541 Y701.548
G01 X281.648 Y729.646
G01 X299.129 Y694.745
G01 X298.740 Y734.964
G01 X286.982 Y698.943
G01 X314.012 Y729.631
G01 X280.172 Y712.922
G01 X320.359 Y717.754
G01 X283.714 Y730.202
G01 X315.475 Y707.176
G01 X296.780 Y742.609
G01 X303.108 Y705.143
G01 X313.147 Y744.765
G01 X290.985 Y714.291
G01 X324.613 Y737.043
G01 X286.535 Y731.180
G01 X325.514 Y725.343
G01 X292.785 Y748.172
G01 X315.838 Y717.826
G01 X306.682 Y757.627
G01 X301.223 Y720.389
G01 X320.771 Y756.100
G01 X289.845 Y733.400
G01 X327.303 Y746.221
G01 X287.903 Y751.471
G01 X322.503 Y735.223
G01 X296.202 Y766.415
G01 X308.657 Y730.938
G01 X309.707 Y771.738
G01 X292.848 Y737.454
G01 X320.323 Y766.203
G01 X283.056 Y752.844
G01 X321.367 Y754.490
G01 X283.763 Y770.207
G01 X311.255 Y744.601
G01 X293.486 Y781.457
G01 X294.390 Y743.423
G01 X305.608 Y781.764
G01 X278.739 Y752.917
G01 X312.036 Y772.201
G01 X271.457 Y769.018
G01 X307.679 Y759.138
G01 X274.949 Y783.860
G01 X293.271 Y750.711
G01 X285.564 Y790.106
G01 X274.979 Y752.325
G01 X295.623 Y784.975
G01 X261.025 Y763.661
G01 X297.673 Y771.773
G01 X257.166 Y778.842
G01 X288.617 Y758.053
G01 X263.541 Y789.668
G01 X271.442 Y751.451
G01 X274.613 Y790.130
G01 X253.592 Y755.463
G01 X282.246 Y779.723
G01 X242.885 Y767.521
G01 X280.214 Y763.723
G01 X243.223 Y780.403
G01 X267.653 Y750.277
G01 X252.461 Y786.222
G01 X249.564 Y745.914
G01 X263.613 Y780.780
G01 X234.071 Y751.948
G01 X268.723 Y765.886
G01 X227.967 Y763.764
G01 X263.279 Y748.372
G01 X232.984 Y773.369
G01 X248.713 Y736.331
G01 X244.858 Y773.815
G01 X231.639 Y734.670
G01 X255.700 Y763.042
G01 X220.216 Y742.417
G01 X258.360 Y745.033
G01 X219.665 Y753.273
G01 X250.390 Y727.632
G01 X229.408 Y759.105
G01 X235.404 Y718.236
G01 X243.395 Y754.451
G01 X221.097 Y719.739
G01 X253.452 Y739.551
G01 X215.012 Y728.955
G01 X253.798 Y720.241
G01 X220.385 Y738.399
G01 X244.239 Y704.752
G01 X234.367 Y740.435
G01 X230.279 Y699.198
G01 X249.597 Y731.516
G01 X220.086 Y704.226
G01 X258.262 Y714.159
G01 X219.984 Y714.682
G01 X256.404 Y695.584
G01 X230.966 Y722.482
G01 X246.097 Y683.756
G01 X248.138 Y721.089
G01 X234.298 Y683.013
G01 X263.408 Y709.142
G01 X228.998 Y691.699
G01 X269.941 Y691.232
G01 X234.807 Y703.097
G01 X265.917 Y675.387
G01 X250.392 Y709.155
G01 X255.513 Y668.668
G01 X269.203 Y704.945
G01 X246.590 Y673.289
G01 X283.060 Y691.400
G01 X246.334 Y685.417
G01 X286.650 Y674.811
G01 X257.274 Y697.297
G01 X280.434 Y663.377
G01 X275.863 Y701.542
G01 X270.369 Y662.688
G01 X294.415 Y695.220
G01 X264.600 Y672.658
G01 X305.314 Y681.475
G01 X268.941 Y687.572
G01 X305.194 Y667.802
G01 X283.646 Y699.249
G01 X296.765 Y661.912
G01 X303.242 Y701.550
G01 X287.297 Y667.486
G01 X319.518 Y693.764
G01 X284.579 Y682.135
G01 X326.031 Y681.000
G01 X292.603 Y698.718
G01 X321.634 Y671.356
G01 X309.331 Y709.271
G01 X311.079 Y671.451
G01 X327.802 Y709.387
G01 X302.378 Y682.758
G01 X339.938 Y700.637
G01 X302.355 Y700.779
G01 X340.984 Y689.685
G01 X312.868 Y717.512
G01 X332.109 Y684.598
G01 X329.759 Y725.840
G01 X319.737 Y690.375
G01 X345.129 Y723.441
G01 X311.994 Y706.172
G01 X351.684 Y714.043
G01 X314.206 Y725.739
G01 X346.737 Y705.345
G01 X325.953 Y740.847
G01 X333.684 Y704.745
G01 X341.288 Y745.798
G01 X320.120 Y715.234
G01 X352.013 Y740.541
G01 X313.643 Y733.719
G01 X352.191 Y730.671
G01 X317.665 Y752.700
G01 X341.422 Y724.318
G01 X329.525 Y764.378
G01 X325.064 Y727.632
G01 X341.963 Y764.930
G01 X311.280 Y741.364
G01 X347.125 Y756.585
G01 X306.548 Y760.424
G01 X340.909 Y746.371
G01 X312.091 Y776.662
G01 X325.232 Y742.212
G01 X323.221 Y783.334
G01 X306.991 Y748.528
G01 X331.936 Y778.798
G01 X294.272 Y763.779
G01 X331.352 Y767.397
G01 X291.914 Y781.287
G01 X319.521 Y757.041
G01 X298.858 Y792.903
G01 X300.524 Y754.825
G01 X308.753 Y793.477
G01 X282.248 Y763.098
G01 X313.488 Y783.687
G01 X272.059 Y778.156
G01 X307.688 Y769.650
G01 X272.771 Y792.267
G01 X291.710 Y759.535
G01 X281.119 Y797.932
G01 X271.471 Y759.055
G01 X289.590 Y792.010
G01 X255.218 Y768.307
G01 X290.599 Y777.446
G01 X249.010 Y781.716
G01 X280.700 Y761.650
G01 X253.404 Y791.114
G01 X262.518 Y752.412
G01 X263.183 Y790.247
G01 X243.334 Y753.607
G01 X270.260 Y778.232
G01 X231.093 Y763.075
G01 X268.167 Y760.052
G01 X230.060 Y773.814
G01 X255.654 Y743.824
G01 X238.488 Y777.866
G01 X237.401 Y736.337
G01 X249.610 Y770.716
G01 X221.465 Y739.329
G01 X255.398 Y753.807
G01 X214.860 Y748.544
G01 X251.008 Y733.763
G01 X219.707 Y756.110
G01 X237.477 Y718.765
G01 X232.087 Y754.902
G01 X221.163 Y714.060
G01 X244.216 Y742.501
G01 X210.257 Y719.103
G01 X248.752 Y722.555
G01 X210.278 Y727.881
G01 X242.853 Y702.802
G01 X221.033 Y732.265
G01 X229.756 Y690.831
G01 X236.737 Y726.523
G01 X216.990 Y689.928
G01 X249.197 Y710.515
G01 X212.229 Y697.301
G01 X252.338 Y689.802
G01 X219.054 Y705.648
G01 X245.543 Y672.613
G01 X234.976 Y707.221
G01 X233.988 Y665.339
G01 X252.795 Y698.126
G01 X225.778 Y669.037
G01 X264.561 Y680.506
G01 X227.460 Y678.883
G01 X265.944 Y661.387
G01 X240.399 Y686.856
G01 X258.600 Y648.831
G01 X260.000 Y686.192
G01 X249.240 Y647.517
G01 X278.226 Y675.137
G01 X245.903 Y656.183
G01 X288.000 Y657.942
G01 X253.495 Y668.346
G01 X287.082 Y642.532
G01 X271.058 Y675.893
G01 X279.277 Y636.160
G01 X292.264 Y673.576
G01 X272.301 Y641.415
G01 X308.877 Y661.914
G01 X273.497 Y654.810
G01 X315.258 Y646.920
G01 X285.750 Y668.711
G01 X311.443 Y636.790
G01 X305.859 Y675.553
G01 X303.089 Y637.387
G01 X326.272 Y672.011
G01 X298.315 Y649.003
G01 X339.211 Y660.834
G01 X303.194 Y666.199
G01 X340.931 Y649.322
G01 X318.368 Y680.793
G01 X333.747 Y645.288
G01 X338.657 Y686.362
G01 X324.729 Y652.741
G01 X355.888 Y681.770
G01 X321.766 Y669.655
G01 X363.367 Y671.779
G01 X329.189 Y689.067
G01 X359.545 Y664.396
G01 X345.351 Y702.896
G01 X348.844 Y666.438
G01 X363.513 Y706.374
G01 X339.193 Y679.745
G01 X375.534 Y700.649
G01 X337.633 Y700.134
G01 X376.343 Y692.116
G01 X346.418 Y719.676
G01 X366.716 Y688.867
G01 X361.752 Y731.036
G01 X352.836 Y696.185
G01 X375.873 Y731.484
G01 X342.871 Y713.602
G01 X381.323 Y724.363
G01 X342.464 Y735.116
G01 X375.059 Y717.209
G01 X351.615 Y752.468
G01 X360.126 Y717.559
G01 X364.684 Y759.656
G01 X343.982 Y728.757
G01 X373.504 Y756.209
G01 X334.392 Y748.069
G01 X371.892 Y747.413
G01 X335.152 Y768.159
G01 X359.076 Y741.354
G01 X344.013 Y781.098
G01 X340.128 Y744.429
G01 X353.934 Y782.701
G01 X323.193 Y757.783
G01 X356.990 Y774.805
G01 X315.013 Y776.644
G01 X348.763 Y764.225
G01 X317.239 Y792.931
G01 X330.807 Y758.968
G01 X325.544 Y799.679
G01 X309.819 Y763.792
G01 X332.044 Y794.861
G01 X293.979 Y777.560
G01 X329.677 Y782.482
G01 X288.472 Y793.848
G01 X316.132 Y770.356
G01 X292.663 Y804.474
G01 X295.162 Y765.781
G01 X300.488 Y803.996
G01 X274.552 Y771.507
G01 X303.834 Y792.709
G01 X261.863 Y784.210
G01 X297.052 Y776.477
G01 X260.303 Y796.326
G01 X280.115 Y763.496
G01 X266.997 Y800.224
G01 X258.671 Y759.784
G01 X274.612 Y792.420
G01 X240.965 Y765.863
G01 X275.438 Y775.508
G01 X233.335 Y776.491
G01 X265.681 Y756.746
G01 X236.748 Y783.561
G01 X247.591 Y744.067
G01 X246.305 Y780.596
G01 X228.251 Y741.728
G01 X253.977 Y766.344
G01 X215.709 Y747.986
G01 X253.060 Y745.493
G01 X214.565 Y756.086
G01 X241.906 Y726.117
G01 X223.462 Y758.021
G01 X224.851 Y715.253
G01 X235.859 Y748.976
G01 X209.851 Y715.057
G01 X243.656 Y730.024
G01 X204.108 Y721.651
G01 X241.680 Y707.570
G01 X210.117 Y727.300
G01 X230.550 Y689.857
G01 X224.297 Y724.717
G01 X216.343 Y682.464
G01 X238.974 Y711.127
G01 X207.250 Y685.267
G01 X246.617 Y689.833
G01 X209.056 Y692.550
G01 X243.988 Y668.442
G01 X221.946 Y696.201
G01 X233.921 Y654.707
G01 X240.398 Y690.225
G01 X223.752 Y652.295
G01 X256.212 Y674.093
G01 X221.256 Y658.802
G01 X263.019 Y653.070
G01 X230.343 Y667.121
G01 X259.773 Y635.351
G01 X248.876 Y669.392
G01 X251.302 Y627.575
G01 X269.830 Y661.379
G01 X245.620 Y631.201
G01 X285.130 Y644.828
G01 X249.476 Y641.725
G01 X290.077 Y626.543
G01 X264.598 Y651.199
G01 X285.904 Y614.650
G01 X286.703 Y652.635
G01 X279.057 Y614.142
G01 X307.822 Y643.876
G01 X277.600 Y624.142
G01 X320.653 Y628.805
G01 X286.729 Y638.400
G01 X322.546 Y615.215
G01 X305.860 Y648.750
G01 X316.923 Y610.516
G01 X328.911 Y649.618
G01 X311.345 Y617.653
G01 X347.610 Y641.100
G01 X313.299 Y633.483
G01 X356.013 Y628.899
G01 X326.023 Y650.496
G01 X353.740 Y621.181
G01 X346.681 Y660.954
G01 X346.140 Y624.050
G01 X367.881 Y661.139
G01 X341.302 Y638.171
G01 X381.714 Y653.388
G01 X345.551 Y658.380
G01 X384.073 Y644.778
G01 X359.925 Y676.507
G01 X376.889 Y643.199
G01 X379.567 Y685.855
G01 X367.024 Y652.971
G01 X396.370 Y684.859
G01 X362.464 Y672.430
G01 X403.422 Y677.917
G01 X367.882 Y694.805
G01 X398.791 Y672.924
G01 X382.040 Y711.918
G01 X386.570 Y676.878
G01 X398.454 Y718.649
G01 X374.602 Y691.979
G01 X408.951 Y715.717
G01 X370.143 Y714.371
G01 X408.169 Y709.241
G01 X375.849 Y736.224
G01 X396.509 Y707.318
G01 X388.313 Y750.005
G01 X379.908 Y715.509
G01 X399.938 Y752.586
G01 X366.572 Y733.730
G01 X403.137 Y746.925
G01 X362.456 Y756.250
G01 X394.526 Y740.387
G01 X367.995 Y774.806
G01 X376.805 Y740.639
G01 X377.876 Y783.118
G01 X357.289 Y751.378
G01 X383.995 Y780.311
G01 X343.896 Y770.252
G01 X379.950 Y771.355
G01 X340.807 Y790.117
G01 X364.598 Y764.290
G01 X346.195 Y802.945
G01 X342.724 Y765.757
G01 X353.264 Y804.215
G01 X322.435 Y777.304
G01 X354.036 Y795.380
G01 X310.729 Y794.507
G01 X343.792 Y783.042
G01 X309.678 Y809.386
G01 X323.719 Y775.286
G01 X315.331 Y814.787
G01 X300.298 Y777.211
G01 X319.934 Y808.316
G01 X281.779 Y788.099
G01 X316.262 Y793.647
G01 X273.677 Y801.811
G01 X301.645 Y778.492
G01 X275.781 Y810.165
G01 X279.490 Y770.351
G01 X282.317 Y807.456
G01 X257.456 Y772.377
G01 X285.181 Y793.606
G01 X243.269 Y781.648
G01 X278.458 Y774.221
G01 X240.517 Y790.796
G01 X261.726 Y757.518
G01 X246.708 Y792.088
G01 X240.337 Y749.812
G01 X254.694 Y781.714
G01 X222.504 Y752.064
G01 X256.650 Y761.919
G01 X214.813 Y759.376
G01 X248.428 Y739.796
G01 X218.625 Y763.730
G01 X231.878 Y723.409
G01 X229.359 Y758.449
G01 X213.862 Y717.388
G01 X239.047 Y741.915
G01 X202.491 Y720.415
G01 X240.750 Y718.512
G01 X202.676 Y725.999
G01 X232.411 Y696.248
G01 X213.439 Y726.099
G01 X217.997 Y682.393
G01 X228.463 Y715.611
G01 X205.328 Y679.511
G01 X239.583 Y695.233
G01 X201.765 Y684.106
G01 X241.295 Y671.126
G01 X210.154 Y688.591
G01 X233.786 Y651.574
G01 X227.249 Y685.532
G01 X222.825 Y642.459
G01 X245.494 Y671.791
G01 X216.570 Y644.073
G01 X257.174 Y650.310
G01 X221.047 Y651.001
G01 X258.651 Y628.534
G01 X236.811 Y655.153
G01 X252.345 Y614.351
G01 X258.607 Y650.276
G01 X245.370 Y611.784
G01 X278.240 Y635.436
G01 X245.579 Y618.812
G01 X289.058 Y615.576
G01 X257.194 Y628.522
G01 X289.584 Y598.824
G01 X278.436 Y632.953
G01 X284.283 Y592.038
G01 X302.465 Y627.513
G01 X281.060 Y597.054
G01 X321.104 Y613.539
G01 X286.848 Y609.689
G01 X329.297 Y597.577
G01 X303.737 Y622.071
G01 X327.853 Y587.784
G01 X327.769 Y626.988
G01 X322.940 Y589.441
G01 X351.067 Y621.872
G01 X322.637 Y602.043
G01 X366.128 Y610.216
G01 X332.422 Y619.574
G01 X369.908 Y599.647
G01 X352.097 Y633.822
G01 X365.447 Y597.702
G01 X375.848 Y638.892
G01 X360.141 Y607.667
G01 X395.401 Y634.440
G01 X361.614 Y626.733
G01 X404.531 Y625.841
G01 X373.467 Y647.530
G01 X402.458 Y621.198
G01 X393.245 Y662.156
G01 X394.224 Y626.839
G01 X413.748 Y666.503
G01 X387.879 Y643.792
G01 X426.969 Y662.483
G01 X390.002 Y667.176
G01 X428.468 Y656.932
G01 X402.042 Y688.854
G01 X419.798 Y657.795
G01 X419.489 Y701.866
G01 X407.617 Y669.696
G01 X434.340 Y704.225
G01 X400.000 Y691.334
G01 X439.495 Y699.955
G01 X401.967 Y716.151
G01 X432.658 Y696.823
G01 X412.708 Y735.895
G01 X417.599 Y701.998
G01 X426.022 Y745.112
G01 X402.071 Y718.043
G01 X433.740 Y744.103
G01 X393.538 Y741.445
G01 X430.236 Y738.700
G01 X395.070 Y764.499
G01 X415.541 Y736.996
G01 X403.662 Y779.504
G01 X395.348 Y744.830
G01 X411.915 Y782.955
G01 X377.889 Y762.513
G01 X412.137 Y777.430
G01 X369.426 Y784.610
G01 X400.622 Y770.120
G01 X370.832 Y802.893
G01 X379.724 Y768.815
G01 X377.144 Y810.831
G01 X356.600 Y777.575
G01 X380.343 Y807.161
G01 X339.306 Y794.447
G01 X373.820 Y796.543
G01 X332.402 Y812.514
G01 X356.074 Y786.967
G01 X334.486 Y823.684
G01 X331.585 Y785.316
G01 X339.020 Y823.127
G01 X308.402 Y793.557
G01 X337.991 Y811.925
G01 X293.757 Y807.636
G01 X326.387 Y796.463
G01 X290.134 Y819.709
G01 X305.016 Y784.903
G01 X293.957 Y822.466
G01 X280.121 Y782.682
G01 X297.619 Y813.164
G01 X259.993 Y789.521
G01 X293.734 Y795.149
G01 X250.454 Y799.589
G01 X279.269 Y776.028
G01 X251.704 Y804.738
G01 X257.268 Y763.489
G01 X258.262 Y799.019
G01 X235.228 Y761.093
G01 X262.040 Y781.992
G01 X221.011 Y766.337
G01 X256.853 Y759.002
G01 X218.559 Y772.069
G01 X241.874 Y738.267
G01 X225.757 Y770.480
G01 X222.128 Y726.393
G01 X235.641 Y757.446
G01 X205.761 Y724.774
G01 X240.273 Y734.857
G01 X199.576 Y728.874
G01 X235.146 Y709.626
G01 X205.309 Y730.781
G01 X221.693 Y689.927
G01 X218.690 Y723.629
G01 X206.517 Y680.747
G01 X231.815 Y705.437
G01 X197.759 Y681.194
G01 X237.516 Y680.267
G01 X200.616 Y685.047
G01 X233.312 Y656.037
G01 X214.475 Y684.245
G01 X222.783 Y640.219
G01 X233.247 Y673.398
G01 X213.578 Y635.776
G01 X248.709 Y652.813
G01 X213.189 Y639.583
G01 X255.027 Y628.385
G01 X224.794 Y644.214
G01 X251.947 Y608.402
G01 X245.483 Y642.087
G01 X244.906 Y599.025
G01 X267.826 Y629.698
G01 X242.001 Y600.945
G01 X283.938 Y609.603
G01 X249.485 Y609.043
G01 X289.784 Y589.055
G01 X268.271 Y615.259
G01 X287.361 Y576.039
G01 X293.385 Y613.077
G01 X283.543 Y574.909
G01 X316.655 Y601.147
G01 X286.242 Y584.016
G01 X331.164 Y584.062
G01 X299.983 Y596.641
G01 X335.008 Y569.845
G01 X323.353 Y604.723
G01 X332.285 Y565.540
G01 X349.720 Y603.314
G01 X330.776 Y573.342
G01 X370.828 Y593.320
G01 X337.589 Y589.385
G01 X381.288 Y581.001
G01 X355.181 Y605.877
G01 X381.489 Y574.510
G01 X379.936 Y615.385
G01 X377.322 Y579.392
G01 X404.102 Y614.926
G01 X376.870 Y595.502
G01 X420.007 Y607.585
G01 X385.892 Y617.067
G01 X424.231 Y600.792
G01 X404.594 Y635.837
G01 X419.440 Y602.190
G01 X427.457 Y645.601
G01 X412.863 Y615.385
G01 X446.240 Y645.575
G01 X412.260 Y637.911
G01 X454.471 Y640.786
G01 X421.599 Y662.549
G01 X450.983 Y639.254
G01 X438.830 Y681.250
G01 X440.521 Y647.513
G01 X456.981 Y689.525
G01 X431.091 Y666.954
G01 X467.982 Y688.862
G01 X429.528 Y692.995
G01 X467.086 Y685.843
G01 X437.702 Y717.552
G01 X455.481 Y688.452
G01 X451.478 Y733.428
G01 X439.618 Y701.610
G01 X462.991 Y738.224
G01 X427.660 Y724.396
G01 X464.983 Y735.592
G01 X424.974 Y750.489
G01 X454.816 Y733.163
G01 X431.191 Y771.592
G01 X435.939 Y738.269
G01 X440.422 Y781.945
G01 X416.004 Y753.843
G01 X444.529 Y781.442
G01 X402.679 Y776.738
G01 X437.644 Y775.628
G01 X399.443 Y799.409
G01 X419.440 Y772.590
G01 X403.711 Y814.018
G01 X395.353 Y778.444
G01 X408.302 Y816.712
G01 X373.625 Y793.914
G01 X405.443 Y809.697
G01 X360.816 Y813.892
G01 X391.116 Y799.988
G01 X358.234 Y830.218
G01 X367.321 Y795.500
G01 X361.275 Y836.146
G01 X341.040 Y800.658
G01 X362.021 Y830.042
G01 X320.444 Y813.934
G01 X353.672 Y816.264
G01 X310.454 Y828.670
G01 X334.361 Y802.747
G01 X310.089 Y836.743
G01 X308.248 Y796.616
G01 X313.078 Y833.042
G01 X283.294 Y800.264
G01 X311.382 Y818.288
G01 X266.937 Y810.031
G01 X299.693 Y798.647
G01 X262.055 Y818.242
G01 X278.431 Y782.350
G01 X265.443 Y817.458
G01 X253.570 Y775.171
G01 X269.642 Y804.603
G01 X233.406 Y777.276
G01 X267.112 Y782.697
G01 X224.041 Y783.166
G01 X254.446 Y759.225
G01 X226.066 Y784.750
G01 X234.300 Y742.056
G01 X234.292 Y775.857
G01 X213.977 Y735.150
G01 X240.648 Y755.685
G01 X201.438 Y736.428
G01 X238.678 Y729.305
G01 X200.950 Y738.977
G01 X227.132 Y704.918
G01 X210.764 Y734.923
G01 X210.683 Y689.401
G01 X224.102 Y719.838
G01 X197.370 Y684.572
G01 X232.914 Y695.246
G01 X194.183 Y686.262
G01 X232.328 Y667.854
G01 X203.210 Y686.677
G01 X223.343 Y645.919
G01 X220.490 Y678.767
G01 X212.272 Y634.765
G01 X238.192 Y660.184
G01 X207.254 Y633.912
G01 X248.916 Y634.645
G01 X213.748 Y637.413
G01 X249.760 Y609.945
G01 X231.498 Y637.194
G01 X243.892 Y593.727
G01 X254.646 Y627.575
G01 X238.767 Y589.326
G01 X274.926 Y608.457
G01 X241.982 Y593.987
G01 X286.180 Y585.437
G01 X257.038 Y600.439
G01 X287.711 Y566.770
G01 X281.360 Y600.956
G01 X284.609 Y558.865
G01 X307.663 Y591.658
G01 X284.892 Y562.790
G01 X327.910 Y574.694
G01 X295.021 Y573.720
G01 X337.683 Y557.084
G01 X316.272 Y583.625
G01 X338.553 Y546.879
G01 X343.968 Y585.725
G01 X337.146 Y548.737
G01 X369.985 Y578.241
G01 X341.418 Y561.365
G01 X387.166 Y565.389
G01 X356.197 Y578.241
G01 X393.196 Y555.053
G01 X380.450 Y591.209
G01 X391.805 Y554.433
G01 X407.780 Y594.964
G01 X390.645 Y566.065
G01 X429.885 Y589.966
G01 X396.997 Y586.397
G01 X441.071 Y582.164
G01 X413.690 Y607.725
G01 X441.322 Y579.679
G01 X437.480 Y622.410
G01 X436.251 Y588.298
G01 X460.772 Y627.049
G01 X433.945 Y608.233
G01 X475.760 Y624.307
G01 X440.449 Y633.959
G01 X478.675 Y621.399
G01 X456.385 Y657.208
G01 X471.820 Y626.052
G01 X476.567 Y671.471
G01 X462.258 Y642.184
G01 X492.819 Y675.523
G01 X457.884 Y667.682
G01 X498.458 Y674.035
G01 X463.041 Y695.495
G01 X491.951 Y674.930
G01 X476.106 Y717.458
G01 X477.748 Y684.940
G01 X490.370 Y728.717
G01 X463.811 Y705.821
G01 X497.730 Y730.340
G01 X457.226 Y733.314
G01 X493.162 Y728.650
G01 X460.297 Y759.418
G01 X477.497 Y731.664
G01 X469.286 Y776.728
G01 X456.980 Y744.603
G01 X476.495 Y782.454
G01 X439.847 Y766.941
G01 X474.539 Y779.883
G01 X431.813 Y792.624
G01 X460.447 Y776.505
G01 X432.958 Y813.349
G01 X437.348 Y779.818
G01 X437.721 Y823.080
G01 X412.782 Y793.132
G01 X438.023 Y821.319
G01 X394.601 Y813.694
G01 X427.771 Y813.333
G01 X386.691 Y834.153
G01 X406.277 Y807.201
G01 X386.890 Y846.575
G01 X378.708 Y809.318
G01 X388.251 Y846.781
G01 X353.294 Y820.839
G01 X382.934 Y836.622
G01 X336.869 Y837.011
G01 X366.611 Y822.934
G01 X331.168 Y849.779
G01 X340.918 Y813.757
G01 X331.948 Y852.215
G01 X312.635 Y813.888
G01 X331.402 Y842.335
G01 X290.018 Y822.238
G01 X322.544 Y824.196
G01 X278.323 Y832.439
G01 X303.131 Y805.672
G01 X276.981 Y836.372
G01 X276.978 Y794.126
G01 X279.987 Y828.663
G01 X251.925 Y792.380
G01 X279.278 Y809.683
G01 X235.581 Y797.188
G01 X269.251 Y785.373
G01 X231.194 Y801.067
G01 X249.913 Y764.016
G01 X235.921 Y796.471
G01 X226.940 Y751.714
G01 X242.449 Y780.004
G01 X208.595 Y749.082
G01 X243.084 Y754.352
G01 X201.223 Y750.964
G01 X234.036 Y726.863
G01 X205.793 Y749.348
G01 X217.548 Y705.561
G01 X217.395 Y737.846
G01 X200.690 Y694.794
G01 X227.981 Y715.297
G01 X191.488 Y692.907
G01 X230.820 Y686.475
G01 X194.507 Y693.231
G01 X224.227 Y659.538
G01 X208.352 Y687.840
G01 X212.493 Y641.604
G01 X226.431 Y671.999
G01 X203.521 Y634.903
G01 X240.587 Y646.852
G01 X204.454 Y635.627
G01 X245.585 Y618.869
G01 X217.718 Y636.104
G01 X241.973 Y596.355
G01 X239.660 Y629.103
G01 X235.753 Y584.940
G01 X262.528 Y611.898
G01 X235.034 Y584.544
G01 X278.706 Y587.831
G01 X245.514 Y589.487
G01 X284.870 Y564.541
G01 X267.294 Y591.685
G01 X283.765 Y549.804
G01 X294.757 Y585.161
G01 X282.634 Y547.299
G01 X319.614 Y569.394
G01 X289.162 Y554.628
G01 X335.402 Y549.648
G01 X307.163 Y564.677
G01 X340.981 Y534.109
G01 X334.411 Y569.573
G01 X341.091 Y529.397
G01 X363.789 Y565.054
G01 X343.656 Y536.940
G01 X387.137 Y552.836
G01 X355.340 Y552.200
G01 X399.672 Y539.678
G01 X377.789 Y567.181
G01 X402.548 Y533.658
G01 X406.645 Y574.841
G01 X402.136 Y539.711
G01 X433.868 Y572.963
G01 X406.436 Y556.895
G01 X452.092 Y565.362
G01 X420.580 Y578.889
G01 X458.612 Y559.755
G01 X443.935 Y597.449
G01 X456.798 Y563.472
G01 X470.371 Y606.920
G01 X454.173 Y579.376
G01 X491.582 Y607.308
G01 X458.190 Y604.232
G01 X501.595 Y604.231
G01 X472.066 Y630.441
G01 X500.012 Y605.760
G01 X492.951 Y650.173
G01 X492.175 Y617.905
G01 X513.449 Y659.614
G01 X486.171 Y641.237
G01 X525.655 Y661.007
G01 X488.338 Y670.500
G01 X525.481 Y661.336
G01 X499.732 Y697.430
G01 X514.878 Y668.401
G01 X515.526 Y715.240
G01 X500.745 Y686.433
G01 X527.651 Y722.280
G01 X491.109 Y713.682
G01 X529.242 Y722.864
G01 X490.693 Y743.300
G01 X518.420 Y724.810
G01 X498.320 Y767.031
G01 X499.342 Y735.045
G01 X507.570 Y779.689
G01 X479.921 Y755.704
G01 X510.343 Y781.932
G01 X467.488 Y782.874
G01 X501.357 Y779.825
G01 X464.781 Y808.675
G01 X481.095 Y781.418
G01 X468.477 Y825.532
G01 X455.583 Y792.237
G01 X471.070 Y830.286
G01 X433.117 Y812.171
G01 X465.065 Y825.872
G01 X419.749 Y835.468
G01 X447.175 Y819.641
G01 X416.004 Y853.859
G01 X420.193 Y819.256
G01 X416.670 Y861.064
G01 X391.530 Y828.419
G01 X413.735 Y856.217
G01 X369.198 Y844.795
G01 X400.891 Y844.311
G01 X357.473 Y861.265
G01 X377.087 Y833.413
G01 X354.616 Y869.833
G01 X347.196 Y830.205
G01 X353.917 Y866.024
G01 X319.409 Y836.282
G01 X347.480 Y851.342
G01 X300.801 Y847.275
G01 X330.660 Y832.448
G01 X293.519 Y855.268
G01 X304.715 Y817.495
G01 X293.674 Y853.178
G01 X276.187 Y811.653
G01 X293.574 Y838.688
G01 X253.380 Y814.288
G01 X286.042 Y815.553
G01 X241.857 Y819.344
G01 X268.450 Y791.575
G01 X241.442 Y818.730
G01 X244.240 Y774.343
G01 X246.390 Y806.831
G01 X221.090 Y767.104
G01 X248.616 Y783.665
G01 X206.744 Y767.034
G01 X242.213 Y754.937
G01 X204.791 Y766.861
G01 X226.759 Y728.959
G01 X212.735 Y758.949
G01 X207.594 Y712.145
G01 X223.412 Y739.584
G01 X192.911 Y705.548
G01 X228.970 Y711.106
G01 X189.265 Y704.365
G01 X225.226 Y680.698
G01 X197.979 Y700.667
G01 X213.989 Y656.512
G01 X214.422 Y687.860
G01 X202.065 Y643.260
G01 X230.570 Y664.409
G01 X197.506 Y639.702
G01 X239.421 Y634.769
G01 X205.155 Y639.415
G01 X238.843 Y607.017
G01 X223.958 Y634.423
G01 X232.727 Y588.480
G01 X247.517 Y619.677
G01 X228.809 Y581.775
G01 X267.582 Y595.920
G01 X234.361 Y583.446
G01 X278.556 Y569.353
G01 X252.135 Y585.942
G01 X280.532 Y548.287
G01 X278.792 Y581.850
G01 X279.184 Y538.625
G01 X306.676 Y568.047
G01 X282.569 Y540.665
G01 X327.974 Y547.480
G01 X296.617 Y548.991
G01 X338.949 Y527.586
G01 X321.783 Y555.506
G01 X341.924 Y516.239
G01 X352.715 Y553.931
G01 X343.918 Y517.434
G01 X381.125 Y543.304
G01 X352.690 Y529.117
G01 X400.271 Y528.528
G01 X372.374 Y544.328
G01 X408.587 Y517.681
G01 X401.108 Y555.053
G01 X410.459 Y517.564
G01 X431.973 Y556.639
G01 X413.717 Y529.946
G01 X456.720 Y550.355
G01 X425.226 Y550.574
G01 X470.231 Y542.668
G01 X447.015 Y571.494
G01 X473.257 Y541.653
G01 X475.075 Y585.408
G01 X471.919 Y552.505
G01 X501.486 Y589.660
G01 X474.259 Y574.624
G01 X518.711 Y587.648
G01 X485.723 Y601.901
G01 X523.682 Y586.901
G01 X506.096 Y626.025
G01 X519.425 Y594.859
G01 X529.556 Y640.999
G01 X513.331 Y614.705
G01 X547.827 Y646.380
G01 X513.032 Y643.533
G01 X554.698 Y647.445
G01 X522.144 Y673.871
G01 X549.408 Y652.196
G01 X538.237 Y697.721
G01 X537.032 Y666.867
G01 X554.151 Y710.880
G01 X525.660 Y692.392
G01 X561.919 Y715.171
G01 X521.921 Y723.805
G01 X557.160 Y717.345
G01 X527.322 Y752.884
G01 X541.487 Y725.267
G01 X537.419 Y772.595
G01 X521.629 Y743.488
G01 X544.285 Y780.879
G01 X505.739 Y770.643
G01 X540.899 Y781.703
G01 X498.920 Y800.117
G01 X525.054 Y782.779
G01 X500.452 Y823.608
G01 X500.609 Y791.232
G01 X504.227 Y835.625
G01 X475.413 Y809.591
G01 X502.174 Y836.438
G01 X457.031 Y834.318
G01 X488.766 Y831.860
G01 X448.631 Y857.695
G01 X464.137 Y829.975
G01 X447.311 Y872.015
G01 X434.079 Y836.623
G01 X445.772 Y873.781
G01 X406.928 Y852.125
G01 X436.427 Y865.586
G01 X389.046 Y871.070
G01 X415.665 Y854.648
G01 X381.403 Y885.259
G01 X385.937 Y848.794
G01 X379.128 Y888.204
G01 X354.492 Y852.129
G01 X374.293 Y878.691
G01 X329.472 Y862.756
G01 X360.372 Y861.441
G01 X315.518 Y873.821
G01 X335.941 Y844.511
G01 X311.301 Y877.304
G01 X305.551 Y834.860
G01 X310.349 Y868.453
G01 X277.312 Y834.535
G01 X304.708 Y848.435
G01 X258.511 Y839.570
G01 X289.415 Y823.726
G01 X251.677 Y842.217
G01 X265.318 Y802.583
G01 X253.267 Y835.260
G01 X238.689 Y790.542
G01 X255.700 Y816.057
G01 X217.841 Y787.426
G01 X251.605 Y788.058
G01 X208.604 Y787.506
G01 X237.954 Y758.971
G01 X211.177 Y782.738
G01 X217.783 Y736.590
G01 X220.069 Y767.276
G01 X198.574 Y724.576
G01 X227.169 Y740.782
G01 X188.162 Y720.527
G01 X226.261 Y708.698
G01 X190.452 Y717.390
G01 X216.474 Y679.340
G01 X203.281 Y707.446
G01 X202.785 Y659.404
G01 X219.632 Y686.662
G01 X193.278 Y650.368
G01 X231.501 Y657.009
G01 X194.688 Y647.774
G01 X234.307 Y625.474
G01 X208.673 Y643.784
G01 X229.405 Y600.299
G01 X230.882 Y631.593
G01 X223.312 Y586.532
G01 X253.322 Y609.276
G01 X224.075 Y583.328
G01 X268.728 Y580.940
G01 X236.797 Y584.507
G01 X274.523 Y554.539
G01 X260.764 Y582.042
G01 X274.183 Y537.570
G01 X289.782 Y570.561
G01 X275.255 Y533.010
G01 X315.525 Y550.380
G01 X285.125 Y537.743
G01 X332.054 Y527.396
G01 X306.867 Y544.333
G01 X339.008 Y509.883
G01 X337.464 Y545.182
G01 X341.724 Y503.982
G01 X369.387 Y536.759
G01 X348.197 Y510.350
G01 X394.650 Y521.585
G01 X364.583 Y523.827
G01 X409.126 Y506.862
G01 X391.703 Y536.302
G01 X414.719 Y500.521
G01 X424.496 Y541.195
G01 X418.223 Y506.850
G01 X454.711 Y537.089
G01 X427.472 Y524.127
G01 X475.358 Y528.499
G01 X446.921 Y545.551
G01 X484.467 Y523.363
G01 X475.100 Y562.974
G01 X486.082 Y528.636
G01 X505.323 Y571.355
G01 X487.936 Y546.416
G01 X529.293 Y571.502
G01 X497.103 Y572.737
G01 X541.591 Y569.572
G01 X516.011 Y599.703
G01 X542.584 Y573.615
G01 X541.031 Y619.778
G01 X538.153 Y589.068
G01 X564.404 Y629.869
G01 X536.380 Y615.681
G01 X578.465 Y632.955
G01 X543.038 Y647.572
G01 X579.810 Y636.362
G01 X558.353 Y676.388
G01 X571.132 Y647.627
G01 X576.840 Y695.816
G01 X559.699 Y670.257
G01 X590.299 Y704.973
G01 X553.318 Y701.691
G01 X592.312 Y708.792
G01 X556.014 Y734.615
G01 X581.774 Y715.205
G01 X565.803 Y760.899
G01 X563.497 Y730.664
G01 X575.790 Y775.974
G01 X545.570 Y756.487
G01 X577.982 Y781.259
G01 X534.911 Y788.027
G01 X567.725 Y783.274
G01 X533.482 Y817.141
G01 X546.300 Y789.951
G01 X537.246 Y836.585
G01 X520.259 Y806.169
G01 X538.439 Y843.924
G01 X497.865 Y830.974
G01 X529.909 Y842.782
G01 X484.595 Y858.024
G01 X509.123 Y840.775
G01 X480.187 Y879.012
G01 X479.640 Y845.228
G01 X478.859 Y888.177
G01 X449.221 Y859.081
G01 X472.582 Y885.424
G01 X425.640 Y879.204
G01 X455.596 Y876.321
G01 X412.482 Y898.078
G01 X427.677 Y868.987
G01 X407.265 Y907.904
G01 X394.359 Y869.582
G01 X402.905 Y904.876
G01 X363.983 Y878.884
G01 X391.723 Y891.260
G01 X343.196 Y891.845
G01 X369.784 Y874.136
G01 X333.389 Y900.377
G01 X339.171 Y861.495
G01 X330.035 Y897.814
G01 X306.935 Y857.846
G01 X325.283 Y882.609
G01 X281.312 Y861.750
G01 X312.390 Y859.213
G01 X267.273 Y866.646
G01 X289.538 Y835.658
G01 X263.883 Y864.511
G01 X260.924 Y819.175
G01 X264.903 Y850.339
G01 X234.538 Y812.260
G01 X262.316 Y824.958
G01 X217.834 Y811.365
G01 X250.827 Y794.647
G01 X213.697 Y808.923
G01 X230.853 Y767.743
G01 X218.915 Y797.606
G01 X208.360 Y750.132
G01 X226.013 Y774.449
G01 X191.620 Y742.089
G01 X227.423 Y742.576
G01 X186.702 Y738.220
G01 X219.701 Y709.578
G01 X194.155 Y730.536
G01 X205.454 Y683.422
G01 X208.735 Y712.962
G01 X191.925 Y668.164
G01 X222.308 Y684.789
G01 X187.008 Y661.812
G01 X228.347 Y651.170
G01 X194.895 Y657.535
G01 X225.521 Y620.386
G01 X213.752 Y647.529
G01 X218.413 Y599.380
G01 X236.709 Y627.432
G01 X214.972 Y590.031
G01 X255.619 Y598.823
G01 X222.084 Y588.217
G01 X265.508 Y568.452
G01 X241.735 Y586.185
G01 X267.267 Y544.610
G01 X269.855 Y576.914
G01 X267.103 Y532.644
G01 X298.501 Y558.073
G01 X273.041 Y532.087
G01 X320.164 Y533.383
G01 X290.428 Y536.991
G01 X331.828 Y510.637
G01 X318.897 Y539.272
G01 X336.550 Y497.459
G01 X352.480 Y533.226
G01 X341.678 Y497.158
G01 X382.803 Y518.724
G01 X354.702 Y506.939
G01 X403.605 Y501.318
G01 X379.020 Y519.484
G01 X414.090 Y489.208
G01 X411.964 Y527.007
G01 X419.255 Y488.740
G01 X446.157 Y525.559
G01 X427.032 Y500.908
G01 X473.482 Y517.211
G01 X443.804 Y520.807
G01 X489.446 Y508.901
G01 X470.777 Y540.318
G01 X495.554 Y508.585
G01 X503.212 Y552.565
G01 X498.376 Y520.821
G01 X532.937 Y555.667
G01 X505.823 Y544.215
G01 X552.753 Y553.734
G01 X522.690 Y572.137
G01 X560.316 Y554.541
G01 X547.917 Y596.318
G01 X559.339 Y565.177
G01 X575.097 Y611.341
G01 X557.466 Y588.061
G01 X595.928 Y617.553
G01 X561.982 Y619.530
G01 X604.723 Y620.787
G01 X575.736 Y651.768
G01 X601.491 Y629.055
G01 X595.507 Y677.022
G01 X591.877 Y648.034
G01 X613.742 Y691.784
G01 X584.012 Y677.829
G01 X622.683 Y698.615
G01 X583.995 Y712.816
G01 X618.621 Y704.633
G01 X592.515 Y744.633
G01 X603.927 Y717.472
G01 X604.457 Y766.681
G01 X585.744 Y740.969
G01 X611.728 Y777.657
G01 X572.053 Y772.933
G01 X607.735 Y782.161
G01 X567.289 Y806.247
G01 X591.043 Y788.052
G01 X569.930 Y832.688
G01 X566.204 Y802.012
G01 X573.372 Y847.359
G01 X541.287 Y825.756
G01 X569.622 Y851.289
G01 X523.490 Y854.993
G01 X553.768 Y850.776
G01 X515.231 Y881.705
G01 X526.757 Y853.826
G01 X512.886 Y898.479
G01 X494.948 Y865.658
G01 X508.874 Y902.529
G01 X466.693 Y885.754
G01 X495.922 Y897.158
G01 X447.820 Y908.086
G01 X471.176 Y889.884
G01 X438.521 Y924.381
G01 X437.870 Y888.244
G01 X433.342 Y928.648
G01 X403.652 Y895.598
G01 X424.307 Y920.445
G01 X376.472 Y909.252
G01 X405.416 Y905.103
G01 X360.309 Y921.925
G01 X376.076 Y890.776
G01 X353.087 Y925.764
G01 X341.530 Y883.942
G01 X347.935 Y916.674
G01 X310.085 Y885.847
G01 X337.083 Y896.602
G01 X288.635 Y891.836
G01 X316.259 Y872.487
G01 X278.969 Y893.958
G01 X287.149 Y852.474
G01 X276.888 Y885.395
G01 X256.569 Y841.471
G01 X274.616 Y864.274
G01 X232.800 Y838.503
G01 X265.184 Y834.770
G01 X221.111 Y837.320
G01 X246.358 Y804.871
G01 X220.938 Y829.918
G01 X221.951 Y782.061
G01 X226.263 Y811.042
G01 X199.786 Y769.275
G01 X229.003 Y781.178
G01 X187.444 Y763.383
G01 X223.521 Y746.381
G01 X188.136 Y757.013
G01 X209.781 Y715.040
G01 X198.965 Y742.725
G01 X193.402 Y693.365
G01 X212.562 Y717.226
G01 X182.582 Y682.065
G01 X221.160 Y683.296
G01 X183.591 Y676.079
G01 X220.889 Y648.369
G01 X197.313 Y667.475
G01 X213.905 Y620.549
G01 X218.747 Y649.943
G01 X207.183 Y604.254
G01 X239.746 Y622.382
G01 X208.644 Y597.887
G01 X253.472 Y589.625
G01 X222.747 Y594.830
G01 X258.131 Y559.870
G01 X247.983 Y587.194
G01 X257.899 Y540.269
G01 X277.644 Y570.269
G01 X260.561 Y533.072
G01 X303.457 Y545.215
G01 X273.143 Y534.480
G01 X320.066 Y518.506
G01 X297.950 Y536.817
G01 X327.900 Y498.436
G01 X331.212 Y532.838
G01 X332.845 Y490.613
G01 X365.060 Y519.787
G01 X342.893 Y494.924
G01 X391.765 Y500.970
G01 X363.634 Y505.646
G01 X407.895 Y483.974
G01 X395.060 Y514.638
G01 X416.092 Y476.514
G01 X431.456 Y515.858
G01 X423.503 Y482.200
G01 X464.439 Y508.707
G01 X437.721 Y498.551
G01 X487.462 Y498.366
G01 X462.482 Y518.365
G01 X499.309 Y492.928
G01 X495.489 Y533.672
G01 X504.653 Y498.911
G01 X529.564 Y540.106
G01 X511.363 Y517.637
G01 X556.494 Y539.273
G01 X526.058 Y544.456
G01 X571.460 Y537.819
G01 X550.352 Y571.258
G01 X575.587 Y543.705
G01 X579.863 Y590.879
G01 X575.232 Y561.744
G01 X606.543 Y600.982
G01 X578.390 Y590.875
G01 X623.029 Y605.263
G01 X590.203 Y624.655
G01 X626.629 Y611.317
G01 X610.058 Y654.722
G01 X620.744 Y626.357
G01 X631.860 Y675.302
G01 X612.932 Y653.129
G01 X647.345 Y686.292
G01 X610.699 Y688.290
G01 X650.598 Y693.198
G01 X617.322 Y724.136
G01 X641.288 Y703.991
G01 X630.023 Y752.736
G01 X624.831 Y724.586
G01 X641.488 Y770.188
G01 X609.402 Y755.469
G01 X643.901 Y778.651
G01 X601.432 Y791.303
G01 X633.271 Y785.037
G01 X602.080 Y823.759
G01 X611.657 Y797.083
G01 X606.625 Y845.992
G01 X586.067 Y818.969
G01 X607.112 Y856.307
G01 X564.642 Y848.904
G01 X596.794 Y858.981
G01 X552.228 Y880.011
G01 X573.914 Y861.812
G01 X547.766 Y904.020
G01 X542.749 Y871.715
G01 X544.960 Y915.738
G01 X511.335 Y890.830
G01 X535.834 Y915.834
G01 X487.125 Y915.255
G01 X515.225 Y910.391
G01 X472.979 Y937.139
G01 X483.736 Y907.495
G01 X465.689 Y948.945
G01 X447.507 Y912.715
G01 X457.862 Y947.564
G01 X414.946 Y925.995
G01 X442.111 Y935.994
G01 X392.205 Y941.652
G01 X415.247 Y921.658
G01 X379.909 Y951.493
G01 X380.157 Y912.300
G01 X372.932 Y949.324
G01 X344.337 Y911.714
G01 X363.343 Y934.377
G01 X315.872 Y917.663
G01 X344.903 Y911.744
G01 X299.102 Y923.134
G01 X316.619 Y889.604
G01 X292.342 Y920.245
G01 X283.412 Y874.753
G01 X288.923 Y904.636
G01 X253.508 Y868.904
G01 X280.978 Y877.933
G01 X234.007 Y867.811
G01 X263.881 Y846.920
G01 X227.064 Y863.683
G01 X238.893 Y819.874
G01 X228.792 Y849.560
G01 X212.550 Y802.091
G01 X231.483 Y823.249
G01 X193.135 Y793.058
G01 X227.935 Y788.630
G01 X186.177 Y786.841
G01 X215.480 Y753.620
G01 X191.457 Y775.465
G01 X197.509 Y725.925
G01 X203.173 Y753.429
G01 X181.639 Y708.900
G01 X213.174 Y720.855
G01 X175.542 Y699.823
G01 X215.473 Y683.545
G01 X182.723 Y691.517
G01 X209.562 Y649.904
G01 X200.595 Y676.431
G01 X200.684 Y626.425
G01 X221.893 Y650.929
G01 X196.930 Y614.233
G01 X238.659 Y617.414
G01 X204.744 Y608.586
G01 X246.597 Y583.126
G01 X225.331 Y601.602
G01 X247.396 Y556.258
G01 X253.941 Y586.726
G01 X247.739 Y541.555
G01 X282.426 Y562.445
G01 X255.554 Y537.792
G01 X303.657 Y533.229
G01 X275.558 Y538.556
G01 X315.377 Y507.152
G01 X306.571 Y535.860
G01 X321.351 Y491.528
G01 X342.069 Y524.638
G01 X329.189 Y488.948
G01 X373.678 Y505.599
G01 X346.045 Y495.918
G01 X395.685 Y484.899
G01 X374.553 Y504.836
G01 X408.068 Y470.795
G01 X411.262 Y508.227
G01 X416.392 Y469.119
G01 X448.413 Y502.895
G01 X428.615 Y480.093
G01 X478.097 Y491.704
G01 X450.575 Y498.214
G01 X496.490 Y481.998
G01 X482.644 Y515.285
G01 X505.835 Y481.549
G01 X519.397 Y524.924
G01 X513.085 Y494.246
G01 X552.484 Y526.057
G01 X525.943 Y517.918
G01 X575.113 Y523.469
G01 X548.497 Y545.486
G01 X585.679 Y525.117
G01 X578.855 Y568.811
G01 X588.544 Y537.674
G01 X610.078 Y583.115
G01 X591.523 Y562.784
G01 X633.909 Y589.536
